/* XPM */
static char *_333ff043d09442187f22e5f0576ed13[] = {
/* columns rows colors chars-per-pixel */
"64 49 11 1 ",
"  c #16110C",
". c #1E1811",
"X c #241D15",
"o c #2B231A",
"O c #0C0A06",
"+ c #322A1F",
"@ c #3D3225",
"# c #5F4E3B",
"$ c #7B6A54",
"% c #96866E",
"& c #B6A388",
/* pixels */
"OOOOOOOOOOOOOOOOOOOOOOOOOOOOOOOOOOOOOOOOOOOOOOOOOOOOOOOOOOOOOOOO",
".   O   O      OX  ...X  ..X....... .... ....  .    .   O  O   O",
"    . .. .    . o. ..XX..X.XXXXXX...X....X.....   .....        O",
"    X..X .  O  Oo O ..  ...XXXX... XX.X.X.XXX.X. .X.......     O",
"O  .XX.. ...   Oo     ..XXXXXXoXXX.XoXoXXXoXXoo..XX..  .XX     O",
"O  ..X.  .XXX.. o. .X X..oooXoooXXXXoooX.XoXXooXXoo..  ...  .. O",
"O        .XXX . X. X. X.XooooooooooXoooXXoooooXX.ooX      O    O",
"      ..XXXX .X X .X.XX.ooo+ooo+oo+oX.Xooo+ooo...... ..    ....O",
"      XXoXooXo.   XoXooXooo++o++oooo.Xoooooooo.XXX...X.   .....O",
"  . O XoooooXX. . .XXXX.XXXXXooXXXX. XoXoXXXX..XXX  .... O ..  O",
" .  O  XoooooX. o.   .   ...... O     ........      O .  OO    O",
" . O ..XXXoooX. .oXXoo++oo+++oo.  Xo+oooo+o+oooo.O.. .oooXXXXX. ",
"O   .XXX.XoXo.X.         ......   .     ....     O  OOOOOO OOOOO",
"O O ..X..XX.. .XX..X.XX.Xoo++++ooooo..XoooooXX....     O       O",
"O  . ..X......XX.Xoo+++X+++++@@@+oo++Xo+++++++oooooX . .X.X....O",
".    ...  . .  X.X+++ooo+oo+@@@@+@+ooo+@++++++ooooXX. .oo.X.... ",
".OO  .......  O...ooooo++o++@@@@@@@+++Xo++++++++oooXXX..oXX.... ",
".O .......X... .. XXo++++++@@@@@@@@@@+X+@@++++++oooXXXX.XXXXX.. ",
"X  .. ......XX.XXXooo+++++@@@@+oXo+@@++@+@+@++ooo++oo+oXX.XXXX. ",
"X  .OOOOOOOOXX.XXo+o+++@@@@@+..XXXXX++@@@@@+++.o++++oooXX ..X.. ",
"X  .OOOOOOOOoX.oXXooo+@@+@@+.@@###@X.+@@@@@+@+.o+++o++XXXX. .. O",
"X  .OOOOOOOOoo.XXXoo++@@@@@XX##%$$#@ +@@@+@@++oooo+o++o+ooX ... ",
"X  X OOOOOOOXX.X.Xo+o+@@@@@X+#$%$%##.+@@@@@@@+++oXXoo+ooooo.oX. ",
"X  .OOOOOOOOXX    Xooo@@@@@.+$#%$%$#.o@@@@@++@++++++++++oo.XoXX ",
".  .OOOOOOOOX.O.. .ooo@@@@@.+$$&%&$#.+@@@+@+@++@++++++ooXX .X.X ",
".  .OOOOOOOOX.OOO X+o+@@@@@.o##$$$#@.@@@@@@@@+++++++++o+ooX.XXX ",
".  .OOOOOOOO.. .  ooX++@@@@X.##$#$#@ o@@@@@@@+@++++++oo+ooooXXX ",
"X  .OOOOOOOOXX.X  oXX+@+++@X .o@@@o..X+@@@@@++++++++ooooooooXX. ",
".  .OOOOOOOO.. X  ooX++++@+Xo.     X@@+oo@@@+++oo+ooooooooXXoX. ",
".    O O    .  .  .oooo+@+o+@@oooo@@@@@+oo+++ooo+++ooXXX..XXXX. ",
". O    .  .    .  .XooXX+oo@@@@@@@@@@@@@+oXXoo+oo++oooXX....XX. ",
" OO       .       XXXoooX.oo++@@@@@@++++++X.Xo+oXoooXooooXX .  O",
" OOO   .  ..  O  .oooo+++.o++@@@@@@@@++o+oX.o++++oXoXoXoooo.... ",
"O   ........   . XooXoo+o.X++++++++++++ooXX XoooooXXoXXooXX XX.O",
"OOOOOOOOOOOOOO OO.......   ..XXoXXXXXX....   ..... .. .XX. .oXX ",
"OOOO    OO.   .O ....X.....XX.   .XXXXXX.. .  .... O..    .XXX. ",
"    .... O     O .XXX.XXXXXooX O .oooXXX.. .  ..X.  .XXO  .XX.. ",
"O    ... O       O   ...            ...        .     OX  ..X... ",
"O         .XX. ...XXXoooX. XooXo.Xo+ooooXXXX.X.XXX.X.O.O ....  O",
"....      .XX.XoX.XXXo++oX.oo+o+oo++++oooooooX.XoXXoX  O   ... O",
".XX. ..XX. XX.ooX.XXXo++oX.XX+++oX+oo+oooo+XXXX.XXXX. X OO .XX.O",
" .....XoX.  ..XoXXX.X.ooXoooXXX+oXo++ooooooXXXXX.XX..O.OO .XX.. ",
"     .XoX. X..XXoXXXoXX.X+o++oXoXooo+o+ooXXX.XXX.. .X .O . .X..O",
"   OO Xo. .XXXX.XXX.XoX.ooo+oo.XoXooooooXXXXXXX....oX  O.X. .  O",
" ..   ..  .XXXXXXoX..X. XXXoooXoo.ooXXXXX.X..XX..X.XX . .X.  . O",
" .. ...  .X.XXXX.XXXXX  ..XXXX.Xo XXoXXXX.......... .  O...    O",
"     .  ....XXXX.XX .X  ....X...X...XXXXX.... XX.... O O .     O",
".      O . ..XXX.X. ..   ..........XXXX....   ....   O.O       O",
"O OOOOOOOOO          OOOO               O OOOO O  OOOO OOOOOOOOO"
};
