/* XPM */
static char *c0f9b3efa40b46f0be5d1a728fe29c80[] = {
/* columns rows colors chars-per-pixel */
"64 65 193 2 ",
"   c #060503",
".  c #090604",
"X  c #0C0A06",
"o  c #0F0D08",
"O  c #130603",
"+  c #110B06",
"@  c #1C0B06",
"#  c #120E09",
"$  c #1B0E09",
"%  c #15120C",
"&  c #1B140D",
"*  c #1C180F",
"=  c #161610",
"-  c #1B1611",
";  c #171811",
":  c #1D1A13",
">  c #1F1F18",
",  c #220702",
"<  c #240B05",
"1  c #230E08",
"2  c #22150E",
"3  c #2B140D",
"4  c #23180F",
"5  c #32160E",
"6  c #211710",
"7  c #2E1710",
"8  c #221C14",
"9  c #2B1C14",
"0  c #231F18",
"q  c #2E1F18",
"w  c #321B13",
"e  c #361F18",
"r  c #1F2016",
"t  c #1F2018",
"y  c #222017",
"u  c #2A2017",
"i  c #25231B",
"p  c #2A241C",
"a  c #27281F",
"s  c #2A291F",
"d  c #342117",
"f  c #34231B",
"g  c #3A251C",
"h  c #31291F",
"j  c #3A281F",
"k  c #252720",
"l  c #2D2720",
"z  c #272A21",
"x  c #2C2B21",
"c  c #3B2720",
"v  c #332E26",
"b  c #332C24",
"n  c #342C24",
"m  c #342D24",
"M  c #352D24",
"N  c #342D25",
"B  c #342E25",
"V  c #362F25",
"C  c #342D26",
"Z  c #342E26",
"A  c #352E26",
"S  c #352F26",
"D  c #352F27",
"F  c #362F26",
"G  c #372F26",
"H  c #362F27",
"J  c #332C23",
"K  c #3C2C23",
"L  c #362F28",
"P  c #363027",
"I  c #373027",
"U  c #343126",
"Y  c #393126",
"T  c #383027",
"R  c #383127",
"E  c #393127",
"W  c #3A3126",
"Q  c #373028",
"!  c #373128",
"~  c #363229",
"^  c #383028",
"/  c #383128",
"(  c #383129",
")  c #393129",
"_  c #3A3128",
"`  c #393228",
"'  c #383229",
"]  c #393229",
"[  c #3A3229",
"{  c #3A3329",
"}  c #3B3329",
"|  c #39322A",
" . c #3A322A",
".. c #3A332A",
"X. c #3B332A",
"o. c #3A332B",
"O. c #3A342B",
"+. c #3B342B",
"@. c #3B342A",
"#. c #3C342A",
"$. c #3C352B",
"%. c #3D352B",
"&. c #3C342B",
"*. c #3B342C",
"=. c #3C352C",
"-. c #3D362C",
";. c #3D362D",
":. c #3F372D",
">. c #3E372C",
",. c #3D362E",
"<. c #3E372E",
"1. c #3F372E",
"2. c #3C342B",
"3. c #37382C",
"4. c #3F382F",
"5. c #3F392F",
"6. c #3F382F",
"7. c #3E3730",
"8. c #3F3930",
"9. c #41291F",
"0. c #422D24",
"q. c #433127",
"w. c #43352B",
"e. c #49362B",
"r. c #40392F",
"t. c #413A2F",
"y. c #423A2F",
"u. c #43392E",
"i. c #4A392E",
"p. c #413930",
"a. c #403830",
"s. c #413A31",
"d. c #423A31",
"f. c #423B31",
"g. c #423A30",
"h. c #433B32",
"j. c #433C31",
"k. c #433C32",
"l. c #423C32",
"z. c #443C32",
"x. c #453E33",
"c. c #453D34",
"v. c #453F35",
"b. c #453E34",
"n. c #463E34",
"m. c #463F34",
"M. c #463F35",
"N. c #473F35",
"B. c #443D33",
"V. c #4B3D33",
"C. c #513F33",
"Z. c #474036",
"A. c #484137",
"S. c #484136",
"D. c #4A4136",
"F. c #474138",
"G. c #484138",
"H. c #494238",
"J. c #4A4338",
"K. c #4B4338",
"L. c #4B4438",
"P. c #4B443A",
"I. c #4C4539",
"U. c #4C453B",
"Y. c #4D463B",
"T. c #4E463B",
"R. c #4D473C",
"E. c #4F473D",
"W. c #4C453A",
"Q. c #4F483D",
"!. c #4F483E",
"~. c #4F483E",
"^. c #514236",
"/. c #51463A",
"(. c #50493D",
"). c #51493D",
"_. c #51493E",
"`. c #534B3F",
"'. c #524A3E",
"]. c #594A3C",
"[. c #544D41",
"{. c #544D42",
"}. c #574F43",
"|. c #554D42",
" X c #594E41",
".X c #575044",
"XX c #5A5245",
"oX c #5D5549",
"OX c #5F584A",
"+X c #625545",
"@X c #605749",
"#X c #61594B",
"$X c #685F4F",
/* pixels */
"0 p : p i i 8 p s p p p % : > p 8 : : - 8 8 i i l i > J p p i s p i p 0 0 p i 8 i i 8 : 0 % - p p s - 8 : - : 0 : - - : i & : - ",
"p s i J p N p b R J b R 8 p b $.s s p i p b N J $.l l <.$.] ] r.R $.<.r.] <.] b N N l i J 8 p $.] <.0 8 i - p J i 8 : J R 8 0 p ",
"0 i 8 ! l N p p J s l N l l ] <.J p i 0 J I ] N f.] N ] r.b b $.J N $.<.I ] ] N l J p p ] J p N J N s i 0 i J l p 8 - p J 0 s 0 ",
"l l i I I b i l b i ] f.+.l 4.z.J p l i ] k.k.N P.4.I r.H.z.z.n.r.N ] +.<.f.I p J ] N J J l p i J N l p 8 p J J N s 0 l J s l 0 ",
"p J J p s p 0 p N J k.] l p +.n.4.J l p ! ] $.N _.<.N <.A.U.k.U.A.N n.H.H.f.A.N ! +.N l l p s s N N J p : J ] N J 0 0 l J p s s ",
"N N <.p p i l n.r.$.U.f.b i r.H.n.A.+.p 4.] P.A._.n.4.k.] N ! _.f.b _.!.A.<.H.f.N b J & 8 * <.f.] <.f.] p *.] ! <.J i 0 N p J b ",
"b l ] l 0 p ] n.] N U.R.] l H.U.R.H.f.b n.<.{.R.R.U.U.{._.n.] H.n.<._.P._._.{.+.<.n.R.9 * p !.n.n.n.] ] p <.<.] f.N 0 p r.l ] J ",
"] b b l p *.*.8.Z.! !._.n.<._.R.H.R.A.b f.A.R.P.{.{.{.{.{.P.H.n.H._..X!.}.{.!.f.U.H.l 8 4 ] A.R.R.H.H.f.J <.f.r.z.f.l l ] l ] <.",
"] <.A.N l <.] n.[.Z.{._.U.N A.R.[.{.{.I H.{.[.n.{..X{.{.{.R.[._.n._.oX}.{.{.}.f.n.R.k.p 8 Z.H._.{.!.R.r.N z.A.8.n.A.p p N N f.$.",
"] f.A.b l f.Z.Z.!.R.{.{.A.*.P._._._.{.b H.{..XU.[..X.X.X{.{.U.{._.U.oX}.[.R..XR.r.U.{.U.N U.R._._._.{.z.! A.z.<.H.R.b i ] N ] ] ",
"n.<.R.+.l ] z._.[.!.{._.[.n.{.{.[.{.{.] !.{..X_.{..X{..X.X_.R..X_.H.XX.X}..X}.oX{.U.{.A.] _.R._.!.{.[.z.*._.R.4.[.[.*.s 8.L z.f.",
"<.H.U.<.b n.n.U.{.P.XX.X{.f.[.{..X{..Xn.}..X.X.XoX.X.X@XXX{..X.X{.{..X.X{..X.X{._.Z..Xz.! {.oX!.U..XH.n.4.U.P.8.!.{.f.l n.<.z.z.",
"A.n.P.<.! [.P.}.}.{..X.X{.H..XXX#X_.{.{.[..XXXoX@X XXX@X.X.X.X.X{.{..X[.{.{..X{.H._.{.n.f.}.oX.XU.{.P.H.f.R.H.Z.R.U.f.l n.r.k.n.",
"A.<.R.8.b {.U.}..X}..X.XoX[.oXoXoX.XU./..X^.oX.X#XoXoX]. X#X.X.XU.D..X.X.XXX X[._..X}._.c.!.{._.P.}.}._.n._._.k.H.R.Z.J k.4.r.z.",
"z.H.!.n.N [.U./.oXV._.oXD.w.oX.XoX.Xw.K XXK XX#XV.].#Xj 9 K ].K 7 d ^.#XoXoX{.!._.{..X_.7.P.H.U.R.[..X{.n.{.U.P.[.R.n.J n.P.A.A.",
"{.H.!.P.] .XK w OXK /./.w w w.oXoXoXV.g oXg @XV.w 9 /.w.w.K f j e.@XoX{..X{..X{.U._..X_.+.r._..XH.{.{.{.H.{._.[.n.R.Z.l n.n.A.A.",
"P.c..X{.*.!.u.< /.w.V.c %._.w .X#XoX^.f w.7 V.d ].D.0.V.K j C.e.g w.{.oXoXoX.X.X{.{.{.{.U.R.<._.[.{.{.{.U.}..Xn.k.R.n.J P.H.f.k.",
"{.!.{.{.8..XV.9 d K K c /.oXK ^.XX.Xq.3 e.g w.d #XXXK 0.w ^.$XK w V..XoXoXoXXXoX.X{.{..XA.n.U.n.!..X}..XH.[.!.n.R.A.+.J R.n.z.z.",
"{.[.{.P.<.{.V.K K 1 w.K i. Xe {.XX{.A.g @XK /.g /.0.e.].e.$XoXK i. X]..X.X.XoX.X{.{.{.H.! <.P.R.c.{.!.U.H.!.F.n.U.P.+.l Z.z.U.A.",
"U.H.{.{.H.{.<.9  X3 K /.3 w w.#X#XoX Xw _.g V./.5 d #Xi.g oXXX0.3 d w.oX{..XU.K s N N h i p f N s J J p s R N J N J s p p s z.U.",
"A.U.[.!.A..Xz.3 .X%.f OXw.w.oXoX#X{. Xw.{./.^.#XC.].oX/.i.@XoX^.V. X{.oX_.{.N 0 8 * & 4 8 * * & * * * & & 6 - & & & * 8 * & p U.",
"{.H.{.<.f.oX[.w._.U.V..X{. XoXoX{.XX.X^.oX].XX.X/.].oX X XoXoX/.]. X]..X.X.XJ & * * 8 * * 8 % & * % & % & * * % $ % 8 % & # 0 D.",
"{.R.H.] R..X_.V.{.{.]..X/./.oXXXoX#XXXV.XX.XoXoX XoXoXXXXXoX.X/.U.XX{..XXX.XN & + p %.M %.u.M R $.K $.N w.i.N & p f i.p & # 0 L.",
"R.U.] N _.{._.r..X.X{.U.q./..XoX@XoX].V._.]. X/.@XXXD.V.^.oX#X/./.oX{.]..XoXN % # 8 z.i.i.u.r.V.R V.] u.V.R w.0 ^.^.].D.- # 8 A.",
"A.f.] I A.{.{./..X.XoXw.d oXXXoXj d g z.w.3 d 0./.d 3 w q. XoX X/.oXoX{.{.`.J * % : h p i 8 p 0 : y 8 p 0 p p % * * $.- # # i D.",
"!..X_.f._.n.[.D.{.XXoXD.g oX.XoXf w.oX`./.d XX#X@XXX9.^.OXXXoXoXoX.XXX_._._.I * & % + # # % % + % # % % # # + % % % % % % % 0 A.",
"{.R.{.N {./.z.V..X.XoXU.g #XoXoXg d 0.z./.w 9.q.XXoXK V.oXoXoXXX XV..XU.{.oX! 8 * * & 8 * 8 8 & * 8 * - * * : * & : & % & # 8 D.",
"{.!._.<.n.[.H./..XoXoX/.g #X#X$Xd g ].`.].w w.^.#X$XK i.#XoXoXw.z.w.^.oX.X_.N 8 & * - 0 8 8 8 * & 8 & * * 8 8 : & 8 & & 8 - p U.",
"{.z._.<.n.V. X_..XXX#X/.e /.w./.0.q.C.w.oXd D.].#X#Xg V.$X.XoXw.i.w.w.XX.X.XJ % # - 0 & % % & 8 % & & & 8 & - % % & & & & % 0 U.",
"z.A.{.z.%.w.u.K #XoXoXV.< d w V.j 3 g W @Xd V./.#X@Xi.^.#XXX#Xe.0.e.^.w.{.U.l * & J %.J J %.N J s J w.M r.N R %.w.8 # + # % 0 U.",
"_.P.z.f.f u.w.w.{.{..XoXi.{./.XXD.i.U.{.#XV.].@XoX.X/./.OXw.XX^.< w q./.{.{.] * X l N R V.V.i.s w.u.D.J M ] u.z./.8 % % * # 8 A.",
"!.R.H.h N f f $.{.`._.oXXX{./._._.U. XXX#X].XX#XXX.X]. XoX].w.g K 3 K oX.XoXN % + : p 8 0 0 p s i s 0 8 8 8 s i i - % & % + 8 L.",
"z.r.U.V.h 2 1 z.U.z.XXU./.]. X.X X].`.{..X].oXoX XoX X X.X{.q., 3 7 ].XXXX XN & % + + + + + + + + + + + % # - % X + % % + % 0 A.",
"U.].A.z.9 1 g z.K z.{.z./._..XoX].]._.A.oX{..X.X{.XXXX].XXXX/.q.2 K .XU.{.oXI % + % % % % % % % % % & & & J /.I s h & % % # p D.",
"4.U.A.z.R 1 @ $ w.{.{._.{.{..X{./.^..XU.oX].{..XoX.XU.{.OX{./.^.K ].{..X.XU.i & - u 0 0 0 0 p y u u 9 8 s @X+X].XX+Xp : 8 * 8 z.",
"A.f.] M N $ O f U.%.{.#X_.U..X{./.D.oXoXoX_.{.{.oX{._..X`..X X].V.XXXX{.n.A.p % + + + % & % % % % & % & & 8 i.p & 8 * % % % : R ",
"A.A.$.] i.9 2 J z.U.U.U.A.U.{..XU.V.{._..XP.{._.{.{..X_.}..X_.@XD./..X_.U.U.J : & & * : * + % % % + + % % + & * % # % # % # * $.",
"$.$.J 4.K q 9 K r.<.A.L.A.A.XX{.V.].U._.`./.U.A.U._.R.z.R.{.A._.V.U.{.`.XX/.N & & : 8 8 & + * & % % # & % & % & * & % & & # 0 r.",
"N ] 8 N N p 2 g N p $.Z.n.R U.4.J z.n.4.f.n.k.I Z.U.] 4.P.U.k.T.u.r.Z.A.k.<.f.J p J I J i : 0 : & & : & : : - & 8 & + 8 : 8 N R ",
"x l : i p 8 6 u p 8 l U p i J l i U 3.l x U x l ~ U l x U U x 3.l p l b l p *.+.N N J s i J b i i s a i l a a p x a 8 l i i l J ",
"a a > a y i 8 0 a a l i a p 0 a p l l a x l a U l a l x z i x x i p l l l b I J I b l l J x a a p p i l l a a p a a 8 i i a l p ",
"i a i a t 0 : i l i a z a x l i 8 a l a x l i l a a z x x a a z 8 p x x l s J J b J x l p a l i a a a a l a i i a : & i i i p a ",
"0 8 % > 0 : % : > & > a 8 i a 8 # 0 a > t a a i i ; - i a > - i 8 > i i i - a i - 8 0 8 % > i & & i > % > > - & : & # 8 8 % - 0 ",
"a a > p p i 8 i l a x x a l x x i x x i z x U a - # 8 I x l l 3.x p a l x x U l i p a p a x a t l x i i l l a p 8 i p l p i p l ",
"i i a a i i y x z a a a l x a i 8 : i > - i #   + % & a a : - > > x x a i a a a x x a i p l a i i i i l x a a 8 8 i p a a a p y ",
"i i i a a l 0 a a a l l x x l a i > - i X & & * 9 0 & + + # & i i a x l x l z a l l l a p l i i p z a s l l a i a a a p l i i i ",
"> i : : i 8 * > i - i i > i a a y p > & o & * & * & * 8 % % % l l 8 i a a i a a > > i p & & % % - i p : 8 8 : : p p : 8 : - : y ",
"y i i s i - & : i i a a a x l l i p s : l - 4 q 8 8 h u 8 8 + i a x I l a i a l x x a i % % : t i p p a l a p a l a i a i > i a ",
"i i i a > > - : : i a a i x z a i a a i y + * 8 4 8 u 8 & 8 * + & : i > i a a i l a a i o % i a l a a a a a a a a 8 i i y i i > ",
"i i > ; : l l x p % 8 8 > a a a i a a 8 i - & 6 q 9 g 0 9 d 9 8 * + + X   % - - % % % * > a i > i a y i i a i a l i i i i i i : ",
": > - % = 0 a > -   & - : i y i - : 8 - y = + * 8 * 8 & 4 9 * & 8 * * % X - - > - - # * > i i > : : > - : : : > i 0 - > 8 - - : ",
"8 > - - = 0 s 0 % : - 8 : > a a : a a > - o & 8 9 8 f 9 d 9 q 2 8 * * 8 # > s i : i 8 i : p a > : i > - i 8 : > p 8 - i i - : > ",
"- - : & % - - % o 8 i - 8 8 i i : > i y % # 8 8 * & 9 4 8 8 9 & * & * * + % - - - : - : > i i i i i y i i y t i i > i i : > > * ",
"- & - % % - - = o + - % & : > i : i i - X # * * 4 4 9 2 8 9 9 & 8 * 4 * 4 + # + o % - = > i i > i y > y 8 > > 8 > > : : - - - & ",
"& & & % % = % & # + - o & - - - % - & % X % # # & & & $ & * % # * & % # * # X + & + 8 : * t > & - & = & = & ; % & & % o ; & & - ",
"& & % % X X X X   + % o % % & - # : & o . # % # % & % # & & & % & $ % & . o : & % & & s s i p i i i p - 8 i : * i & 0 i & % % - ",
"& % % - % o o o o % % % - - & - % - : - + # * % % & * % & $ & & & & & * # & > - 8 - : 8 + o + # % % % o + + + o o o # : p o & - ",
"% % o % & % + + o + + + + % + % + % % o   . X X # + X + + + + + # X + X o X + % % % % X . + % + % % % o + + o o % o X   - X o % ",
".   X X X X X X X o o   X o X s 8 + 8 X 0 % : - . % X X X X .   . . X . X X % + X   % % . o X X X X X X o o X X X X   o - X . X ",
"+ & % + + + + % % o o o % : : J p & : 8 J % i M - 0 i 8 & 8 * 8 : & : - 0 : : & 8 & % + + + & % % % % % o % % # % + + o o o % & ",
"8 8 8 : % & : & - 4 8 8 % # & + % - 8 0 8 0 & 8 8 8 0 8 * 4 & * p 8 8 - $ & & : % 0 8 8 f p J p : 8 : - - : : : : 8 8 0 & - & & ",
": : : : 8 & & # $ 4 @ @ O O O O O 4 8 f p 0 u s h 0 h p p f u 8 2 O . O O O $ & - $ d 8 p 0 8 s p J y 0 p p 0 p i : : 8 8 0 : : ",
"8 : % : p u p 9 8 * % $ @ $ & $ & 6 9 0 0 0 p f s i M s s K h h u 9 p 2 8 0 0 s J J p 0 p s M J p h s p 6 8 0 0 8 8 0 8 & : : 8 ",
"y - - i s h s 0 0 p p 8 q g M u q h u J J W R M M $.R s J W J R w.M M M s w.u.s p R J s J h s s h s s 0 8 p s p p p s h p 8 8 0 ",
"& : : - % % : 0 s p : s M K p J p p p s h M p M R M p J w.s K s p p M N h p M K 8 s $.$.W M M p p h J J J N p 0 p u % : p h s 8 "
};
