/* XPM */
static char *c517064963f44d2f9edac75c20f52e5d[] = {
/* columns rows colors chars-per-pixel */
"64 49 6 1 ",
"  c #19130C",
". c #201A12",
"X c #262118",
"o c #120A06",
"O c #2E281F",
"+ c #413527",
/* pixels */
"oooo o oo ooooo o oo oo oo o oooo o  o oooo  o o ooooooooooooooo",
"o o . .  .  .. .... .  .......X  .... .       ..          o  o o",
"o   ... .......X..     ...XX. .  .oo. . .   .O... .++.       ooo",
" .    ..X.  .XXO..  ...XOOXXX. oo o.XX.... .XX . O+++X   .o  o o",
" ..  o..XX  O++OXX..X.XOXOX.XXX oo XX..XX. XX  OOOOO+O o   oo  o",
" ..    ...o O++.OOOOOXXOXXOOXXX.ooo    .XX.X.O+++++O+X.O  . o  o",
"o    .oo  o.OOOO+O+OOXXOXXXXX.. o o  ....XXX.++++O+OO+OX.o oo  o",
"o  .XX.ooooo .++++OOOOXOOOOOX.  .X.XO...XX.. X++++O+O+OO+.oooo o",
"    .. ooooo XO+OOOO+OOOOOOXXX..XX..OXX.XX.O. O+O++OXO+O++Xooo o",
"o oooooooooooo X.OXXOX.OXXX...XX.X..X.X... X.  X+++OO++O+O.ooo o",
" .  oooooooo  o..OOXOXOOOXXOOO.X.XXXX.OXXX.OOX..++OOO+++Ooo o . ",
".XXX oooooooXX.XX.XOOOOOOOOOOOOXXXX.OXOXXXXXXX...+++O+OXoo   .  ",
" .XX   oooooXO.XXXXXOXXOOOO+OOOX.XXXOXX... ....O X+++O o   .   o",
" . ..OO  .o  . XXOOOOOOOOOOOOOOOXOOOOOOO.X.O+O.. .++X   ... o .o",
"  o.OOO XX .X oXOOOOOOXOOOOOOOOOXOOOOOOXXX O+XO... .o    X+X  .o",
". ..OX.o..o .. XOOOOOOOOOO+OOOOOXOOO+OOOOO. OOX ......  X+OO .. ",
"......  XX  .X.OOOXXXXXOOOOOOOOO.OOO+OOXXOX.   .X...... .OX    o",
"...XX...X.. .XXOOOOOXXOOOOOOOOO..OOO+OOOXOXXXXOX...X.... ..  .  ",
"...XX...XXX..XXX.OOXOXXOXOOOOOX .OOO+OOOOOXOXXOXX.XXXX.  .    . ",
"o  o   ..X o   . X  X  ..XXXXXXX XXXO.OXXX XX.X.X.XX  .... .   o",
"    ..X..XX .  X.X XOX.XOOOOOO+OO+OOOOOOXOXOOXOXOXXX.XX.OXXXXXX ",
"   .XXXXXXX.X..OX..XOX.O.XO+OOOOXOOO+OOOXXXXX.OXXX.X.XX....XX.. ",
"o . XXXXXXXXXX.OOX.XX. X.XOOOOOOOOOOOOOXOOXXX.X .XXX.... ..X.X. ",
"   o..XXXOX.XOOOX++XX.  o XXO+OOXOOOOOXOOOXXXXX   XOX ......XXX ",
" .  . .XXOX.OOXOXOO.OX.. .XOOOOOOOOOOOOOOO....XX.. X..XX  .XX.. ",
"  .XX.XXXXXXOOOOOX.XOX.XXXOOOOOOXOOO+OOOOOXXX..XX.o o X.oo..  . ",
"...X.XXXXXX.XXXOXXXXX..OXXOOOOOOXOXXOOOOOO..XX. X.. oo   .. o . ",
"...XXXXXXXXXXXXXXXXXXXXXXOOOOOOOXOXOOX.XX. ...X ....oooo .... . ",
"....X.XXXX. .....XX.X XOOXXOOOOOXOOOOXOX  o.. .    .ooooo..  ..o",
" .....+O...o     X. X..XXXXXXOOX.XXXX.X.  oooo  oo ooooooo     o",
".....O++OXX     XX.XOOXXOXOOOOXOXOXXXXOX.X.. o  oo ooooo  ....  ",
"   . .OO.. oo o... .XXXXXXOOOXXX.XX.OOX.XX.X..ooooooooo..      o",
"  ..  . ..... ooo ..XXXOOOOOOXOOXXXXOOX..X    ooooooooo   o o  o",
" .. ...XXO.   o  .X.XXXXOOXOOOOOXXXXX.X...o o oooooooooo  ..  . ",
" ...OO...X  .. ..X..XXXXXXXXOXOOXXXXX.XXOO.X.. ooooooooooo.....o",
"  .O+++... ... ...X.X.XXXXXOXXXXXXXXXXOXXX.XX. o ooooooooo  .  o",
"   O++OO .....X.....X..XXXXX.XXX.XXXXXXXXX..   .. ooo . o ooo  o",
"  ooXOX   .  O+O.X..XXXXXXXXXXXXXOXXXXXXXX. o ... ooo..  .  oo o",
"ooooo oo.. o OOX ...X..XX...X.X. X.XX.X...o    o  o o     oooooo",
"o    oo.++ o o.  ..XX.........X. ..XX.X...o . .   o     o     oo",
"  o.   +O+O.   .X...XXXX..XXXX.. .XXXX.XX.  ..  .X .... oo .   o",
"o    O+OOOO. . ..XX .  ...XX.... .X.XX.... .....X.  ..  oo . o o",
" .. XOOOOO.o  o X. .X....X.X........X....... ..X..ooo  .   .   o",
" ..o XOOO oo . o...XX..X........ . .....      ... o oo..  o    o",
"  o oo.X oo  ..  o       ....X.    ....... . .X.. o  o ...   ooo",
"ooo  oooo o  oo           ...    .  . .      ...      o   o    o",
"o  o   o      ...         .        ..            .     o     ooo",
" ooo   o  oo         o                  ooo  o      oo ooooo o o",
"oooooooooooooooooooooooooooooooooooooooooooooooooooooooooooooooo"
};
