/* XPM */
static char *fd1eb3170e3f4eebcccc04035f0a00231NUtmUyORGDuBF7p[] = {
/* columns rows colors chars-per-pixel */
"381 655 256 2 ",
"   c None",
".  c #060501",
"X  c #0B0602",
"o  c #0D0A03",
"O  c #0E0C09",
"+  c #070705",
"@  c #130501",
"#  c #1B0501",
"$  c #130C04",
"%  c #1B0D04",
"&  c #130E09",
"*  c #1B0E09",
"=  c #170708",
"-  c #151105",
";  c #1B1305",
":  c #1D1906",
">  c #15120A",
",  c #1C140A",
"<  c #1D190B",
"1  c #1B1711",
"2  c #0F100A",
"3  c #240601",
"4  c #230C03",
"5  c #2C0B04",
"6  c #2A0906",
"7  c #330C04",
"8  c #380804",
"9  c #231305",
"0  c #2B1404",
"q  c #231B06",
"w  c #2B1A05",
"e  c #22150A",
"r  c #2A150A",
"t  c #241B0C",
"y  c #2B1C0C",
"u  c #331405",
"i  c #331C05",
"p  c #34140A",
"a  c #331D0B",
"s  c #3B1D0B",
"d  c #3B1708",
"f  c #251C11",
"g  c #2A1E11",
"h  c #241913",
"j  c #321E11",
"k  c #3B1A12",
"l  c #2B2306",
"z  c #25210B",
"x  c #2B230C",
"c  c #2E290D",
"v  c #272206",
"b  c #33230C",
"n  c #3B230C",
"m  c #332B0D",
"M  c #3B2B0D",
"N  c #372306",
"B  c #3B320E",
"V  c #36310D",
"C  c #262112",
"Z  c #2D2213",
"A  c #2E2912",
"S  c #2D2519",
"D  c #332414",
"F  c #3B2513",
"G  c #332B13",
"H  c #3C2B14",
"J  c #342619",
"K  c #352B1A",
"L  c #3C2C1B",
"P  c #3A2619",
"I  c #363014",
"U  c #3C3314",
"Y  c #3C341A",
"T  c #3D3719",
"R  c #3C2D21",
"E  c #3E3422",
"W  c #1F2010",
"Q  c #470704",
"!  c #421C0B",
"~  c #461608",
"^  c #4D170D",
"/  c #42250C",
"(  c #442A0D",
")  c #49280B",
"_  c #542A0D",
"`  c #46340E",
"'  c #422513",
"]  c #442C13",
"[  c #4A2D14",
"{  c #432D1B",
"}  c #4A2D1A",
"|  c #492516",
" . c #522D13",
".. c #552B18",
"X. c #433415",
"o. c #4C3215",
"O. c #433A15",
"+. c #4A3C15",
"@. c #43331C",
"#. c #4C331B",
"$. c #443B1B",
"%. c #4B3C1B",
"&. c #533315",
"*. c #53351B",
"=. c #5A351C",
"-. c #543A1D",
";. c #5B3B1C",
":. c #5A3615",
">. c #54320E",
",. c #633C1D",
"<. c #66371A",
"1. c #692D11",
"2. c #443322",
"3. c #4B3522",
"4. c #443C22",
"5. c #4C3B22",
"6. c #4A3A2A",
"7. c #543B22",
"8. c #5B3C22",
"9. c #553926",
"0. c #4A2F23",
"q. c #633D23",
"w. c #683C26",
"e. c #723D24",
"r. c #601A03",
"t. c #47401C",
"y. c #4C421C",
"u. c #4C4318",
"i. c #52451D",
"p. c #544A1D",
"a. c #59481B",
"s. c #5A511A",
"d. c #66421D",
"f. c #73441D",
"g. c #4C4422",
"h. c #4F4823",
"j. c #4B4328",
"k. c #534523",
"l. c #5C4324",
"z. c #544B23",
"x. c #5A4C24",
"c. c #5C432B",
"v. c #544B2A",
"b. c #5B4D2A",
"n. c #54432B",
"m. c #5C5225",
"M. c #5D532B",
"N. c #595329",
"B. c #5B4733",
"V. c #5D5532",
"C. c #644324",
"Z. c #6B4524",
"A. c #634C26",
"S. c #6C4926",
"D. c #63452A",
"F. c #6B452A",
"G. c #644B2C",
"H. c #6C4B2C",
"J. c #734A25",
"K. c #734C2C",
"L. c #774A29",
"P. c #63542B",
"I. c #64592D",
"U. c #68552A",
"Y. c #73512E",
"T. c #7B522D",
"R. c #77582B",
"E. c #6C4D32",
"W. c #654B34",
"Q. c #734E32",
"!. c #784D31",
"~. c #6C5234",
"^. c #655B32",
"/. c #6B5D33",
"(. c #685537",
"). c #745333",
"_. c #7B5433",
"`. c #7C5935",
"'. c #74553A",
"]. c #7B563A",
"[. c #7C5B3B",
"{. c #745A38",
"}. c #6C6234",
"|. c #6C6239",
" X c #756538",
".X c #73622F",
"XX c #7D5D41",
"oX c #745A43",
"OX c #6B5542",
"+X c #7B6346",
"@X c #756847",
"#X c #85552C",
"$X c #815634",
"%X c #835A35",
"&X c #835C3B",
"*X c #895E3B",
"=X c #895A35",
"-X c #905732",
";X c #84613D",
":X c #8B633D",
">X c #8A6338",
",X c #94663C",
"<X c #927839",
"1X c #894D1E",
"2X c #835E42",
"3X c #985F43",
"4X c #846343",
"5X c #8B6543",
"6X c #8C6945",
"7X c #8C6B4B",
"8X c #866649",
"9X c #926643",
"0X c #936B44",
"qX c #936C4B",
"wX c #9A6C47",
"eX c #94714D",
"rX c #9B734C",
"tX c #9A7548",
"yX c #8C6D52",
"uX c #947353",
"iX c #9B7553",
"pX c #9C7A54",
"aX c #9C7B5A",
"sX c #977758",
"dX c #8F7051",
"fX c #A3774C",
"gX c #A37B54",
"hX c #A37C5A",
"jX c #A77A56",
"kX c #A16D49",
"lX c #A07D62",
"zX c #A5815C",
"xX c #AB825C",
"cX c #A88357",
"vX c #B4875B",
"bX c #AE924E",
"nX c #AC8562",
"mX c #AA8866",
"MX c #B48A65",
"NX c #B48D6A",
"BX c #BA8D6A",
"VX c #B48864",
"CX c #BA936C",
"ZX c #B99574",
"AX c #B1906F",
"SX c #A3895E",
"DX c #C2956C",
"FX c #C49976",
"GX c #C18C67",
"HX c #CAAA77",
"JX c #CBAD54",
"KX c #B6A051",
"LX c #C8A686",
"PX c #D1AD89",
"IX c #CC9E82",
"UX c #BB9D80",
/* pixels */
"                                                                                                                                                                                                                                                                                                                                                                                                                                                                                                                                                                                                                                                                                                                                                                                          ",
"                                                                                                                                                                                                                                                                                                                                                                                                                                                                                                                                                                                                                                                                                                                                                                                          ",
"                                                                                                                                                                                                                                                                                                                                                                                                                                                                                                                                                                                                                                                                                                                                                                                          ",
"                                                                                                                                                                                                                                                                                                                                                                                                                                                                                                                                                                                                                                                                                                                                                                                          ",
"                                                                                                                                                                                                                                                                                                                                                                                                                                                                                                                                                                                                                                                                                                                                                                                          ",
"                                                                                                                                                                                                                                                                                                                                                                                                                                                                                                                                                                                                                                                                                                                                                                                          ",
"                                                                                                                                                                                                                                                                                                                                                                                                                                                                                                                                                                                                                                                                                                                                                                                          ",
"                                                                                                                                                                                                                                                                                                                                                                                                                                                                                                                                                                                                                                                                                                                                                                                          ",
"                                                                                                                                                                                                                                                                                                                                                                                                                                                                                                                                                                                                                                                                                                                                                                                          ",
"                                                                                                                                                                                                                                                                                                                                                                                                                                                                                                                                                                                                                                                                                                                                                                                          ",
"                                                                                                                                                                                                                                                                                                                                                                                                                                                                                                                                                                                                                                                                                                                                                                                          ",
"                                                                                                                                                                                                                                                                                                                                                                                                                                                                                                                                                                                                                                                                                                                                                                                          ",
"                                                                                                                                                                                                                                                                                                                                                                                                                                                                                                                                                                                                                                                                                                                                                                                          ",
"                                                                                                                                                                                                                                                                                                                                                                                                                                                                                                                                                                                                                                                                                                                                                                                          ",
"                                                                                                                                                                                                                                                                                                                                                                                                                                                                                                                                                                                                                                                                                                                                                                                          ",
"                                                                                                                                                                                                                                                                                                                                                                                                                                                                                                                                                                                                                                                                                                                                                                                          ",
"                                                                                                                                                                                                                                                                                                                                                                                                                                                                                                                                                                                                                                                                                                                                                                                          ",
"                                                                                                                                                                                                                                                                                                                                                                                                                                                                                                                                                                                                                                                                                                                                                                                          ",
"                                                                                                                                                                                                                                                                                                                                                                                                                                                                                                                                                                                                                                                                                                                                                                                          ",
"                                                                                                                                                                                                                                                                                                                                                                                                                                                                                                                                                                                                                                                                                                                                                                                          ",
"                                                                                                                                                                                                                                                                                                                                                                                                                                                                                                                                                                                                                                                                                                                                                                                          ",
"                                                                                                                                                                                                                                                                                                                                                                                                                                                                                                                                                                                                                                                                                                                                                                                          ",
"                                                                                                                                                                                                                                                                                                                                                                                                                                                                                                                                                                                                                                                                                                                                                                                          ",
"                                                                                                                                                                                                                                                                                                                                                                                                                                                                                                                                                                                                                                                                                                                                                                                          ",
"                                                                                                                                                                                                                                                                                                                                                                                                                                                                                                                                                                                                                                                                                                                                                                                          ",
"                                                                                                                                                                                                                                                                                                                                                                                                                                                                                                                                                                                                                                                                                                                                                                                          ",
"                                                                                                                                                                                                                                                                                                                                      W.W.B.B.n.n.9.9.n.c.B.B.B.B.B.B.B.B.B.B.W.(.(.(.W.(.(.(.W.W.W.W.B.B.B.B.B.B.B.W.B.B.B.B.B.OXOX                                                                                                                                                                                                                                                                                                                                                      ",
"                                                                                                                                                                                                                                                                                                                                  B.OXoXoXoX'.'.E.E.E.~.'.(.OXOXoXOX(.OXoXoXoXoX+X+X+X+X+X+X+X+X+X+XoX{.{.{.oX{.oXoXoX'.~.(.~.(.oXoXOXB.                                                                                                                                                                                                                                                                                                                                                  ",
"                                                                                                                                                                                                                                                                                                                                  n.OX+X+XXXXXXX[.[.XXXX8X8X8X8X8X8X+X8X8XyXyXuXsXsXsXsXsXaXsXsXuXuX7X8X8X8X7X8X4X8X4XXXXX].XXXX8X+XOXB.                                                                                                                                                                                                                                                                                                                                                  ",
"                                                                                                                                                                                                                                                                                                                                3.c.oX8X8X8X4X4X7X7X7XuXsXsXsXsXuXuXyXuXaXlXmXNXAXAXAXAXZXZXAXNXNXmXaXuXuXuXaXuXuXuXuXyX8X4X8X8XuXyXoXB.9.                                                                                                                                                                                                                                                                                                                                                ",
"                                                                                                                                                                                                                                                                                                                                3.B.oX8X8X4X4X4X6X6X6X7XuXuXuXuXqX6X5X7XiXgXnXnXnXnXMXVXMXNXNXVXnXnXaXqX7XeXiXeX7XqXqX6X2X&X2X4X8X8XoXc.6.                                                                                                                                                                                                                                                                                                                                                ",
"                                                                                                                                                                                                                                                                                                                                3.c.oX8X4X[.[.4X4X4X6X7XqX7X7X7X6X&X&X5XqXiXhXxXnXnXVXVXVXNXMXMXnXzXiX6X6XqXeXqX6X6X6X4X&X].[.XX8X+XoXW.3.                                                                                                                                                                                                                                                                                                                                                ",
"                                                                                                                                                                                                                                                                                                                                  C.[.8X8XXX4X4X4X4X4X6XqXqX7X6X5X&X&X6XeXiXgXzXnXmXmXmXMXmXMXNXmXhXuX7X7X7XeXqX7X7X6X4X[.[.[.[.8X+X'.W.#.                                                                                                                                                                                                                                                                                                                                                ",
"                                                                                                                                                                                                                                                                                                                                  C.[.8X8X4X4X8X8X4X4X6X7X7X6X6X4X&X;X7XiXaXhXzXmXNXmXmXNXNXNXNXmXlXuX7X7X7XuXeX7X7X7X8X&X[.&XXX8X+X'.D.[                                                                                                                                                                                                                                                                                                                                                 ",
"                                                                                                                                                                                                                                                                                                                                8.H.[.8X8X4X4X4X8X4X4X5X6X5X4X4X4X&X4X7XuXpXaXhXzXnXnXmXNXNXNXNXmXlXuX7X7X7XuXuX7X7X7X8X;X[.[.XX4XXX'.C.[ n   0.{ R                                                                                                                                                                                                                                                                                                                                       ",
"                                                                                                                                                                                                                                                                                                                W.(.W.b.c.8.9.8.H.'.4X4X4X4X4X;X;X&X&X2X2X&X;X;X5X2X4X6XqXeXeXeXuXuXuXiXnXAXNXAXmXnXuX7X7X7XuXuXeX7X7X4X[.[.[.[.XXXX].E.8.#.3.9.6.6.K < $                                                                                                                                                                                                                                                                                                                                 ",
"                                                                                                                                                                                                                                                                                                              B.(.XX[.).Q.F.H.E.'.[.4X&X[.`.`.`.].].[.&X;X&X;X;X5X5X5X5X6X6X6X5X4X4X4X6XlXAXZXZXZXNXnXuXqXdXuXuXiXeX7X5X[.[.[.[.[.[.`.).H.D.G.(.W.B.2.f $ o                                                                                                                                                                                                                                                                                                                               ",
"                                                                                                                                                                                                                                                                                                            3.c.`.4X;X&X%X_.%X%X[.[.[.`.).).).).)._.].&X;X;X4X4X6X5X5X5X5X4X&X%X).).).XXlXZXLXLXLXZXAXnXiXiXpXiXaXiXqX6X[.[.[.XX[.[.].).Q.H.).{.(.W.6.Z - $ o                                                                                                                                                                                                                                                                                                                             ",
"                                                                                                                                                                                                                                                                                                            #.8.[.;X%X=X*X=X=X&X[._._._.).K.K.Y.Y.Y.).`.&X;X4X4X5X5X5X5X4X&X[.].H.H.E.[.lXUXPXPXLXLXZXmXaXaXhXhXhXiXqX6X&X&XXX2X2X[.].).).).).{.'.W.6.y ; $ $                                                                                                                                                                                                                                                                                                                             ",
"                                                                                                                                                                                                                                                                                                            [ C.].=XT.#X=X#X$X_.].).!.).).K.S.Y.K.K.Y._.&X&X;X4X2X5X5X5X4X&X]._.).).E.[.lXUXLXLXLXLXZXmXhXhXnXzXhXpXqX6X&X%XXX4X2XXX].].).H.Y.).~.W.#.w 9 - $ $                                                                                                                                                                                                                                                                                                                           ",
"                                                                                                                                                                                                                                                                                                            } 8.!.$X$XT.#X#XT.T._.K.K.K.K.K.K.!.Y.K.K._.&X&X;X4X&X&X&X&X&X&X]._.).).).[.lXZXLXLXLXZXZXnXhXnXnXnXgXiXqX6X&X].XX2X2X].].].K.F.H.U.F.l.] w 4 % e f g                                                                                                                                                                                                                                                                                                                         ",
"                                                                                                                                                                                                                                                                                                            } 8.].*X*X=X=X*X=X&X$X_._._._.!.K._.).K.Y.[.;X;X4X4X5X2X4X&X&X&X]._.).).H.[.aXZXLXLXLXZXNXsXeXaXaXgXiXeX7X4X[._.].XX].].]._.H.Z.Z.S.C.8.] a 0 y g J R J g t                                                                                                                                                                                                                                                                                                                   ",
"                                                                                                                                                                                                                                                                                                            } D.2X5X5X:X9X9X6X6X&X%X$X%X]._._._.]._.].&X5X5X4X4X5X5X:X*X:X&X&X[.).).Y.[.aXZXLXLXLXZXnXdX6XeXrXiXrXqX6X4X&X[.[.XX[.'.].].H.C.Z.S.C.;.[ n a F P L 2.K y e % $                                                                                                                                                                                                                                                                                                               ",
"                                                                                                                                                                                                                                                                                                            } D.2X6X0X0XeXeXqXqX0X0XqXrXqX0X0X0X6X5X5X5X5X5X4X5X5X:X*X5X6X6X6X6X4X;X[.8XnXZXLXLXLXZXnXqX5X6XqXrXeX0X6X6X6X7XyXuXdXyXuXdX4X_._.[._.).D.8.#.@.3.2.{ J r 9 ; % $ $                                                                                                                                                                                                                                                                                                           ",
"                                                                                                                                                                                                                                                                                                            *.E.4X0XqXrXiXiXrXiXiXgXxXMXMXnXxXxXgXiXqX6X5X4X&X4X5X:X:X5X0XeXiXiXeXeX7XuXmXZXLXLXLXAXnXqX5X6XqXqXeX0X6XqXiXhXnXmXmXmXmXmXaXqX6X6X6X4X[.).H.D.8.7.{ a 0 9 9 e , , $                                                                                                                                                                                                                                                                                                         ",
"                                                                                                                                                                                                                                                                                              3.#.      } *.8.E.;X6X0XeXiXrXqXeXiXjXNXCXCXNXNXNXmXnXiX0X6X4X4X:X:X:X:X0XrXgXhXhXaXaXpXzXAXFXLXLXLXZXmXeX5X0XqXqXrXqXqXuXhXmXAXAXAXAXAXAXzXeX0X6X6X6X4X_.H.A.l.-.} F 0 9 9 e e , , $                                                                                                                                                                                                                                                                                                       ",
"                                                                                                                                                                                                                                                                                          2.6.W.D.D.C.q.C.H.).].[.;X:X:X6X:X:X:XwXjXCXFXFXZXCXZXCXNXzXrX6X2X4X5X:X:X:X0XpXzXxXnXxXxXzXnXZXHXLXLXLXZXNXuX6XqXqXrXrXqXqXiXnXNXAXZXZXAXZXAXnXpXqX6X6X6X6X`.Y.H.C.;.#.F a w y g g f f > &                                                                                                                                                                                                                                                                                                     ",
"                                                                                                                                                                                                                                                                                          6.B.oX`._.).).].].&X)._.`.`.%X&X%X`.%X0XgXBXFXFXZXZXFXFXCXnXiX6X:X4X:X:X>X5XqXgXxXmXmXmXmXnXmXZXHXLXPXLXZXNXiX6XqXqXrXiXqXqXaXnXNXZXZXAXAXAXAXnXpXqX5X6X6X4X_.H.S.d.;.#.] F F P L J D g f *                                                                                                                                                                                                                                                                                                     ",
"                                                                                                                                                                                                                                                                                        F 7.~.XX&X=X%X%X&X&X%X`.K.).Y._.`._.Y.`.5XiXNXZXZXCXZXFXDXCXnXrX:X:X5X:X6X:X5XqXgXnXnXnXnXnXzXnXZXLXPXLXLXZXmXeX6X0XrXqXeXqXqXiXnXNXAXAXAXAXAXAXnXiXqX4X5X6X4X).S.S.C.;.-.o.] ] #.@.H F D g e *                                                                                                                                                                                                                                                                                                   ",
"                                                                                                                                                                                                                                                                                        H 7.E.;X:X=X=X%X*X&X%X[.K.K.Y.)._.).).).4XiXNXZXZXCXZXFXDXCXxXwX:X:X:X:X5X5X5XqXgXnXnXnXzXzXzXmXZXLXPXPXLXZXmXqX5X7XqXqXqX9XqXiXnXNXAXAXAXAXAXAXnXiXqX4X&X6X4X).S.S.C.;.;.&.[ [ o.o.] H F D r ;                                                                                                                                                                                                                                                                                                   ",
"                                                                                                                                                                                                                                                                                        H 7.H.;X&X%X%X%X&X&X%X].).).K.).`.).).).4XiXNXFXZXZXZXFXFXCXxXwX:X*X:X6X9X5X5XeXgXnXnXnXxXzXnXnXZXLXPXPXLXZXmXqX5X6XqXqXqX9X0XiXlXNXAXAXAXAXAXAXnXuX7X4X4X6X4X).H.Z.C.C.;.*.o.o.o.o.} { { J g ,                                                                                                                                                                                                                                                                                                   ",
"                                                                                                                                                                                                                                                                                        H 7.H.;X&X%X%X%X&X&X%X].).K.K.!.`._.).).;XiXMXZXZXCXCXZXCXBXjX0X:X*X:X5X5X5X9XeXgXnXnXnXnXxXnXnXCXIXLXLXUXZXmXuX6X0XqXqXqX6X6XuXhXnXNXAXAXAXAXAXaX7X6X;X;X8X4X).H.C.C.l.8.-.*.o.o.o.[ ] { P g ,                                                                                                                                                                                                                                                                                                   ",
"                                                                                                                                                                                                                                                                                        F -.F.&X&X;X&X&X4X4X&X_.K.H.F.H.).).Y.).&XqXnXAXCXNXNXBXBXvXgX0X:X:X:X5X9X9X9XrXgXxXnXxXxXxXhXxXNXZXZXZXZXNXnXiX0XqXqXqX0X6X6XqXiXaXnXmXmXmXmXmXuX6X;X[.[.4XXX).F.8.-.-.8.7.-.*.o.[ ] ] { H g ,                                                                                                                                                                                                                                                                                                   ",
"                                                                                                                                                                                                                                                                                        F *.H.`.;X:X:X&X&X&X].!.F.F.C.S.).).H.Y.[.7XhXmXMXVXnXMXvXcXgXrX0X0X0XqXrXeXrXgXhXxXnXxXnXnXxXxXnXNXNXNXmXnXhXiXiXiXiXrXqX0X6X7X7XuXuXaXaXaXaXiX7X4X[.`.`.;X[.).D.-.o.#.7.8.8.-.o.[ [ [ } H g ,                                                                                                                                                                                                                                                                                                   ",
"                                                                                                                                                                                                                                                                                        F #.H.).`.&X&X`._.).K.F.F.F.F.H.).).Q.).`.6XgXnXnXnXnXVXvXxXhXjXhXhXhXhXhXhXhXhXxXnXVXVXVXVXnXnXnXNXMXnXlXnXlXlXlXlXnXlXgXiXqX7X8X8X7X7X7X7X7X7X4X&X[.`.[.4XXX~.l.#.[ o.7.l.l.;.*.o.o.#.{ L j e                                                                                                                                                                                                                                                                                                   ",
"                                                                                                                                                                                                                                                                                        F #.E.Y.Y._.`.Y.K.H.F.Z.F.F.F.H.).).Q.).[.6XgXnXnXnXVXVXMXMXMXMXNXNXNXNXBXBXNXMXMXMXNXBXNXNXNXVXVXMXVXnXnXnXMXMXBXBXAXNXmXnXaXqX8X4X4X8X;X[.2X4X&X%X[.`.[.XX[.E.8.o.( o.7.l.C.l.-.*.*.#.#.{ j ,                                                                                                                                                                                                                                                                                                   ",
"                                                                                                                                                                                                                                                                                        F 7.H.H.K.Y.Y.K.H.H.F.C.C.F.H.H.Q.H.F.K.].6XgXnXVXnXVXVXBXMXMXBXCXCXCXCXBXBXBXBXBXBXBXNXBXBXNXNXVXMXVXnXnXnXVXNXBXBXCXZXZXNXnXuX8X8X6X6X4X4X4X6X4X%X`._.`.XX[.H.-.[ ( ( #.l.C.l.-.-.*.#.#.H j ;                                                                                                                                                                                                                                                                                                   ",
"                                                                                                                                                                                                                                                                                        F 7.D.H.K.Y.Y.S.S.K.S.Z.C.H.H.Q.).H.F.K.].6XhXmXMXMXMXBXBXBXBXBXCXCXCXCXBXBXBXBXBXBXBXBXBXBXNXNXNXNXNXVXnXVXNXBXZXZXZXZXZXZXNXaX7X6X7X7X6X6X6X7X6X&X`.).).[.'.D.*.] ( ( o.l.A.C.8.;.-.*.#.H j ;                                                                                                                                                                                                                                                                                                   ",
"                                                                                                                                                                                                                                                                                        F 7.H.K.Y.Y.Y.K.K.Y.!.K.H.Q.!.).).K.S.K.[.0XhXNXMXMXNXBXBXMXNXBXBXBXNXBXBXBXBXBXBXBXBXBXBXBXNXNXNXNXNXVXVXVXNXCXZXZXZXZXFXZXZXnXuX7XqXqXqXqXqXqX7X2X].)._.[.).C.-.( ( ] o.l.F.F.C.l.;.*.#.H j 9                                                                                                                                                                                                                                                                                                   ",
"                                                                                                                                                                                                                                                                                        H 8.E.)._.R._.Y.)._._._.!._.].].].).K.!.%X0XhXNXMXVXVXMXMXMXMXNXBXNXNXBXBXBXBXBXBXBXBXBXBXBXNXMXMXNXMXnXVXNXNXCXZXZXZXFXFXZXZXnXqX7X7XqXqXeXuXuXqX6X%X_.`.[.).C.;.o.o.&.-.l.F.H.F.C.8.-.#.H j 9                                                                                                                                                                                                                                                                                                   ",
"                                                                                                                                                                                                                                                                                        H 7.E.)._.R.R.Y.Y.T._._._._._.].[._.K.).%X0XxXNXMXVXVXVXMXMXMXBXBXNXNXBXBXBXBXBXBXBXBXBXNXNXNXMXNXNXMXnXVXNXAXZXZXZXFXFXHXZXZXnXeX6X6X0XqXdXeXeXqX6X&X`.[.`.).A.a.;.;.l.A.A.S.H.F.C.;.-.o.H a 9                                                                                                                                                                                                                                                                                                   ",
"                                                                                                                                                                                                                                                                                        H 7.D.Q.Y.Y.Y.J.K.K.K.K.!._._._.]._.K.K.%X7XhXVXMXVXVXVXMXMXBXBXBXBXNXBXBXBXBXBXBXBXBXBXNXNXNXMXNXNXNXMXnXVXNXZXFXFXHXHXLXZXZXmXqX6X0X0X7XqXqXqX7X6X&X[._.`.).H.H.H.H.).).~.A.A.C.C.;.*.#.] b 9                                                                                                                                                                                                                                                                                                   ",
"                                                                                                                                                                                                                                                                                        F 7.D.H.K.J.J.S.Z.Z.S.K.).).K._._._.K.K.].5XiXhXjXjXjXxXvXVXMXBXBXMXMXMXMXMXMXMXMXMXMXVXVXVXnXnXnXnXnXxXhXzXmXAXZXFXZXZXFXZXNXhXqX6X9X0X6X7X6X6X5X5X&X].).`.).).).).`. X X~.A.C.d.;.:.&.#.' b 9                                                                                                                                                                                                                                                                                                   ",
"                                                                                                                                                                                                                                                                                        H 7.D.).L.J.S.Z.d.C.Z.K._._._._.]._.!.!.].5XqXiXgXfXgXgXjXjXnXMXMXVXVXMXBXMXMXVXnXnXxXxXxXxXhXhXhXhXgXiXiXpXhXNXCXZXZXZXZXNXmXpX6X5X6X7X6X6X6X5X4X4X&X_.)._.).).).`.`.;X X{.A.d.;.:.&.*.*.' F 9                                                                                                                                                                                                                                                                                                   ",
"                                                                                                                                                                                                                                                                                        F 7.E.Q.K.K.Z.Z.Z.C.C.K._._._._._.)._.).].&X6X0X0X0X0X0XiXiXgXhXxXxXnXnXVXxXjXjXgXgXiXrXrXrXqXqXqXqXqX0X0X0XiXzXnXnXnXmXnXzXiX0X6X4X5X6X6X6X4X4X&X`.`.`.).).).Y.).&X;X;X&X`.H.a.:.&.&.#.#.} a 9                                                                                                                                                                                                                                                                                                   ",
"                                                                                                                                                                                                                                                                                        F #.C.F.K.J.Z.C.C.,.C.S.).)._._.).).Y.Y._.].&X&X&X&X&X*X6X9X0XrXiXiXiXgXhXgXrXrXqX0X0X9X0X0X6X5X5X6X5X;X:X5X0XiXgXpXpXgXgXiXqX6X;X&X&X2X;X&X&X[.`.).).).).Y.H.H.).`.&X%X%XR.S.d.:.&.#.*.#.} a 9                                                                                                                                                                                                                                                                                                   ",
"                                                                                                                                                                                                                                                                                        F #.l.F.S.K.S.Z.C.C.Z.S.).)._._._.).).Y._.$X%X%X$X$X%X%X%X%X&X6X0X0XqXeXrXwX0X9X:X:X;X:X:X:X;X&X&X&X&X%X&X&X5XqXrXeXeXrXrX0X6X&X&X[.&X&X[.[.[.`.).).Y.).Y.H.F.S.H.`.`.`.`.R.K.C.;.&.*.*.3.} a 9                                                                                                                                                                                                                                                                                                   ",
"                                                                                                                                                                                                                                                                                        F #.8.F.H.Y.K.S.S.F.F.S.K.)._._.).).).)._.$X%X%X$X].%X%X%X%X&X5X6X6X6X0X0X6X5X:X&X&X&X;X5X5X:X&X&X&X&X%X&X:X5XqXrXrXeXrXrX0X6X&X&X&X&X&X[.[.[.`.).).).).Y.H.S.S.H.).`.`.%X`.).F.;.-.*.-.3.} a 9                                                                                                                                                                                                                                                                                                   ",
"                                                                                                                                                                                                                                                                                        F #.8.F.H.Y.).Y.K.H.S.K.)._.].]._._._._._.%X%X&X%X%X%X&X&X%X&X4X6X6X6X6X6X4X4X&X&X&X&X&X6X5X5X5X5X6X:X&X:X5X6XqXrXiXiXiXiXeX6X:X;X;X2X2X%X[.[.`.`.).).{.).H.F.F.H.).{.`.&X`._.H.C.-.-.7.3.} a 9                                                                                                                                                                                                                                                                                                   ",
"                                                                                                                                                                                                                                                                                        F @.8.C.S.Y.).Y.K.S.S.K.!._.].]._.!.T._._.$X&X&X&X%X%X%X%X[.[.&X4X6X6X6X6X4X4X;X&X;X&X&X5X6X6X6X6X6X5X:X5X5X9XqXrXpXpXpXiXeX0X5X;X&X2X2X[.]._._.).).).).E.H.F.F.F.H.Y.).`.`.).F.C.;.-.7.3.} a 0                                                                                                                                                                                                                                                                                                   ",
"                                                                                                                                                                                                                                                                                        F @.8.C.S.H.H.H.S.C.Z.K.!._.$X$XT.L.L.T.T._.%X&X&X&X&X%X&X[.[.&X&X4X4X4X4X&X[.[.&X;X;X;X4X6X6X6X6X6X5X5X5X5X6X0XeXiXpXpXrXeX0X5X;X&X&X&X[.]._._.).).Y.Y.H.H.F.A.A.A.F.U._.Y.H.C.;.-.-.-.#.{ a 0                                                                                                                                                                                                                                                                                                   ",
"                                                                                                                                                                                                                                                                                        D #.8.C.A.S.S.S.Z.d.C.S.&X5X9X6X:X%X$X$X%X*X5X0X0X0X0X0X6X4X&X[.`._.).).`._.).).`.[.[.[.&X;X;X:X5X5X5X&X:X5X5X9XqXrXrXrXrXeX0X6X;X&X&X&X%X]._._.).Y.H.H.H.H.F.F.C.C.A.H.Y.H.S.C.;.-.-.7.#.{ a 0                                                                                                                                                                                                                                                                                                   ",
"                                                                                                                                                                                                                                                                                        J @.8.D.C.C.d.;.;.:.,.K.5XqXgXgXeX0X9X:X6X0XiXgXgXgXgXhXiXqX4X_.S.C.C.C.Z.Z.S.H.K.K.Y.).[.[.].`.&X&X&X%X%X&X:X5X6X0XqXqX0X0XqX6X4X4X2X2X&X`.[.`.).K.H.H.F.F.F.S.C.C.C.C.H.F.C.;.-.-.-.7.#.{ a e                                                                                                                                                                                                                                                                                                   ",
"                                                                                                                                                                                                                                                                                        D { 7.D.C.d.;.;.&.>.;.K.7XiXxXxXhXgXgXiXiXgXhXVXVXVXNXNXNXhX0X[.S.C.,.C.Z.Z.F.H.)._.`.[.&X&X&X&X5X5X5X5X5X9X9X9X0XeXrXrXeXrXiXrXeXqXqXqX7X6X6X6X&X`.).H.K.K.K.H.F.A.C.C.F.C.;.*.o.o.#.#.} H a e                                                                                                                                                                                                                                                                                                   ",
"                                                                                                                                                                                                                                                                                        D { 7.l.d.;.:.&.>._ :.K.qXhXNXNXVXxXVXVXnXVXNXCXFXFXFXFXFXNXgX6X_.K.K.S.Y.Y.).`.&X4X6X6X0XqX0XqXeXiXiXrXiXiXiXiXpXgXhXhXgXzXnXxXnXnXnXnXhXhXzXhXiX7X;X_._.)._.).).H.F.A.C.8.&.[ ( ] ] ] ] F a e                                                                                                                                                                                                                                                                                                   ",
"                                                                                                                                                                                                                                                                                        D L 7.8.a.:.:.:.:.>.,._.qXhXNXCXNXMXBXCXBXBXCXFXFXFXFXLXLXFXnXiX0X5X:X5X6X;X5X6XqXiXiXpXhXhXhXhXhXzXzXhXnXnXnXxXxXnXmXmXmXNXNXNXNXAXNXNXNXNXNXNXmXpX6X`.`.[.;X;X[.{.Y.H.A.8.[ / M M ' H H F w e                                                                                                                                                                                                                                                                                                   ",
"                                                                                                                                                                                                                                                                                        D L 9.l.d.d.,.,.,.,.Z.%XrXlXBXCXBXBXBXCXBXCXDXFXFXFXFXFXFXDXBXnXhXhXhXhXhXpXgXgXhXzXxXxXnXnXnXxXnXnXnXnXnXnXnXnXmXmXmXmXmXNXNXAXNXNXAXAXNXNXZXZXMXzXqX%X`.&X6X6X4X[.`.U.H.8.( n n n n F F F w r                                                                                                                                                                                                                                                                                                   ",
"                                                                                                                                                                                                                                                                                        D L 5.l.C.C.Z.Z.S.S.K.%XrXhXVXNXMXMXBXBXBXBXDXFXFXFXFXFXDXCXBXBXBXBXBXNXNXnXxXxXxXxXnXnXnXnXnXnXnXnXnXnXnXnXnXVXmXmXMXmXmXNXNXNXNXNXNXNXNXNXNXZXNXzXeX%X`.;X5X6X5X;X[.).E.7.] n F n b F F F y e                                                                                                                                                                                                                                                                                                   ",
"                                                                                                                                                                                                                                                                                        D H 5.l.C.Z.S.S.K.K._.%X6XqXgXhXhXjXcXvXVXNXCXFXFXFXDXFXDXCXCXCXDXDXCXCXCXMXxXcXjXjXxXxXxXnXnXxXnXnXnXnXnXnXVXnXmXmXNXMXmXNXNXNXNXNXAXAXAXAXAXZXNXnXrX%X$X:X5X6X:X;X`.).E.3.M n F b a a b j r e                                                                                                                                                                                                                                                                                                   ",
"                                                                                                                                                                                                                                                                                        Z F #.8.C.J.J.K.Y._.$X%X%X&X5X0XwXrXgXgXhXVXBXFXFXDXDXDXDXDXDXDXDXDXCXCXBXMXxXjXgXgXhXxXxXxXzXhXzXxXnXxXnXnXnXnXxXmXMXMXnXmXMXmXmXNXNXAXAXAXZXZXNXnXrX=X=X:X:X:X;X;X`.{.H.*.n n n a a a a y e ,                                                                                                                                                                                                                                                                                                   ",
"                                                                                                                                                                                                                                                                                        Z H #.;.Z.J.J.J.L.T.T.T.T.T.$X=X&X%X%X2XqXhXBXFXIXFXFXFXDXDXDXDXFXDXGXDXGXVXxXjXgXgXgXjXxXnXxXhXhXhXhXxXzXmXmXxXnXVXnXnXVXVXmXNXCXNXAXZXAXAXZXZXZXNXiX:X&X6X5X;X;X:X&XY.H.o.n n n b a j Z t e                                                                                                                                                                                                                                                                                                     ",
"                                                                                                                                                                                                                                                                                        D ] -.C.Z.J.J.J.J.T.T.T.J.J.L.L.Z.C.Z.F.].qXBXIXLXIXFXFXFXFXFXDXDXDXDXDXDXVXxXjXjXgXjXjXxXnXxXhXjXxXxXxXcXxXnXxXnXnXVXVXxXvXNXNXmXNXZXZXZXZXZXZXZXAXhX6X;X6X0X5X:X5X;X`.H.*.n n F a j j D y e                                                                                                                                                                                                                                                                                                     ",
"                                                                                                                                                                                                                                                                                        D H *.C.Z.S.J.J.T.`.$X`.T.T._.K.C.;.q.C.).7XmXZXZXNXmXVXMXCXFXHXHXHXFXFXFXDXMXxXjXjXjXxXnXMXmXnXnXmXmXmXmXNXNXNXNXNXNXCXCXZXFXNXuX7X7X8X7X7X7XyXuXuX6X`.[.6XeX7X6X6X;X`.H.*.n b a a j y Z y e                                                                                                                                                                                                                                                                                                     ",
"                                                                                                                                                                                                                                                                                        D H *.C.C.Z.J.K._.&X;X&X[.[.[.'.E.C.C.E.[.7XSXmXSXsXyX7XaXNXHXPXPXPXHXHXPXFXBXnXxXnXVXMXNXAXNXNXAXAXNXCXCXCXCXZXZXZXZXFXLXLXPXAX XC.8.#.-.*.7.c.W.~.H.A.{.8XuXuXeX7X4X[.G.#.n a a a j a y r 0                                                                                                                                                                                                                                                                                                     ",
"                                                                                                                                                                                                                                                                                        b ' *.C.C.Z.F.H.).).{.).).'.'.W.9.3.3.9.n.(.oX+XoX(.W.B.{.yXmXAXZXFXFXFXFXZXnXgXgXgXhXnXmXmXmXnXmXNXNXmXmXNXNXNXNXmXmXAXZXLXLXzXG.] ] b n n F ' @.+.%.-.G.{.+X4X4X X X{.W.#.n a a a a y a r r r                                                                                                                                                                                                                                                                                                   ",
"                                                                                                                                                                                                                                                                    9.9.9.9.9.          a H #.8.C.S.Z.C.D.H.E.G.c.c.9.3.{ a a a y D J K D g y r D 5.(.8XaXmXmXmXmXaXyX8X8X7XqXeXuXiXuXuXpXaXaXaXhXzXaXaXuX7X7XdXmXAXmX+X@.w 0 9 e 0 w r w w i N X.%.l.l.C.F.E.E.G.#.n b a a a w a a a F ' } ] ' F @.                                                                                                                                                                                                                                                                                      ",
"                                                                                                                                                                                                                                                                2.n.(.'.~.E.E.W.7.F y % i ] -.D.C.C.C.;.*.#.#.@.{ { L D y r % % % $ $ X X X X X $ h R 9.(.oXoXoXXX'.E.E.E.Q.).).[.[.`.).[. X X4X4X8XXX'.W.c.c.W.oX@XoXn.F 9 % % ; ; 9 q 9 ; 9 w b M M ( o.-.D.G.D.#.n b a a a w w b ] 7.c.G.D.8.c.W.B.n.                                                                                                                                                                                                                                                                                  ",
"                                                                                                                                                                                                                                                                9.~.yXsXuXuXuXuX(.3.F 4 i ] *.l.C.C.;.( s i 0 0 0 0 9 ; % % % $ O O O O O O o o & & = e g j a F F s i n ( [ :.:.;.;.>.) >.:.:.*.*.-.o.n w 0 0 r y D G x 9 % ; e : : t t t q q x w w i i N o.-.8.l.] b a a a a w 0 n 7.~.8XyX7X4X8XuX+X(.                                                                                                                                                                                                                                                                                  ",
"                                                                                                                                                                                                                                                                9.'.sXnXaXpXnXnX+X7.n 0 i / -.D.F.C.*.n 0 4 4 # # @ % $ $ $ $ $ o & O O - o $ $ $ X @ @ @ @ # # 4 # # 5 i / ( ) >.) ) / / ) ( / / ] b 4 # @ @ X $ $ - - $ $ - : ; ; : t t t x x y 9 9 w N o.7.8.l.] b a w a a w 0 n 7.'.dXaXiX0XiXnXuXOX6.                                                                                                                                                                                                                                                                                ",
"                                                                                                                                                                                                                                                                9.).dXiX0X0XiXaXXX8.M 0 s / *.D.F.C.-.( w 0 0 ; ; % , , $ $ $ $ O & $ - ; - ; ; - $ $ * $ % * % # # # 0 M #.8.8.C.d.;.&.o.o.o.] [ @.H 0 # $ $ o o o $ - - ; ; q q q q t q t C t g 0 w a ] -.D.D.c.o.n a a j j w 0 n *.Q.5XqX9X*X6XiX8XW.6.                                                                                                                                                                                                                                                                                ",
"                                                                                                                                                                                                                                                                5.E.7XqX:X:XeXuX[.8.] i s / *.D.F.C.-.( i a y e , , < > & $ $ - $ q q v l v v v v q ; % # % % # % # # 0 H 7.D.F.F.S.l.-.*.*.#.] @.3.{ y % % $ $ o o $ - q w w l l m l v q q C C g t r n #.l.E.E.G.o.n a a j j w w n *.F.%X:X=X#X=X0X4XD.3.                                                                                                                                                                                                                                                                                ",
"                                                                                                                                                                                                                                                                5.E.7XqX:X:XeXeX`.l.] i s / *.D.F.d.*.( i a y t ; , < , $ $ $ , b +.p.s.s.s.s.s.a.+.M w ; % - % % @ @ 9 F *.c.F.F.A.l.-.#.[ ] M F { F e * & $ $ $ $ - l %.b.I./. X}.x.X.c q t t t e e F @.l.H.H.C.o.n a a j j w w n *.F.%X>X=X#X=X0X;Xc.2.                                                                                                                                                                                                                                                                                ",
"                                                                                                                                                                                                                                                                5.W.7XeX6X:XeXeX[.l.] i s / *.D.S.d.:.( N n D y ; ; , % $ $ $ t y..XcXbX<X<X<X<X<X.Xi.N 9 $ $ $ $ X X % b @.D.H.H.S.l.-.[ ] n i i n b e % $ $ $ $ - q t.+XSXxXAXZXAX7Xx.M 9 9 t t e 9 a ] l.A.H.A.o.n i a j j a i n *.S.=X>X=X#X#X0X;Xc.@.                                                                                                                                                                                                                                                                                ",
"                                                                                                                                                                                                                                                                3.W.8XuX6X:X0X0X`.l.[ i N / *.A.S.d.;.( n H H D e , , % $ $ $ x a.<XbXJXJXKXKXJXbXtXU.M ; $ $ $ $ X X % b 3.D.).H.S.l.*.] n a i i n b w e * $ $ $ ; l m.SXFXHXHXHXHXcXs.N 9 9 g g e r F #.l.U.U.A.&./ n a a D F a ( -.H.%X:X=X#X=X0X;Xc.2.                                                                                                                                                                                                                                                                                ",
"                                                                                                                                                                                                                                                                3.W.+X7X;X;X:X;X).8.[ i n / *.H.S.d.;.) n H L J t e , - - $ $ x a.<XJXJXJXJXJXJXJXbXR.` 9 $ & > > o @ ; F 9.E.{.H.F.C.*.] n a i i n F a r * $ $ $ 9 N U.CXHXHXHXPXHXtXa.N 9 9 y g r y F #.l.U.Y.S.;.[ M b F P F b ] 8.K.%X>X=X#X=X0X&XC.@.                                                                                                                                                                                                                                                                                ",
"                                                                                                                                                                                                                                                                2.B.XX4X[.`.%X`.E.-.[ s N M *.H.H.A.;.( n H H D r t , ; ; $ $ x a.<XJXHXJXJXJXJXJXfXR.( ; $ $ & $ X @ 9 H n.'.4X`.).F.-.[ n a i i n F a e * $ @ # 9 N U.CXHXHXHXHXHX<Xa.N 9 9 r r r r F o.8.F.H.H.;.o.] n F F F b ] ;.H.%X>X=X#X=X:X_.l.{                                                                                                                                                                                                                                                                                 ",
"                                                                                                                                                                                                                                                                2.n.'.'.K.K.K.Z.C.-.] s n M *.E.E.S.;.( n N M n w 0 % % ; $ % y a.<XHXPXHXJXbXKXbX<Xd.N 9 $ $ $ o X X 9 { W.+XyX7X4X'.A.*.( n i i n F j g % @ # # 9 N A.zXHXHXHXHXMX X+.w 9 ; 9 9 9 0 a ] -.C.F.S.a.&.] n b F F n ( ;.H.%X=X=XT.$X&X).8.L                                                                                                                                                                                                                                                                                 ",
"                                                                                                                                                                                                                                                                2.9.E.Q.Z.C.C.q.8.-.] s s / *.E.E.F.C.&.( ( [ [ ] n w 9 9 % * y i..XcXCXbXcX<X<X<XR.a.N 9 % % * % $ @ w 9.oXsXlXaXuX7X`.C.-.( / ( } } F D e @ $ % 9 b k.7XcXcXSXzXdXP.` w 9 9 r y a n / [ ;.C.Z.H.d.:.[ / F H H n ( ;.H.].=X%XT.T.%X).9.L                                                                                                                                                                                                                                                                                 ",
"                                                                                                                                                                                                                                                                2.9.E.H.C.,.,.,.8.*./ i s / *.E.).).K.C.;.l.D.W.G.7.M w 0 9 e y M +.U./.U.d.d.a.:.&.( n a y g g e 9 4 F W.yXAXZXZXNXmXaX4X).C.-.-.l.7.3.{ y # % % 9 w M a.A.d.S.A.a.` N 9 9 y L @.-.7.;.,.d.S.K.Y.S.;.&.] ] { ' ] [ l.).[.=X$XL.T._.E.3.F                                                                                                                                                                                                                                                                                 ",
"                                                                                                                                                                                                                                                                2.7.E.H.Z.C.C.,.8.*.' i s / *.E.).[.&X`.`.[.4X8X8X{.l.] a w j j l N M ( ( n s s / / ' ] ] { { { F b s 3.XXlXFXIXFXFXZXNXiX4X).A.C.A.D.7.3.j % e e t r i N N N / N N w w 0 w @.(.{.[.;X%X$XT.#X%X:XR.d.*.[ ] ] ] ] o.l.).`.$X_.J.L.).H.#.F                                                                                                                                                                                                                                                                                 ",
"                                                                                                                                                                                                                                                                { 7.H.H.Z.Z.C.q.8.*./ i s n *.E.`.6XrXiXiXiXaXzXmXuX[.l.] F F F b b b b a a a s ' [ *.8.8.8.8.8.8.*.} D.8XnXFXFXFXCXCXNXgX5X).Z.C.A.l.7.@.a 4 9 r y y a i i i N N N i i w n c.yXzXxXxXcXfXtXtXtXtX>XZ.:.[ [ [ [ ( o.l.H.).T.L.Z.J.K.D.#.D                                                                                                                                                                                                                                                                                 ",
"                                                                                                                                                                                                                                                                L *.G.H.F.Z.Z.C.8.*.n i i n &.H.;XrXcXnXmXnXnXNXAXzX7XH.&.' ] ] b b y y a a k F | } 7.q.F.Z.C.C.D.q.8.!.0XnXDXFXBXBXBXMXgX5X_.S.C.S.C.7.#.a 4 e e r g y i i N N b b b b i H ~.zXCXDXDXGXvXvXvXvXcX:XS.:.[ [ [ [ ( o.8.H.!.K.K.Z.J.K.D.#.D                                                                                                                                                                                                                                                                                 ",
"                                                                                                                                                                                                                                                                L *.D.H.F.Z.Z.C.8.#.n i i / *.H.%XtXcXxXnXzXhXnXMXgX6XK.&.) [ | n a a a j j F ' ' |  .=.q.Z.f.d.Z.q.q.!.qXjXDXFXGXBXBXBXhX6X$XK.S.H.S.l.#.b 9 e y g D D b b N N n b b b i ( H.pXVXvXvXvXvXvXvXvXcX:XS.:.[ [ [ #.( o.8.H.K.).K.S.K.K.C.{ j                                                                                                                                                                                                                                                                                 ",
"                                                                                                                                                                                                                                                                L *.D.H.Z.Z.Z.C.8.#.n i i n *.H.&XpXxXnXnXhXgXxXxXrX:XK.:._  .| F a a F F F F ' ' |  .=.,.,.,.,.w.,.,.!.wXhXDXFXGXBXBXBXhX9X%X!.K.).H.D.7.n 0 0 y a F F b n M M F F F n n ( S.qXcXvXvXvXvXvXvXvXcX:XZ.:. .[ [ o.( [ ;.F.Q.!.K.S.K.H.C.} g                                                                                                                                                                                                                                                                                 ",
"                                                                                                                                                                                                                                                                L 3.D.H.Z.q.,.8.*.} n i u n *.F.%XrXxXnXnXnXnXxXjXrX*XL.,.=.=.9.} ' k ' ' ' ' ' [ ) [ =.q.w.w.w.w.,.<.!.wXhXDXFXDXBXBXBXhX9X$X!.K.!.E.D.*.s 0 0 0 a F n N N / M N N N N s ) H.gXvXvXGXGXvXvXvXvXgX=Xf.:.) ( [ [ ( [ -.C.F.H.F.Z.C.F.8.{ Z                                                                                                                                                                                                                                                                                 ",
"                                                                                                                                                                                                                                                                L 3.c.D.8.;.=.*.[ ' a 0 i n *.F.[.rXxXxXnXVXVXVXjXrX:X_.L.F.F.F.w.9.0...} | | [  . .&.=.w.q.q.w.w.,.<.!.9XjXDXFXDXBXBXBXhX9X$X!.!.Q.E.C.*.d 0 0 0 i N N n N / ( ( ( n n / ) Y.gXBXGXGXGXGXGXVXvXfX=Xd.:._ ( [ o.( [ &.-.;.C.q.,.q.C.7.H g                                                                                                                                                                                                                                                                                 ",
"                                                                                                                                                                                                                                                                J { 3.7.&.[ [ ( ] F a i a n *.C._.0XgXhXjXnXVXVXjXfX9X*X3X9XqXqX2X].Q.Q.F.C.d.Z.S.Z.Z.J.F.Z.w.w.Z.w.<.!.9XjXDXFXDXBXBXMXhX9X=X!.!.!.Q.F.=./ d s n ( [ ` >.>.>.&.&.&.&.&.:.d.&XxXDXDXDXGXGXGXGXvXfX$X,.&._ [  .o.[ ( ( ( &.&.&.&.&.=.#.F y                                                                                                                                                                                                                                                                                 ",
"                                                                                                                                                                                                                                                                y a ' ] / / / n F n a a a n *.C._.5XeXeXgXjXjXhXjXfXwXrXfXhXlXVXlXhXiXqX9X:X=X>X>X=X=X=X%XT.K.K.K.J.e.#XwXjXDXFXCXBXBXVXjX0X=XT.!.!.Q.F.w. .( [ -.;.C.d.d.d.S.S.S.H.S.S.H._.eXBXDXDXGXvXvXGXGXVXgX$X,.&. .[ o.*.[ ( ( ( ( ( ) ) _ &.] F y                                                                                                                                                                                                                                                                                 ",
"                                                                                                                                                                                                                                                                e r F ' / / n n n F a a a n o.C.K.%X5X5X0XrXfXfXfXfXfXfXgXhXNXCXMXvXvXjXfXwX,X,X,X,X,X>X=XT.L.L.L.L.e.#XwXjXDXFXDXBXBXVXjXwX*X#X!.!.!.!.K.q.;.C.H.)._._.T.T.$X%X%X;X;X;X4X6XpXCXCXDXGXBXBXGXGXVXgX$X,.&.[ [ *.*.[ ( ) ) / ( [ [ [ &.} F y                                                                                                                                                                                                                                                                                 ",
"                                                                                                                                                                                                                                                                  e a F n n n n F F y w i s [ C.S._.%X%X*X9XwXwXwXkXfXfXfXgXVXBXBXMXvXvXjXkXwXwXwX,X,X,X=X#XL.L.L.J.f.#X9XjXDXFXDXDXBXVXjXfX,X=X$X].].%X%XK.K._.4X0XeX0X0X0XwXrXrXrXrXpXpXpXcXMXCXCXDXGXBXBXvXjXwXY.;.&.[ [ [ #.[ ] ( ( [ [  .[ &.*.#.F g                                                                                                                                                                                                                                                                                 ",
"                                                                                                                                                                                                                                                                  e a F F n n b F D b w i s [ 8.Z.L._.$X=X:X9XwXwXwXfXfXfXgXnXNXCXCXCXMXxXfXwXwXkXwX9X9X*X$X#X#X#X1Xf.#X9XjXDXFXDXGXGXVXjXfXwX=X=X$X%X:X*X]._.&X0XiXhXjXgXgXjXxXcXxXxXxXcXgXpXcXcXcXvXvXvXjXfXwX:XS.:. .[ [ [ #.[ ] ( [ [ o...*.*.8.3.F g                                                                                                                                                                                                                                                                                 ",
"                                                                                                                                                                                                                                                                  e a F ' M F b F F b a i s [ C.S._.$X$X*X,X0XwXwXfXfXjXjXjXVXBXCXCXCXBXhXfXwXwXwX9X3X3X*X$X#X#X%X#XL.#XwXjXBXDXDXBXMXVXjXfXwX:X%X%X%X&X%XK.K.T.&X0XgXjXgXfXjXxXcXvXvXxXcXpXeXeX0X0XwXwXwX,X>X=X`.C.&.&.[ [ #.#.[ ( ( [ [ o.*.*.*.8.3.F g                                                                                                                                                                                                                                                                                 ",
"                                                                                                                                                                                                                                                                  y b F ' M n n F F b a i n [ 8.H._.%X%X%X:X9X0XwXfXjXjXgXjXMXCXDXCXCXNXhXrXwX9X,X9X,X*X=X!.L.!.!.K.F.!.2XqXaXhXhXhXsXuXdX7X2X].).H.H.).).Z.;.,.K.:XhXjXgXjXjXxXxXxXnXxXgXiX7X&X`._.].%X]._.K.K.Z.d.:.&.&.*.*.*.[ ( ( ( o.&.*.#.3.*.#.H g                                                                                                                                                                                                                                                                                 ",
"                                                                                                                                                                                                                                                                  y F F L F ' F F F F a n M o.l.D.)._.!.L.T.=X=X:X,XwXfXfXjXBXDXDXDXCXMXjXwX9X,X,X,X,X>X$XF.=.9.*. .[ [ *.8.D.D.E.W.D.D.8.8.7.#.[ ( ] 8.8. .) _ <.$XjXjXxXjXxXjXjXjXhXhXaXuX4X!.Z.Z.F.K.F.Z.w.w.C.,.:.:.&.*.*.*.o.( ( ( [ #.3.3.3.5.2.P y                                                                                                                                                                                                                                                                                 ",
"                                                                                                                                                                                                                                                                  g D P P F F F D D j a n M [ 8.C.F.H.C.d.Z.J.L.#X=X,X9XwXfXMXDXDXDXCXMXjXwX9X,X,XwXwX,X_.=.! s s s a i d s s n s a a a a a 0 0 4 4 0 ] *./ d ! _ T.hXxXxXxXxXcXjXgXhXhXaXuX&XZ.;.;.,.q.,.,.<.=.<.=.&.&.*.-.*.#.o.( N N ] } } { @.@.{ D e                                                                                                                                                                                                                                                                                 ",
"                                                                                                                                                                                                                                                                    j D j j y y r g r r a a ' #.*.*.=.&.&.:.,.d.J.L.$X=X*XwXnXDXDXDXCXMXjXkX9XwXwXfXfXeX[.*.i u 0 0 0 0 r 0 r 0 r r 9 4 9 9 4 # # # r } 9.[ d / _ _.zXxXxXcXxXvXcXjXhXhXhXiX&XC.;.;.;.,.,.=.=.:.;.o.[ [ [ } } ] M b w w a F F D F J D y ,                                                                                                                                                                                                                                                                                 ",
"                                                                                                                                                                                                                                                                        g e e e * e % % 0 0 a ' ' ' / / ) _ <.<.<.f.L.T.#X9XhXBXDXDXCXMXjXkXwXwXfXcXcXrX X*.0 4 4 % % % % % # % * * % % % % = @ # # g 3.9.} s /  .].nXxXxXcXvXvXvXxXxXhXhXiX;XC.;.;.;.;.;.=.:.&.*.] n n F F F F y w 9 9 0 e r r e e e ,                                                                                                                                                                                                                                                                                   ",
"                                                                                                                                                                                                                                                                                  = $ # 4 0 a n M n n d / _ <.,.Z.L.L.T.T.*XhXBXCXBXBXMXjXkXwXwXfXjXcXpX+X#.9 # % % % % % * # % & = & = = $ @ @ @ # r 0.9.] s /  .%XMXNXvXvXvXvXvXxXhXhXaXuX[.C.;.;.;.;.:.:.:.:.o.M i w w w r r w 9 ; - - ; , * % -                                                                                                                                                                                                                                                                                       ",
"                                                                                                                                                                                                                                                                                      @ % 0 a F ] ' n / ) :.w.L.L.T.#XT.L.=XjXVXMXMXMXvXjXwX,X,XwXfXgXeX[.o.0 4 % # # # # * % % = = % $ $ % $ @ # # r 0.9.] s / &.&XNXNXMXvXvXvXxXjXgXpXiXeX[.d.;.-.-.&.&.:.:.*.o.M w 0 0 w r y 0 9 ; - $ $ &                                                                                                                                                                                                                                                                                             ",
"                                                                                                                                                                                                                                                                                      $ % e a F H M n n ) :.C.K.L.L.T.T.L.=XfXVXMXMXMXvXfX9X,X:XwXwXwX6X).*.d i r r 0 0 r 9 9 % e e % # # % % % 4 9 a 3.9.' d /  .&XNXMXvXxXcXcXjXgXgXrXiXeX[.d.-.-.*.&.&.&.;.-.#.M w 0 w w y y 9 9 , $ $                                                                                                                                                                                                                                                                                                 ",
"                                                                                                                                                                                                                                                                                      $ : y F { ' M N N / :.Z.L.L.L.T.L.L.=XfXvXVXMXVXxXfX,X=X=X=X,X*X$XK.=.) ) ' / n s s i u 0 0 0 0 0 0 0 a i n s ] 8.8.[ / ) ..].hXhXgXfXfXfXrXwXrXrXiXuX[.C.-.;.-.-.:.;.;.8.-.H a w w a j g t ; , ,                                                                                                                                                                                                                                                                                                   ",
"                                                                                                                                                                                                                                                                                        : y D { ] n N i n &.C.S.J.J.L.J.J.#XwXcXxXcXxXjXwX=X#XL.L.#X!.L.F.<.<.<.q.d.=.*.&.&.) / / / ' ] / ( o.*.*.&.&.8.;.[ / )  .K.3X9X:X,XwXwXwXwXwXrXiXeX[.8.-.-.-.-.*.;.;.-.%.M a a a F D D g ; ; %                                                                                                                                                                                                                                                                                                   ",
"                                                                                                                                                                                                                                                                                        : r b H H b i i n &.d.Z.Z.J.J.f.f.#X0XjXjXcXcXgX0X$XJ.<.<.w.<.<.e.e.L.!.$XT.L.J.L.C.=.:.&. .=.;.=.;.C.H.H.C.,.C.;.) / ) _ <.F.L.L.#X*XwXwXwXrXrXqX7X).;.&.-.;.-.-.;.;.-.+.N i a a F D D y ; % $                                                                                                                                                                                                                                                                                                   ",
"                                                                                                                                                                                                                                                                                        e y D H H b i i n &.C.Z.Z.J.J.f.f.#X0XgXgXjXjXrX:XT.,.<.:.<.<.<.<.e.#X=X>X=X=X=X=X$XZ.<.<.<.Z.L.J.Z.L.%X_.S.d.<.:.) ) /  ...=.<.<.L.=XwXwXwXrXrXqX6X).;.&.-.;.;.;.;.;.-.@.b w y a j D g r ; % $                                                                                                                                                                                                                                                                                                   ",
"                                                                                                                                                                                                                                                                                        , y D H D y a i n *.C.Z.Z.J.J.f.J.#X0XgXgXgXfXwX&XK.<.:...=.<.:.1.e.#X#X-X=X=X>X:X=XJ.<.<.<.J._.T.J.L.$XT.Z.,.:...) ) ! |  ...:.<.Z.=XwXwXrXrXrXqX4X).;.&.-.8.;.;.C.;.-.@.b 0 w y g D D r e % $                                                                                                                                                                                                                                                                                                   ",
"                                                                                                                                                                                                                                                                                          y D D b r 0 i M *.C.F.Z.J.J.J.J.$X0XgXfXfXkX,X$XZ.=.&. .&.=.:.<.J.#X#X-X-X-X,X9X=XJ.<.<.<.L.%X$XL.L._.T.K.q.=... .) ) )  .....:.,.$X0XwX0XwX0X0X4XH.;.&.;.8.;.;.C.;.*.] x 9 0 r g g g t , $                                                                                                                                                                                                                                                                                                     ",
"                                                                                                                                                                                                                                                                                          t y r e 9 0 0 s #.C.F.Z.Z.Z.Z.J.$X0XfXfXkX,X>XT.,.&.[ [ ..:...:.J.=X-X,X,XkXkXkX,XL.e.<.e.!.*X*X$X$X$X_.K.Z.<.........|  .....>.<.L.:X>X>X:X,X5X&XH.*.&.*.8.;.;.C.;.&.D q ; % ; e t e * %                                                                                                                                                                                                                                                                                                       ",
"                                                                                                                                                                                                                                                                                          , e ; 9 % 4 0 a [ 8.C.Z.C.C.Z.K.$X0XfXkX,X,X=XK.;.[ ' ' ] } [  .K.*X=X,X9XkXfXfX5XL.<.<.,.K.&X2X$X$X_._.Q.D.=...} } } | } } ) ) :.J.=X=X#X=X:X;X`.F.&.&.*.;.;.;.C.;.o.b : $ $                                                                                                                                                                                                                                                                                                                   ",
"                                                                                                                                                                                                                                                                                          , , - - - * e p ] 8.C.Z.Z.C.w.Z.T.*X0X,X>X>X#XZ.:.) s a F F F [ 8.E.Q.!._.&X2X].F.*.| ' [ 7.8.D.8.8.8.7.9.#.F F F F D j j s s !  .Z.%X=X=X=X=X%X_.C.:.&.;.;.;.;.C.;.o.y ; $                                                                                                                                                                                                                                                                                                                     ",
"                                                                                                                                                                                                                                                                                          , 1 , > - , e y ] ;.d.C.C.w.q.q.S.$X>X>X=X=XT.C.&./ i r j j j F 3.9.9.8.8.D.D.9.3.F a w a F { { { H H L H F w r y y r r e r p d ) F.$X=X=X=X%X[.).C.:.&.;.;.;.;.C.-.[ y e $                                                                                                                                                                                                                                                                                                                     ",
"                                                                                                                                                                                                                                                                                          , < > > > , e r ' -.;.,.,.;.=.=.,.L.#X#X#X#XT.,.[ d 9 # % * % e a F j j F F F j r 9 % % % % 9 9 9 9 9 9 9 % # # # % $ @ @ # 4 5 ! w.$X=X=X=X`._.).C.:.&.;.;.;.;.8.-.] y 9 %                                                                                                                                                                                                                                                                                                                     ",
"                                                                                                                                                                                                                                                                                            , > > > * % r F *.;.;.;.=.&...<.f.L.L.L.T.L.,.[ u # X @ X X @ @ # @ # $ $ $ $ o o X o o o o o o o $ @ @ @ X X @ @ X X X @ # 3 d q._.=X=X=X].).H.8.&.&.:.;.;.;.;.*.] y ,                                                                                                                                                                                                                                                                                                                       ",
"                                                                                                                                                                                                                                                                                            , > > > & % 0 F *.;.;.;.=.&...<.f.L.T.T.T.L.,.| 0 @ . . . . . . X . . . . . . . . . . . . . . . X X . X X X X X X . . . @ @ 3 s q.$X*X>X:X%X).H.C.&.&.*.=.&.*.;.*.] y ,                                                                                                                                                                                                                                                                                                                       ",
"                                                                                                                                                                                                                                                                                            1 > > > , * r F *.;.,.q.;.=.=.<.J.#X#X#X#X!.q.] 0 @ . . . . . . . X . . . . . . + . . . o . X X o X X X o o X X . . X X @ # 3 s w.2X,X,X:X;X[.).C.*.&.;.=.:.*.-.*.] y ,                                                                                                                                                                                                                                                                                                                       ",
"                                                                                                                                                                                                                                                                                            1 > > > * % r F *.;.;.q.q.=.=.,.L.=X#X#X#XT.q.] 0 @ . . . . . . . . . . . . + + + X X o O O O O O O $ $ o o o o X X o X @ # 3 ' D.2X>X:X:X;X;X).C.*.&.-.;.:.*.-.#.H y -                                                                                                                                                                                                                                                                                                                       ",
"                                                                                                                                                                                                                                                                                          > 1 > > > & * r F #.-.;.;.8.=.=.w.T.=X#X#X#XL.;.' 0 @ . . . + . . . . . . . . . . X X X X o X X @ @ X @ @ @ o @ X o o o X @ # 3 ! w.&X=X>X>X;X[.).C.&.o.*.=.:.*.-.o.n t $                                                                                                                                                                                                                                                                                                                       ",
"                                                                                                                                                                                                                                                                                          1 , > - - & $ 9 F #.-.;.;.7.*.=.w.T.=X=X#XT.J.=./ 9 X . . + + + . . . . . . . . . X X X @ @ @ @ @ @ @ @ = @ X @ X X o X @ @ # 3 / F.&X=X>X:X:X;X).C.&.( &.*.:.*.-.[ n e - o                                                                                                                                                                                                                                                                                                                     ",
"                                                                                                                                                                                                                                                                                          1 , > - - & $ e F 3.7.8.8.9.7.=.w._.=X=X#X#XJ.;./ 9 X . . . . . . . X . . X X X X X @ @ @ @ @ @ @ @ @ @ # @ @ @ @ @ @ @ @ @ # 5 / F.%X,X,X,X:X;X).l.>.>.&.-.-.-.-.o.n t - X                                                                                                                                                                                                                                                                                                                     ",
"                                                                                                                                                                                                                                                                                        , , , > - - & $ * D @.+.*.*.3.} } =.Z.T.#X#XT.J.:.n 9 @ . . . . . X @ @ @ @ @ @ @ @ # # # # # # # # # # # 4 # # # @ @ @ @ @ # # 5 ! w.$X>X,X:X:X[.U.l.o.( o.&.*.*.#.( b t - o X O                                                                                                                                                                                                                                                                                                                 ",
"                                                                                                                                                                                                                                                                              O > > , , , , , > - o $ $ % y F M M ' F s s / :.,.f.f.J.C.&.n 9 @ . . . . X @ # 4 # # 4 4 4 4 5 5 4 4 4 4 4 4 4 4 5 5 5 3 6 # # # # # # 3 5 ~ <.L.L.T.T.L.S.C.*.] ( ( ] ] ] ] n y : $ $ $ $ & O o O                                                                                                                                                                                                                                                                                                         ",
"                                                                                                                                                                                                                                                                            & & > , , , , , > > - o $ $ % e a i i a a p u d ) &.>.<.,.,. .s 4 @ . . . @ # 3 3 5 5 5 7 7 7 p u 7 7 7 7 5 7 p r 5 7 8 8 7 5 5 3 # # # 3 3 5 ~ ..e.f.f.<.,.=.&.[ / n n n n n n a y : - $ & > > & & > > > >                                                                                                                                                                                                                                                                                                   ",
"                                                                                                                                                                                                                                                                          o $ $ - , , , > , > > $ o $ $ % e r w w w y r p i / _ >.:.,.q...s 4 @ . . X @ # 3 7 8 8 8 8 Q ~ ~ ~ Q 8 8 8 8 8 8 8 7 8 ~ ~ d 8 6 3 3 3 3 3 5 7 ~ _ <.1.<.:... .[ ' ' n a i i a w w t 9 : , - > > > > , , , , , , ,                                                                                                                                                                                                                                                                                             ",
"                                                                                                                                                                                                                                                                          & $ o $ - - - > > > > - o $ $ $ e w w w w r r p s ' [ :.:.,.q.} k 4 @ . X @ # 3 6 8 8 Q Q Q Q Q Q Q Q Q Q Q Q Q Q Q Q Q ~ ^ ~ ~ 7 5 3 6 3 3 5 8 ~ _ <._ _ _ ) ) / s s a u 0 0 0 9 9 ; e : , , > > > > , , , < < < < , &                                                                                                                                                                                                                                                                                         ",
"                                                                                                                                                                                                                                                                          > > $ - > > - - > > > > o O $ $ e w w w w w r a n [ &.=.:.<.=.} s 4 @ . X # 3 6 8 8 Q Q Q Q Q Q Q Q Q Q Q Q Q Q Q Q Q Q Q ^ ^ ~ 8 3 3 3 3 3 5 8 ~ _ 1.1._ _ _ ) ) ' F a 0 0 0 0 9 % % - - , , , , > > , , ; , , 1 1 , > O O                                                                                                                                                                                                                                                                                     ",
"                                                                                                                                                                                                                                                                          , , - , , > > > > $ o o O o $ $ e y y a w 0 i s | ..8.<.<.<.:.) i 4 @ . X # 3 8 8 Q Q Q Q Q Q Q Q Q Q Q Q 8 8 8 Q Q Q Q Q Q ^ ~ 8 6 3 3 3 3 6 8 ~ 1.1.1.1.1.:...[ ' F a w r 0 ; - % - ; - - > > > , - , ; ; ; < < 1 > > > 2 o                                                                                                                                                                                                                                                                                   ",
"                                                                                                                                                                                                                                                                          , , - , , > & > > o o O X o $ $ e g y a w w i s | *.q.<.<.<.<._ s 9 X . X # 3 8 Q Q Q Q Q Q Q Q Q Q Q Q Q Q 8 8 8 8 8 Q Q Q ^ ~ 8 8 6 3 3 3 8 8 ~ 1.e.1.1.1.1.>._ ) n a r 0 e : - - - : - - - > > - - ; ; ; ; , < 1 > > > > O                                                                                                                                                                                                                                                                                   ",
"                                                                                                                                                                                                                                                                          , , - - , > $ $ - o X X X o $ % e j b b a w i s ' *.8.<.<.<.<.>.n 9 $ . @ # 3 8 8 Q Q Q Q Q Q Q Q Q Q Q Q Q 8 8 8 8 8 Q Q Q Q ~ 8 8 6 3 3 3 6 8 ~ _ <.1.1.1.:.>. ./ i w w 0 e 9 : - - : ; - $ > - ; ; ; ; ; ; ; : > > > > > > >                                                                                                                                                                                                                                                                                 ",
"                                                                                                                                                                                                                                                                      > & , , - ; e < < < : : - o o o $ % e y b b y w w i / } =.<.<.<.<.>.n 0 @ X @ # 3 8 8 Q Q Q Q Q Q Q Q Q Q Q Q 8 8 8 8 8 8 Q Q Q ~ ~ 8 8 6 6 6 3 6 8 ~ _ <.<.1.1.:.:.&./ i 0 0 9 0 e 9 ; ; ; - - $ - , t z x x v q q < < > > > > > >                                                                                                                                                                                                                                                                                 ",
"                                                                                                                                                                                                                                                      o o o o O O O > > > > - - C K K K K Y G z < $ o $ % e y y b r 0 0 w n } 9.<.<.<.<.>./ 0 @ @ @ # 3 8 8 Q Q Q Q Q Q Q Q 8 8 8 8 8 8 8 8 8 8 8 8 8 Q 8 8 8 8 6 6 3 6 8 ~ _ <.<.<.<.<.;.&.( s 0 9 9 9 0 9 9 ; ; - - $ - e S K Y I H m A z < , ; - $ - - >                                                                                                                                                                                                                                                                               ",
"                                                                                                                                                                                                                                                    O O O o o O & > > > $ $ - < S Y 4.4.j.j.4.A C - o $ % 0 y y y w 0 9 0 b } 7.,.<.f.f.:./ 0 @ @ @ 3 3 8 8 Q Q Q Q Q Q Q Q Q 8 8 8 8 8 8 8 8 8 8 7 d d 8 8 8 8 8 8 6 8 8 d | ..<.:.:.=.*.#.( s 0 9 9 9 0 9 9 ; - - $ $ ; C K 4.4.$.$.U I G z , ; - o $ > > > >                                                                                                                                                                                                                                                                           ",
"                                                                                                                                                                                                                                                  > > > > > > > > > > > $ - ; q K 4.j.g.j.v.g.Y A ; o $ ; 0 y y y w 9 9 0 a { #.=.<.Z.Z.:./ 0 # @ # 5 8 Q Q Q Q Q Q ^ ^ ^ ^ ^ ^ ^ ^ ^ ^ | ..| | )  . .^ ~ 8 8 8 8 8 8 8 8 7 ~ )  .[ [ [ [ ] n i 0 9 9 0 0 9 9 ; - - $ $ ; C Y j.g.y.%.O.T G z : ; - - - ; < < < < > > & O                                                                                                                                                                                                                                                                 ",
"                                                                                                                                                                                                                                                > > , , , > > , > > > > , - , q E j.v.v.v.V.v.4.A ; $ $ 9 r y y y w 9 9 0 w F } } =.q.Z.=.' p 4 # 3 7 Q ~ Q Q Q Q ^ ..1.e.e.<.<.e.e.e.e.e.w.w.w.F.F.w.=.^ Q 8 8 8 8 8 8 8 8 d ! s n n n a a a w w 0 0 q e 9 9 ; ; - $ $ - C Y g.k.y.%.%.$.T A q : < < ; , < < < > > > - o O > > >                                                                                                                                                                                                                                                         ",
"                                                                                                                                                                                                                  O > > > > 1 1 1 1 1 > > 1 < < 1 1 1 1 1 < 1 < 1 1 < > > ; : q K j.h.h.z.v.h.T A ; $ - 0 w y y y y q 9 0 0 w a s / [  .[ / w 9 5 p ^ _ r.r.Q Q Q r.<.L.-X-X-X#X-X=X-X=X=X=X=X=X*X9X&Xw.=.~ 8 Q Q Q Q Q 8 7 7 0 0 0 0 0 0 9 9 0 0 e e 9 e , e : : - $ $ - C Y j.%.+.+.O.U G x : : < < t t t < < < , > - $ > > 1 > 1 1 1 > > > O o o                                                                                                                                                                                                                                       ",
"                                                                                                                                                                                                                > > > 1 1 1 1 1 1 1 1 > 1 < 1 < 1 h h f C C 1 C C 1 < < > - ; q I g.h.y.z.z.g.T A ; $ ; 9 w r y y y w 9 0 9 0 0 w a n / / n a 0 d ! ..1.1.r.Q Q Q r.e.-X,X3X,X,X,XwXwXwXwXwXwX9X0XiX9X!.w.^ 8 Q Q Q Q Q 8 7 5 3 4 4 9 9 ; ; ; ; 9 : , , ; ; , , ; - $ $ - z Y j.%.O.O.O.U m c q : < : t f f < < < , > - $ > > > > > > 1 > > > > & > O o                                                                                                                                                                                                                                   ",
"                                                                                                                                                                                                              O > > > 1 > > 1 1 > , , , , < , , < C C C C C f C C C 1 < , ; , q I g.h.y.p.z.k.U A : $ ; 0 w w w a y r w 0 0 0 0 0 0 i s s n a a ! ..<.1.1.r.Q Q Q r.e.#X-X-X-X-X-X-X,X,X,X,X-X-X,XwX9X!.w.^ Q Q Q ^ ^ Q 8 7 5 4 # % % % % - ; , ; ; : : , , , , : - $ $ - z Y j.%.O.O.O.U m x q : : q z C z t < , ; ; - - > , , > , , , , , , , > , > > &                                                                                                                                                                                                                                 ",
"                                                                                                                                                                                                              > > > > > > > > 1 > > , , , , , , < f C C C z t z C z < < , ; < z U h.h.y.p.z.k.T A : - ; 0 w w w a a a r w 0 0 0 w r 0 i s n F F | <.<.1.r.r.Q Q Q r.e.1X1X#X1X1X#X-X-X-X#X#X1X1X#X=X=XL.<.^ Q Q Q ^ ^ Q 8 8 5 4 % ; ; : ; : e e : : : : , , , , : - $ $ - z K g.$.O.O.O.U G x q : : q z C z < , - - ; ; > , , , , , , , , , , , , , , , >                                                                                                                                                                                                                                 ",
"                                                                                                                                                                                                            > 1 > > > > > > > > > > , , , > - - ; t C C C z z x z z t < , > < z K g.p.y.h.z.g.U A : - 9 w w a a a a i w w w w w r 0 0 u d s F s  .<.<.1.r.r.Q Q Q r.e.1X-X1X1X1X#X-X#X#X#X#X#X1X#X-X=XL.<.^ Q Q ^ ^ ^ Q 8 7 5 4 % ; ; ; ; ; ; ; 9 ; ; ; ; ; ; : ; - $ $ - t K 4.$.O.O.O.U G A q : : t t C t < ; $ $ - - - - , , > , , > , , , , , , > > > $                                                                                                                                                                                                                               ",
"                                                                                                                                                                                                          > > < > > > > > > > > > > - > - - $ $ ; : t C Z z z x x z t < > > < q I g.y.y.h.z.g.I Z ; - 9 w w a a a a w w 0 0 0 w 0 0 0 u i s s s ) 1.1.1.r.r.Q Q Q 1.e.-X-X-X-X-X-X-X-X-X-X-X-X#X-X,X>X#Xe.r.Q Q ^ ^ ^ Q 8 5 3 4 % ; ; ; ; ; ; ; ; ; ; ; ; % % ; - $ o o - : G $.$.O.O.O.U G A q : : q t C t < ; $ $ $ $ $ - > > - - > > > > , , > - $ - , $                                                                                                                                                                                                                               ",
"                                                                                                                                                                                                      < > > > > > > > > > > > > > > > > - - - - < t z z Z Z x x x z t , > - , q I g.h.y.h.v.g.I Z : - 9 w w a a a a i w w w i i w i i d s s s ! ) _ 1.1.r.r.Q Q Q ..e.#X-X-X-X-X-X-X-X-X-X-X-X#X#X,X=X#Xe.^ Q Q ^ ^ ^ Q 8 5 3 4 ; ; 9 9 9 9 9 9 9 9 9 0 0 9 % ; - $ o o - : G $.$.O.O.$.T Y S t : : q t C t < ; $ $ $ - - - , , - > > > , , , , , > - - , - -                                                                                                                                                                                                                             ",
"                                                                                                                                                                                            O > , , 1 1 < < < ; , ; ; ; < < ; ; < < , < < < < q z C Z S G A x x x z q , > - , q I g.h.y.h.v.g.I A : - 9 t w w w a N i i i a a a s n n n / / / / )  .1.1._ ^ ~ ~ 8 ..w.!.=X,X-X-X-X=X-X=X=X=X$X#X#X=X$XK.w.) 8 Q Q ^ ^ Q 7 5 4 4 4 9 0 0 9 9 9 9 9 9 0 y w 0 9 , - $ $ $ - t K 4.$.$.%.$.$.Y G t < : t t C C q , $ $ - - - ; : , ; ; ; ; ; ; ; ; ; ; - ; < , -                                                                                                                                                                                                                             ",
"                                                                                                                                                                                          > 1 > , , < < t t ; q q v l v v l z z v v x x x x x A G x x G G A A x z z < ; > , , t G g.y.y.h.v.g.Y x q ; e t q w i i s n s i i n n n / / / / n n n / ) )  .[ ! d u d ! ..q.F.K.K.K.K.K.K.F.F.F.F.F.F.H.D.D.*.' u 7 p d d d u 7 7 0 0 0 w w w 0 w i w w a b b w 9 , , $ o $ - z K 4.$.$.$.$.$.Y G q : < t z C C t t ; : q q q q t z t z x z t t t z z z t t z t t t t t < , , >                                                                                                                                                                                                               ",
"                                                                                                                                                                                          > < & , , e , t q q l U T O.O.T O.T T T T T T T T T $.Y G A G G A A x z z < , > , , t G t.y.u.g.h.g.H x 9 - 9 t q w w i n / n n n M F / / / n n n s s s s n n s a 0 5 5 0 d s s s s s s s s s s s k s s a F F a 4 3 3 5 5 5 7 u u u u i i a b a a a n n n / ] H b r e , $ o $ - : K 4.$.$.$.$.$.Y G q ; , < t C C Z x x A G G G I Y T T Y T T T T T T T $.T Y Y A C S x x q < , > & O                                                                                                                                                                                                           ",
"                                                                                                                                                                                        & > 1 > , ; , , 9 q v m g.h.x.x.z.z.z.h.h.h.g.g.h.h.h.g.4.G m G G A x x z z < , , , , t G t.t.u.g.h.g.H x 9 - : t 0 0 w i n / ( ( ( H ] / ' / M n i i i w 0 0 0 0 0 4 3 # # # @ # @ # @ # @ # @ @ @ @ @ @ # # # # # # 3 3 3 3 5 u i s n n b b b b b n H ] ( [ #.} F y r , $ o $ - z T g.y.$.$.$.$.Y G q : : : q z Z A A G Y Y T T $.5.g.g.g.j.j.h.h.j.j.v.v.v.j.4.K A G G A C e > > & O o                                                                                                                                                                                                         ",
"                                                                                                                                                                                        > 1 1 , < , e : : q v V g.z.N.N.x.z.z.z.h.y.y.y.g.g.g.g.$.G c m G G A x x q , - , , , q G t.t.t.g.h.g.H x 9 % ; e 9 0 w i n / ( ] ] ] H / / M n b i w w w 0 9 9 9 4 4 4 $ $ $ $ @ @ @ @ @ @ @ @ @ @ @ @ @ @ @ # # # # # # # 4 4 0 a F F n b b b b b M ] ( ( [ #.#.H a r , $ $ - ; C E g.g.y.y.y.$.$.G t : ; : q z x A G G T T T T $.$.g.g.g.h.z.z.h.h.h.v.b.b.v.4.I c G K G C e > & & > O                                                                                                                                                                                                         ",
"                                                                                                                                                                                        1 1 1 < < < e : : ; q m y.h.x.z.z.p.z.z.y.t.t.u.t.y.y.$.$.m l m G m c x x q : - , - , t G t.y.t.g.h.g.H x 9 % ; 9 9 9 w i n / ( / / ] F M n n b i w w w 9 9 9 9 9 % % % $ & & $ $ $ $ $ $ $ & & & & & & , % % # # % # # 4 # 4 4 r a F F n b b b b b n ] ] [ o.#.3.{ F y , $ $ - : A 4.j.h.g.y.g.$.$.K z : ; ; : z x A G G U T U U T $.$.t.y.h.h.h.p.p.p.h.z.z.h.$.m c G Y K S f , > > > >                                                                                                                                                                                                         ",
"                                                                                                                                                                                        1 1 < < < < < : : ; q m g.z.m.m.p.p.z.z.p.i.y.u.t.y.y.$.T m l m G c x x z q ; - - - : t G $.y.t.g.h.$.G x : $ ; 9 9 9 0 i N / / / / ' F n n b i i w w w w w 9 9 0 9 ; ; , > $ $ $ $ $ & & & & & & & & * % % % % % * % # # # 4 9 r a b b n n b b b n M ( ( [ o.#.#.{ F r , $ $ - : A 4.j.h.g.k.g.g.4.G t ; - ; : z x c m G U U U U U $.t.t.y.y.p.p.u.u.p.z.z.z.g.$.m l m K G C e , > > > > o                                                                                                                                                                                                       ",
"                                                                                                                                                                                      > 1 1 > , , ; , ; : ; q m g.z.m.x.p.p.p.x.p.i.u.y.y.y.y.t.O.m l m G c x x t q ; $ % - ; q G 4.g.y.g.h.$.G x : $ - : ; 9 0 a n / / / / ' M n n a i w w w w r q t t t e e e ; ; % % % ; ; ; ; ; , , , , * * % , , , * , % % % % % 9 0 w a b n N n n n n / ( ( ) ( o.#.] F r , $ $ - : A 4.v.g.i.i.k.g.4.G q ; - ; : z x c G I I U B U U $.y.t.y.y.y.y.u.u.p.z.N.z.y.O.m v c A x e , > > > > > -                                                                                                                                                                                                       ",
"                                                                                                                                                                                      > 1 < > , , ; ; ; ; ; w m y.z.x.x.p.p.p.p.i.i.u.y.y.y.y.%.O.m b m G c A x t t - $ % - - q G 5.h.g.h.z.$.G x ; $ - ; ; ; 9 w b / / / / M M M n a w w w w w w q q t t t e e 9 9 9 9 9 9 4 % 4 4 4 4 4 4 4 % % , e , % % % % 4 % % 9 0 w a b i i N n N n / ) ) ) ) o.o.] n y : $ $ - : A j.v.h.i.k.k.h.4.G q ; - ; : z x A G I U I U U U $.t.t.y.y.p.p.p.p.z.z.z.z.y.O.m v l x t < ; - > > - , -                                                                                                                                                                                                       ",
"                                                                                                                                                                                  f 1 1 < , ; ; - ; ; : ; ; w m g.z.x.x.z.p.z.z.p.i.y.u.y.y.y.y.$.M b G G G D x y t ; % % ; ; q Y 6.n.n.n.v.5.G t ; $ - : : 9 9 w b / ( / / M / ' n s i i w w y r r r t 0 0 e e 0 0 9 9 9 9 9 4 9 4 4 4 4 4 9 9 ; % % % % % 4 % 4 4 9 9 0 w i N i i s n n n / ) ) ) ) &.*.} F y e - - ; q I g.v.x.z.z.z.g.4.Y z : - - q C Z G K Y T T I U U $.g.g.z.z.z.x.z.z.z.N.m.z.y.O.m v v x q : ; ; - $ $ - ; ;                                                                                                                                                                                                     ",
"                                                                                                                                                                              S S S S C f f t < q q z z z y b U k.x.M.M.m.x.x.x.x.z.i.i.i.k.k.g.%.H b G H G D x y t % % % ; ; 9 D L @.@.@.$.U c q ; $ - : : ; 9 w b / / / / / / / n s i i w w a w r r w 0 0 0 0 9 9 4 4 4 9 9 9 9 9 9 9 4 9 9 9 9 9 9 0 0 r w 0 0 w i i i s n n n n n / / / ) ) ) _ >.&.*.o.H b e - - : z I g.v.z.p.i.g.y.$.G t ; - - < C Z A K Y Y T I I U $.g.v.M.M.N.V.M.N.V.V.V.M.x.y.B m m G G x x C t t : : q C < ,                                                                                                                                                                                                 ",
"                                                                                                                                                                          1 1 S S S S S A A A A A G G G G G H $.v.b.P.P.P.P.P.P.M.m.x.z.z.b.b.v.5.H b m H D D x y e % % ; 9 % 9 0 y y y x b b w q ; $ - - - ; 9 0 i n / ( ( ( ( / n s i i w w a w w w w w 0 0 0 0 9 9 9 9 9 9 9 9 9 9 9 9 9 r 0 0 9 0 a a F F n n n M n / / / ( ( ( ( ( ( ( ) >.>.:.:.;.-.o.M x t - ; : z I g.v.z.u.u.+.$.T G q ; - - < f C S K Y Y K G G I 4.h.P.^.}.}.}.}.}.}.}.|./.M.z.%.X.$.$.@.Y Y Y G A x x A K C < $ O                                                                                                                                                                                             ",
"                                                                                                                                                                        O > h S S S S K G Y Y Y T T T $.$.@.$.g.b.M.P.^.^.^.^.^.P.P.M.b.M.M.M.b.k.X.m H H H n b a t % % 9 9 % ; 9 9 9 9 9 w w q 9 ; $ - - $ % 9 0 a M ] ] [ [ ] / / n n a i a a a a a a i w w w r r r 0 e e e e r r r e e e r r 0 0 w b H { { ] ] ] ] ] ( ( [ [ [ ] [ [ ( ) &.:.,.d.Z.C.;.o.M a q ; ; : z I g.v.z.i.u.+.$.$.G q : - ; < < t S K K K G A c I 4.v.^.|.|.|.|. X}.|. X X}.I.b.g.%.y.g.g.g.5.4.Y H G Y Y K A t - $                                                                                                                                                                                             ",
"                                                                                                                                                                        o > f S K K K G G Y 4.4.g.g.h.h.k.g.k.z.P.P.^.^.^.^././.^.P.M.M.P.P.P.V.z.X.M H H H n b j r % % 9 9 4 4 9 4 % % 9 9 0 q 9 ; $ - , $ % ; 9 a ] [ o.} o.[ ] ] M n b i a a b b b b b b b N b b b y t 0 e r r t r y y r r r 0 0 i F { @.3.#.[ [ [ [ [ [ [ [ o.[ [ o.[ &.:.d.J.J.R.Y.S.-.M b t : ; q x T h.N.x.p.i.i.y.$.I z , ; - , < t C A A G G x x G 5.v./. X X}.|. X}. X X X|.I.m.p.y.y.k.y.g.g.g.$.@.T $.T Y G z ; $ O                                                                                                                                                                                           ",
"                                                                                                                                                                      o O , h S K K G G G $.g.k.z.z.z.x.b.z.k.x.P.^.}.}././.}.}.^.I.M.M.P.^.P.M.l.#.( X.] ] M n j y 4 % 9 9 4 9 4 4 % % 4 9 0 0 9 - $ - - $ % ; 9 b ] #.*.*.#.o.[ ] ] M n b b n F n M n M M M M H H H D y q r r r r w y y r r r w 0 a F } 5.7.*.#.#.[ [ [ [ [ #.o.[ [ o.[ >.,.S.L.T.$X`.H.-.M N q : : q A T h.M.x.p.i.k.k.g.U z < , ; < : z x x x A A c c G 5.v.}. X X}.}. X X X X X}.I.m.p.y.y.i.y.y.g.g.%.$.$.$.$.$.K t - $ $                                                                                                                                                                                           ",
"                                                                                                                                                                      o > , f S K K G x m X.5.k.p.p.p.x.x.p.i.z.P.^.}.}.}.^.}.}.^.I.M.M.P.^.P.M.l.+.` X.@.] ( n j g 9 % 9 9 9 9 e e e 4 9 e 0 q 9 - $ - - $ % % 0 b } #.*.#.#.#.o.] ] M M n n H H H H H ] ] ] X.X.#.@.H i w 0 w w w i i i i i i i w i F ] 3.7.*.#.#.#.[ [ [ } o.o.[ [ o.[ >.,.J.L.L.T._.H.-.( N t : : q A T v.M.x.p.i.p.k.g.T x : ; ; ; q z x x x A G c x G 4.v.^. X X}.}..X X}. X X}.I.m.p.u.u.p.u.y.i.k.y.%.O.O.$.$.G q $ $ > X                                                                                                                                                                                         ",
"                                                                                                                                                                      $ > > e S A G A x m X.5.y.i.u.p.p.x.i.i.z.P.I.}.}.^.^.^.}.^.I.M.m.P.P.P.b.l.+.` o.o.` ( N a y 9 % 9 9 9 e r e r 9 9 r y w 9 % $ $ $ $ $ % w n @.#.[ [ o.o.@.] H M M F H ] H H H H ] X.@.o.+.%.#.] b 0 0 w w i i i i i i i i w i n ] +.*.#.#.o.#.[ [ [ [ [ o.[ o.o.>.>.,.J.J.L.T._.H.;.( b t : : t m $.v.M.m.z.p.z.z.k.$.x : ; ; : q x x x x c G m c m 4.v.^.}. X}.}..X.X}.}. X}.I.m.p.u.u.p.u.y.i.i.y.+.O.O.O.T G t $ o $ O                                                                                                                                                                                         ",
"                                                                                                                                                                    & > > > < S S G A c m T g.g.p.i.i.p.x.i.i.p.I./.}.}.}.}.}.^.^./.I.U.I.U.I.A.l.o.( ( [ ] ( n a y 0 9 9 r 9 4 9 r 9 9 w y b w q ; % - - $ % 9 w F @.%.+.+.o.@.] ] ] ] H ] ] ] { H L { { ] ] } #.#.#.' a w w w w w i i i i i i i w s ' [ #.-.*.o.o.[ [ [ o.#.#.#.o.o.o.>.:.d.J.L.T.#X].).l.( b q 9 : x I g.M.^.P.M.x.x.b.b.$.G t ; - < t z x A x G I G m U 4.v.^.|.|.}.}. X X X X X XI.m.p.y.i.z.z.i.y.p.u.O.O.O.$.T A t - o & &                                                                                                                                                                                         ",
"                                                                                                                                                                    & > > - < A A A c x m T g.h.k.i.i.p.p.i.i.x.I.^.}.}.}.}.}./.^./.I.U.U./.^.P.l.o.( ( [ ( / n F a 9 4 4 9 9 9 9 9 0 w b H H b y q ; ; ; % % 9 y H 3.5.+.#.+.] ] ] ] H / ( ] ] { { { { { ] ] ] [ } ] F a w w y w w i i a a a a i i s / [ #.-.*.o.o.o.o.[ [ [ o.#.o.o.o.>.:.d.J.T.T.$X%XY.l.( b t t q b @.k.M./.P.P.M.b.M.b.%.b t , ; < z z Z A A G I m m U t.z.^.}.|.}.}. X}.}. X X}.I.m.p.i.z.z.z.i.i.i.u.O.O.$.$.T A t - o > &                                                                                                                                                                                         ",
"                                                                                                                                                                  , 1 , > - t A A A x x m T $.g.i.i.u.i.i.u.u.z.I.^.}.}.}.}.}.}././.I.I././.^.P.l.+.( ( [ ( ( n F a 9 4 4 4 4 9 4 9 w y H @.2.@.L G x y q 9 9 w D H 5.5.+.#.o.] ] H M M n n n M F F F F F M / / / / / n a a a a b b b N b b s n a i n / [ *.-.&.o.o.&.[ ( [ [ [ [ ( ` >.>.&.d.J.T.$X=X%X).l.@.m x x D I $.h.V.^.P.P.M.b.b.v.$.m t , ; < t z Z G G I I G m U t.h.I.}. X|. X X}.}. X X}.P.x.i.y.i.z.z.i.y.u.O.O.O.$.$.T A < - o > > >                                                                                                                                                                                       ",
"                                                                                                                                                              1 h 1 , , - - t A A A x l c I $.$.y.u.y.u.u.+.u.z.I.^.}.}.}.}.}.}././.I.I./././.^.A.-.*.*.#.o.o.] F a 0 4 4 9 9 9 9 0 r b L 4.6.4.2.Y L G x q r y D H 3.5.#.@.o.] ] H ' / / / / / M n F ' ' / / / / / n n n b F b n N N N M n F M n N n ] o.-.;.:.&.&.&.&. .[  .&.[ >.>.>.&.&.d.S.K.T.].].U.l.#.U G H Y $.4.g.v.v.b.v.z.h.g.5.U x : ; ; : t t x G G Y T I m U $.g.P.}.|.}.}.}.}.}. X X}.M.x.u.y.i.k.k.i.y.y.O.O.+.t.4.Y x < - o > > >                                                                                                                                                                                       ",
"                                                                                                                                                            1 1 h 1 , - $ - q A G G x l c U $.$.y.y.y.%.+.+.u.z.I./.|.|.}.}.}.}.}.}./.U.^./.{./.I.x.l.l.l.l.-.-.@.F i 0 0 0 y b y y r y S K Y K K K K G C z x x b F @.@.] ] ( ] ] ' ] [ [ [ [ [ [ ] } } } } [  .&.o.[ ] ' M F H H H ] ( ] ] ] ] ] / ] o.-.C.C.C.,.,.,.<.;.;.q.C.C.;.;.;.;.&.;.,.,.C.C.F.C.-.+.X.@.$.g.g.$.$.$.$.$.T U U I U m q : ; ; : t t A G K T T U U U $.g.M.I.^.I.^.I.^.}.|.|.^.m.z.y.y.k.i.i.y.u.u.u.O.t.h.g.T x < - o > > > > >                                                                                                                                                                                   ",
"                                                                                                                                                          > , , h 1 , - - ; z A c c c l l U $.$.y.i.y.%.u.+.u.z.^./.|.|.}.}.}.}.}.}./././.}.{.{./.P.G.P.E.W.G.c.k.+.N i i b H L H D t : q t C t z C Z C x z x x y x H H n n n n M ' #.=.9.=.=.;.8.=.8.8.8.8.;.;.;.;.8.*.] ] ] ] ] ] ] ] ] ] [ [ ] ] [ -.C.F.Y.K.S.J.S.S.K.K.K.).K.Y.Y.H.C.-.&.&.&.&.&.-.-.-.%.%.y.k.v.h.$.I c x x x l l x c w q ; ; ; : q x G G Y Y @.T U $.$.y.z.x.M.m.m.m.P.^.}.|.^.m.z.y.y.k.i.i.u.u.i.u.t.y.b.v.$.A < - $ > - ; < < < <                                                                                                                                                                               ",
"                                                                                                                                                        $ > > > 1 1 , , < z A G G G m c m U $.$.%.y.%.%.%.+.u.p.P.^./.^.^.^.^.^.}.}.}.}.}.}. X/./.U.U.^.~.~.P.G.b.7.X.M H @.2.5.2.G t - $ - - - ; < q q t t t y y y b n N i N N n ] *.C.Z.C.C.Z.F.D.F.E.H.K.K.K.K.H.F.8.o.] ] [ ] ] ] ] [ [ } [ ] ] o.8.C.K._._.Y.J.L.T._.&X:X6X:X5X6X4X).l.&.[ / / ( o.#.%.-.-.y.z.z.h.$.G t ; q q q q q q q ; ; ; ; : t x G G Y Y @.T @.@.$.%.y.k.z.i.i.p.x.M.I.^.M.x.z.z.z.b.x.x.z.x.m.x.x.N.V.V.g.A : - $ ; ; < < < < < ,                                                                                                                                                                             ",
"                                                                                                                                                        o $ > > 1 < , e S K K G U U U I U T $.$.+.%.+.+.+.+.+.i.x.m.M.m.x.x.M.P.^./.}.}.}.}.{././.I.P.P.(.(.P.G.b.k.+.+.%.5.j.n.4.K t $ $ $ - o $ ; ; ; : q q q y y b b i i s N n [ 8.H.K.K.K.K.!.)._.].%X%X%X&X&X&X].F.*.( ( ] ] ] ] ] ] [ [ [ [ ] o.;.C.K._._.T.T.T.T.*X0XwXrXiXiXpXuX4XG.o.( s N n ( o.%.-.-.u.p.z.h.$.G q - : t t q t q q ; - - - ; t x G G I T T T X.@.$.$.%.y.y.%.$.+.y.z.p.x.x.x.b.M.^./.^.I.M.P.^.^.I.^.|.^.j.G q - - < < q : ; < < , >                                                                                                                                                                           ",
"                                                                                                                                                        o $ $ - , < < f K Y Y T T T U U U T $.$.O.$.+.+.+.+.t.t.i.i.i.k.i.u.z.m.I.}.}.}.}.}././.I.I.P.A.A.G.G.A.b.l.-.%.y.k.n.n.4.K t - o $ $ $ $ - ; ; - : q q w y a b b b n N n ( ;.K.L.L.T.T._._.$X=X%X&X:X:X:X:X&XK.&.( ( ( ] ] ( ( ( ] [ [ ] ( [ ;.C.K.]._.T.L.L.#X:X0XrXrXgXgXzXaX8XE.-.n i N M ] #.%.-.i.i.p.z.g.$.I z ; < < < t x x q q 9 ; 9 q x G G G H U @.@.@.@.$.$.$.%.%.%.O.O.+.t.i.y.y.z.b.^.|.|.|.}.^.^.}.}.^.}.|.^.j.I z ; , f z z z : : , , $ -                                                                                                                                                                         ",
"                                                                                                                                                        o $ $ $ , < e C K E T T T $.O.U U $.$.$.$.%.t.+.+.t.t.t.+.+.+.%.+.+.y.x.I.}.}.}.}.}./././.I.P.A.G.P.P.G.b.l.-.%.g.k.k.j.4.K t - o - $ $ $ - ; ; : q q t q y a b b n n N n ( ;.S.L.L.T.T.$X$X%X%X>X>X>X,X,X:X*XK.:.( [ [ ] [ [ ( ( [ [ [ ( ( o.;.Z.Y.]._.T.L.L.$X:X0XrXpXpXpXzXhX7X~.-.N a b M @.+.-.i.i.u.p.z.h.4.K x < < < t C A A x w q t r x D L Y Y H H X.@.U @.X.$.$.%.y.%.$.+.%.y.y.t.y.z.M.^.|.@X|.|.^.^.^.^.^.^.|.^.v.Y Z : < C S A Z q < : ; - >                                                                                                                                                                         ",
"                                                                                                                                                      . $ > $ $ ; < t Z Y E T T $.$.$.O.T O.$.$.$.%.%.%.%.%.%.%.X.X.O.O.X.X.%.z.P.}.}.}././.^.^.P.I.P.A.A.A.A.b.b.z.-.%.y.k.k.h.4.I q - $ - - $ $ - ; ; : q t t q y y b n n n n n ( ;.S.J.L.T.T.#X#X$X=X=X>X>X,X,X,X:X!.:.) [ [ ] ] ] ( ( ( [ ' / / [ ;.C.).$X_.T.J.J.T.%X,X0XeXrXrXgXaX8XE.-.n b n H X.%.i.i.i.u.p.x.h.$.K z ; < < t C A A x y b b D D H Y @.Y H H U U U U X.X.$.%.5.%.%.%.t.y.%.O.+.k.M./.@X@X|.|.}./.}.I.I.^.|.|.V.$.A q < C G G A t < ; ; - >                                                                                                                                                                         ",
"                                                                                                                                                      . $ > $ - - < q Z Y E T T O.O.O.T U O.$.O.O.O.+.+.%.%.%.+.O.O.O.X.B B O.i.P.^.}.^.^.^.^./.^.P.P.P.P.P.P.A.x.k.-.%.y.g.k.h.$.G q - $ - > $ $ - - - : q t q q q w b n F n b N / :.Z.J.J.T.#X#X=X=X>X>X:X,X,X,X,X:XK.:.) ( [ ( ( ( ( ( ( ' / n n [ ;.C.K._.T.J.f.J.T.%X6XeXpXpXuXaXpX8XE.-.n N b U $.y.i.-.u.u.i.z.h.$.I z - ; < < t x b b b D D F D H L L L H H U U U U U U $.$.%.%.%.%.%.y.%.O.O.y.b.^.|.|.|.|.}.}.}.I.I.I.^.^.V.4.A q : Z A G A t : ; ; - >                                                                                                                                                                         ",
"                                                                                                                                                      . $ > - , ; < t z K T $.$.O.O.O.U U U U U O.O.O.O.O.+.%.+.O.O.O.X.B B $.k.M.^./.^./.^.^.^.P.M.b.G.P.P.b.b.x.k.%.%.%.k.k.h.$.G q $ $ - > $ $ $ $ - : t t t q q y b D F F b s / &.C.S.J.T.#X=X=X=X>X>X,X,X,X,X,X:XY.:.) ( [ ] ] ] ( ] ] ' / n n [ *.C.K._.L.J.J.J.Y.%X4X7XuXuXuXaXpX8XE.*.n i N U %.y.-.%.+.+.i.p.g.g.I z - - ; ; t y x D F H H H H H H H H H H U U I U U U X.$.%.5.%.%.y.g.%.O.O.y.m.^.|.|.^.}.}.}.}.I.P.I.^.^.b.$.c : : x x A A t : ; - - >                                                                                                                                                                         ",
"                                                                                                                                                      X $ & - ; , < q z K T $.$.+.$.O.U U U O.O.$.+.+.O.O.%.+.O.X.B B X.B X.$.k.m.I.^.^././.^.^.P.M.b.b.P.A.b.b.b.k.-.%.y.k.z.k.$.G q $ $ - - $ $ $ - - : q t t q t x b D H F b b / *.C.K.L.#X=X=X=X:X:X,X,X,X,X,XwX,XT.<.[ [ [ [ ] ( ( ( ( ' n n n ( *.C.K._.T.L.J.J.Y.`.4XeXsXsXsXzXaX7XQ.;.n N M X.y.k.i.i.i.i.i.z.g.$.I v - - - - : w y F n H H H F n H H H H H H U U I U U X.$.5.5.y.%.y.g.%.O.+.y.x.^.|.|.}.|.}.}.}.^.I.I.}.^.v.$.G q q z x A C q : ; ; - >                                                                                                                                                                         ",
"                                                                                                                                                      . $ $ $ - , < t x I T $.$.+.+.O.U U O.$.%.g.y.y.y.y.y.%.$.U B B X.X.X.$.y.x.P.^.^.^.^.P.P.P.x.z.z.b.z.z.z.k.k.%.%.y.k.k.k.O.m q ; - , < , , , , : < q t q q q x b D D b a a M *.D.S.L.T.T.=X=X*X,X0X,XwXwXwX,X:X_.C.=.=.*.*.#.o.[ [ [ ] ] ] ( [ -.D.K._._.K.K.L.Y.[.4XdXuX7X7XuXeXXXE.8.[ ] X.%.g.k.i.i.a.a.p.i.g.$.I z ; : ; ; q r a b b F M M n b b H H U H U T $.U U U X.$.%.5.%.%.y.g.y.+.+.i.x.I.}.}.|.|.^.^.}.I.I.I.^.M.z.$.G x t x x x z q : , ; - >                                                                                                                                                                         ",
"                                                                                                                                                      . $ $ $ - , < q x I T $.O.O.O.O.U U $.y.g.z.z.z.z.z.z.g.y.O.X.X.X.X.O.$.y.z.M.P.M.^.^.P.M.a.+.X.X.#.X.X.#.9.7.%.%.y.k.k.y.$.U c q t C g f t t t e t t t q : q t t y r w w w n #.C.C.C.Z.Z.J.J.T.$X=X=X>X>X,X:X>XT.Z.Z.D.C.C.l.8.8.8.8.8.*.-.*.-.C.F.)._._._.T.Y.H.H.A.G.W.A.G.U.~.C.;.*.[ o.#.%.g.g.%.+.i.i.i.y.$.$.U c q z t q y b D b b b b b a a N n m @.U U $.$.T U U U $.%.%.%.%.y.y.y.%.%.i.x.M.^.^.^.^.P.M.I.I.M.I.P.M.g.T G x x x x x q : - , , > >                                                                                                                                                                         ",
"                                                                                                                                                      . o $ - > , < t x I T $.O.O.O.X.U O.%.k.b.M.M.M.M.M.b.z.y.X.X.O.O.O.O.$.$.h.v.M.M.P.^.P.b.k.` ( ( / N n @.%.5.%.%.%.y.y.y.$.U G m c G A A x x x t q : ; ; - ; , , ; - - ; 9 s #.8.8.;.:.:.:.,.F.K.].$X#X=X=X=X$XT.T.K.K.K.S.S.S.C.C.C.C.C.C.C.D.F.K._.].$X_.]._.F.-.#.@.{ @.{ @.@.@.o.o.*.o.o.%.%.%.$.+.%.5.%.$.O.U B m m m m b b b G D y a a a a a w b H @.@.@.$.$.U U U U $.t.g.$.$.t.y.y.y.y.y.z.m.I.^.^.P.m.m.M.M.v.x.v.h.$.U G G c x x z t : - , , - >                                                                                                                                                                         ",
"                                                                                                                                                      . o $ - > , < t x I $.$.O.$.$.X.X.$.y.z.M.P.P.P.P.M.M.x.y.O.$.%.%.$.$.$.t.g.z.N.M.M.^.P.x.-.( n s s s s ] #.7.7.g.g.y.y.y.$.$.U I G G G G m m A x q ; - $ o o $ $ $ o o $ 9 a #.-.;.&._ _  .:.q.F._._.T.#X#X#XT.T.K.L.K.K.K.K.S.Z.Z.Z.S.C.F.F.F.H.K._._._._._.).C.[ a a y r r y b b n ] %.7.-.%.+.X.M M H X.U U X.X.X.X.X.X.X.U U U H G x y y y y y y b L @.$.$.$.$.$.U U U $.g.g.$.$.t.y.y.y.y.i.z.m.P.^.I.M.x.x.z.z.g.y.g.g.$.U U U I G x z t : - , , - > >                                                                                                                                                                       ",
"                                                                                                                                                      . o $ - > , < q x I $.$.O.O.+.O.X.$.g.z.M.^.P.P.P.M.M.b.y.%.%.y.y.y.$.$.y.k.z.v.M.P.^.P.x.-./ d d s s a H @.%.k.k.k.g.y.$.$.$.T U I Y K G G G G x < - o X X X X o X X X $ 9 a #.*.*.) ) ) /  .9.F.).T.L.T.T.T.L.L.L.L.K.J.K.K.S.Z.Z.S.Z.Z.Z.F.S.S.K.)._.R._._.).C./ 0 9 % ; ; 9 9 w b @.7.l.7.%.X.N w w l b b m B X.$.%.%.5.g.%.%.%.O.H b y y y y y y D @.5.5.5.5.g.$.U U O.$.g.g.y.t.y.y.i.i.p.p.x.m.P.P.M.m.x.p.i.%.O.O.t.$.T U T $.T K A z t : - , , - > >                                                                                                                                                                       ",
"                                                                                                                                                      . o $ - > , < q z I $.$.O.O.+.O.X.$.y.z.M.P.M.P.P.M.M.x.y.O.+.y.y.g.y.y.y.k.z.x.v.M.P.P.b.7.( n d s s a H @.5.7.k.g.g.$.O.$.$.T U I Y K G G G A z ; $ X . . . . X . . X $ 9 b #.7.-.[ ( ) ) &.D.Q.%X%XT.#XT.T.L.J.L.L.K.J.S.S.F.Z.Z.Z.Z.Z.Z.Z.Z.S.K.Y.R._.R.`.).C./ 0 9 % ; 9 e 0 9 w H 5.k.5.O.M w w w w b l b M X.$.%.g.g.5.5.5.5.%.H b y y w w y b G @.g.g.g.g.h.$.U U O.$.g.y.y.t.y.g.i.i.p.z.x.M.P.P.M.M.m.x.i.+.U U $.O.T T T $.T U G z : ; - , , - > $                                                                                                                                                                       ",
"                                                                                                                                                      X $ $ - > , < : z I T O.O.$.$.O.U O.y.z.M.P.M.M.M.M.M.x.y.X.X.O.y.g.g.g.y.i.p.z.z.b.P.G.b.7.( / n s s a F #.%.5.5.g.y.$.O.$.$.T U I I K G G G A t - $ X . X X X X . . X $ e F 3.c.8.*.o.[ *.q.'.2X6X5X=X=X=X$XT.L.T.T.K.K.K.K.K.F.S.S.Z.Z.Z.Z.S.S.S.Y.Y.`.R.`.[.A.( w 9 % 9 t t q 9 9 b H @.@.H b w w w w b l b M X.$.%.g.%.%.%.%.%.+.] b w y w w w x G @.g.g.g.g.k.%.O.O.O.%.y.y.y.y.y.k.z.k.p.z.x.M.M.P.M.M.M.m.z.%.U B O.O.T U U U T T G z : ; - , , > > >                                                                                                                                                                       ",
"                                                                                                                                                      X $ $ - - , < : z I T O.O.$.$.$.X.O.g.z.M.M.M.M.M.M.M.x.y.B B U $.g.h.g.y.i.i.z.x.M.M.G.b.7.( ! s s s a F #.%.5.5.5.%.$.O.$.$.T I I I I G G G A q - o X . X X X o X o $ - y H 5.9.8.*.*.o.*.D.'.8X7X:X%X$X$XT.L.L.L.L.K.L.K.K.K.K.K.K.S.Z.d.d.S.S.S.Y.`.`.`.;X4X).*.N w 9 e t t t q 9 y b G G b l w w w l l l l m X.+.y.k.-.-.%.%.%.%.@.N y y w w x b H $.g.g.g.g.g.y.O.O.O.%.y.y.y.y.k.z.z.z.z.x.x.M.M.M.M.M.M.M.b.y.O.U O.$.$.T U U U T G z : ; ; , , > > >                                                                                                                                                                       ",
"                                                                                                                                                      X $ $ - - , < : v I T O.O.$.%.O.U O.g.z.M.P.M.M.P.P.P.b.g.B B U $.y.g.g.y.i.z.b.M.P.M.G.b.7.( / ! s s d F @.%.5.5.5.%.$.O.$.$.T U I U I H G G A q - $ o X o $ $ $ % - , t D H @.3.#.} [ ] #.l.).[.2X%XL.T.T.L.L.L.K.K.L.K.K.K.K.K.K.K.K.Z.Z.S.S.S.H.U.).{.`.4X7X{.k.H l q t < e t t q q x x x x l x x x x l w l b X.%.7.k.k.k.k.k.k.-.#.M l x w w b b H $.g.k.g.g.k.y.+.+.+.y.i.k.i.i.z.b.b.x.x.x.m.M.M.M.M.M.M.P.m.p.+.O.O.O.O.T U U T T I x t < ; ; , > > >                                                                                                                                                                       ",
"                                                                                                                                                      X $ $ - - ; < : v I $.$.$.$.%.O.U X.g.z.M.P.M.M.P.P.P.M.g.B B U O.$.$.y.y.y.z.b.P.P.M.b.c.7.( / n n s s ' O.%.5.5.5.%.$.O.$.$.$.T T U I U I I G x ; $ $ $ $ - - : : < t Z D H { { { F F H } 7.W.'.].T.J.J.L.L.L.L.T.K.K.K.K.K.K.L.K.K.K.J.K.Y.Y.H.H.G.H.H.~.{.+X{.k.] y 9 t < t e t e q t t y y w x x D b b N N M X.-.k.l.k.z.z.l.l.l.+.M N x w w b m U %.k.k.g.y.k.y.+.+.u.u.p.z.z.z.x.M.b.b.x.x.M.P.P.P.I.P.P.P.m.p.t.O.O.O.O.O.O.$.T T I x q t , ; , > > >                                                                                                                                                                       ",
"                                                                                                                                                      X $ $ $ - ; : q v G $.$.X.X.X.U M U %.z.b.M.M.M.P.M.b.b.y.U B B U U T $.t.%.y.z.M.M.z.k.k.-.[ / / ' n n F ] @.%.5.%.$.O.U U T $.$.$.g.g.4.g.$.$.G v q q q x C A A C A D D D b y a w w w w n ] l.).&X%XT.T.$X$X=X=X$X_._.!._.L.T.T.T.T.T.T.T.&X`.).G.7.o.#.-.l.c.7.@.n y q t : t t q q q q q q q q x G Y @.%.+.+.-.7.k.l.l.l.l.l.l.l.l.+.M b l w b m M X.%.g.k.k.y.y.t.y.u.z.z.m.m.z.p.z.x.z.k.i.z.x.m.m.M.M.M.M.M.m.z.u.O.O.O.u.y.y.g.g.g.T G z : ; , , > > >                                                                                                                                                                       ",
"                                                                                                                                                      X $ $ $ - ; : : q G $.@.X.X.H M M M +.k.b.M.M.b.M.b.b.b.y.U B B B B U O.$.%.y.k.b.v.k.-.7.@.] ] ] ] F M M ] @.@.%.%.$.U U U $.$.g.h.h.h.h.v.v.g.T m l x x G G K G G K G G b y 0 9 9 9 9 9 w M 7.).4X&X$X$X=X&X:X:X%X%X&X$X_.K.T.T.T.%X_.$X`.6X;X).D.#.n n n H { H n y r q q t t t : < < : : : ; ; x H 4.n.B.b.c.b.b.x.G.G.A.x.l.l.x.l.+.B b b l b m M X.%.g.g.i.y.y.u.u.i.x.m.P.P.x.i.k.i.i.y.i.z.x.x.M.M.M.M.m.m.m.x.u.u.+.+.t.h.z.z.x.v.4.I x : ; ; , > > >                                                                                                                                                                       ",
"                                                                                                                                                      X $ $ $ - - ; : q G $.@.X.] H n N M +.k.b.P.P.b.b.b.b.M.g.U B B B U U T O.O.O.%.g.y.O.X.X.#.[ ] #.#.] ] ] X.X.$.$.$.$.O.U O.t.g.v.b.M.M.N.M.M.v.y.U m m G T Y Y Y Y Y H H x q 9 ; ; % % % 9 n k.{.7X9X:X:X,X0XeXeX0X9X5X*X$XT._.$X=X*X*X*X5XuX7X[.D.' 0 0 a a a a y y y y t t t t t : < : : : ; ; x @.n.V.(.(.(.G.G.A.A.A.G.A.A.x.x.l.%.` M m m M U X.$.y.k.z.z.z.i.p.z.x.I.I./.^.x.i.%.O.O.O.+.t.i.z.x.M.M.m.m.m.m.x.z.u.y.u.z.x.m.M.P.V.h.T x q ; ; , > > >                                                                                                                                                                       ",
"                                                                                                                                                      X $ $ $ - ; : : q G @.@.U H n b i n @.k.G.(.P.b.b.b.M.M.k.U U B B U U T T B B U U U m M M #.@.#.#.%.O.@.X.O.O.$.$.$.%.$.$.y.h.v.M.V.V.V.M.M.V.M.h.O.B U U T T @.T @.X.U U b y 9 9 e e e 9 9 n l.+XuXeX0XwXwXrXgXgXrXeXeX0X*X_.%X=X*X9X5X9X0XpXuXXXW.F 9 9 r w 0 0 w r y t t t z z C t t q t q ; 9 x @.B.(.+X{.~.~.U.U.H.H.H.U.G.A.A.x.i.X.U U U X.$.%.y.k.z.x.x.x.x.x.M.P.}.}.|.}.b.%.X.M M B X.+.y.y.z.m.M.m.x.m.M.M.x.x.z.z.m.M.M.M.I.V.v.$.c q ; ; , > > >                                                                                                                                                                       ",
"                                                                                                                                                      X $ $ $ - , : : q G Y H H F b i w i ] 8.G.(.P.G.G.M.M.M.y.U U I U U U T O.B V m m m m m U @.@.+.@.+.X.@.$.%.$.$.$.$.y.g.g.z.v.M.V.V.V.P.P.V.^.M.z.O.U U T U T T T @.@.X.U b t : ; e e , ; 9 b k.[.eXqX9X9XwXrXgXgXrXwXrXwX*X$X=X=X:X0X0X0X0XiXuXXXc.F 9 9 e 0 t t r y y y y t z z t t t t t q 9 9 b 3.B.(.XX{.~.U.U.H.H.U.U.U.U.A.A.b.i.X.B B U $.%.%.g.k.k.x.x.x.x.m.P.I.}.}.|.}.x.+.B m m B U $.y.y.z.x.m.x.x.m.m.m.m.x.x.x.m.M.m.M.P.M.v.$.A q ; , , > > >                                                                                                                                                                       ",
"                                                                                                                                                      X $ $ $ - , : ; q D H H b b i 0 0 i ] 7.c.(.P.(.(.W.M.b.y.B m m I U T $.$.U V m m c c m U X.@.@.#.O.O.O.$.%.%.$.$.$.g.h.h.v.M.M.V.M.N.M.M.M.V.M.h.O.U U T U U U U X.@.X.H b t 9 , e , * % 0 D 7.{.7X6X:X,X9XwXgXrXwXwXwX0X*X$X=X*X,XwX0X,X0XiXuXoXn.F 9 e t y g y y g Z x q q y t t t t t t q ; 9 b @.B.(.{.~.H.A.A.A.A.A.H.H.G.A.A.x.y.X.B B U $.y.y.y.i.k.x.x.x.x.m.P.^./.^.|./.x.+.U m M U $.t.g.y.g.z.x.x.x.x.m.m.m.x.x.x.m.M.m.m.M.M.v.$.A q ; , , > > >                                                                                                                                                                       ",
"                                                                                                                                                      X $ $ - - , 9 ; q D H b i a 0 0 0 i ' *.8.b.P.W.(.M.b.v.%.B m m V U T T T U V m c c c G I X.@.X.X.X.O.$.t.g.%.%.y.g.z.z.z.v.M.V.M.N.N.M.M.M.M.b.g.$.O.O.O.$.O.X.U X.@.U H m x e e t , , - q G k.'.7X6X5X,X,XwXfXfXwXwXwXwX>X$X=X>X,XwX0X0X0XpXuXoXn.J 9 e t t x y y x x x y l x x x x A A x t q q b @.B.~.{.U.S.S.S.S.S.H.H.H.G.A.G.x.%.X.B U U $.g.y.g.i.z.x.m.x.x.m.I.^.I.^.}.^.z.+.U M U U $.t.y.t.y.y.x.p.p.x.m.M.M.m.m.m.m.M.m.m.m.M.v.$.m t ; , , > > >                                                                                                                                                                       ",
"                                                                                                                                                      X $ $ - - , e 9 q D H b 0 0 0 0 0 i n [ *.l.l.b.G.b.c.z.%.U B m B U U T T U V V m c c m I T @.$.$.O.O.$.y.g.g.g.k.z.z.z.z.v.M.M.M.M.N.M.I.^.V.M.h.y.$.$.$.$.$.@.@.@.X.X.H G x t e t e , , t D k.'.7X6X:X,X,XwXfXfXwXwXrXwX,X=X>X,X0XwXwX,X0XpXqX{.n.F 9 e t t y y x x G G x c b m G G K Y K D y w n 5.B.~.~.F.C.C.C.S.S.S.H.U.U.A.A.l.%.X.m B U $.g.y.y.i.p.x.m.x.x.M.I.^.I.^.}.^.z.$.X.M U U $.g.y.y.y.y.p.p.z.x.M.I.I.P.m.m.M.M.m.m.P.M.v.$.A t ; ; , > > >                                                                                                                                                                       ",
"                                                                                                                                                      o & - $ - - , t x H L b 0 0 5 7 p p ! ) ) [ *.8.8.7.-.%.+.M U U U U U U U V V I m m c G m U T $.O.$.X.U 5.5.k.v.z.x.x.x.x.m.N.M.M.N.m.m.m.M.M.N.z.t.+.$.$.$.$.$.$.X.X.X.U m b q ; : e e % t F 7.'.6X:X:X,X,XwXrXfXrXrXrXrX,X,X:X:X0XwXwX0XwXpXqX{.c.F 9 e t t t y x x D L I m G I T T @.2.@.L n n ] #.9.9.c.-.*.-.C.F.H.H.H.A.G.G.b.z.%.H H m U $.%.%.y.z.x.x.b.x.z.x.P.^.I.I.^.I.z.$.U G U T $.$.%.y.y.k.i.i.i.x.M.^.I.P.m.m.m.m.m.m.M.M.v.$.G t ; , , > , ,                                                                                                                                                                       ",
"                                                                                                                                                      X $ - $ $ , , t x H X.b 0 r 6 6 7 p d d d ! ) [ [ ( ] ] M M M M U V V V V V V I G G c x c G U $.U X.X.H $.5.k.v.z.x.m.x.x.m.M.P.M.m.m.m.s.m.M.M.z.+.O.O.$.$.$.$.U U X.X.X.I m q 9 ; 9 e ; e F 3.~.4X;X%X>X:X0XwXrXrXrXrXrX0X0X,X,X0X0X0X,X,XtXqX[.c.F 9 9 x t t v y b H L T T T $.$.$.5.5.3.@.{ H ] ] ] ' ' n n [ ;.C.H.H.H.A.G.A.b.k.%.H m m U U $.%.y.k.z.x.z.z.i.i.z.x.P.P.^.P.h.O.U m I Y @.$.$.%.g.y.y.y.y.z.M.^.I.P.m.m.m.m.m.m.M.M.v.T c q ; , , - > ,                                                                                                                                                                       ",
"                                                                                                                                                      o - - $ - : t x G @.@.b 9 4 6 6 7 p p d d d ! ! n d n N N n M U U I m m m V m G G A x x l m U $.U U U m @.g.k.v.x.b.M.m.x.M.P.^.^.I.I.P.m.P.I.M.z.O.U X.X.%.%.$.X.U X.X.X.U m q 9 ; : : % e b 3.~.4X4X&X:X:X0XwXwXwXrXrXrX0X0X0X0X0X0X0X0X0XrXdX{.c.b % ; t t t l x b H @.$.$.$.%.%.$.$.%.3.@.#.] ' n s i d u i / *.C.F.H.A.A.G.A.b.k.%.H b m G U U $.y.k.x.b.x.z.k.y.k.z.M.M.P.M.g.U U m H Y @.T X.%.g.y.y.y.y.x.P.^.I.P.M.m.m.m.m.m.M.N.h.T c q : , , - > ,                                                                                                                                                                       ",
"                                                                                                                                                      $ , , , , t t G Y 5.$.n 9 4 3 3 6 7 p d d ! ! ! d d N N N n H U U U I I I c c A A A x x c G U $.O.U U m X.k.v.b.b.M.M.M.M.P.^././.|.|././././.(.k.X.M H X.O.$.O.X.X.X.O.O.U G y 9 ; : : ; e D 7.oX8X8X4X6X0XwXrXrXrXrXrXrXrXrX0X0XeXrXrXeXrXzXuX+XB.F % 9 z x x c b H @.%.%.%.y.%.$.X.X.%.%.3.@.} ' s a a d u i / *.C.F.U.A.A.G.A.c.k.$.M m G H I U O.%.y.z.z.z.k.%.%.k.k.x.m.P.V.h.T H m G Y @.T @.5.g.y.y.y.g.x.P.^.^.P.M.M.m.x.m.m.m.M.h.T A q : , , , > , >                                                                                                                                                                     ",
"                                                                                                                                                      , < e < t t Z K $.g.5.n 9 4 3 3 5 7 d d d ! ! ! s s s n b n H H I I I U U A c A A x z x A G U $.O.U B m X.k.v.b.M.M.P.P.P.P.(.(.(.{.{.{./.(.(.b.5.H n M H ] X.@.X.@.X.X.O.@.H x q : 9 , ; e J 9.oX8X+XXX4X4X0XiXpXgXgXrXrXiXrXeXeXeXeXeX7XuXaXdX+XB.D ; 9 t x m G H X.@.5.%.y.g.%.+.@.X.%.%.#.#.] F a p u u 7 u / ..q.E.).H.G.G.A.c.k.O.M m G H U U U $.%.k.k.k.y.%.%.7.k.z.z.M.b.g.U G m G Y Y Y $.%.g.y.%.%.g.v.^./.^.I.M.M.x.x.m.M.M.M.h.T A t : < < , , < >                                                                                                                                                                     ",
"                                                                                                                                                      e f t t t q x G T $.$.m 0 0 0 5 0 u d d d d s s s s n n b b b m G G G G I c z q q : : q x G T $.O.U m m $.k.z.b.m.m.P.P.P.(.W.b.b.b.b.b.c.c.k.3.H a i i i b n ] @.@.X.X.X.@.H x q ; : : ; e D 3.W.(.(.W.~.).;XqXiXgXgXgXrXgXpXiXeXeX7X7X4X8XyX8XoXB.D ; 9 v c G U U X.O.+.%.%.%.%.#.X.@.#.#.@.} ' s p 0 5 7 5 5 s [ 8.G.).H.G.G.G.l.-.@.b b G m m m U $.$.$.y.%.$.X.X.+.+.%.y.h.h.$.G m c A G G Y T $.%.%.$.$.y.v.^.|.|./.^.P.m.x.x.x.x.v.g.Y x t : < < , , < 1                                                                                                                                                                     ",
"                                                                                                                                                    < C S C C z t x G I $.$.H i a a a a a a i d d d s s s n n b a x b b m G c c z : - - - - ; t G T 4.$.U B m $.z.b.M.M.M.P././.P.c.@.] ] } [ ] ' F s u 0 5 0 0 u N H ] X.@.#.X.@.H b q 9 9 9 ; 0 y J 2.5.#.@.#.C.).6XiXpXpXpXpXgXhXpXeX8X[.'.(.(.(.(.V.n.G q x x G U T X.X.+.+.+.+.%.%.#.X.X.#.o.[ ' s a r 5 7 7 7 5 p ' *.D.).U.G.G.b.k.%.] N b b b b m U U U M X.X.U M M H H U U $.T G x x x x x c G U T X.$.@.O.$.k.P./.|./.^.P.M.z.z.z.z.h.4.I x t : t 1 , , 1 <                                                                                                                                                                     ",
"                                                                                                                                                    , C S x z z x c G I $.$.$.H { @.2.{ { F s d d d d a a a a a y x x x m c x z : - - - $ $ : t G T g.$.$.U B $.v.b.M.M.P.P./.{.G.7.H i u a i u u u 7 5 5 5 5 0 0 i / ] @.#.#.#.5.@.D r 0 0 q 0 t r y D F a a n ] ;.).4X7X6X0X0XrXiXeX XH.7.o.X.@.$.@.@.Y D t G G T $.%.%.%.%.%.%.%.%.-.-.o.%.%.#.[ F a 0 7 7 7 p 5 5 u s *.D.'.E.A.G.l.-.+.M i N b b b b H H M M X.$.O.X.X.X.U m m G G x q t t x t x G I U U X.U U X.y.b.^.^.^.P.M.x.z.z.z.x.v.4.Y x t t t t < < 1 ,                                                                                                                                                                     ",
"                                                                                                                                                  , < f C t q z x m G U $.$.%.%.k.n.n.n.5.' a i u u u a a a a a y x x x x x z : : - - - - - ; q A T j.g.y.$.U $.v.M.M.P.P.I./.{.b.@.s 3 3 3 3 3 3 5 5 5 5 5 5 5 7 d s ' [ +.+.@.3.#.H a w r w w r w 0 0 9 4 9 0 i #.A.).[.&X&X:XeXuX8X~.-.i 0 9 q 9 q w x x m G Y T g.g.%.%.i.z.-.7.-.7.7.7.-.7.*.#.F a 0 5 7 7 p 7 5 p s *.D.).G.A.l.l.-.X.n N N N b b b n H H H @.5.%.@.@.@.H b x x z q q q x x q x G G I U U U M U $.k.b.M.V.b.x.z.k.z.v.v.v.g.Y x t t t f < < f < ,                                                                                                                                                                   ",
"                                                                                                                                                $ ; < C x t q q l c m U $.$.y.%.k.k.n.n.5.H a i 0 u a a a a a y y x x x A x z q - - - - - - ; : x T g.g.y.O.U $.z.N.M.P.P.I././.b.#.s 3 3 3 5 3 5 5 5 5 5 5 7 7 7 u p s ' ] #.3.3.3.' b a a b a a q 0 0 0 9 9 e b #.G.).`.`.%X&X6X7X4X~.+.w 9 q 9 q q y x x G G I U $.%.%.%.i.i.-.7.-.7.7.7.7.l.7.#.F p 5 3 6 6 p 6 6 5 s } 8.H.A.C.l.a.-.o.] ( ] o.o.] M H ' H H @.5.5.4.@.Y G x t q q q : q z x q x x m G U U U H U X.%.g.z.v.x.x.z.z.z.v.v.v.g.I x t t e e , , < < ; -                                                                                                                                                                 ",
"                                                                                                                                                $ , t C x q q q l l m U $.y.y.t.g.k.n.k.5.H i w 0 w w a a a a y y y x x A A x z - - - - - - - : x T g.t.t.T B $.z.N.M.P.I.I././.G.#.s 3 3 3 5 5 5 5 5 5 7 7 7 8 7 7 7 d s ' } 3.3.#.] n s b n n n w w r t ; 9 y n -.G.)._.`.].%X6X7X4XE.@.9 9 q t q q x x m G m G U @.$.%.%.-.i.%.%.%.7.7.7.c.c.9.3.F p 5 3 3 6 6 6 3 5 d ] -.D.C.C.a.-.&.o.o.*.8.l.l.#.[ o.@.] H 2.5.5.4.@.Y G t q : : : : : z z q q l l b M H U U m U U O.$.y.z.z.z.z.z.z.z.h.$.G x q : : , ; - ; ; - - $ o                                                                                                                                                             ",
"                                                                                                                                              X $ < C S G x q v l c m U $.g.g.y.y.i.z.k.$.M w w 9 w r y b b b x y x x A A G c z : - - ; ; - ; : x I 4.$.$.U B $.z.N.M.P.I.I././.b.#.s 4 3 3 6 3 5 5 5 5 7 7 7 7 8 7 7 7 d s ' } } } [ ] / ( ] ] } n a y r ; e y F 7.W.'._._._.%X5X7X4XE.@.q q t t t t c m m U U U U X.$.%.%.%.%.%.%.%.7.7.5.9.9.3.{ k p 5 3 6 6 6 3 3 5 d [ 8.H.H.A.C.;.;.:.;.C.D.H.D.8.&.*.#.] ' @.2.@.Y I G x t q ; : : : q C z q q l l m U U U U U U U U O.t.y.h.z.z.z.z.z.h.$.G c q : : , ; ; ; ; ; ; - - -                                                                                                                                                           ",
"                                                                                                                                              $ , f S Y E T G c m m U U t.g.h.y.y.p.z.z.$.U b l q w x b D D b b l x x x G G c z : - ; ; ; ; ; : x I $.O.$.U m $.x.P.P.I.I.I././.b.#.s 4 3 6 3 3 5 5 5 5 7 7 8 8 7 7 7 7 7 u s s s ' [ *.*.*.8.8.7.@.b x r ; e y F 9.~.{.`.`.$X=X5X7X+XW.@.q t t f t x m G U U X.U U @.O.X.X.O.+.-.7.7.5.#.' F F F k s 7 5 6 6 5 5 3 5 s } 8.E.{.`.).Y.S.d.q.C.F.F.K.F.;.:.=.*.} H { L G A x x z z < : < : q z Z x z x x m U T U O.U U $.$.$.y.g.h.z.z.z.z.x.v.v.t.I m x t t t t : : q < < , ; > O                                                                                                                                                         ",
"                                                                                                                                            $ - , S R E j.4.T I U U U O.t.g.h.y.p.p.z.p.y.O.m c x c c G G G m b x x c x A G c z : - - ; ; ; : : x I U U U V m $.x.P.P.I.P.I././.c.@.a 3 3 6 3 3 5 5 5 5 7 8 8 8 7 8 7 7 8 7 7 7 d / ..8.q.8.C.D.l.#.H b t ; , y F 9.~.'.`._._.=X:X6X[.G.L q < < t t x G U U X.X.U @.@.@.X.X.X.X.%.-.5.@.F a r r r r 5 5 5 5 6 5 6 5 s #.D.'.+X4X4X;X[.).S.Z.Z.F.L.L.Z.,.:.&. .] H H D x q q q z t : : < q q z Z x x c m m T $.$.$.O.$.$.y.y.g.h.z.z.z.z.z.z.v.z.t.I m x x Z S x x Z S A Z t , ; o                                                                                                                                                         ",
"                                                                                                                                            $ > , S E 4.j.j.T $.T T T U $.g.h.p.u.u.p.p.g.t.T G G G G I I G m c c x x x c G c x : - - - ; ; : q x m I m V m m $.x.M.P.P.P.P././.l.] a 4 3 6 6 3 5 5 5 5 8 8 8 8 7 8 7 7 7 5 5 7 d / =.w.D.q.q.C.l.-.] b 9 ; , t D 9.W.'.).Y.T.$X;X;X`.b.L q < < e t A I $.$.$.O.O.$.5.@.X.H U X.+.%.@.] a 9 4 4 3 3 3 6 5 5 5 5 5 d } W.+X7X7X6X6X4X;X[.!.Z.Z.Z.J.L.e.<. .) ) ] H F x q : : q z < ; : < q q z Z z z x m U $.g.$.$.$.O.$.g.g.g.z.z.z.z.z.h.z.z.h.$.I c x A G K A A A A G S z : - o                                                                                                                                                         ",
"                                                                                                                                          O $ - < K E j.j.j.g.g.$.$.U U $.g.z.h.p.u.p.z.z.g.$.T I I I I I G m c c x l l c A c z : - - - ; ; : q z c m l m l l $.x.M.P.P.P.P.I.I.l.] a 3 3 6 3 3 5 5 5 5 8 7 8 8 8 8 8 7 7 7 7 7 7 ! =.F.F.q.q.C.8.-.@.b 9 ; ; e b 5.W.).).Y.T.`.&X;X).c.H q , < e t A T $.y.%.%.%.%.5.$.X.H X.X.%.%.@.H 0 # @ # # # # 3 5 0 u 7 u s 9.oXdXsXuX6X6X5X6X;X_.K.C.w.w.e.w.<._ ! ! / H F x q : : q z ; ; : q q q z x z v l m T g.v.h.g.$.O.t.g.h.z.z.z.z.z.h.h.h.z.z.$.m x x A K Y K G A A A K Z q ; > .                                                                                                                                                       ",
"                                                                                                                                          & , - t G E 4.4.t.$.t.$.O.O.O.y.z.z.z.z.z.z.z.x.z.y.O.X.X.U O.$.T G c x x x A A G G x : ; - - - ; : q z c m c m l c $.b.M.M.m.m.m.I.P.k.] a 3 3 6 6 3 5 5 6 5 7 8 8 8 d d d d 7 p 7 p d | 8.F.Z.,.d.l.l.7.@.b 9 % , t b #.W.).).Y.R.T.;X4X{.c.H q : < t t G $.g.y.y.i.y.k.k.-.+.X.O.%.k.5.%.L w # # # = # # 3 6 s k d s } q.].yXuX7X6X:X:X;X%X_.Y.S.C.Z.F.w.:.[ / / ] ] H D t t z x z < < : : : v x c x x c G $.v.P.P.x.z.p.p.z.x.x.x.b.b.x.z.z.z.z.z.$.U G A G K Y K G c m I I A q < > o                                                                                                                                                       ",
"                                                                                                                                          > , - , S Y T $.$.$.$.$.$.O.t.y.z.z.z.x.z.x.x.x.z.y.+.O.O.$.$.$.T I G x x A A A G G x : ; - - - ; : : z m I c m l c $.v.M.M.m.m.m.I.P.7.] u 3 5 6 3 3 3 3 5 5 8 8 d d d ~ ~ 8 8 8 p 8 d ! 8.F.C.,.a.l.8.7.} a 9 % e y n 5.~.'.).Y.R.`.;X4X{.c.H q : t t z G $.h.h.i.p.i.p.l.i.%.%.%.%.k.k.5.L y # # = = = # 4 7 k | | | ..w.].7XqX6X5X:X:X;X%X`._.Y.S.w.w.q...) / / ] ] H G x x x x x : < : : q z x c x x c I $.M./.}.^.P.m.m.m.m.m.m.b.b.b.x.x.x.z.h.$.U G G G K Y L G m l m G A z < , $                                                                                                                                                       ",
"                                                                                                                                        & , , $ : C K T $.$.$.$.t.t.$.t.y.z.z.z.z.N.m.x.x.z.i.t.%.+.$.$.$.$.T G x x A A G G G x q ; - - ; ; : : z c I m m c c $.z.m.x.x.x.x.P.x.-.] u 3 5 6 3 3 5 5 5 5 7 8 d d d ~ ~ ~ d 8 8 8 d ! ..w.w.;.;.;.8.%.{ j e % , t F 5.~.{.).).).`.;X8X{.b.L 9 : t t z G $.g.h.i.p.l.x.x.z.k.-.-.i.k.k.5.L w % # * # # # 4 5 ' .... .:.w.].8X7X7XeXeX7X6X;X`.`.K.C.q.q... .| / ' ] H L L G A S Z z < : ; : q x c A c x x G $.M.|.|.|.^.I.P.M.M.m.m.m.m.x.x.N.N.z.y.$.G c c G G G G m m l m c x q < , ,                                                                                                                                                       ",
"                                                                                                                                      & > < < - , S Y $.$.$.$.$.y.t.t.y.y.z.z.x.N.N.m.x.z.p.y.y.%.%.$.$.$.T T G x x A A G G G z : ; - - - ; ; : v c I m G c x T k.x.x.x.p.p.x.x.%.M 0 3 3 3 3 3 3 3 5 5 7 d d ~ d ~ ~ ~ d 8 8 8 d ! ..q.q.;.;.-.7.3.L y 9 % , e D 5.(.{.'.).).`.4X8X{.n.H 9 : t t z G $.g.p.i.p.x.x.x.l.k.i.-.k.7.5.@.F w 4 # # # # # 4 u ' =.=.:.=.q.Q.4X7X7XuXsXuX7X4X&X[.K.,.....) ) / / ' F F H L K G S z t < ; ; ; q x c A c v l m O.x.^.}.^.^.I.I.I.M.m.m.M.M.m.m.N.N.z.y.O.m l c G G G G m m m c x x q , , , ,                                                                                                                                                     ",
"                                                                                                                                    & & , 1 < < t G E g.g.t.$.t.g.y.t.y.y.z.x.N.m.N.M.x.z.p.y.y.y.y.y.$.$.$.T I c x A A G G G z : - - - - - ; : q A I I I c x I y.z.z.x.p.p.x.a.+.F 0 3 3 6 6 3 5 3 5 5 u d ! ! ~ ~ ~ ~ d d p 8 d ! ..8.8.;.;.7.7.3.L y , % & , y L n.W.G.D.G.H.).{.W.7.H 9 : t t x I t.z.z.z.p.x.x.x.x.k.-.%.%.+.@.' F a r 4 4 4 4 4 r ' *.w.w.<.q.C.E.'.[.oX+X8X+X[.].`.].K.,. .) ! ! ! ' ' b y D G G S C t < ; - - ; q x G G c x l m T z.I.^.^.I.P.I.I.I.m.M.M.M.N.N.N.x.p.y.U m m m U I I U m m m m x t : ; - , , >                                                                                                                                                   ",
"                                                                                                                                  O & > 1 f f C A Y 4.g.g.y.t.y.g.g.y.y.z.z.x.x.M.M.m.x.z.p.k.y.y.g.g.y.t.4.T T G A A A G K G x : - - - - - - : z A T I K c x Y $.k.p.p.p.p.z.y.@.n 0 4 3 6 6 6 3 3 5 7 p s ! ! ! ~ ~ ! ! d p p d ! ..8.8.=.-.-.7.#.P g , $ & * ; y L 3.3.#.-.7.D.G.n.3.D 9 9 q t x I g.x.x.x.m.A.P.A.x.k.+.X.X.@.] H F a r r 5 4 4 p k [ q.F.Z.w.F.K.H.E.G.c.B.W.W.D.C.F.K.Z.<. .! ~ ! ! ' F a w y t t t < , ; - - - : z A G G m c b m O.z.M.I.I.P.m.m.P.I.I.I.P.M.N.N.x.x.p.y.U B B U O.$.$.U B U G m x q ; - $ - > > &                                                                                                                                                 ",
"                                                                                                                                  $ $ , f f C K K T $.g.g.g.t.y.y.y.y.h.z.z.z.z.x.x.z.p.i.i.i.y.t.y.g.y.t.t.$.U G c A G A I A Z : - - - - - - ; q A K G G x z I $.y.y.u.u.y.i.%.] b 0 4 3 6 6 3 3 3 5 7 p s ! ! ! ! ! ! ! d p 8 d ! ..8.=.*.*.*.3.@.J t * $ & $ ; t Z J H H ] ] #.5.@.H b ; : t q x U g.x.x.x.m.P.U.P.x.-.#.` ] ( M F F a p 0 p p a ' } =.w.F.Z.Z.L.K.F.l.*.} { 3.3.#.*.q.K.F.,...) ! ! s F F 0 9 9 : ; ; ; ; - - - - : z Z G G A c b m U y.m.m.m.m.p.m.m.m.P.I.M.M.N.N.N.N.z.y.O.O.O.$.g.h.h.$.U V m c x t : - $ $ $ > O                                                                                                                                                 ",
"                                                                                                                                X $ - , C C A Y Y T T $.g.y.y.y.t.y.h.z.z.h.y.y.u.u.u.u.y.y.y.%.+.y.g.y.t.t.$.T m c c A A K A x : - - - - - - ; : x G A x z q G U %.%.+.+.+.%.$.H b 9 # 4 6 6 3 3 3 3 5 s s s s ! s d d d d p p p ! ..9.=.*.*.*.#.{ D t % $ $ $ $ $ % 9 w w i i b F b b r ; : t q x U g.b.m.m.m.P.P.P.x.-.X.( ( n M n n a u u d ' } 7.8.q.Z.F.Z.f.L.K.C.#.F w 0 0 0 a s &.F.L.Z.<.) ! ! s F F r 9 ; - $ $ - - - o - ; : q x A G A x b m U y.x.x.p.p.a.m.m.P.m.m.M.V.V.M.N.N.z.h.y.y.y.p.z.M.M.g.O.m l x x q ; - - $ $ > & X                                                                                                                                               ",
"                                                                                                                                $ $ : t C A G Y T T T O.t.y.u.y.t.y.p.z.x.z.y.O.O.O.O.O.+.y.y.+.$.y.y.y.g.y.$.T m m m G G G G x : - - $ - - - - : : z z t q : x I U O.U U U O.X.H a 9 4 4 4 3 3 3 3 5 5 p s k s d d d k k p p 8 8 ! } =.*.*.*.*.3.{ D t $ o X $ $ $ % ; 9 9 0 0 w b a r 0 9 ; e q x U h.m.M.m.m.P.P.P.x.i.+.` ( M M H ] s u d s | 8.D.F.K.K.J.Z.J.T._.C.[ a 9 # % 4 4 u *.F.L.Z.q. .! | ' s a r - $ $ $ $ $ $ - - - - : q x A G A x b m U y.x.p.p.p.a.m.m.P.I.m.M.V.M.N.N.h.g.h.h.N.x.x.M.M.M.z.$.m l x x x q - $ $ $ $ & X                                                                                                                                               ",
"                                                                                                                                $ - < z x A G I U U T O.t.u.u.y.y.p.z.x.N.z.t.` ` ` ` ` +.y.i.y.t.y.g.g.g.g.g.$.U m m I I I G x : - $ $ - $ - - : : q : ; ; : Z H U U B U U U U m y 9 # # 4 4 3 6 6 5 r d k k k p p p p p p p p d ! *.8.-.*.*.-.@.{ D e $ @ X o $ $ % : e 0 w w y b b r t e e t q x I h.M.m.P.P.P.U.P.x.z.%.o.` ] M [ #./ d s ' *.w.E.Q.!.K.L.J.J.T.].D.} a 9 % % 4 4 a *.F.K.Z.<. .^ | ' F j y - $ $ $ $ $ $ - $ - - ; q x A G A c b m U y.x.p.i.p.a.m.m.I.I.P.V.V.M.z.h.t.4.g.z.M.N.m.M.M.N.h.$.m l x A x q : $ $ $ $ $ O                                                                                                                                               ",
"                                                                                                                                - ; t x x x m U U T T $.y.y.t.y.y.p.x.m.M.x.t.B ` ` ` X.+.y.i.y.y.i.k.z.k.k.k.g.$.T T T U T I A : - $ $ $ $ - ; - - ; - - - - x G H U U B U U U D x 0 4 4 4 4 4 6 6 5 7 u p p u 7 7 p p p p p p p ! ..8.;.*.*.*.@.@.D t % $ $ $ $ $ , e t y r r x D D y t 9 ; 9 t x U h.m.P.P.U.U.U.I.P.x.l.i.-.%.#.7.7.} / | [ 9.E.Q.!.!.K.L.L.J._.].D.} a r e 4 r 0 a *.F.F.Z.<. .) | ' ' D y - $ $ $ $ $ $ - $ $ $ ; q x A A A x b m O.y.x.p.p.p.s.m.P.I.V.M.M.M.z.$.U I K $.j.V.V.M.N.m.m.y.$.G x A G S t t $ $ $ $ > O                                                                                                                                               ",
"                                                                                                                                - : t x x x c m I T $.t.g.y.y.p.p.z.x.m.M.x.t.B O.O.+.+.+.y.i.i.i.z.z.p.k.k.k.k.y.y.g.g.$.T I x : - $ $ $ $ - - - - : ; ; - - t G G I I U U U H G b r 9 9 0 0 4 5 6 5 5 5 5 5 5 5 5 7 7 7 7 7 7 p ! } 8.-.*.*.#.+.@.H y 9 - % % - $ - , t y y y D J D y t 9 ; 9 t c U h.M.P.P.P.A.U.U.I.U.U.A.A.b.b.G.G.8.[ )  .=.F.Q.!.T.T.L.L.J.T._.q.] a r e e r 0 a ..F.Z.w.<._ ) | ' F j y , - $ o o o $ > $ $ $ - < z A A x x c m U y.x.p.p.a.p.p.m.m.M.M.M.v.$.m l v x G g.b.M.N.N.z.x.y.U m x G K S q : $ $ $ $ > O                                                                                                                                               ",
"                                                                                                                                ; q t x A x x G U T $.t.g.$.$.y.z.x.x.x.x.z.%.B O.%.y.y.y.y.i.p.z.x.z.p.i.i.a.z.z.z.z.z.g.$.I x : - o o $ o - - ; - < : ; - - t S G Y U I I H G G D y r r w 0 0 5 5 5 5 5 5 0 0 5 5 7 7 5 5 7 u p ! ..8.8.*.&.o.+.@.L D y t t t , - % ; e t x Z A G A t t 9 : e q x Y z.M.P.P.P.U.U./.I.U.U./././.^./.~.q. .)  .=.F.Q.K.K.T.L.L.J.T.!.8.' a r 4 4 r 0 d  .w.Z.w.<...) ) ' F a e ; - $ $ o o $ > $ $ $ - < z x A x l x m U y.x.p.p.p.p.p.m.m.N.N.V.v.U l : ; t x T v.M.N.x.x.x.u.U m b G K A q - $ $ $ $ > o                                                                                                                                               ",
"                                                                                                                                , t y A G A G I Y T T $.$.T T $.x.m.M.M.M.x.y.` %.g.k.i.y.y.i.z.x.x.x.p.a.z.x.x.x.x.b.b.h.$.U x : - o o $ o $ - ; ; < ; ; - - t S G Y Y Y I G G G D D y a a a 0 u u u d d d a u u u u 7 5 5 u u d d [ 8.;.-.-.-.-.%.@.L H L G G Z e ; ; t t x Z D G Z t e : ; ; q x Y v.M.P.P.P.U.U.I.U.U.I.I.I./.^./.).C. ._  .q.F.Q.K.!.T.!.L.L.!.!.8.' a r 4 4 r 5 p ..F.F.w.<..._ ) / F a e ; $ $ $ o o o $ $ o $ - < z x A x x c m U y.x.p.p.p.p.p.m.M.V.V.V.v.I v : ; < C T v.M.m.m.m.m.u.X.H m G K A q ; $ $ $ $ $ o                                                                                                                                               ",
"                                                                                                                                , e t x S A A G G G G G K G G T x.m.M.P.M.b.t.B +.%.%.%.%.%.u.p.x.x.x.x.a.x.x.x.x.z.b.x.g.$.U x : - o o o o $ - ; ; : ; ; - - e Z D G G G G m x D G D D D D b i i d s ' ] [ ] ' n s s a u u d s ! / *.8.8.;.;.-.7.7.3.3.2.5.4.E K g : ; e t t t x A x q q : : : y x T h.M.P.A.A.A.U.U.U.U.U.U.U.I.I./.).C.&.>.:.q.!.]._.!.!.!.L.L._.Q.q.| d 5 4 4 r 5 d *.F.F.<.:._ ) / / F j e - $ $ o o o o o $ o $ - : q x x x l x m U t.x.p.p.p.p.p.m.P.V.M.V.h.G q t < 1 f Y h.v.x.m.m.M.u.O.H D D G x q : $ $ $ $ $ o                                                                                                                                               ",
"                                                                                                                                , - : e t t t x z z t t t q z G k.x.m.M.M.z.O.m M M H U X.%.y.p.z.x.x.x.x.x.x.a.i.i.k.g.$.O.V x : - o o o o $ - ; - : : , ; - e y x x x x x x t x S D b b D b i u i / } 8.C.C.8.*.*.#.[ ' ] } *.*.*.8.D.C.a.a.8.7.7.%.@.6.j.j.4.R C ; % - - - - q t t q q t t x x m T k.M.P.P.A.x.A.U.A.A.U.U.U.U.U./.).C.:.&.=.F.].2X2X&X_.!.!.K._.'.q.| d 5 4 4 5 5 s *.F.w.<._ ) ! s s a y ; - $ $ o o o o o o o $ - : q x x x v x m U t.p.p.u.u.i.p.m.M.M.v.v.4.G t t t f f G 4.g.h.x.M.M.y.U m t t t t : - $ $ $ $ > $                                                                                                                                               ",
"                                                                                                                                $ $ $ - , , , , < , $ - , - : x g.z.x.m.m.z.U l x x y x H X.%.i.x.x.x.l.x.x.z.i.+.O.$.$.U U G c : ; $ $ $ $ o - - : : : ; ; ; ; t t t < t < < < t x Z x D D b a i i / 8.Q._._.!.F.C.l.-.*.-.8.C.C.C.A.G.A.l.l.k.k.%.+.@.%.5.g.$.Y C - $ $ $ $ $ ; : : ; q x b H U U $.z.b.x.x.x.x.x.x.x.m.A.A.A.A.U.Y./.G.*.*.8.E.XX8X8X2X_.!.K.K.).Q.q.' u 5 5 3 5 0 d } 8.9. ./ d d a a j y ; $ $ $ o o o o o O $ o $ , q z x x q l m U t.y.y.y.y.y.h.v.v.h.j.j.Y A z t f f t S K T 5.k.v.v.$.G z ; - - - $ - - $ - $ $ o                                                                                                                                               ",
"                                                                                                                                $ $ $ $ - $ $ $ & $ $ - , $ : x k.b.M.M.M.g.V : t < , t D X.%.z.x.x.x.x.b.x.z.%.U B U U U U m c : - - $ $ $ o - - ; : ; - ; ; ; ; , ; ; - ; ; ; t x A A D D b y i n ] C._.%X%X_.Y.U.S.A.C.A.H.Y.H.H.U.U.A.a.l.z.k.%.+.+.%.g.g.$.K g - $ $ $ o o $ - $ - x U 5.b.v.g.y.z.z.v.x.z.z.z.z.z.x.x.s.x.A.U.U.~.l.[ } *.8.E.'.].Q.F.w.q.8.q.8.*.s u 5 5 5 7 0 a ' *. .' s u u w a y t - $ $ o o o o o o o $ o $ < z z x z q v m U $.y.u.u.u.y.h.z.g.$.T K A t t t f f f t A G Y O.%.5.G t ; o o o $ $ $ - - - $ > O                                                                                                                                               ",
"                                                                                                                                O o $ $ $ $ $ $ $ $ $ - , - : A k.b.P.P.M.g.m - - - $ - y U y.x.x.x.x.x.x.x.k.+.M m m m m U m c : - - $ $ o o - - ; : ; - ; ; - - ; - - - - - ; t x S G G G b y i M o.A.`.&X%X_.J.S.S.S.S.U.).).`.Y.Y.U.A.l.l.l.k.%.+.+.%.g.g.$.K y - $ $ o X X $ - $ - G n.(.@X@XV.z.k.z.z.z.k.i.i.p.p.p.p.p.p.A.U.G.G.*.n s ' } *.9.9.7... .| / ) ' s p 5 5 5 r r 0 u k ] / d d u 0 0 w r t ; $ $ o o o o o X o O o $ , z z x z q v c U $.y.u.u.y.u.y.h.$.m v q q : , < < , , < t x b b H H t : - X o O o o $ - - - $ > O                                                                                                                                               ",
"                                                                                                                                o O $ $ $ $ $ $ $ $ $ - - - t G k.b.P.P.N.g.A ; - - % % y H %.z.x.x.x.x.A.x.k.+.M m m m m U m x : ; $ $ $ o o - - ; ; ; - - - - - ; - - - - ; ; e x A G G G b l N M o.A.`.`.$XR.J.S.S.S.U.Y.`.`.`.R.Y.U.A.l.l.l.k.%.+.+.%.5.5.$.G t - $ $ $ o o $ $ $ - H v.@XyX@X^.v.k.k.i.k.i.i.i.p.p.p.p.p.z.x.A.b.l.{ 0 0 p d s ' ' ! s p u u u u u 5 7 5 5 4 r r r a F n s d i a w r r t : $ $ o X o o X X X o o $ , q z z q q q c B O.t.u.u.u.u.y.y.U v ; ; - - , < , , , < t t x x b b q ; - o o o o o $ > - - $ & O                                                                                                                                               ",
"                                                                                                                                X o $ > - $ - - $ $ $ $ - - t G g.z.M.b.v.$.x - - , % $ q G $.z.x.x.x.x.x.x.k.+.B M m U H H G x : ; o o o o $ - - ; : ; - - ; - - - - - - - - - t x A G G G b l N M o.A.`.`.`.R.S.f.S.S.U.R.).`.R.Y.Y.Y.G.l.i.i.7.%.$.$.%.5.%.@.G t $ $ $ $ & & & $ X - G j./.@X@X^.x.z.k.i.p.i.i.z.z.z.a.i.p.z.b.b.c.5.F 3 6 6 5 5 5 7 7 7 5 5 7 5 5 5 7 r 5 4 4 r r r a F n s b a b y r t t ; $ o X X X X o X X o o $ : q q z q q v c I $.y.u.O.u.y.y.y.U v ; - - : , t < < 1 e t t x b D G t : ; - o o o $ $ > - & $ & O                                                                                                                                               ",
"                                                                                                                                X & & > - - - - , $ $ - , t x Y g.z.z.z.g.Y z $ $ , $ $ q G $.k.x.x.x.x.x.x.k.%.B B U U H H G x : ; o o o $ $ - ; : : ; - - ; ; - ; ; ; ; - ; ; q x A G G G b l N ( +.A.`.`.`.R.S.d.A.S.U.R.).R.{.).).Y.G.l.i.i.-.+.$.+.%.5.%.@.G t - $ $ & & & & $ $ - G h.^.@X@X^.b.x.z.p.p.p.p.z.x.z.a.i.i.z.b.b.n.3.j # # 6 6 3 3 6 5 5 5 5 5 5 5 5 r 7 r r 4 r r r j F F F F n D x y t e - $ o X X X X o X . X o $ : q q q q q t c I O.t.+.O.u.u.y.y.U l q ; - - : < , < , e f C A D G G C t < , > o o $ > > - $ $ $ O                                                                                                                                               ",
"                                                                                                                                  O > $ $ $ - - e e , f Z S K Y g.g.y.$.T K t $ $ & $ $ q G $.k.b.x.x.z.z.z.y.$.B V U H G G G x q ; $ $ $ $ - - ; : : ; - - ; ; ; ; ; ; ; ; ; ; q z A G G G m l m X.-.U.{.`.R.R.U.U.U.U./.{. X X{.R.{.Y.U.x.i.i.-.%.%.%.y.g.g.$.Y x - $ $ & & & & > $ - G h.^.@X@XI.x.x.x.z.p.p.p.x.x.x.z.i.i.k.z.v.j.2.j # # 6 6 6 6 6 6 6 6 5 7 5 5 7 7 5 r e 4 r r r j F F F H G G x x z t - $ o X . X X X X . X o $ : z q q q q t x G T $.$.+.u.t.y.g.T c z q q 9 e t t t t g C C D D G K A C f < > > - > > , - $ $ $ O                                                                                                                                               ",
"                                                                                                                                  O & $ $ $ , , e t f Z K K G Y %.$.U m G A t $ & , % $ q G $.z.M.b.x.z.z.k.%.X.B I I G G G G A t : $ $ $ $ - - ; : : : - - ; ; : ; ; ; ; ; ; ; : z A G G G G c m X.-.P.{.`.R.U.U.U.U.U.~.{.{. X X{.{./.U.x.i.i.i.%.%.%.g.k.g.$.T c ; $ $ $ & & & > $ - m g.^.@X@XI.x.z.z.x.x.x.x.x.x.x.z.z.z.z.z.v.j.@.y # # 4 6 6 6 5 5 6 6 7 7 5 6 5 5 4 4 e 4 4 4 r y F L L H G G A x x f ; $ o X . X X X X . X o - < z q q q q t x G T $.$.$.$.t.g.g.4.G A x t t x Z D D D Z S Z D D G K S C t < ; - > > > > - & $ & O                                                                                                                                               ",
"                                                                                                                                  O & $ - , , t t y g K R L K G U m b l x x t , t f t e t G 4.v.b.b.b.k.k.k.%.$.U H G G G G G A q ; $ o o o - - ; < : : ; ; ; ; ; ; ; ; ; ; ; ; : z Z A G G G c m X.7.G.~.).U.U.A.G.U.I.U./.{.{..X/.I.U.A.x.k.i.i.%.%.%.y.k.k.%.T x ; $ - $ & & & $ $ - x 4.V.@X@XM.z.z.z.z.x.p.p.z.x.x.x.z.z.z.z.g.5.Y r # # 4 6 6 6 6 6 6 6 6 6 5 6 6 6 4 4 4 r 4 9 e y D H H G G G A C C f ; o o . X X . . . . . o - < z z q q q t A G I T $.$.$.$.4.4.Y K G x A G Y @.5.5.@.L D D D Z D A x y t < - - $ > > > , $ $ $ o                                                                                                                                               ",
"                                                                                                                                  O > & , t t y g y D J L H D b b l w w y y y t S J S A A G $.g.k.n.k.g.5.%.$.T G G G G G G A Z t ; - $ o $ $ - ; < : : ; ; ; ; : : : ; ; ; ; ; : z Z A G G G c b U %.l.A.G.A.A.x.x.b.A.A.U.U.U.U.U.U.U.x.l.z.l.k.-.%.y.k.z.z.y.$.m : - - - & & & $ $ - x $.V.@X|.N.y.p.z.z.x.p.p.p.z.x.x.z.z.z.z.g.%.L r # # 4 6 6 6 6 6 6 6 6 5 5 6 6 6 4 6 4 4 4 % 9 r D G G G m c A x A C ; $ o . X X . . . . . o - < z z q q : t Z G G I T Y Y Y Y Y Y K J G L 6.B.(.(.(.c.3.J D D y x y y y t q : - - > > $ > $ $ O                                                                                                                                                 ",
"                                                                                                                                  O > > : t t y y r a D F b y w w w 9 9 w x D J R E E Y L G H H I U I G G G m b x x x A x C x x < ; - o $ $ $ - ; < q : ; ; , ; < : : : : : : : q z A A G G m c b H O.%.k.k.-.i.i.i.k.z.l.a.x.x.x.x.x.x.x.l.l.x.l.i.i.i.z.x.z.k.$.G q ; ; - - > > - $ - x 4.v.(.^.v.h.z.z.x.x.x.p.p.z.z.z.z.v.k.g.$.$.L r # # 4 6 6 6 3 3 5 6 6 6 5 6 6 6 4 4 4 # # # ; w b G G G m G A A S C , $ o . X . . . . . . o - < < q : ; ; , t x x x A x Z Z Z A D Z D D @.G.+X+X+X X~.c.L F D y y y y y y y t , - > > $ > & O O                                                                                                                                                 ",
"                                                                                                                                  O > , : y y y a w w a b b i w b w w 9 w y J L 2.4.6.4.Y G x x y x x w q q y q q t t t t t t t < ; $ $ $ $ $ - ; < : : ; ; ; : : : < < : : : : q z A A G G G c b H X.X.%.%.+.%.-.%.y.y.i.i.i.i.i.i.i.a.l.l.x.x.x.l.z.z.z.b.b.z.4.G q : < , , , , , - ; x Y j.V.V.h.g.z.v.N.b.x.z.p.z.z.z.z.k.g.y.$.$.L w 4 4 6 6 6 5 3 3 5 6 5 7 6 6 6 6 3 4 4 4 % % 9 w b G H I G G G A G C , $ o X X . . . . . X o - , < : ; - - - , e q q q q e 9 e e e r r F 3.'.8XyX7X5X[.D.] n F a b y a a b b y t , , > , > $ X                                                                                                                                                   ",
"                                                                                                                                  O > , e D D n n b b F F F n n b b w 0 0 y b H @.@.5.4.Y D q 9 ; ; ; ; % ; ; ; - ; ; ; ; ; , , - - $ o o o $ - ; : : : ; ; : : : : : : < < : : : z A A G G m m m I @.X.%.%.+.%.-.%.y.y.y.y.i.i.i.i.i.l.l.l.x.x.b.x.x.x.x.x.m.z.y.I x q q t e e < < - - q A Y 4.4.$.$.h.z.x.v.z.z.z.z.k.k.k.g.y.$.$.@.L y 4 4 6 6 6 5 5 5 5 5 5 6 5 5 5 5 0 r w w w w w c m G G I G G G A A C , $ o X X X X . . . X o - - - - - - - $ - ; ; - - ; % % ; 9 9 9 9 F 3.'.7XqXqX:X%XD.] n b b b b b b n n F y t , > , $ $                                                                                                                                                     ",
"                                                                                                                                  X , e t H @.] ] ' ' ] @.@.@.@.] D y y y y m U U X.$.5.@.D q ; @ $ $ $ $ $ $ $ $ $ % $ % % % - - o o o o o $ - ; : : : ; ; : : : : : : : < : : : z A A G G m c G U $.%.y.i.-.y.y.y.g.y.i.y.i.i.i.i.a.x.x.x.x.b.b.b.x.x.x.M.m.z.g.I x t z t t f t e : - : q x G m m I g.h.z.z.h.i.i.k.y.y.%.$.$.X.U @.{ a 4 3 6 6 6 5 5 5 5 5 5 5 5 3 5 0 a F { H H m m G H I G G G G m x A C , $ o X o o o o o . X o o $ $ $ $ $ $ $ % - ; ; - ; % % ; ; 4 9 0 a 3.'.8X6X:X%XT.C.[ / N n F F n M ] ' H j t , & , $                                                                                                                                                       ",
"                                                                                                                                    & , t L @.] @.[ } #.3.#.#.3.3.{ G D G H O.g.%.g.k.n.j.Y y e % % % % % % % % % % - - % % % - $ o o o o o $ - ; : : : ; : < : q q q q : : : : z x A I G G m m m T %.g.k.i.i.i.y.i.i.y.y.i.i.i.a.a.x.x.b.b.b.b.P.b.A.P.A.P.P.x.g.T x x x z t t t q : ; : : t t l l m $.g.z.z.y.t.y.y.%.O.X.U U H H @.{ j r 6 6 6 7 p p 7 5 5 5 5 5 5 5 d ' 3.9.5.%.@.@.T U U G G G G G x C t : $ o X o o o o o o X o o $ o $ - $ $ , , e t g x y r r r y r a F } c.XX7X9X9X*X$XZ.&.[ ] ] @.@.] [ o.#.] F y , & >                                                                                                                                                         ",
"                                                                                                                                    , e r H #.] o.[ [ #.7.7.7.7.9.@.{ ] @.@.z.G.G.W.(.(.(.n.L b 9 ; 9 ; ; ; , ; ; ; 9 e e ; % - o o o o o o $ $ ; : : : : : < : q q q q : : : : z x A K K I G G I $.g.k.z.z.i.i.y.i.g.y.i.u.i.i.a.a.x.A.A.x.b.P.P.P.P.P.P.U.P.x.k.$.m x x z t q t t : ; , , , t q v m T t.g.g.t.+.+.%.$.U M M M M H @.@.F r 5 7 7 p s k p p 7 7 5 5 5 5 a ] 9.n.k.k.5.%.$.$.U G G G G G x x t : $ o X o O O o o o o o $ $ $ - > - , < f Z K R @.@.H H H H F { } 8.Q.8XqX0X0X,X*XK.;.;.*.*.7.7.-.*.-.-.#.F y , , $                                                                                                                                                         ",
"                                                                                                                                    $ , r L } ] ( o.*.*.;.=.*.-.*.-.*.-.8.G.~.'.'./.{.oX'.G.%.M a a b F a a y r 9 9 0 0 9 9 ; ; $ X X X X X $ - - < < < < : : : z v q q q q : : x c G I I I I G U $.5.g.k.k.k.y.y.y.g.y.y.t.y.y.i.p.z.x.m.m.m.m.M.P.P.P.I.I.I.M.k.@.x l x q t q t : ; ; : < < : q z G T t.t.y.y.t.+.$.U U m m m m m H { F p 0 7 7 p k k k p 7 7 7 6 3 5 a ] 7.c.k.y.g.g.$.$.U m m I G c x x t ; $ o o $ $ $ O o X X o - $ $ - , , - , t D 3.7.8.-.;.-.*.7.*.8.C.).4XqXrXiXrXwX:X_.F.;.8.8.8.8.;.;.;.*.#.H y ; - o                                                                                                                                                         ",
"                                                                                                                                    $ ; r H ] ( ( [ &.*.9.=.&.&.*.-.-.8.D.).{.XX[.{.oX+X{.~.l.o.( H } @.{ ' F a 9 9 9 9 9 9 ; - o X . X X X $ > > < < < < : : : z z v v v v q q x c I I I I I I U X.%.%.g.g.y.y.%.%.%.%.%.%.%.y.+.y.p.x.x.x.x.x.x.M.P.P.U.I.P.b.k.Y c l y x t q t q : : < < < < : z c I $.$.$.y.y.$.$.U U m m G m m H ] b u 5 5 7 8 d k k p 7 7 7 6 3 5 i H #.k.i.%.%.y.$.$.I m m m c x z t < - $ o o $ $ O o o X o o $ $ $ > < , - ; y H 3.C.C.C.C.C.D.D.D.F.).;X0XiXpXgXgXrX0X%XK.C.C.C.C.C.;.;.;.*.#.H y ; > O                                                                                                                                                         ",
"                                                                                                                                    $ % t F ] ( ( &.=.;.8.=.&.*.;.8.8.C.E.{.XXXX[.[.XXXX{.~.c.#.] o.#.5.3.@.{ F 9 4 4 9 9 9 % % o X X X X X o - > < < < < : : : z x x x x v v q x m I I U U U U U U $.$.O.O.O.O.U U U U U U U O.` +.i.z.z.z.p.i.z.x.P.P.I.I.A.x.g.Y l w x x t t q q : : : q q q : z A I $.t.$.y.y.$.O.U U m G G m m H H n u 7 5 7 7 p p p 7 7 5 7 6 3 5 i M +.-.%.+.%.y.$.O.U m c c x v t t < - $ $ o $ $ $ o o o o $ - - - , < , - ; y H 7.D.H.F.S.F.S.Q.Q.Q.].qXrXpXgXgXjXfXrX*X).Z.C.C.C.C.;.=.;.*.#.L y ; -                                                                                                                                                           ",
"                                                                                                                                    $ ; r H ] ] [ &.=.8.C.q.8.8.8.8.8.C.E.{.[.`.`.).{.{.'.G.l.#.[ o.*.7.3.#.L a 4 % % 9 9 ; % $ o . X X X X o $ > < < < < ; : q x x c c c c x x m I T T T T T U U U U U m m m m m m m m m m m m B ` y.i.i.i.u.+.u.p.x.P.I./.U.M.k.T c l x x x x q q q q q q q z z x I T g.t.$.t.t.$.O.U U m G G m m H { F a u 5 7 7 p p 7 7 7 7 7 6 3 5 i M +.7.%.+.%.y.$.$.I m c c x v z z q ; $ $ $ $ - $ o o o $ - ; , < t f , - ; r F *.D.F.Z.Z.Z.F.H.F.K._.7XeXpXpXgXgXrXwX&XY.Z.C.q.C.q.;.;.8.*.#.{ g ; ,                                                                                                                                                           ",
"                                                                                                                                    $ ; r H } [ [ &.=.,.q.q.8.8.C.8.8.C.E.'.[.`.{.).{.[.).H.8.&.[ o.-.7.3.3.{ a 4 % % % 9 ; % $ o . . X X X o $ > , < < : ; ; q A G G G G G m m G U T $.$.$.O.U U U U m l l l l l l l m c l c l M ` %.i.y.%.O.` +.i.x.A.U.I.I.M.k.T m l c c x x t t q q q q t v z c I T g.g.t.$.O.O.O.U U m G m b b H { F s u 5 5 7 7 7 7 7 7 7 7 6 5 5 i H +.7.%.+.%.%.$.O.U m c c x q t z q : $ $ $ - - $ o o $ - > , < f C C e : 9 y F *.C.F.Z.J.F.F.F.F.K._.6XqXrXpXfXfXrX9X=XK.Z.C.q.C.q.;.;.8.8.3.{ j 9 ,                                                                                                                                                           ",
"                                                                                                                                    $ % r H } [ [ &.:.=.8.;.=.8.8.8.8.C.H.'.[.[.`.{.[.[.'.H.8.&.[ &.-.-.*.#.' a 4 % % % ; ; % $ X . . X X . o $ - , < < : - ; q A G I I I G G G I U O.$.$.$.$.O.U U U m l l v v l l c m b c c c M X.y.i.y.%.O.` ` i.x.A.U.I.U.m.k.U m l l l x x x x t q q q q q v l G T $.t.$.$.O.O.U U U G G G b x D H F a u 5 5 5 7 7 7 7 7 7 7 6 5 0 i M +.7.%.O.+.$.O.U m c l l v q t z q : $ $ $ - - $ o o $ - ; < t f C f e ; ; w n *.D.F.Z.J.J.F.F.Z.F.!.6X0XpXgXfXrX0X:XT.K.C.C.q.q.q.;.;.8.=.*.{ j ; $                                                                                                                                                           ",
"                                                                                                                                    $ % r H } [ [ &.:.:.;.=.=.=.;.;.;.C.H.'.XXXX[.[.[.[.).H.8.*.[ &.-.-.#.#.' a # % % % ; % $ $ o . . X . . X o - > , , ; - - q G G I I U U U U U O.$.$.$.%.$.$.O.O.U m l l l l l c m m m c c m M O.i.k.k.y.+.` +.p.x.P.U.I.I.m.k.O.m b l l x w x x w q w q q q v c G T $.t.$.$.U U U U m G m b x x D F b a u 5 5 7 7 7 7 7 7 7 p 5 3 0 i M #.%.%.O.$.$.U U m c l l l q z x t : $ $ $ - - - $ $ $ - - , < C f t , - ; w M *.C.S.J.L.L.J.Z.Z.J.!.5X0XpXpXrXwX:X=XL.J.C.,.q.q.q.;.=.8.8.3.{ j , &                                                                                                                                                           ",
"                                                                                                                                    $ % r { #... .:.:.:.;.;.=.;.8.8.q.C.H.`.XX4XXX[.[.[.'.H.C.*.&.:.;.8.*.#.] a 4 % % ; - % $ o o . . X . . X o $ > > , ; - - q G G I T U I U U O.$.O.$.$.%.%.+.$.$.T B m m c c c c m m m c m m U %.k.z.k.y.%.` +.z.P.U.I.^.I.U.x.%.M m m m x x x x x l w l l l c m U T $.$.$.$.U U U U G m b b x x b D b a a 7 7 u p p p u u u p 5 5 0 i M X.%.y.+.$.O.U U m c c c x l x x z q - $ - - ; - - - - - ; ; < f t < < ; : y H 7.F.K.L.L.L.L.F.Z.K._.&X0XtXtX0X,X*X_.L.J.C.C.C.C.C.;.;.8.8.3.{ j , &                                                                                                                                                           ",
"                                                                                                                                    $ % w { *.&. .:.=.;.,.,.;.8.C.C.q.C.H.`.[.4X4X[.XXXX'.E.C.;.&.;.8.8.*.#.] a 4 % % % , - $ o X . X X . . X o $ > , ; ; - - q G H I I U I U U $.$.$.O.+.%.%.+.t.t.$.U m m m m m m m m b b m m U %.k.z.k.y.+.` u.p.A.I.I.^.U.U.x.y.X.M M G m b x G w w b b N M U m U U $.$.$.$.T T T U G G D x x x y y b b a i d p s ' s p u u p 0 5 0 a M +.%.%.$.O.O.U U m m c m G c x G A q - - - ; ; - - - $ - : ; , < t e , : q y M 7.H.K.L.L.L.K.L.L.K._.;X6X0X0X0X:X%XT.L.K.F.C.C.C.w.q.;.8.8.3.{ g * $                                                                                                                                                           ",
"                                                                                                                                    $ % w { *.&.&.;.,.Z.K.K.E.E.Q.H.F.F.).`.&X4X+X[.[.[.'.E.C.*.&.:.;.8.*.#.] a 4 % % % ; - $ o X . . X . . X O $ - , - ; - - q G G I I U I U U $.$.%.%.%.%.t.t.t.t.O.U m m m m m m m m m m m U X.%.k.k.i.y.+.O.u.p.m.U.I.I.U.P.m.i.` M M m m b x b l w M X.%.b.z.$.$.O.O.$.$.$.T T U G m x x y t q w r a a a a s s s ' s d p d d p 5 0 a M O.%.$.O.O.T U U G m m G G G G G A q - - - ; ; - - - - - ; - - ; < < , - 9 y M 7.S.L.T.L.!.T.!.K._._.&X:X:X:X:X;X$XT.T.K.S.Z.C.q.q.;.=.8.8.3.L g * $                                                                                                                                                           ",
"                                                                                                                                    $ % y { *.&.:.q.K.].2X4X2X4X4X[.).).`.[.;X4X[.`.[.[.'.E.C.*. .:.;.8.7.3.} a 4 % # % ; % $ X X . . . . . X o $ - , - - - $ q c G I I U U U U O.$.$.$.%.y.y.y.u.u.+.U B B B B V B U U U U U U X.+.y.i.i.u.+.+.u.p.m.U.U.U.U.A.A.i.` M m m b D b b w w @.l.(.+XoXb.g.O.U O.O.O.U U I G c x t q ; ; ; 9 w a a a s s d s s p p p p p 0 0 a M @.%.O.O.U T U U U U U I T I G G A q - - - - ; - - - : - ; ; - - ; , ; - ; r ] 8.S.L.L.L.T._._._._.].%X&X&X&X%X%X_.T._._.K.F.C.C.8.=.=.8.7.#.P y % $                                                                                                                                                           ",
"                                                                                                                                    $ % y { *. .=.Z._.4XqX7X7X7X7X7X4X[.[.;X;X;X[.`.[.[.'.E.C.;.&.:.;.8.8.9.} F 4 % # % * % $ X X . . . . . X o $ - > - - - $ : x m I I U U U U O.$.$.t.t.y.y.t.t.t.t.+.O.+.+.+.$.t.t.$.$.O.O.O.O.+.y.i.y.u.+.+.u.p.m.U.U.U.U.U.P.a.O.B M m b D b x w i +.G.+XdX@X(.k.O.U O.U O.U T T G x z q 9 % % % ; 0 w a a a a i d d d u u u 0 0 0 a M @.$.O.T T U U U U U T T T T Y Y A q - - - - ; - - - , ; ; : ; - , < , - ; y ] 8.S.L.L.L.T.$X%X[.].%X%X&X&X%X`.`._.T.%X[._.Y.F.C.8.=.=.8.7.#.P r $ $                                                                                                                                                           ",
"                                                                                                                                    $ % a 3.7.*.=.F.].6XqXqX7X7XuX7X6X4X4X4X X[.[.`.[.[.{.E.D.;.&.;.8.8.8.9.#.F 4 4 # % , , $ X X . . . . . X o o - > - - - $ : A G I I I I U U O.$.t.y.t.t.t.t.y.u.u.y.u.i.z.i.z.z.z.k.g.y.y.t.u.u.i.i.i.u.u.u.u.p.m.U.U.U.U.U.P.x.+.X.M b b b b y w i +.G.+XsXyX^.k.O.X.O.O.O.U T T G x q w 9 % - ; 9 w r a a a i d i u u u u u 0 0 0 a M @.%.$.T T U U U U U U U $.$.Y Y D q - - - - ; ; ; ; , ; : , , , , 1 , - 9 y ] 8.S.K.L.T._.%X&X&X&X&X;X;X&X`.`.`.$X$X&X&X&X).H.D.8.;.*.8.7.#.F t $ $                                                                                                                                                           ",
"                                                                                                                                    $ % a 3.7.&.=.F.].5XqX7X7X7XuX7X6X8X4X X[.[.[.`.[.[.{.E.D.-.&.;.8.8.8.9.#.F 4 % % % , , $ X X . . . . . X o o - > - - - $ : A G I I I I U U O.$.t.t.t.y.y.t.u.i.i.i.p.x.x.x.x.x.x.x.z.z.z.p.i.i.p.p.z.p.p.p.p.x.A.U.U.U.P.U.P.x.%.X.M b b x y y 0 i @.G.+XsXyX(.k.X.X.O.T T U U Y G x q w ; - - - 9 q w y b b b s s a u u u u u u w a H @.$.$.T T U U T U U U U U $.T Y G q - - : - - ; , , ,   , < , , , < , , 9 y ] 8.S.L.L.T._.[.%X%X[.%X;X&X`.`.].].$X[.;X4X4X[.).H.8.*.*.8.7.#.J e $ $                                                                                                                                                           ",
"                                                                                                                                    $ % a 3.7.&.=.Z._.5XqX7X6X7X7X7X8X4X;X X[.[.[.{.[.[.'.E.l.-.&.;.8.8.8.9.#.F 4 % % % , , $ X X . . . . . X o o $ - - - $ o : x G G I I I U V U O.+.t.y.y.y.y.u.i.i.z.x.m.m.m.x.x.x.x.x.x.m.m.x.p.x.m.m.m.m.m.P.m.m.A.A.m.x.m.x.a.%.X.H b y r y w 9 w ( l.{.uXyXP.i.X.X.O.U U U U Y G x x q q - - - : 9 0 y F { { [ ] ' n s s s s s a b H X.$.T U U U U U T U U U U T T Y G q - - - - - ; , ;       e < , , , , - , r ' -.S.K.L.L.Y._.].].].].&X[.`.`.].].$X[.&X;X4X4X[.).C.*.&.-.3.{ D e $ $ X                                                                                                                                                         ",
"                                                                                                                                    $ % a #.7.*.=.Z._.4X7X7X4X8X7X8X4X4X&X[.[.[.`.{.`.[.'.E.q.*.:.;.C.l.8.7.3.H 9 4 % % , , $ X X . X X . . X o o $ - - - $ o : z A G G G G G m U U O.O.$.y.y.t.y.i.i.z.x.M.M.M.x.x.x.m.m.M.M.P.m.m.m.P.I.I.I.I.I.P.m.m.x.x.a.a.x.a.%.O.H b y w r 0 4 9 N -.'.yXyXP.y.X.B X.U U U T I G A x y q : ; - ; 9 q b @.@.%.-.7.#.] / ' ' ' F n n M H X.U U U U U T U U U U U T T Y A q $ - ; - - - , ;         t < , > - $ ; w n -.S.K.Y.K.K.)._.].].].[.`.`._._._.].].[.;X8X8X4X'.C.*.o.*.3.{ D , $ o X                                                                                                                                                         ",
"                                                                                                                                    - % a #.*.*.=.F.].6XqXqX6X6X7X8X5X4X2X&X&X;X`.[.[.[.].E.w.8.8.l.C.l.l.l.9.{ e 9 % % , , $ o & X . . . . X o X o o o $ o o - < q z x A x c l m m U U O.$.$.$.%.y.z.m.M.P.P.P.m.m.m.m.m.m.M.M.M.M.P.I.I.I.I././.I.A.m.x.a.a.x.a.i.%.X.H b r q e e 9 9 a @.(.yX@X^.k.U U U $.U I I I I G G c c x x t q l b X.k.l.x.x.A.l.*.[ ] ] ( / ( ( ] U U U U B U U T U U U T T T T Y A q - - - - , , <           , < 1 < > $ - y H 8.E._.]._._._._.`.`.`.[.[.[.).).).].%X[.8X6X7X4X).C.&.o.*.3.L y # X $ o                                                                                                                                                         ",
"                                                                                                                                    $ ; a 7.8.;.,.H.[.6XqX0X6X6X6X6X4X2X&X].].[.`.`.`.).).E.w.8.8.C.G.D.l.c.9.@.e ; % & > & & $ & o       . o X X o o o o o o - ; : q t z z t v l m m U U O.$.O.$.y.k.b.M.I.I.I.m.m.P.m.m.m.M.M.m.m.P.I.I.I.I./.I.P.m.x.a.i.i.i.i.i.%.X.H b t q e e 9 9 w H n.@X@XV.g.T U U $.Y I I I I I G m G G G x x m U %.x.P.I.P.U.A.;.*.[ [ [ ] ] ] X.X.U U U B B U U U U T O.T T T I x : - - - - > , <             , < > > $ - r ' 8.E._._._._._.`.`.`.`.`.`.`.).H.Y.).[.4X7XqX7X5X_.C.:.[ #.#.L y % @ $ $ o                                                                                                                                                       ",
"                                                                                                                                  o % 4 a 7.8.;.q.K.].5X0X6X5X6X4X4X[._.).F.Z.S.C.C.C.C.C.8.*.*.#.*.7.-.-.#.@.D 9 % $ $ $ O & & o         . X X X o X X o X o - - ; : q q t t v l m G U U $.U U X.O.y.x.M.I.I.I.P.P.P.m.m.m.m.M.m.m.P.I.I.P.I.I.I.m.p.p.i.+.%.%.u.u.%.X.m y q 9 9 9 9 ; 9 y @.n.b.g.$.U U U $.T U U I I U U U I H L G m U $.k.M.I.U.U.U.H.l.-.*.[ [ [ ] ] ] ] M U U B B U U T T T $.$.U I G z : - - - - > , 1             , > > $ $ % r F *.C.F.Z.Z.S.K.H.).E.H.).).~.F.C.C.).`.4X7X7X7X4X_.F.*.&.*.3.#.F y e e , >                                                                                                                                                       ",
"                                                                                                                                  , e 0 M 8.C.,.Z.K._.&X6X5X&X4X;X[.`.Y.C.;.;.;.;.;.;.:.=.*.*.[ ] [ #.o.] ] F y % $ @ O O O O O           X o X X o X X X X o - ; ; : q q t t v x G U T $.$.U U B X.t.z.M.P.M.m.m.m.m.m.x.x.x.x.m.m.P.P.P.P.P.P.P.m.p.i.+.o.o.%.+.+.O.X.b w q 9 9 9 9 ; 9 9 b U @.U U U U U $.U U U U I I U U T Y H G G U %.z.P.A.A.U.Y.H.l.-.*.[ [ [ ( ( ( ] U U U U B U U U U T $.T U G A z : - - - - > , <             , > > $ $ % e a ] =.=.;.,.q.C.F.G.D.D.C.D.C.;.;.;.H.[.8X7X7X7X6X[.).C.;.8.7.3.{ H D Z g f                                                                                                                                                       ",
"                                                                                                                                  Z J F #.D.K.K.K._.].&X5X5X&X&X;X[.`.U.C.;.;.8.;.;.-.&.&.*.[ ] / / ' / n n b e # @ @ & & O o O           X o X X o o o X X X - ; ; : q q q q q x m U U U T U B B X.%.z.M.M.m.x.m.m.p.p.p.p.z.z.x.x.m.m.P.m.m.P.m.p.i.u.O.X.@.#.+.+.O.U m w q 9 9 q 9 ; 9 q q b m m G U U O.$.U U U U U U U U T T U U X.%.k.x.I.U.U././.Y.C.;.*.[ [ [ [ ] ] ] U U U U U U U U U U U U I A c z : - - - - > , <               > > & $ $ 9 w n [ [ )  .&.*.;.8.-.-.-.-.-.*.&.;.H.4X7XuXuXuXuXqX8X).F.D.G.c.7.9.n.6.R K >                                                                                                                                                     ",
"                                                                                                                                S E 2.3.c.E._.].%X%X%X&X5X&X%X%X`.`.{.H.C.8.8.8.8.8.*.o.[ [ / n s s s i i i w ; @ @ o O O O X             O o o o o o o o o o - ; : q q q q q q v c G U U U U m B X.%.z.M.M.x.p.p.p.p.u.u.i.p.z.p.x.m.m.P.m.m.P.m.p.y.+.O.X.X.X.#.o.X.H m w q q q t t 9 q w w q w w m U U $.$.O.O.O.O.O.T T T $.X.X.X.$.k.x.M.I././.{. X`.A.*. .| [ [ [ #.@.X.U U U I I I I I G m V V m A x q : - - - $ $ , <               > 2 > $ $ % 9 w d d s d / / ( ] ( ( [ [ [ o.o.;.).8XuXaXaXaXaXaXiX8X[.'.'.~.W.'.oX(.6.R ,                                                                                                                                                     ",
"                                                                                                                                K 6.9.c.D.H._.%X&X%X%X&X&X%X_.`.`.`.).H.8.*.*.3.#.*.o.( ( ( / n n s n s a a w 9 @ @ o o o X X             O o o $ $ $ $ - o o - : : q q q t q q q c m m U U m m M B O.y.z.x.z.i.u.u.u.u.u.t.u.p.p.p.p.m.m.m.m.m.x.i.+.+.O.X.X.X.X.` X.H M b b x x x x x x x q q q w b U U O.$.+.O.O.+.+.$.$.$.$.O.$.$.%.i.x.A././.R..X X{.C.&.) ! ! ' ' ] } { Y U H G G G G G m m m c c A x : ; $ $ $ $ $ > ,                 O > $ $ % 9 w s d / / / / ( ] ] ] ] ] [ [ o.-.~.4XuXzXaXpXaXzXaX7X;X`.).H.H.'.XX~.9.L e                                                                                                                                                     ",
"                                                                                                                                K 6.n.c.H.Z.K._.%X$X_.`.%X].T.R.`.`.`.H.8.[ ' ' F ' n N s n n n n n M n b b y e @ $ & o X .               O o $ $ - - - - - $ - ; ; : q q q q q q x b m G m m l b m B O.y.i.i.u.u.u.u.u.u.u.u.p.i.i.p.p.p.p.p.x.p.u.O.O.$.X.X.X.X.` X.X.U U H H G H G G G m c c c c G U U O.O.O.O.O.+.+.+.$.$.$.O.%.%.y.p.x.U.R..XR. X X).a.) d u u d d n H ] @.U H m m G G G c c c x x x C < ; o $ $ $ $ & ,                   O o $ ; e F } } ] ] ] ] ] ] } ] #.} #.o.o.-.E.4XuXzXaXpXaXhXaX7X;X`.).H.Z.).`.E.5.J f $                                                                                                                                                   ",
"                                                                                                                              1 R 2.n.c.D.S.K.T.%X$X`.%X`._.R.`.`.`.`.E.*.' s a s s i i i s n n n M M N n b a y $ $ $ X .                 O $ $ - - ; ; ; - ; - : : q q v z t q v x c b m m c v b b M X.+.-.-.%.+.+.%.y.y.y.y.y.i.i.i.p.p.p.p.z.i.+.O.O.$.X.X.X.X.` X.X.X.X.@.@.U Y U I I U G G G G G I U O.+.+.O.O.u.+.+.%.%.y.%.+.%.i.a.x./. X X X X;X).-./ u 5 7 u d i n H @.H G G G G A A x l x x x z z : ; o o $ o $ & >                     X o , e D { } ] ] ' ' ' ] ] } #.#.#.[ o.8.E.8XuXzXaXpXaXzXhXeX:X`.T.H.S.Y._.E.5.J e $                                                                                                                                                   ",
"                                                                                                                              < J { 5.8.C.S.Y.T.$X_._.%X%X].`.%X;X[.[.E.*.s u 0 0 0 0 0 0 i s s M M M N n b x y % $ o o                   o $ $ - ; ; ; ; ; ; ; : : q q v z z t v x c c b b c w N N b ( #.%.%.%.%.%.-.y.g.y.g.h.i.u.i.p.p.p.p.p.i.+.O.O.$.X.X.X.O.X.X.X.X.O.$.X.@.@.@.U T T U I H H H I T $.t.t.t.u.u.u.%.%.y.y.i.i.i.a.x.P.}. X;X X;X;X).*./ u 7 8 7 u u a n H H G G G G A A x x x x x x C < ; o o o o $ & >                       $ , e j P F ' ' n n F ' ' { } #.} [ &.;.).8XuXzXzXzXzXzXgX0X:X%X_.L.J._.].H.*.H e $                                                                                                                                                   ",
"                                                                                                                              > g J } -.C.K._._.$XT._.`.%X%X$X`.&X&X[.).7.n p 0 0 0 0 0 u i s s n n n b b b y y ; $ o                     $ & $ - ; , , ; ; < : : : q q v v t t x x x c b b x w N N N N ] X.+.%.+.%.%.y.g.g.g.g.t.u.y.i.i.y.y.y.y.+.O.O.$.X.X.X.O.X.` X.X.$.$.X.O.$.X.U $.$.U U I I I U $.$.y.y.y.y.y.y.u.u.i.z.a.a.a.x.x.U.}. X;X X X XY.*.d u 7 8 7 7 u i a b m m G G A A x x x x x x z C < ; o o o o O & >                         $ , g D j s s s s F F F ' ] } } [ *.;.).8XeXcXzXcXzXzXpX0X;X`.T.L.L._.].K.*.{ w $                                                                                                                                                   ",
"                                                                                                                              $ t y F #.8.K.].%X_.T.Y._.%X`._._.`.[.[.'.8.] F s n n n a a a s s a a a i a w q : , $                       o - - ; ; ; ; ; ; ; : q q q q v v t t x x x x c b c y w i i N N M ] ] ] @.%.%.y.y.g.g.t.+.t.y.y.%.+.%.%.O.X.O.X.X.X.X.O.X.` ` X.O.O.X.%.O.X.O.O.O.O.U U U U U $.$.y.y.y.y.y.y.u.u.p.z.l.a.l.x.x.A.^.}. XR.R.R.A.&.d u 7 8 7 5 5 0 i b b m G m A x x x x x z z z t < - o o o X o $ &                         $ % t y y a i a s F F F F ' ] [ [ &.;.U.4XeXpXpXgXgXgXpX6X%X_.T.J.L._.$XK.8.{ 0 #                                                                                                                                                   ",
"                                                                                                                              $ , 0 a ] 8.Q.].%X%XT.T._.%X%X_._._.[.[.'.8.[ ' / ] ] ] n s a s a a a a i w q ; - , $                       o $ - - ; ; ; ; ; ; ; q : q q q q q t x x x x x D D b i i i i N n M n n M @.#.$.%.%.y.+.$.$.t.%.O.O.$.$.O.X.X.` B X.X.+.+.+.+.+.+.-.-.i.i.%.%.+.%.+.O.U O.O.U $.%.%.%.$.%.y.i.i.p.z.x.x.x.x.x.x.x.A.U.U.A.A.A.l.[ s u 7 7 7 5 5 0 i b m G G G A x z z x x z q t : , - X X X X o o &                         & $ , e 0 a i a a F F F F ' ] [ o.:.a.Y.:X0XrXrXrXrXrXrX:X%XT.T.L.L._.%X!.l.[ 0 % -                                                                                                                                                 ",
"                                                                                                                              $ , e a { c._.&X%X&X]._.%X&X=X$X_._.`.[.).8.[ ( ( ] X.] M n s s s a a a a r 9 ; - ,                         o $ - ; ; : : ; ; , < q : q q q q q q x x x x x D D b a a i a i s s s s n M ] ] X.$.%.$.$.t.t.+.O.$.$.$.X.B B ` ` O.%.a.z.z.x.x.x.x.x.x.x.x.l.a.k.i.y.y.g.y.$.X.X.X.X.U X.+.y.p.x.x.x.x.x.x.m.x.a.a.a.a.a.i.a.-.[ s d 7 7 7 7 u i b n H I Y I A x z z z x z q : < < $ . X X X o $ &                           & , e r a i a F F F F F ' ] } *.;.C.`.0XwXrX,X,X,X,X0X%X%X_.T.L.L._.=X_.D.} w 9 e                                                                                                                                                 ",
"                                                                                                                              $ < t F } C.].2X&X&X$X].%X*X&X%X%X_.`.[.).;.o.( ( X.o.o.( n n n F F j w 0 e 9 ; , *                         o - - - : : : ; ; , < q q q q q v t q t x x x x G D b a a i i i i i i i i i N b M X.%.t.$.$.$.$.O.O.$.O.U B B B X.%.z.M.P.I.P.P.P.P.A.U.U.P.x.x.z.z.z.z.z.g.$.U H m m m M ` +.i.x.m.m.x.b.b.x.x.p.u.u.` ` +.+.-.[ n d 8 8 8 u d s H @.@.$.4.Y A x z q z z q : : < ; $ . . X X O & O                           & , e y a s b F F ' ' ' ] } [ &.;.S.;XpXfXfX,X,X:X:X>X$X%X_._.L.K._.].).D.#.a e g g                                                                                                                                               ",
"                                                                                                                              & , e j { c.'.2X&X&X$X$X&X:X*X%X%X%X%X;X_.d.&.) ` o.o.o.( n N n s D a r 0 9 ; ; , *                         $ $ - - ; : : ; ; , < q v q z v v t q t x x x x D x x a a a i u u u u u u u 0 w b ] $.t.$.$.$.O.U O.$.X.B B B B X.y.b.^.^./.^.I.A.A.A.U.I.U.A.x.x.z.z.z.z.h.$.M b l w w l M X.i.x.m.m.m.x.x.x.x.i.u.u.+.+.+.i.-.] n s u 7 u u d M @.%.$.4.4.Y G x z q q q q : < < ; $ . . X X O O &                           & , e j F F F F ' ' ' { ] ] [ o.;.K.6XcXxXcXfX0X0X,X9X%X_.T.T.L.Z.K._.K.D.#.a r g S h                                                                                                                                             ",
"                                                                                                                              $ > , y H 8.'.2X%X%X$X%X&X*X:X:X:X:X;X;X_.d._ ) >.>.o.o.[ / b a a a y r 9 ; % ; , >                         $ $ - ; ; ; : : ; : q q q q v z v v q q z x x x x x x y a a a u u u p p 0 r 4 9 w H 5.$.$.$.O.O.$.$.X.X.M M M M #.z.G./././.U.P.x.x.l.x.m.x.x.z.x.p.i.p.z.y.U b w w w w w l B y.x.x.m.x.x.x.x.z.p.u.p.u.u.i.i.-.@.n a p 7 7 u n ' %.k.g.$.4.$.A z z z z : : : < < ; o . . . . o o X                           $ , e j F F F F F ' ] { { } ] o.;.K.qXmXBXMXcXgXgXgXrX&X_.T.K.J.C.K.Y.F.8.} a w j D h &                                                                                                                                           ",
"                                                                                                                              $ $ - e F -.).4X&X&X=X=X&X*X:X*X%X;X&X&X_.d.>.>.&.&.&.:.o.] b a a F a r 9 9 ; , < >                         $ $ - ; ; ; : : ; 9 q q q q q v v v q q z x x x x x x y a w 0 0 0 0 0 5 5 5 4 4 0 H 4.g.t.$.$.$.$.$.$.X.U M M ( +.l.P./././.U.A.x.a.a.z.x.z.z.p.z.p.i.p.z.y.U b w q q y w w M y.x.m.m.x.x.x.x.p.p.u.p.i.i.i.k.5.X.b w 0 7 0 a F @.%.k.g.$.4.$.G z z z : : : : < < ; $ . . . X X O X X                         $ , t j P ' ' F ' ] ] { { } ] [ ;.Y.qXMXCXCXMXNXNXMXzX0X%X_.T.J.Z.K.Y.D.7.{ a w j Z h %                                                                                                                                           ",
"                                                                                                                            O $ $ ; 0 b *.).5X5X5X:X&X:X5X:X&X&X%X`.&X_.C.:.:.;.;.;.;.-.o.n a b b a w 0 9 e e e ,                         $ $ - ; ; ; : : ; , e q q q q q q v v q v z z z x x x y w 0 0 0 0 0 0 5 5 5 4 4 0 H 4.y.y.t.+.$.%.%.$.$.X.M M ` +.z.P.U././.I.x.a.i.i.a.x.z.p.p.x.x.z.x.x.y.U b w w r y y w m y.x.m.M.m.x.x.x.p.p.u.p.i.i.i.k.5.X.b w 0 0 u a ] @.7.k.g.g.g.4.I z z : : : : : < < > $ X X . X X O X X                         $ , t D P ' ' ' ' ] } } } ] ] [ ;.Y.0XVXCXDXDXDXFXFXAXpX*X_.T.J.Z.K.K.C.#.F a w j g r * $                                                                                                                                         ",
"                                                                                                                            $ , e g F F -.).4X5X9X6X5X5X5X:X&X%X`.`.[.).,.:.;.,.d.d.8.;.o.n a a b b a w 9 9 e t <                         $ $ - ; ; ; : : ; , e q q q q q q q q q v q q q x x t r w w w a a 0 0 0 4 4 4 4 9 F $.y.y.y.$.$.$.%.$.$.X.B M ` +.z.M.I./.}.I.x.a.i.i.l.x.z.p.p.x.x.z.z.z.y.U b x y y y w w b %.z.x.m.x.x.p.p.p.u.u.i.i.i.i.k.%.X.b i 0 0 0 b ] %.y.g.y.$.4.4.G z q : : : : : < < > $ X X . X o O X .                         & , e j P F ' ' ' ' ] ] [ [ ] o.;.Y.0XcXBXDXDXFXFXHXZXzX:X_.L.J.Z.K.K.C.[ F w w j g r * $                                                                                                                                         ",
"                                                                                                                            $ e J 2.3.*.C._.&X5X6X6X6X6X7X6X4X4X;X X[.).C.:.<.C.d.d.;.;.[ N i a n n b w 0 9 e t <                         $ $ - ; ; ; , , : , t q q q q q q q q q q q q q z z q r r y b n n b a r 0 9 4 # 9 b @.y.y.y.y.%.+.$.$.$.X.X.U X.%.z.M.U./.}./.A.a.i.i.l.x.l.a.i.z.p.i.k.k.%.M b b y y y w w N $.z.x.m.x.x.z.z.p.i.i.i.y.u.y.y.%.H b i w 0 w b ] %.%.y.$.$.$.T G v : : q q : : < < > $ X X . . o o o X                           * e j F F ' ' ' / ' ( [ [ [ &.,.Y.,XjXMXCXCXCXCXFXZXcX5X$XL.J.Z.K.K.C.] b 0 0 a y r , $                                                                                                                                         ",
"                                                                                                                            , t 2.B.W.D.K.].&X5X6X6X7XuXuXuXuXuXuXeXuX8XK.C.C.S.Z.C.C.q.&.n s M F H H b 0 e e < <                         $ $ - - ; ; , , ; : t q q q q q q q q q q q q q t t q q r x H @.@.{ H a a w 9 % 9 b @.y.i.k.y.%.%.%.%.%.$.X.X.O.%.z.M.U./.}./.P.x.l.a.x.x.x.l.p.z.p.i.i.k.%.U M H b b b b l M %.z.x.m.x.x.x.z.p.i.i.i.i.y.y.%.$.H b N i w i b X.$.%.t.$.$.$.T G z q q q q : : < < > o X . . . o O o o                           % , j P ' ' ' [ ] | ( o.&.&.&.d.T.,XfXvXCXCXCXCXFXZXzX0X$XL.J.Z.K.H.C.] b 0 0 y y r , &                                                                                                                                         ",
"                                                                                                                            , g 9.(.oX'.].%X%X5X0XqXuXlXmXmXmXmXmXmXmXaX4XQ.H.K.K.S.S.C.*./ / ] ] @.} F y e e < > >                       $ $ - - - ; ; , ; , < q q q q q q q q q q q q : q : : q y D Y 6.5.5.2.L H D y w w H $.y.k.z.k.k.y.k.k.k.g.%.%.y.g.z.M.I./.}./.U.m.x.x.A.P.x.x.x.x.a.i.i.a.-.X.X.@.] ] H H M X.y.z.x.m.x.x.x.x.z.i.i.i.i.y.y.%.$.X.M M M b b M X.$.%.$.$.$.$.$.G z t q q q q < , , > o X X X X O & O o                           * e D { } } 7.*... .[ *.;.;.d.J.#X,XwXvXCXDXCXCXFXZXcXqX%XL.J.S.K.H.l.[ b 0 0 y y r , ,                                                                                                                                         ",
"                                                                                                                            t D c.XX8X&X%X%X=X:X0XqXaXmXAXAXZXZXZXZXZXmX7X_.K.Y.Y.S.F.C.*.) / [ #.#.@.' a y r e , >                       $ $ $ - - ; ; ; ; , < t q v z v q q q q q q q : : : : q y G @.g.n.6.5.@.{ H b l b H %.k.z.x.z.z.k.z.n.v.k.k.k.k.z.x.M./..X}./.I.A.x.x.x.P.x.x.x.x.a.i.+.i.+.+.+.+.+.O.X.@.X.+.i.x.m.m.m.x.x.x.x.p.i.p.i.y.y.%.%.X.X.X.X.U U U O.$.$.$.$.$.$.T A q t t q q : < , , > o X X X O & & O O                           , t P 3.3.7.8.8.=.*.*.;.C.Z.K._.=X>X,XfXMXDXCXCXZXZXzXwX%XT.K.K.Y.H.l.#.n 0 0 y y r < >                                                                                                                                         ",
"                                                                                                                            < y c.XX2X].%X=X&X&X6XuXaXmXAXAXAXAXAXAXZXmXqX_.K.K.K.S.Z.C.*.( / [ #.#.#.] F y e ; , &                       o $ $ - ; < ; ; ; $ , q v x x x z t q q : : : : : : ; q t G Y 4.4.$.@.@.@.L G b b Y $.k.k.z.z.v.v.v.v.v.v.k.k.z.z.x.P./..X.X/.I.m.a.p.x.A.A.x.l.l.i.-.+.+.+.+.o.#.+.+.@.X.#.%.p.x.m.m.x.x.x.x.p.p.i.i.i.i.y.y.y.t.%.%.%.O.X.U U U U O.T T T I A z t q q q < < ; , , $ X X o O & & & O                           % e L 9.9.8.8.q.;.=.=.q.Z.Y._.$X=X=X=XwXcXBXCXCXFXZXcX0X$XJ.K.K.H.H.8.] b 0 0 r y r , ,                                                                                                                                         ",
"                                                                                                                            e y 8.XX2X$X%X=X&X*X6XuXaXAXZXAXAXAXAXAXAXmX7X_.K.K.K.S.S.C.:.( / [ o.#.#.' b w e ; , &                       o $ - - ; < ; ; ; $ , q z x x x z t q q : : ; : : : ; : t A Y 4.$.@.Y Y Y L H G G U $.%.y.k.z.v.v.v.b.v.v.z.z.z.z.x.P./..X}./.I.A.x.x.x.A.A.x.l.l.i.+.+.+.+.+.#.#.+.+.+.#.%.u.z.m.m.m.x.x.x.x.x.p.p.p.p.p.z.z.k.k.g.y.y.%.O.O.U B B U U U T Y A z q q q < < : ; , , $ o o o $ & & & O                           $ e L 9.9.=.8.;.=.=.<.C.K._.%X%X=X=X#X,XcXvXCXDXFXZXcX0X%XK.K.S.H.H.8.] b 0 0 r t r , ,                                                                                                                                         ",
"                                                                                                                            r a 8.[.2X%X%X=X*X:X9XiXaXAXZXZXAXAXAXAXAXmX7X_.K.K.L.K.S.C.;.( / [ [ o.[ H a w 0 ; , &                       X $ $ - - > ; ; ; $ : q x A A A x z q q : ; ; : : : ; < q A G T T Y H H Y Y L H H H U X.O.%.5.k.k.n.n.v.v.z.z.z.z.x.P.^.}.}.}.}.I.A.A.U.U.U.A.x.x.l.i.i.i.-.+.%.%.%.+.%.+.%.i.z.m.m.x.x.x.x.x.x.z.p.z.k.z.z.z.z.z.k.y.y.%.+.O.O.U U B I T T Y G x t q : : : : ; < , - o o O $ > > & &                           $ e L 3.*.....:.:.:.<.Z.K._.%X=X=X#X#X>XtXcXCXFXFXZXhX6X`.K.K.K.K.H.8.] n 0 0 r e e , >                                                                                                                                         ",
"                                                                                                                            e a 8.XX5X&X*X*X*X:X9XiXaXAXZXZXAXAXAXAXAXnX6X!.K.K.L.K.S.C.;.[ / ] ( [ ] n a w 0 % * $                       X $ $ - - ; - - - $ ; t x A G A A x t q : ; ; - : ; ; : t x G I I G G G G G G G G G M M M X.O.$.%.%.5.5.k.z.z.z.z.x.I./.}.}.}.}./.U.U.I./.U.U.A.x.l.a.a.i.i.-.%.%.+.+.+.#.O.y.z.m.m.x.m.x.x.x.x.x.z.z.z.z.z.z.z.k.g.y.y.%.O.O.O.U U U I T Y Y G x t t q : : : : < < - $ o o & > > & $                           $ e L }  . . ...:.:.,.Z.K._.$X=X=X#X#X#X,XfXxXCXZXNXiX;X_.J.K.K.).).l.] b 0 9 r e e % ,                                                                                                                                         ",
"                                                                                                                            0 a 8.XX5X*X*X*X*X:X9XuXaXmXZXAXAXAXmXmXmXaX2XK.Z.K.J.J.S.C.;.[ / / / ] ] n i w 0 9 % &                       X o $ - $ - $ $ o o ; t x A A A A x z q : : - ; ; ; - : t t x x m c c c c b D b b b b b b m H H H H U O.%.k.k.z.z.x.P./.}. X}..X/.U.U.I.I.U.U.A.x.l.l.i.i.-.%.+.+.X.X.U U X.%.z.m.M.m.m.x.x.x.x.x.z.z.z.z.z.z.z.z.i.i.y.%.O.X.X.U U U I Y Y K G x t t q q q q : t < - $ $ $ $ > > > &                           $ e L 7.=.=.=.<.<.,.Z.K.K.Y.R.T.#X#XT.#X=X:XrXgXzXgX5X].K.S.K.K.).Y.8.] a 0 9 9 9 e % %                                                                                                                                         ",
"                                                                                                                            e a 8.XX6X5X5X*X*X:X9XqXuXaXmXmXNXmXzXzXhXuX%XK.Z.Z.Z.S.Z.C.;.[ ] ] ( [ ] M a w 0 9 % $                       X o $ $ o o o o o X - t x A A A A x x z q : - ; ; ; - - : q z x x l l x x x x b b l b w w x b N w w N M +.7.k.i.i.l.U./.}. X X XR.U.U.I././.I.x.a.l.l.i.-.#.X.] ] ] M M m M X.k.M.M.M.m.x.x.x.x.z.z.z.z.z.z.z.z.z.z.k.k.%.O.X.U U H G H Y Y G A x t t x z z z q z t - $ $ $ $ > > > &                         $ $ e { 8.q.w.Z.J.J.J.L.K.).Y.Y.R.T.T.T.T.T.#X=X*X:X5X_.K.K.K.Y.K.).Y.8.] a 0 4 9 9 % $ $                                                                                                                                         ",
"                                                                                                                            e a l.2X6X6X5X*X:X9X0XqXqXiXaXaXaXpXuXeXuXqX[.K.Z.Z.Z.Z.Z.C.;.&.[ [ [ #.#.] b a r e % $                       X o $ $ o o X o X X ; t x A A A A Z x z q : - ; ; - - ; : q t z v l l y x x x x x N b x w y w w w w w M +.7.l.k.i.x.U./. X X X XR.U.U./././.U.a.-.%.-.%.#.] n N n b b y w b H %.v.M.M.x.z.p.p.z.z.z.z.z.z.z.z.z.z.p.k.k.%.X.X.X.U H H H Y Y G A x x x x x x x z C f , $ $ $ $ - > > &                         o $ e { 8.D.F.F.K.L.J.L.Y.Y.Y.Y.R.T.T.L.J.L.J.J.J.K.T.J.K.K._.]._.{.).l.] a 0 9 r e e $ $                                                                                                                                         ",
"                                                                                                                            t a c.4X7X6X0X5X9X0X0X0X6XqXuXqX0X6X6X6X0X6X].K.Z.Z.Z.Z.S.C.8.;.*.*.*.*.*.] F a r r % $ &                     X o $ $ o o X X X o ; t x A G A A x x z q : ; ; ; - - ; < t t v v x x x x x x x x b b b b b b b w y b M %.l.l.l.l.x.I./. X X X X/.U.U.{.{.{.U.-.` ( X.X.( N i w w w w w 0 w G $.v.v.v.z.p.u.p.i.k.z.x.x.x.b.b.x.z.z.i.y.$.X.X.@.@.H L L Y Y L G c x x A x A A C Z C , $ $ $ $ > > > >                         o @ e 2.8.C.F.K.K.L.J.J.K.K.K.Y.R.T.T.L.J.J.f.d.,.C.K.S.K.].&X4X&X[.`.D.[ n 0 0 w w e % $                                                                                                                                         ",
"                                                                                                                            e w c.4X7X6X9X9X9X0X0X9X5X5X5X*X&X*X*X:X:X:X$XL.Z.Z.Z.Z.Z.C.C.8.8.=.*.*.#.[ F b y ; % * &                     X o $ $ o o X X X X , t x c c x x x x z z < ; ; ; ; ; ; : : q z x z x x x x x b b b b b b b b b y y b H %.l.x.x.x.A.I./.}. X X X/.x.a.U.{.Y.l.o.n n M M n N w 0 w w w w 9 w b @.%.k.k.y.t.%.y.y.u.p.x.m.x.N.M.N.z.y.t.$.U M H ] H H { L L H J m b c l m x G A S Z f , $ $ $ $ > > > >                         X @ , 2.D.D.Z.F.K.Z.Z.J.J.L.K.K.Y.R.Y.S.Z.C.q.;.;.d.S.).[.6X7XqX7X6X4XH.*.] n n ' F w # $                                                                                                                                         ",
"                                                                                                                            t a c.4X7X5X9X,X9X0X9X5X2X2X&X%X%X%X*X*X*X=XT.J.Z.Z.Z.Z.C.C.w.q.;.=.&.*.*.] F a e ; $ & &                     X o $ O o o X X . X > q x c c c x x x z z < ; ; ; ; - ; : q z x c x z x x b b b b b b N N b b b y y b H y.x.x.x.x.A.I./.}. X X XU.i.+.l.U.A.-.( i i N n b b w w w r r w w w b H X.%.%.%.%.%.+.t.y.p.x.x.x.N.M.N.h.t.O.M m N n F b b F F F F D b b c l x x A G A Z C , - $ $ $ > > > >                           @ , 2.8.w.w.Z.F.C.C.Z.J.L.L.L.Y.Y.S.C.q.8.;.;.8.F.).[.7XuXaXaXiXiXeX[.D.-.o.o.*.#.j 9 %                                                                                                                                         ",
"                                                                                                                            t a c.4X6X5X5X:X9X0X9X:X&X&X%X$X$X$X&X*X*X%XL.Z.C.Z.C.C.C.C.C.C.8.=.&.*.*.] F a e ; $ $ &                     X o $ o X o X X . X - q x c c c c x x z q < ; ; : : ; : q t x A G G c G m m m b b b m b b b b b b b b X.k.x.x.x.x.A.U./..X X X}.A.+.` -.l.-.o.N w i i b b y w w r y y y w w l G U X.O.$.O.O.+.%.y.p.x.m.x.M.M.M.h.$.B b l i a a a a a a a b F b m c c m x G G S A C , - $ $ $ > > > >                           @ , 2.8.w.q.q.Z.C.C.Z.Z.K.K._.Y.K.Z.;.;.-.;.;.C.). X7XuXpXpXiXuXuXuX4XE.D.-.8.c.9.F 9 %                                                                                                                                         ",
"                                                                                                                            t a c.4X7X6X5X:X,X9X9X5X&X&X%X$X$X%X*X:X:X%XL.Z.C.Z.Z.C.C.q.C.D.q.;.:.*.#.] F a e ; $ $ &                     X o o O X O o o X X > t x A c c c x x z z : ; : : : : q t x A G I I I G G H G m m m M N N n F D b b b @.k.b.x.x.x.P.U./..X X X{.x.+.( +.i.#.( b w a b b b y y r r r r y w w l G U X.$.$.$.+.%.y.i.z.x.M.m.M.V.M.h.$.U b N i a a 0 0 0 0 a a a D D G c m c G G S S Z t - $ $ $ > > > >                           @ , 2.8.w.w.w.C.q.q.Z.K.K._._.).K.Z.a.;.8.;.C.H.[.8X7XuXsXuXuXuXuXuX8X).D.;.8.C.9.F 0 %                                                                                                                                         ",
"                                                                                                                            t a D.8X7X6X6X:X,X,X9X:X&X%X%X[.$X%X=X&X%X`.K.d.C.Z.Z.C.C.C.C.C.8.*.*.*.o.' F y e ; $ $ &                     o o O o o o X o X X > t x A c c c c x x z q : : q q : v x A G Y T T U U U U H m b n M M M H F F b b b X.z.A.A.A.A.U.U.U..X X X/.x.` ( @.+.] n a w a b b y y y w q q w y q w l H U $.$.$.+.%.y.y.k.x.m.M.M.M.P.V.v.$.U b b a i 0 0 5 5 0 r r w b b G G G c G G S A Z t - - $ $ > > > >                           @ ; { 9.q.C.q.q.,.q.Z.K.)._.).Y.H.C.;.;.8.l.A.).4X7X7XeXuXeXuXuXpXiX7X`.D.=.*.8.8.] w e                                                                                                                                         ",
"                                                                                                                            t a c.4X7X6X9X5X,X9X5X*X%X%X].]._._.`.`.`.T.S.d.d.C.C.C.C.C.8.;.*.o.o.o.[ M a e 9 % $ $ &                     O o O o o o X X X X > t x x x c c l l x x z z z z z v x c G I T T T T O.O.X.U M b n M M M H n b b b M @.z.A.x.A.A.U.U.U..X X X/.l.` M M ] b w 0 0 y y b y y y w 0 0 q w q w l m U X.$.$.+.%.y.i.p.x.m.M.M.M.P.M.z.$.X.M n n a u 0 5 5 5 0 0 0 w b D b x x x A A A C , - - $ - > > > $                           @ , L 9.8.8.8.8.;.;.C.K.).).Y.H.Z.d.;.-.;.l.H.[.7XeXeX7XeXeXeXuXpXpX7X[.F.:.&.;.8.] a e                                                                                                                                         ",
"                                                                                                                            t a c.4X7X6X0X5X9X9X5X&X%X].].]._._.`.`._.Y.J.Z.S.S.H.H.H.E.C.*.[ [ ( ] ] n w 9 % % $ $ O                     O o o o o o X X X X , z x x x c c x l x c x x x x x x m m U $.$.$.$.$.%.%.$.X.M N N M M M n n b b b N @.l.P.A.A.A.U.U.U..X X XU.a.` N N n a 0 0 e y y y y y r t 9 0 w w w w b M U X.$.$.+.%.y.i.z.x.m.M.M.P.P.M.k.$.X.H H F s a 0 5 5 5 5 4 0 w b D b c l c x A A t , $ $ $ - - > $ $                           $ % L 9.8.8.*.*.:.;.C.).).).).H.S.d.;.;.l.D.H.[.6X7X7X7XqXqXeXiXiXiX7X_.Z.>._ =.*.] a e                                                                                                                                         ",
"                                                                                                                            e a c.4X7X6X0X5X5X9X5X&X%X%X%X[.].].`.`.`.`._._.[.;X4X4X4XXXE.*.( / / ( ' b w 9 % $ $ o O                     O O o $ o o o o X o , C x A x x c c x x c A c c m c c G U $.$.$.$.$.$.y.y.%.X.M M M M M M n b b a N N X.z.P.x.A.A.U.U.U..X X XU.a.` N b n w 0 e 9 y y y r r r 0 9 0 w y w w b H X.$.%.$.+.%.i.p.z.x.M.M.M.I.^.M.k.$.X.] { ] F a 0 5 5 5 5 5 0 w b D b b c c x A A C : $ $ $ - - - $ $                           $ % P 3.*.*.[ [ [ &.q.).`.`.).Y.H.C.,.C.C.F.U.`.4X6X6X6X6X6X0XqXqXqX:X_.C.>._ =.;.] a r                                                                                                                                         ",
"                                                                                                                            e w c.XX8X5X5X5X:X*X&X4X%X4X7X4X&X&X4X;X;X;X6XqXuXiXuXuXuXdX{.#./ M n / n a w 9 % $ $ O o                     O O $ o $ $ $ o X $ ; t x A x x c l c c A A c c m G m U O.y.g.g.y.g.k.z.k.7.+.] ( ( M H M n n b i N N X.l.P.x.A.U.U.U.U.R. X.XU.l.X.N b n w 9 9 e e e 0 q r q q w r y y b b G H U $.$.$.%.y.i.z.x.x.m.P.P.P.I.P.z.%.X.} } ] ' s u p 7 5 7 0 r w b D m m c x x x x t : - - - - - - $ $                           $ e D } [ ] ( / ) &.C.).8X4X[.[.).K.Z.H.Q.).)._.&X4X&X5X:X:X5X5X9X5X%XK.,.&.&.;.8.} b y                                                                                                                                         ",
"                                                                                                                              w *.E.'.!._.T.T.T.].&X4XdXaXiXuXuXeXeX7X7XeXiXaXhXaXaXsXuXoX#.M n n n n a 0 9 % $ $ O O                     O O $ o $ o o o X o - t x A c x c l c x c A c c m m m U O.y.g.y.y.y.g.k.k.7.+.] ( ( M M n b b a w i N X.z.A.x.x.A.U.U.A./..X/.A.-.( n a a 0 % % 9 ; ; 9 0 w r r y b b b D H H U @.$.%.y.t.y.i.z.x.m.P.P.I.I.^.P.z.%.X.] } } ' s d 5 5 5 5 0 0 w b D b m c x x x x t : - - - - - - $ $                             e D ] ] ' / n ( -.A.4XeX7X7X7X6X4X&X&X2X&X&X;X4X5X5X:X:X:X:X:X:X*X$XK.,.:.:.q.C.#.F y                                                                                                                                         ",
"                                                                                                                              w #.F.H.Z.Z.Z.J.Z.K.&XqXaXmXnXhXgXzXaXpXpXpXhXhXhXaXaXsXuX{.#.n b s n a w 0 % $ $ $ O                       O O $ $ $ o o o X o - t z A c x c c l x x m m m m m m U X.y.k.k.k.k.k.k.k.k.%.] M ] / n i i a w 0 w b X.z.x.x.x.A.U.U.A.U./.I.x.%.( n b b w 9 9 9 9 9 9 q w x x b G H G H H H U X.$.%.g.y.g.i.p.z.x.P.P.P.P.P.M.k.%.X.] [ ] ' s d u 5 5 0 u w a D D b b c x c Z x z : - - - - > - $ $                             e D { ] ' n n ( 8.U.7XaXiXuXiXiXrXqXqXqXqX0X6X6X5X5X:X:X5X:X*X*X%X_.K.,.:.=.D.C.#.a y                                                                                                                                         ",
"                                                                                                                              w #.G.H.C.C.f.Z.d.Z.&XuXnXAXmXlXhXzXaXpXpXpXhXhXpXuXsXuXdX'.#.n b s n b w 0 ; $ $ O o                       O $ $ - - - - - o $ ; t x A A c c x l x x c G G G G m H O.y.k.z.z.z.z.z.z.k.%.] ( ] / n s a i w 0 w b X.k.x.x.x.A.U.U.U.U./.U.x.-.] M H H n a a F b x x m G m m G L L H H H H U U @.$.%.%.y.y.y.i.i.z.z.z.z.z.k.%.X.X.] ] ] ' s d u u u d s F F H G b c c c c A x z : - - - - > > - $ o                           e J 0.} ] / M ] l.~.7XaXpXuXpXpXiXiXiXiXiXrXeXqX0XqX0X0X0X6X5X:X&X_.S.C.;.q.E.D.#.a t                                                                                                                                         ",
"                                                                                                                              w #.D.H.Z.Z.Z.d.,.C.&XyXnXAXmXnXaXaXpXuXuXpXaXpXiXuXuXuXyX~.#.n n b n F y 0 ; % $ O O                       $ $ $ - > - - - o $ ; t z x x x c c l x c G G G G G m H +.g.k.z.b.b.b.c.c.c.7.] ] ' / n i i a 0 0 i b X.k.A.x.A.U.U.U.U.U.U.P.x.-.X.( @.#.} ] @.@.@.@.@.$.Y I H I U Y U Y @.U H U @.@.@.@.$.$.O.O.O.%.%.O.+.+.X.X.H ] ] ] ] n s d d d s F ' H ] H m b c c c m A Z C , - - ; , , > - $ o                           t J 3.} ] ] / [ l.).dXaXpXuXpXpXgXgXgXpXpXpXpXrXrXrXrXtXrX0X5X6X;X`.H.Z.C.D.E.W.3.a e                                                                                                                                         ",
"                                                                                                                              0 } D.H.Z.F.Z.Z.,.Z.`.7XaXmXnXaXaXaXpXuXuXpXaXpXpXiXuXdXyX~.[ n a b b b y 9 - $ $ O O                       $ $ & - - - - - o $ - t t x x x c c l c m G G G G G m M @.%.g.k.b.b.c.k.k.7.#.] n n n i i a w 0 0 w a X.k.A.x.x.U.U.U.U.U.A.x.i.o.] ( #.#.#.@.5.k.k.k.k.g.$.U I I I U H Y @.U H m H H H H H U H M M U H M M H H H H H ] ] ] n s s s ' ' ' { { ] U m l c c c m A A z , ; ; , < , , > > O                           t J } } ] ] / [ l.).dXaXpXiXpXpXgXgXgXpXpXpXpXpXpXeXrXeX7X6X4X4X&X).F.C.;.8.C.8.{ w                                                                                                                                           ",
"                                                                                                                              9 ] C.F.Z.K.J.Z.,.C.).XXuXmXlXaXpXaXpXuXeXiXiXiXiXiXuX7X8XE.] a a a b b r 9 % $ $ O O                       $ $ > - - - - - $ $ ; < q t z x c c c m G A x x m b b N ( #.+.%.k.k.7.%.%.@.] n s s a i i u 0 r 0 w a ] k.x.x.x.A.U.U.A.x.i.+.&.o.] ( o.#.#.#.7.k.b.b.v.j.$.U m m U U U U U H b l w x b b b b b b b M b b N H H F H H ] ] ( / / / ' } } } { @.H H m l c c c G x A z : - ; , < 1 < , > >                           t J } } ] ( / [ l.{.dXaXuXeXpXpXgXfXpXpXpXpXcXcXrX0X:X;X X`.{.{.).F.;.*.) [ o.} F 0                                                                                                                                           ",
"                                                                                                                              9 ' 8.D.C.Z.Z.C.<.;.H.'.dXmXzXaXpXpXiXeXeXqXqXqXeXqX7X8XXXc.n i a a b F y 9 % $ $ O                         $ $ - - ; - - ; - - , : q q v x c c c G G x x x x x w N M X.X.#.%.%.+.#.@.] M i i i u a u u u r 0 0 a H 7.x.a.x.x.A.A.x.i.+.o.o.[ ] ] o.*.*.#.-.z.b.G.b.v.$.I m G U U U @.@.H b w w q r r r y w w l b b b b n F F H ' ] ] ] ( / ' ] } 3.3.@.] H H m m c c m G A x z : - ; , < < 1 , , >                           t F #.} ] ( / [ l.).eXaXpXeXrXpXfXpXpXpXpXpXcXcXuX6X`.R.U.H.H.H.F.l.&.( / d n n w 4 $                                                                                                                                         ",
"                                                                                                                              9 H 7.8.;.;.;.;.:.=.F.'.yXnXaXaXpXpXiXeXqX6X4X6X6X6X4X[.'.7.n w y a D D y 9 % $ $ &                         O > $ - ; ; : < ; - ; : : t q q l l l x G D x x x x x b H X.X.@.#.@.X.( ( ( N i i d d d p u p r 0 0 a ] g.l.a.a.x.l.a.k.%.] ] o.o.o.o.*.*.#.o.#.-.l.G.b.k.$.U m U U U T @.@.Y x t y t t y y y y x x b b b H H H H H ] ] o.[ ] ] ] ' } @.@.@.U H H H m m c G G A A x q : : < e t f < < ,                           t F } [ [ ( ] o.l.{.uXzXpXrXrXrXpXrXrXpXpXcXcXxXaX4X{.A.d.d.l.C.C.8.[ n i i a a e e $                                                                                                                                         ",
"                                                                                                                              9 F *.-.*.&.:.:._ :.D.).yXnXaXpXpXiXiXeX6X;X[.[.&X&X`.'.E.5.b e y y g y t ; % $ $ &                         $ , - , , : < : ; - : q q z z l l l l c G D x x x x b b H ] X.@.@.X.X.( ( / n i u d d d u p r 0 9 0 a H g.l.z.k.a.i.i.-.+.] ] [ [ ..&.&.*.o.o.#.-.l.G.b.z.$.B G U U Y T @.@.Y x t t t y y y y y x x b b b H H H H H ] o.o.o.[ ' F H H L H H H H H H G G c G G A A x : ; : < e t t < , ,                           g L #.} #.] ] [ 8.'.dXaXpXrXtXtXrXeXpXpXpXpXzXzXaX4X).d.;.;.8.C.C.7.] n 0 0 w y r % $                                                                                                                                         ",
"                                                                                                                              9 n #.o.[  . . .)  .8.E.7XlXaXuXuXpXiXqX4X_.K.K.).).Q.E.c.{ w 9 e e r e ; % % $ $ O                       X $ > ; , < < < q : : q z x x x l l l c b D x y y y y x b ' @.] ] ] ] X.] ( M b i u u d p u p r 0 9 0 i H 5.c.i.-.-.-.-.%.o.] [ [  . . ...&. .) &.;.A.P.M.z.%.U H U Y Y T @.@.H x q t t y y y y y y x x b b H H H H H ] [ o.o.[ H n a a a a b b b G G G G c G G A A x : ; : < q e < < < <                           g L 3.#.#.] H ] -.~.7XpXiXeX0X0XeXeXrXpXaXaXaXaXsX;XH.;.*.-.-.l.l.7.] n w 0 r y e % $                                                                                                                                         ",
"                                                                                                                              ; F #.#.[ [ _  .) ) 8.H.8XaXaXuXuXpXuX7X4X).Z.S.H.K.H.D.8.' 0 % ; ; ; % % $ $ $ O                         $ $ , , < < < t q : : z x A G G m m m m b D x r r y r y b ' @.] ] ] ] X.X.] F b a u u p p u 0 0 9 9 0 w b %.z.k.-.+.+.*.*.o.[ [  . . . ...&. . .:.;.A.U.M.z.%.U H U Y Y Y T T H x q t t y y y y y y x b b b n H H H H ] ] o.#.[ F a 0 0 0 e r r x b G G G G G G G A x : ; : q t e < < < <                           g L 3.#.{ H F F #.G.4XpXiX0X0X:X6X0XuXaXpXpXpXaXuX XH.;.&.*.-.l.l.7.] n a w a g r ; $                                                                                                                                         ",
"                                                                                                                              ; F #.#.o. . . ._ &.C.E.8XaXaXuXuXpXuXuX4X).C.C.H.H.H.D.7.H 0 % - % % $ $ $ o o o                         $ > , < t f t t z : : x A I T T U U B U U L D y y y y y b ] ] ] @.] ] @.@.] H b w 0 0 0 0 0 9 9 4 % 9 w D %.z.k.-.-.*.-.-.&. . . . . ._ .... ._ &.:.l.U.M.z.$.B M H I U U U @.Y x q t q t y y y y y x b b b n H H n F H ] #.-.#.H a r 0 r e e r y b m I I I G G G G x q ; q q q q < < < ,                           f J { F F F a a M 7.[.uXiX0X:X>X>X6XeXaXaXaXpXaXuX X~.l.-.-.-.l.l.-.] n a w a g r * $                                                                                                                                         ",
"                                                                                                                              ; F #.#.&.&. .&. .&.D.).7XaXaXuXuXuXuXuX4X).C.C.H.H.H.D.7.H 0 % % $ $ $ $ o o O                           & - > < f C z C z q q Z G T $.t.t.$.+.$.@.@.D y a b y y b H ] ] @.@.X.@.X.] H b w 0 0 0 0 9 9 9 % % 9 w H %.k.k.7.-.-.-.-.:.:.&.:.........=... .&.:.a.A.x.k.$.B M H U I U T $.U c q q q t t y y y y x b b b n n n n F H [ &.-.#.H a r r e e e t y x G I I I I I G G x q : q q q t < < < ,                           < g Z y y r 0 0 i o.'.7XeX0X:X%X>X;X7XpXaXaXpXaXuXXXE.l.7.7.-.8.l.*.] n a w a g e , $                                                                                                                                         ",
"                                                                                                                              9 F @.-.-.*.&.>._ :.F.[.yXaXsXuXuXuXuXdX4X).C.C.F.E.H.D.9.F 9 % % $ - & $ $ O O                         o & - > < t z z z z q q x G U t.y.t.+.%.%.+.@.F a y x y a b n H ] @.@.H X.H H H b a w 0 0 9 9 9 9 9 % 9 r G 4.9.7.7.%.#.-.*.&.&.:.=...=.<.q.w.q.;.;.a.a.x.z.k.%.X.U U X.X.T $.$.T x q q q t y y y y y y b b b b n n b n F ] &.-.#.F a r r e e r e t x m G I I G I G G A v : q q q t < < , > $                         - t e 4 e e 9 9 w @.~.7XeXqX6X>X%X`.4XuXsXsXsXsXdX{.A.l.8.7.-.7.7.#.M a w w j g e * $                                                                                                                                         ",
"                                                                                                                              ; F 3.7.8.*.>.>.>.;.H.XXdXaXsXuXuXuXuXyX4X).C.C.D.H.G.D.9.F 9 # $ , , , , > &                           X & - > < < t q q q : : x m U O.+.O.O.+.%.%.O.H a x b y a i n H ] +.@.H H H H H H b y w w 0 9 9 0 0 9 0 y D @.5.%.%.%.+.+.o.o.&.&.*.9.8.8.w.w.w.8.l.a.a.x.z.z.y.$.X.$.$.%.$.$.g.T b q q q t y y y y y w b b b b b b b n M ] o.-.@.F j r r g h t t t x G I I G G I G G A z : q : q t : < ; > $                         $ , , % , , ; 9 w @.~.6XeXeX0X>X%X`.;XdXsXsXsXuX8X~.l.8.7.7.-.7.7.#.n i 0 w y y e $ $                                                                                                                                         ",
"                                                                                                                              ; F 9.c.8.;.:.:.>.,.).8XuXaXaXuXuXuXeXdX8X).C.D.H.E.E.D.9.F 9 $ % , , 1 1 > >                           $ & - , , t t q q q : t x m U +.+.O.O.u.y.%.X.H a i i y w i N M ] ] X.X.U H H L H G D D b x x y y y y y x L @.5.5.%.@.+.@.#.#.*.} ' ! | } *.9.7.*.7.k.l.z.z.z.z.y.y.g.g.g.k.k.h.$.m l y y y y x x b b b D b b n n n n H H X.#.-.#.F j r 9 e r e e q x A G I I G G I I A x q q < q q < : ; - $                           o $ $ > , , e a #.~.6XeXrXeX6X;X).[.7XuXuXuXuX+X~.l.7.7.7.7.8.7.#.F i 0 w y y e $                                                                                                                                           ",
"                                                                                                                              9 L n.W.D.C.d.,.,.Z.`.7XsXlXaXuXuXuXuXuX8X).A.A.H.E.E.G.9.F 9 % % > > 1 , 1 >                         o $ $ - , , < t q q q : t x m U +.+.+.+.u.y.%.X.M b i i w w N b M H H U U U @.@.@.Y Y L L L G G G G K K K G L @.5.%.%.@.@.3.@.#.#.F u 6 7 7 s a s F } 7.v.b.b.x.x.z.z.v.b.b.b.b.N.g.U b c x b D D D D G H H H H H H H H H ' @.%.%.@.F a r e r r e e t x G G I I I I K K G x q q < q q : < ; - $                               $ * , t y b #.'.7XiXpXrX0X;X`.;X7XdXdXdX7XXXW.l.8.8.8.7.c.c.@.F a 0 w y g t $                                                                                                                                           ",
"                                                                                                                              9 { c.G.G.F.Z.C.d.H.[.7XuXaXaXiXuXuXuXuX8X).A.D.H.E.E.D.9.F 9 $ $ > > > , , 1                         X $ $ - , , < < : : q : q x m B O.+.+.+.+.+.%.#.] N b b b b N M M M H U U U Y T T Y Y Y L L H I Y Y L K K K L @.@.@.@.@.@.3.@.#.{ j 4 @ # # # # # 9 D 5.v.M.b.x.x.x.b.M.M.M.M.M.M.k.U m b x D D H H H H H H H H H X.@.X.@.@.#.+.@.} F a r 9 e 9 9 9 t x G G I I I I Y K G x q q : : q < < , - $                                     t g b @.'.7XiXiXrXqX6X[.[.4X8X8X4X+X~.l.8.7.8.l.8.c.c.#.H a 0 w y g e %                                                                                                                                           ",
"                                                                                                                              9 L c.D.D.Z.Z.Z.Z.K.`.8XuXaXaXiXiXuXuXyX8X~.C.C.H.E.H.D.9.F 9 $ $ , - & > , 1                         X $ $ - , , : < : : q : q x c V U O.+.O.O.` +.#.@.] H H H M M H H U U I U I I I I I I H H H G G G G G K G G G Y @.@.@.Y L @.@.3.2.D # @ @ X @ @ X # D 5.v.M.b.x.z.z.x.b.M.x.x.m.m.k.X.m m x G H H H H H H U X.X.X.@.@.@.@.@.@.@.@.H F b w 0 0 0 9 9 t c G G G I I I K G A x q q : : < < < < > $                                     , e a @.).8XqXeXeX0X6X;X`.[.[.{.).).G.l.7.7.8.7.7.l.c.#.H a 0 0 r t e $                                                                                                                                           ",
"                                                                                                                              0 { c.G.C.S.S.J.J.Y.`.4X7XiXpXiXiXuXuXeX8X).C.C.H.H.E.D.7.F 9 $ $ - $ $ > > ,                         X $ $ - , < < < : : q q q z c m T O.+.+.` ` X.X.X.X.X.O.O.X.X.X.X.U U U U U U U U I H G G H G G G G G G G G G I U U T U L Y @.2.2.Z $ . . . . . . $ A 5.b.V.M.x.p.z.x.x.m.x.x.m.M.z.O.B M b H H L H H H U X.X.U X.X.X.X.U X.] ] H H H b y y y y y x x b G m G G I I K G A x q q < < < < < , > >                                     , e a @.'.6XqXeXeXeX7X4X X[.).Q.H.H.A.l.8.8.c.l.7.c.c.5.H i 0 9 e t e $                                                                                                                                           ",
"                                                                                                                              r #.W.E.F.H.J.L.L.T.`.4X7XiXiXiXiXpXuXuX8X).D.F.E.).E.H.7.F 9 % % - - - > , >                         $ $ $ - , < < : : q z q q z c G U $.O.O.O.X.O.O.+.+.%.y.y.%.%.%.$.O.T T T U I U I U H H G m m m m G G G A A b G U U @.T Y Y @.2.E Z $ . . . . . . $ G j.B.W.P.m.z.z.x.x.m.m.m.m.M.x.+.` U m H H H H H H H U U H H H H M M H H H H H H H D b H G G G G G m m G G G G G G A x t q < < < e < < , >                                       e F %.{.7XeXeXeXeXeX7X4X[.).F.C.A.D.C.D.D.W.D.l.c.G.9.H i 0 9 e t e $                                                                                                                                           ",
"                                                                                                                              r #.W.~.H.Y.Y.T.T.T.%X4XqXiXeXqXeXuXuXeX8X).D.F.Y.).).E.7.F 9 % - - - - , > >                         $ $ $ - , < < < : q z q q z x G U T O.O.O.O.O.%.%.%.y.y.y.y.y.y.y.$.$.O.T U U U U I U U G G m m m G G G A x m G U U T T Y @.@.2.E S & X o O X o X - K j.B.G.M.x.z.z.x.x.m.m.m.m.P.m.t.O.U M H H H M M M M H H M M M M m b m M D F H H H H U Y U I H H G m c c G G G A A x t t t < < e e < < , >                                       e F *.'.7XeXrXiXrXuX7X8X[.U.A.C.C.D.D.H.H.W.W.D.W.W.7.F w 9 9 e t e $                                                                                                                                           ",
"                                                                                                                              y } G.~.H.Y.Y.T.T.T.%X4XqXeXqX0XqXeX7X7X4XY.C.S.K.).).E.7.F 9 # % % $ $ - $ >                         $ $ $ - < < < : : q z q q z x G I U U U X.` X.+.%.%.y.y.y.t.+.y.t.+.O.T U U U U U U U U U U G G G G G G G A G G I Y T I Y Y Y Y Y Z $ . . . + . X $ G g.b.M.M.m.p.x.m.x.m.m.m.m.I.m.u.+.X.U U U H M M M M U H M M M m m b b b b b G H H U U U U U I H G m c c A A A x x z t t t < e t e < < , >                                       9 a #.'.8XqXeXiXpXuX7X4X`.H.A.C.C.D.H.E.E.E.G.G.E.G.-.F w 9 9 e t e $                                                                                                                                           ",
"                                                                                                                              t { W.'.).).K.T.T.R.;X6X7X7X6X6X6X7X7X6X&XY.Z.Z.H.).'.W.9.F 9 $ $ - $ $ $ $ >                         $ $ $ - ; , < : : q q q q z x m G U U B B U O.O.+.+.+.+.+.+.%.+.+.O.O.O.U U U U U U U U I I I Y Y K G G G A G K Y Y Y Y I I H L L C $ . . + + o X $ A g.b.m.m.p.p.m.m.M.m.m.m.m.m.m.i.+.O.X.X.X.X.U U H M H H H G G D x b x D x x m G G G U I U U I H G G x x x z t z z z q < < q t : < < < > > >                                     9 a #.E.4X6X0XiXiXeX7X&X`.F.C.C.C.H.H.H.H.E.~.~.).~.7.n 0 9 9 e f * $                                                                                                                                           ",
"                                                                                                                              f 3.W.oX'.).Y.T.T.%X6XeXuXuXeXqXqXqX7X6X&XK.Z.Z.Y.`.XX'.n.H 0 # % , $ $ & > >                         $ $ $ - , < : : q q q q q z x m H I I U U U +.+.y.t.y.y.y.t.t.t.%.+.+.O.O.O.U U U U U U I G G G G G G G A x A G K G G I I G H Y Y C $ . X + + o X $ D g.b.m.m.s.s.m.M.M.m.m.m.I.I.m.p.u.+.O.%.+.$.O.X.U H H b D D G G D A D D x x b m m m m U U I H G G D x t z q q q q q : < < q t : < < < , , >                                     t a #.E.&X&X&X6X6X4X4X4XXX).Q.).).).).E.).{.`.{.[.).l.F 0 9 9 r f * $                                                                                                                                           ",
"                                                                                                                              t 3.W.OX'.).K._.$X:XeXiXpXpXiXqXqXqXqX6X;XT.S.S.).[.+XoXn.F 9 # % , $ $ & & &                         $ $ $ , , < : : q q q q q z x m I I I U U T $.$.y.y.y.g.g.g.y.y.y.%.$.$.$.$.T T T I U I G G G G G G G G D x A G G G I I U I H Y Y A $ X X X X o X $ G g.b.m.m.m.m.m.P.I.P.P.P.I.I.m.x.i.y.+.y.y.y.%.$.U M G b b b m G G G G G D D m m m m m m B U I H G D x t t q q q q t : : : q q q < < < , , ,                                     t F 3.E.[.]._.].`.`.;X&X&X`.)._.).).E.).'.[.4X+X+X[.c.F r 9 9 e f * $                                                                                                                                           ",
"                                                                                                                              f R n.W.E.E.S.T.:X0XrXiXpXhXpXrXiXeXeXqX4X_.J.Y.`.;X4X'.9.F ; $ % , - $ & & &                         $ $ $ , , < : : q q q q q z x c G G G I I U U $.$.$.$.g.g.g.g.y.y.%.$.$.$.$.T T T U U U U U G m G G G G G m G G I I U U U I U T Y S $ . X X o X X $ G j.V.P.I.P.P.m.P.I.I.I.P.I.I.m.x.p.u.y.y.y.i.y.%.X.M m b b c b m b b m G b b m m m m m m U I U U H b x t t q q q t q q : : < < q < < < > , , ,                                   t b #.E.]._.K.K.Y.`.;X6X7X6X6X6X4X2X).H.).).[.[.[.{.l.F e 9 9 e h * $                                                                                                                                           ",
"                                                                                                                              e D 2.9.7.C.S.].6XeXiXiXiXgXiXiXpXpXiXeX6X%X_.`.[.4X+X(.5.D % # * - - $ $ & &                       $ $ $ - , , < < : q q q q q z z x A A A c c c G I T Y $.4.g.g.g.g.5.%.$.$.$.$.T T T T U U U U U V U U U U H m I U U $.$.O.U U @.$.@.S $ . X o o X X $ G n.V.^./.^.I.P.P.I.I.I.I.I.I.I.m.x.z.p.i.i.i.y.%.O.B M m b m m m m b b m b b m m m m m m B U T T I m x t t t q q q q q q q q q t t : < - , , ,                                   t a #.D.).K.Z.J.S._.;XqXpXpXiXiXuX7X).H.H.H.).).'.).l.F r % % e t , $                                                                                                                                           ",
"                                                                                                                              t g J { ] 8.H.&XqXpXpXiXiXgXgXiXpXiXiXeX6X;X%X&X;XXX'.c.{ y % % , - - & & & &                       O $ - - ; ; < < : q z z q q z x x x x x x x x x G G G K Y E T @.@.$.$.$.$.T T T $.4.$.$.$.$.$.$.$.$.$.$.O.$.O.$.$.$.y.y.t.$.$.%.4.4.G $ X X X X o X $ S 6.v.V.^.I.I.I.I.I.I.I.P.I.I.m.m.m.x.x.p.z.z.p.y.%.O.X.U U B B U B U U U G U U U U U U U O.$.$.$.T H b x A x x x x x z t t q t t t t < > , 1 1                                   t a #.F.].!.K.Z.Z._.:XeXhXhXhXhXpX7X`.H.D.C.C.D.E.E.7.a 9 % % * t * $                                                                                                                                           ",
"                                                                                                                              > t y a a -.).6XiXhXhXgXgXhXiXrXeXeXqX6X6X:X:X;X4X).W.#.b r % = > - - > & & >                       $ & - $ ; ; < : : : t z z z z z z z q z z q q t z z z t x A A b m H Y T T T T $.t.h.v.v.z.v.v.k.k.k.g.g.g.g.g.k.g.k.z.z.z.k.k.k.h.5.G - X X o O O o $ C Y 4.j.h.z.N.N.P.P.m.m.s.m.m.x.x.x.x.x.p.p.p.z.i.y.y.y.%.%.$.$.t.$.$.$.$.$.$.t.y.y.t.t.y.y.g.g.g.$.T H I G G G G G G x z z t t z z t t , < , 1 ,                                 t b 3.E.XX].K.L.Z._.:XrXzXzXzXzXzXpX4XY.C.;.;.8.D.D.#.a 9 % % * < * $                                                                                                                                           ",
"                                                                                                                              > , e r w *.[.7XgXjXhXgXgXgXiX0X6X6X6X;X;X;X5X6X8X).c.] w 9 % , > > > > > &                         $ $ - - ; ; < t : : t z t q z C C q q q q q q t t q : : < t t q x G I T $.$.T $.t.z.v.M.M.M.M.b.b.v.v.v.z.v.z.v.z.z.v.x.x.x.x.b.v.j.K - X X O O $ O $ e Z G K U $.g.N.M.m.s.p.a.p.x.x.p.x.x.x.p.p.p.p.z.p.z.z.z.k.g.h.h.g.g.g.h.g.g.g.h.g.g.y.g.g.g.g.g.$.$.U I Y Y Y K K G A x x z z z z t t , > , , ,                                 t b 3.E.XX].!.F.Z._.&XeXjXzXgXhXnXhX7X).C.&.&.*.8.l.#.a 9 % % , < & $                                                                                                                                           ",
"                                                                                                                              > > e 9 0 *.[.qXiXjXjXxXhXiX9X%XR.K.).Y.Y._.&X6X6X'.l.{ 0 % e , , $ $ $ & >                         $ & - $ - ; , : : q q q q q z C t t t z z t q t t : < , , , ; q v c Y $.T T T T t.j.N.M.M.M.M.b.v.z.z.z.z.z.z.z.z.i.z.z.z.z.z.z.g.g.G - X X O O $ $ $ $ ; : ; : v B z.M.m.m.p.p.p.z.z.p.p.p.p.p.p.p.p.i.i.k.z.k.z.z.z.z.h.h.z.h.g.g.g.g.g.g.y.g.g.$.$.$.$.O.I I Y Y I G G A x z x x t t t t t < ; > , > &                               t b { W.Q.Q.F.w.,.K.%X0XjXjXrXpXzXhX6XH.d.&.&.8.8.8.} r % $ % % * & $                                                                                                                                           ",
"                                                                                                                              > , t e w *.[.qXiXgXgXgXiXqX:X_.L.K.K.K.K._.&X6X7X[.c.{ w 4 t h > & $ $ $ >                         $ - $ $ - ; , : : q q q q q z C t t t t t t t t t < , ; ; , - ; q A Y 4.T T T U $.h.v.M.M.M.M.b.b.z.x.z.z.z.z.z.z.z.z.z.z.z.z.x.h.j.K - X X O $ $ $ $ $ $ $ $ $ q m g.M.s.p.a.p.p.x.x.x.p.p.p.p.p.p.p.p.p.z.z.z.z.z.z.h.h.h.h.h.g.y.y.g.g.g.y.g.y.$.$.$.$.U U G Y Y Y G G A x z x x t t t t t < ; > , > &                               e b } D.E.Q.F.q.,.Z.].0XfXgXrXgXzXgX6X!.C.:.=.8.C.8.} r ; # % * , > &                                                                                                                                           ",
"                                                                                                                              > , < y a 7.[.7XiXiXrXrXqX6X&XT.L.K.S.S.S._.&X6X7XXXG.#.w % t < , > - $ $ >                         $ - $ $ - - ; < < q q q q q q t t q q q q q q t t < , - > > - ; q A Y E T I I U $.h.v.M.M.M.M.v.v.z.z.z.z.z.x.x.z.z.z.z.z.z.z.x.z.v.Y - @ X $ $ $ $ $ $ $ $ $ $ q G h.M.s.s.s.a.a.x.x.x.p.p.a.p.p.p.p.z.p.z.x.z.z.h.g.g.g.y.g.h.g.g.y.g.g.g.y.g.$.$.$.$.$.U m G G Y Y G G A z t z C t t t t t > > > > > &                                 y { c.E.E.F.q.,.F._.0XgXgXfXgXzXgX6X_.Z.;.C.D.H.D.#.y ; $ % * , > &                                                                                                                                           ",
"                                                                                                                              > 1 e y a 3.].6XrXrXwX0X0X:X&X_.T.).K.F.S.K.%X6X7XXXG.#.w % t < > , - $ $ >                         $ - - $ - ; ; < < : q q q : q q q q q z z t q t < < , ; , > - - t S K Y Y G G I T g.v.v.v.b.M.z.z.z.z.z.k.z.x.z.z.z.z.z.z.z.z.x.z.v.Y ; @ @ $ $ $ $ $ $ - $ $ $ q G v.P.m.s.s.a.a.x.x.z.p.a.a.p.p.p.p.z.p.z.z.z.k.g.g.g.g.y.g.g.g.g.y.y.y.$.$.g.$.$.$.$.$.U m c G G I G A x t t t t t t t < < > - > > > &                                 y H 9.D.H.D.,.;.C.).,XfXgXfXgXjXgX6X_.S.C.F.E.E.H.#.r ; $ $ , , > &                                                                                                                                           ",
"                                                                                                                              > 1 < t i #.).6XrXrXrXqXqX0X:X%X_._.K.C.C.F.).[.XX).l.} w % < > > > - $ $                           $ > , - , , < < < : q t : < : : q z x A x z q : : < , , , > - ; < C C S S x x z A T $.$.$.5.g.g.g.h.z.h.y.y.z.z.p.h.z.z.z.z.z.z.h.j.L - X @ $ $ $ $ $ $ $ $ $ $ t G j.P.s.p.a.a.a.x.x.p.p.p.p.p.p.z.x.z.k.k.k.k.k.h.h.h.g.g.g.g.g.g.y.$.$.$.$.$.$.T Y Y U G b x c G G G A z q ; < t t t < < , > $ $ > &                                   t J 3.8.l.;.:.;.C.H.%XwXrXrXrXrXeX&XK.F.C.H.).).A.#.r - $ $ , , > &                                                                                                                                           ",
"                                                                                                                              > 1 , 0 w o.).6XrXgXrXpXgXpXqX&X_._.H.Z.,.,.Z.K.).G.-.H 0 # , < > - - $ $                           $ , , , < < t t < : q < < < : : t x G G G Z z q : < , , , > - > , < < < < : - ; q c I I I U X.$.$.g.z.h.g.y.h.p.p.h.z.z.h.h.z.z.g.h.L % @ o $ o $ $ $ $ $ $ $ $ < G h.P.s.s.a.a.a.x.x.p.p.p.p.p.p.z.x.z.y.%.%.y.y.z.z.h.g.y.y.h.g.g.$.$.O.U I U U I G G G m l x x A A A x t q ; ; < < < < , - > $ $ & &                                   t D } *.-.*.&.&.;.S.T.:X,X,X0X0X:XT.S.Z.C.H.~.E.D.[ r - $ $ > > > O                                                                                                                                           ",
"                                                                                                                              > < , e w o.).6XgXcXjXjXcXxXiX6X&X_.K.Z.q.,.C.F.E.C.#.F 9 % , < , , , >                             $ , < < f f C t t : q < : < : q v G Y Y K G A x z : ; , , , > > > > > > > o o o - q A G G G G U $.g.v.z.g.y.z.h.h.z.z.z.g.h.z.z.g.j.L % @ X $ o $ $ $ $ > & & $ e G v.I.s.s.a.a.p.x.x.p.p.p.a.p.p.z.z.y.O.B M U $.g.v.h.g.y.y.h.g.g.$.U m m m m G G G m b c l x x A x x z : ; - ; ; ; ; ; - - $ $ $ $ &                                   q b { #.*.o.o.&.;.H.T.>X>X>X>X:X&XL.Z.Z.C.F.F.F.D.[ r - $ $ > > & O                                                                                                                                           ",
"                                                                                                                              & 1 t r i o.).6XgXVXcXzXxXnXhXqX6X].Q.F.q.,.q.F.E.c.#.F 9 # , > , 1 1                               $ < f f C C C C q q q t : < : q x G T $.T I G G x q : ; , ; - > > > > > 2 o X X o ; z x x x b m U g.z.z.h.h.z.z.z.z.z.z.h.h.z.z.h.j.K % @ X $ $ $ $ $ $ $ $ $ $ e G v.^.m.a.a.a.p.x.x.z.p.a.p.z.z.z.k.%.U b q m U g.h.h.g.g.g.h.g.$.U m c l l l c b x x c x t x x A x z q : ; ; ; ; - - - - $ $ $ $ o O                                   e b L @.#.[ o.&.8.H.$X>X>X=X%X%X%XJ.d.C.,.C.C.C.C.] r ; % % , > & O                                                                                                                                           ",
"                                                                                                                              * t e r a #.H.4XiXhXhXgXhXhXpXeX;XQ.E.D.C.w.D.H.~.c.#.F 9 $ , , 1 ,                                 $ < f f C C C z z z q q : ; : q x I T $.U U G G G x t < < < , > > > - o X X . . o - q A G D b M X.y.k.k.k.k.p.i.p.i.i.p.h.z.v.h.v.v.Y ; X X $ $ $ $ $ $ $ $ $ - q G v.^.M.p.a.a.a.p.p.p.p.N.x.x.z.h.g.T m y q t G Y $.g.g.g.h.g.g.$.U U m c l x x A G x x x q t z Z z q < : ; ; ; ; - o o - o & O & O                                     e Z L { } [ [ *.l.H.`.:X:X*X%X%X%XY.Z.Z.C.C.C.C.C.[ y % % % - , $ O                                                                                                                                           ",
"                                                                                                                              * e 9 r a [ F.[.0XiXrXqXwXqXqX7XXXE.F.D.q.C.F.E.).D.#.F 9 $ & > 1 1                                 $ < < t C C C z z z q q : ; : q x I U X.X.U M H G G Z C S C t < ; - o . . . . X o ; z G L G G U X.%.g.k.i.i.i.i.i.u.u.p.z.z.v.V.V.v.E : X @ $ $ $ $ $ $ $ $ $ $ ; G j.V.b.l.x.a.a.s.x.p.x.N.z.z.k.g.4.Y x t ; - q x G Y 4.g.h.g.g.$.$.T I G m c x G G A x q ; < t t t : < : : ; < < - $ $ $ o $ o O o                                     e g P { { ] ( o.8.Q.&X0X9X:X:X:X*X$XL.J.Z.F.F.F.D.o.w % % % % , $ $                                                                                                                                           ",
"                                                                                                                              , e e y a } D.).&X6X6X:X:X5X6X7X4XE.F.C.q.Z.H.).'.G.#.F ; $ $ > 1                                   $ , < < C C C z q z z q : ; : z G T $.O.U B M U I Y K K Y Y A C < - X . + + . . o : Z Y T I U U X.%.y.y.y.y.y.u.u.y.y.y.z.h.h.j.j.6.K : $ $ $ $ $ $ $ $ $ & $ $ - x 4.v.x.a.a.a.a.a.p.p.z.h.g.g.$.$.Y A t , - $ - : t A K Y 4.g.g.y.y.$.$.T U G G K K G x q - ; , < < : < < < < : < < ; ; - $ O X o .                                     e g P { ] ] ( o.8.K.%X0X9X:X:X9X:X%X_.T.Y.).).).E.-.a 9 % % % , & $                                                                                                                                           ",
"                                                                                                                              * t y a b #.D.H.].&X&X&X:X:X6X7X8X_.K.Z.C.Z.K.).'.E.*.F 9 $ & > >                                   $ , < e C C C z q t t t < ; q x I $.4.$.U U U U T @.T 4.4.4.E A W - o . + + . . $ < A T @.U U U X.%.y.y.y.y.y.u.u.y.y.g.z.h.$.T I A z % $ $ $ $ $ $ $ $ $ & $ $ $ t Y g.k.l.x.a.i.p.i.t.$.$.U I G G G t : , $ - - - - t t G Y h.g.g.g.g.g.t.$.U T Y Y G x q - ; ; , ; ; : : : t z z : < < , ; $ O o .                                     , g J { @.[ o.&.C.H.%X:X:X:X9X0X0X:X%X%X`.&X[.4X[.c.F e ; ; , , > >                                                                                                                                           ",
"                                                                                                                              , t y j b #.D.E._.$X&X&X5X6X6X7X4X].K.C.,.C.K.).).E.*.F 9 $ & &                                     $ , < e C f C f < < < < , - t Z I 4.g.$.T U U U $.$.t.4.g.g.E Y C - o + + + + . $ < A T T U U U $.%.y.y.y.y.y.y.t.g.k.v.v.g.U A q < - $ o $ $ $ $ $ $ $ $ & $ $ $ , G @.g.x.x.p.a.p.u.O.U G c c x x x e - - $ $ $ $ $ - - t K h.g.g.g.g.g.g.t.$.T 4.E K Z < - - ; ; - ; > : < z z z q z t < < $ o X                                       ; y D { #.o.o.&.;.S.`.:X:X:X,X0X0X:X%X&X&X;X4X6X4XG.F e e : < 1 1 1                                                                                                                                           ",
"                                                                                                                              * f g j b } C.E._.%X*X5X0XqXqX7X4X].K.C.,.,.S.Y.).G.*.F 4 @ $ &                                     $ , 1 t f f t t , , , , - - e A K 4.4.$.T U m U $.g.g.g.t.g.g.Y C - o + + + + X $ : x I U B B X.$.%.g.y.y.y.i.k.y.i.z.v.v.g.G q - $ $ o o $ $ $ $ $ $ $ $ & $ $ X - A Y g.b.x.a.p.a.+.V m x q x t t t < , > $ $ $ $ $ $ $ , G g.g.g.y.y.y.y.t.$.$.$.E K C < $ o $ - o - ; : z z z q z z z q < - $ X                                       ; y J } #.o.( >.;.S._.:X:X:X:X:X:X%X%X;X;X;X4X8X;XD.H e e , f S f 1                                                                                                                                           ",
"                                                                                                                              , f g j a ] 8.H.).%X5X6XqXuXeXqX4X[.!.Z.,.d.Z.Y.'.G.3.F % @ & &                                     $ , < f f < < , - - - - $ $ , C A K K G A x c U $.z.z.g.y.t.t.Y C - o X + + + . $ : x I U B B X.$.y.k.i.u.i.i.z.u.z.x.v.V.j.G : o X o o O $ $ $ $ $ o $ $ $ $ & X % x Y g.b.x.p.p.z.%.m l q ; q q t t t , > & & $ $ $ o X - A $.y.y.y.y.t.t.y.$.$.4.4.K C < $ o o o o o ; < t z z q z z z z q > $ X                                       ; y H @.+.o.( ) ;.C._.:X5X:X:X:X:X%X%X>X;X;X;X4X;XG.F e , , f S h C                                                                                                                                           ",
"                                                                                                                              , g Z D a ] 8.D.).].&X6XqXuXuXeX4X&X).S.C.C.F.).'.W.5.F % @ & &                                     $ , < f f , , - $ $ $ $ o X - , : C C q t q q m $.z.z.g.y.t.t.Y C ; o X + + + . $ t A U U B ` O.%.y.i.i.i.i.p.x.i.z.x.N.V.v.I t $ X o o O O o o o o o $ $ $ $ & X $ x H g.m.z.p.p.x.y.G x t q q q t z < ; > & & $ O o o X - Z T y.h.y.y.y.y.t.$.$.4.4.Y S < o o o o o o ; < t C z q z z z z t , $ X                                       ; y H #.*.#.[ o.;.C._.5X0X5X,X,X9X:X>X:X:X5X4X6X4XG.H t e , f S h f                                                                                                                                           ",
"                                                                                                                              , g D P F H *.8.H._.&X5X7XqXeXqX6X8X`.F.C.Z.H.).{.W.9.J ; $ & &                                     & < 1 1 1 > $ o o X o o X X o o o o o $ $ $ $ c $.g.z.z.y.t.$.Y x ; $ . + + . X $ q A U O.O.` +.%.y.p.p.p.p.p.p.p.x.x.v.V.v.T t $ o $ $ O $ $ $ o o o $ $ $ & $ o % x Y g.x.m.p.x.x.g.U c q q q q x x t , > $ $ $ o $ o o - Z T g.v.h.h.p.p.y.t.y.g.4.K C , $ o o o o - ; < z C C z z z z z t , & X                                     $ e y { 5.7.#.o.&.;.C._.6X0X5X0X0X6X,X:X6X6X6X6X7X4XG.H e ; e f C f f                                                                                                                                           ",
"                                                                                                                              , g D F a F #.8.H.)._.%X&X6X6X6X8X4X'.F.C.A.H.).{.~.9.F 9 @ & >                                       , 1 < < - $ o X X X X X X X o o o o $ $ $ $ x T g.h.h.g.g.g.T z - o X . . . X - z G T $.$.O.+.%.u.p.p.u.p.p.u.p.x.x.x.V.v.T t $ o $ $ $ $ $ $ $ $ $ $ $ $ & $ o $ z I g.x.x.i.x.x.y.U c q q q q x x t , - $ $ $ $ $ o o > S j.j.b.v.p.y.p.y.t.$.g.4.K C ; $ o o o o $ ; < C C z t q t q t < > $                                       $ 9 w { 3.7.*.[ [ *.C.Y.:X:X:X:X0X6X:X:X6X7X7X7XdX8XG.H e ; e f C f C                                                                                                                                           ",
"                                                                                                                              , g D D a F #.8.D.Q.)._.`.[.;X4X8XXX'.H.C.C.H.).[.W.7.F 9 X $ > >                                     > > > > $ o o X X o o X X X X o o $ & $ X $ q I $.g.g.$.$.4.Y z - o X . . . X - z K T $.$.$.+.t.u.p.p.u.p.p.p.u.p.x.M.V.v.T C - o $ $ & & & - - $ $ $ $ $ $ $ o $ z I g.z.z.y.z.z.y.I l q q q l A A t : - $ $ $ $ $ o o > S j.j.V.v.h.h.p.y.u.y.g.4.K C ; o $ $ $ o o - < < C t t q < < , ; $ o                                     % # 9 w } 7.8.;.&.[ *.C.Y.&X;X;X:X6X0X5X6X6X6X7XdXdX8XG.H e ; , f g h h                                                                                                                                           ",
"                                                                                                                              , Z D F a F #.8.D.Q.!.Y.)._.[.4X8X4X`.H.Z.Z.H.).`.).c.@.a 9 , f f <                                   > $ $ $ o o o o o o o o o o X o $ & & $ X $ q I $.g.h.t.g.g.T x - $ X X X X o , A Y E E $.$.$.%.i.p.p.p.p.p.p.p.x.m.V.^.b.Y C ; $ $ & , , , ; - - - - , > > $ o - x T g.v.v.h.z.z.$.I x x q x c G G x t - $ o $ $ $ o o > C E 4.j.j.h.z.z.p.y.y.g.j.K z , $ $ $ $ $ o - ; , < < ; ; - - - $ o o                                   , 9 9 0 a #.C.E.H.C.8.D.H._.:X:X:X6X0X0X:X;X;X[.4X8X8X XG.F e e e f g h h                                                                                                                                           ",
"                                                                                                                              , Z D D a F #.8.H.Q.K.Y.)._.`.&X4X2X`.).S.K.).`.&X).G.-.] b D J g g <                                 & $ o $ o o $ o o o o o o o o $ $ & & & @ $ : G $.h.h.g.g.g.Y x q ; $ $ $ o - : A E E Y Y Y X.+.i.x.x.p.p.p.p.p.x.M.V.V.v.Y t ; $ - , < < , , : : : , , < , - $ - C K 4.j.h.g.g.g.$.I m x c b m G G C t ; $ o $ $ $ $ o > 1 S A K T h.v.x.z.p.y.h.g.Y x ; $ $ $ $ $ $ $ - $ - $ $ $ o o X X o X                                 * r D F ] #.D.'.XX4X[.`.[.4X5X0X0X0X0XqXqX&X`.).H.).).`.).8.F e e e f h 1 1                                                                                                                                           ",
"                                                                                                                              , g g j a F #.8.H.E.H.K.Y.)._._.`.[._._._.%X:X0X0XqX6X4X'.(.OXB.6.R f $                               $ O o o o o $ o X o o o o o o $ $ & & & o $ : G T g.h.t.$.T Y G D A C C C < < < x S G A x x m X.k.x.x.p.z.p.p.u.i.k.h.j.4.G q ; - , < , t , , : : : , , < < , - - t A G T T I I I I G G G G G G L K A t , $ o $ $ $ $ $ & > < : t G g.v.x.z.p.i.h.g.Y t ; $ $ $ - $ $ $ o o o o o o X X X X X X                             X % g R B.W.E.'.4X7XuXuXuXuXuXpXiXgXgXpXrXrXqX&XY.Z.d.C.C.H.A.*.a e e t t f 1 >                                                                                                                                           ",
"                                                                                                                              , t r y w n #.8.H.E.S.S.K.).).).Y.)._.].*X0XgXjXjXxXxXzXaXaXlXyXOX6.S $ X                           & $ O o o o o $ o o o o o o o o $ $ $ > & X o : G U $.t.$.U G m H Y E E E E K C q : : : ; - - w M g.b.x.z.z.x.x.u.O.U G G G q ; - ; < , , , , : : : : , , < < , - - , t t x t q v x x A G K G G G G G A t , $ o & $ $ & & & & $ $ - A $.v.b.x.p.p.z.g.Y z ; $ $ $ - $ $ $ o o o o o o X X o o X X                           X @ 9 J B.yXsXdXuXiXhXzXnXnXnXnXnXmXmXmXxXhXgXiX&XS.C.;.;.8.l.l.[ w 9 e e < < > &                                                                                                                                           ",
"                                                                                                                              * t r y 0 b #.8.H.Q.S.S.K.).).K.K.K._.%X0XgXVXMXMXBXCXAXNXAXZXzX+X6.J $ .                           $ $ $ o o o $ $ o o o o o o o $ $ $ & > & o $ - z c I I m x q x G 4.6.j.j.j.E S z ; $ $ o o $ ; m y.v.x.z.x.m.x.+.B l w q t - - - : e , , , : : ; ; : , , , , , $ - - - - - - - ; : q x G K G H G G G A t , $ o & $ o & & $ $ $ o $ x $.v.M.m.x.z.z.h.U z : $ $ $ - $ $ $ o o o o o o o o o O X X                           . $ 0 H (.lXmXnXzXnXmXmXmXNXNXNXNXNXNXNXmXzXhXiX%XS.d.;.;.;.8.8.] y , e , , , $ $                                                                                                                                           ",
"                                                                                                                              & < t e e F 3.8.C.H.K._._._._.K.K.S._.5XpXVXCXCXMXMXMXmXmXNXAXaX+X9.J $ O                             $ $ X $ $ $ $ $ o o o o o o $ $ - , , - $ $ $ - ; : ; ; - $ - Z Y 5.v.v.g.4.K g $ o o o X $ < G j.v.b.x.x.m.m.y.I q - - - $ $ ; , e e e , , , , ; ; ; , , , , > - & $ $ $ $ $ $ - t x G G G G G G G A z , $ o o $ $ $ $ $ $ > $ $ x 4.v.M.M.x.p.x.h.U v : - $ - - - $ $ $ $ $ $ $ $ $ O O O O X                         o O $ 0 L (.sXnXhXjXcXcXcXcXxXnXnXnXmXmXcXcXcXgXrX;XK.d.;.;.8.l.8.] r - e e , , $ O                                                                                                                                           ",
"                                                                                                                              & < 1 e e j #.8.D.Q.!._._._._.K.K.S.`.0XgXMXCXBXvXVXvXxXcXnXmXpX+X9.J $ O O                         $ $ o o $ $ $ $ o o o o o o $ $ $ - , - - - $ $ $ $ $ $ o X . $ g L g.v.z.g.2.G g $ O O X . o < S j.v.b.x.x.m.x.$.G q $ $ & $ % % , < , , , : , : ; ; ; ; , > > - $ $ & & $ $ $ o $ < x A G G b m G G A C ; $ o $ $ $ $ $ $ $ & $ $ C 4.v.M.M.x.x.z.g.U v ; - - - ; - - - $ $ $ $ $ $ $ $ $ $ O X                         o $ $ e H W.uXhXgXgXjXjXjXzXxXxXnXnXmXxXcXcXgXpXeX%XJ.d.;.,.C.C.l.] r % , , , , $ $                                                                                                                                           ",
"                                                                                                                              $ , , 9 9 a } 8.F.Q.K.!._._._.K.K.Z._.6XpXnXBXMXxXxXxXcXcXzXmXuXXX9.J $ & O                         $ $ $ o $ $ $ $ o o $ $ $ o $ $ $ $ - - - $ $ $ $ o X X X X . $ t G 5.v.z.g.@.K g $ X O X . o < S j.v.x.x.a.m.x.y.I q $ $ & & $ % - , , , , : , : ; - ; ; > - - $ $ $ $ $ $ $ $ o $ ; t x A c x x x A S C ; o o o o $ $ $ $ $ & o $ z Y h.b.M.x.z.z.g.U l : - - ; ; - - - - $ $ $ $ $ $ $ $ $ O X                         $ $ $ e { W.dXgXiXgXgXgXgXhXzXnXnXnXnXxXcXgXpXiX0X`.S.,.;.;.C.C.l.] r % ; , ; , & $                                                                                                                                           ",
"                                                                                                                              % , e 9 9 s #.C.H.).K.T._.[.]._.K.K.[.6XiXxXVXxXjXcXcXjXgXzXzXiX[.9.D $ $ & &                       O $ $ o $ $ $ $ $ $ $ $ $ $ $ $ $ % - - - $ $ $ $ o o o o X . $ t G 4.v.v.g.4.L C $ X o o X o < G 5.b.x.x.x.x.b.g.Y t $ $ & & % % - , , , , : , : ; ; ; - - - - $ $ $ $ $ $ $ $ o o - t x x x x x x x S C , o o o o $ $ $ $ $ $ o $ t Y g.x.M.x.p.z.h.U l : - ; , , ; - - > - - - > $ $ $ $ $ $ X                       < , % # y #.~.uXhXgXgXjXgXhXhXzXzXnXnXxXxXcXgXpXpXqX`.S.,.;.,.C.H.C.o.y % 9 e ; , , $                                                                                                                                           ",
"                                                                                                                              , e r 0 w ' -.F.)._._._.%X&X&X&X%X;X8XqXpXxXxXcXjXjXjXjXcXxXnXiX&Xc.F # # < 1 h                     $ & $ o $ $ $ $ $ $ $ $ o o $ $ $ $ - - $ $ $ $ $ $ o $ $ X X $ t K j.v.v.v.5.Y Z % o o o X o < G 5.v.x.x.x.x.b.g.Y t $ $ & $ % % - , : : : ; : : - - - - - $ - $ $ $ $ $ $ $ $ o X $ < C Z S A A x A S C , o X o O O o $ $ $ $ $ $ t Y h.N.M.x.x.x.z.U l q ; : < t , : : , - - , , - $ $ $ $ $ X                       f t 9 9 F 9.XXsXzXhXjXcXcXzXhXhXhXgXgXhXzXgXgXgXgXrX%XK.d.;.C.F.E.E.-.a 9 0 e e e , ,                                                                                                                                           ",
"                                                                                                                                y F F F [ 8.H._.[.].%X:X6X6X6X7XqXqXiXpXhXjXjXjXjXjXjXcXxXnXpX4XD.] 9 0 g S J S                   $ & $ o $ $ $ $ $ o $ $ o $ $ $ % - - - $ $ $ $ $ $ $ $ $ o X $ t G j.V.v.n.j.Y Z , $ o X o $ q G 5.b.b.l.x.x.b.h.Y x - $ $ $ % - , , ; ; ; ; ; : - - - - - - - - $ $ $ $ $ $ $ X o $ , f Z S A Z C S S C , $ X o o O O o $ $ $ o $ t Y j.M.M.x.x.v.h.U l q ; , e e < , , , , , , , , - $ $ $ $ o                       J J j a #.W.4XhXnXjXcXxXxXxXhXiXiXiXiXpXhXgXgXhXjXpX:XK.d.:.d.S.).).7.b 9 w y r t e ,                                                                                                                                           ",
"                                                                                                                                F #.9.7.l.D.K._.$X$X&X5X6X0XiXpXhXpXiXeXqXeXiXgXgXgXgXgXgXhXiX6XQ.8.] { 3.6.2.J <                 & & $ o $ $ $ $ $ $ $ $ $ $ $ , , - - - - % % - - - $ $ $ $ $ $ t S E j.g.4.2.K g % $ O X o $ q G g.b.x.x.x.x.b.g.Y x : - , , , e e e e , , , , , , , , , , - - - , - > & $ $ $ $ $ - < e f C C C t f f < > o X X X O O o $ $ $ $ $ t Y g.v.M.v.h.h.g.I x q q t t t t t t t e , , , - - $ $ $ $ o                     J 2.6.3.#.c.'.7XhXnXhXjXxXxXxXhXiXrXrXiXgXzXhXhXhXjXgX:XL.d.:.d.S.).).l.n 0 w y y y e %                                                                                                                                           ",
"                                                                                                                                3.D.(.E.E.K.!._.%X%X&X5X0XqXgXnXNXmXiX6X%X%X9XrXgXgXgXrXrXgXrX6X].Q.W.W.(.B.9.R ;                 O & $ o $ $ $ $ $ $ - - - - , , , , , - - - - - , , - , , , , - e t G Y Y L K Z t $ $ O X o $ t H k.b.x.a.a.x.z.$.Y x < < e e e t e e e t t t e t e e , , , , , , , , > > , , > > , , , < < e e e < < < , - o X X X O O O $ $ $ $ $ t K 4.j.v.g.g.4.4.G t q q t t t t e t t e , , , , - - $ $ $ o                     P 6.B.n.c.'.2XqXhXjXgXgXjXcXxXhXiXrXfXjXjXnXxXhXhXjXgX:XK.Z.<.C.K.`.`.C.n 0 a a y y e %                                                                                                                                           ",
"                                                                                                                                9.~.'.).).!._._.%X&X&X0XiXgXNXCXZXAXhXqX%X_.5XrXiXiXiXrXiXgXrX6X2X].Q.'.'.B.3.D % $               & $ o X $ $ $ $ $ $ - , , , , , , , , , - , , - , t e e t t e t , e e t t t t , % $ & $ o $ % t U k.M.A.x.x.x.k.$.G x t t t t t t t t t t t e e e e e e < , , , , , , , , > > > > , , & $ - - $ $ $ $ $ $ o X X X o o O $ $ $ $ $ $ , f S K K G G A x t t e e t t t t t t t t t t e , - $ $ $ $ X                   e j 3.9.c.C.].5XeXjXjXfXjXhXxXxXhXgXrXfXgXxXnXxXxXhXxXxXqX=XJ.Z.K.`.4X4XA.] w a a j g e $                                                                                                                                           ",
"                                                                                                                                7.).'.).).!._._.$X&X:XqXhXxXNXZXHXZXnXqX%X).*XqXrXiXiXiXiXgXrX6X5X2X].XX'.8.} r % $                 $ O o $ $ $ - $ % , , , , , , , , , , , , , - , t t t f f f t , - $ $ $ $ @ $ @ @ & & & & , x T v.W.P.x.x.x.g.U m x t t t t t t t t t t t t e e e e e < , , , , , , , , > > > > , , $ $ $ $ $ $ $ $ o o X X X X o O O $ $ $ & & $ $ - , e t : : e e e t f g g t t t t t t t e t e , - $ $ $ $                   e 9 a ' #.7.C.[.9XgXxXjXfXgXhXzXnXhXgXgXfXgXxXnXnXxXxXVXVXiX5X$XY.`.4X7X7XE.] i a a j y e $                                                                                                                                           ",
"                                                                                                                                7.).'.).K.K.)._._.%X*XrXzXnXNXZXHXZXmXiX&X_.6XaXhXhXaXaXgXgXqX6X&X&X].XXQ.8.] 0 % $ $               $ O o $ $ $ - - - , , , , , , , , , , , * * , t t t e t t t t , % $ @ @ @ @ $ $ @ & $ $ & - x T v.V.b.x.z.k.$.U x q q t t t t t t t t t t e t t t t < < , , , , , - ; ; , , , , , - $ $ $ $ $ $ o o o o o o o o o O $ $ $ $ & & $ $ $ $ $ $ $ $ % - ; , f f g y t t t t t t e e e , - $ $ $ $                   9 0 a F [ =.q.$X0XgXVXnXjXhXnXmXnXnXhXgXgXgXnXMXVXnXVXNXMXgX0X*X$X&X6XqX6XH.] i a a y y e $                                                                                                                                           ",
"                                                                                                                                *.E.).H.K.K.K.)._.%X&XrXzXnXMXNXZXZXnXiX4X[.qXlXlXlXlXhXhXaXqX5X].].].].K.8.} i 4 # $               & O o $ $ $ - - - - , ; ; , , , , , , , % % , , e e e e e e e , % $ $ $ % % $ $ $ $ $ $ $ $ t I j.b.v.k.%.%.I b q ; q q q t t q e 9 9 9 e , t t e , , , , : - - - - ; - , , % % , - $ $ $ $ $ $ o o $ o o o o o o O $ $ $ $ $ $ $ & $ $ $ - , - % % , , t t g y t t t t e t e e e , - $ $ $ $                 e e a F ] *.q.K.&XrXhXNXNXNXmXAXAXNXmXhXiXhXhXnXNXNXMXVXNXMXgX0X:X%X&X5X0X6XH./ w w r r y e $                                                                                                                                           ",
"                                                                                                                                *.E.).H.K.K.K.!._.%X&XiXnXnXMXNXZXZXNXaX5X].7XaXaXsXsXsXsXuX6X&X].].].$X_.H.8.' w ; $               & O o $ $ $ - - % ; ; - ; , , , , , , * % % , t e e e e e e t e , , , , , , < , % $ $ $ $ - t A E 5.4.Y H H D y 9 : e e e 0 q q 9 9 e e e e t t , , , , ; ; - - - % % % % % % % - - - $ $ $ $ $ $ $ $ $ $ o o o o $ $ $ $ $ $ $ & & $ $ $ & , % $ $ , , e f g t t e e e e e f e < , - $ $ $ $                 g F 3.8.;.q.Z.].5XeXgXnXnXlXlXSXzXlXsXyX7XdXiXlXNXMXnXVXVXxXgX0X*X%X*X5X0X6XH.M 0 0 r r y e %                                                                                                                                           ",
"                                                                                                                                *.E.).E.K.K.K.K._.%X:XgXMXMXCXCXFXZXNXhX4XQ.].8X8X8X8X4X4X2X[.`.].2X2X5X5X2XoXc.L g >             O & $ X $ $ $ - - ; ; ; ; ; , , , e , , , * * < t t f t g y y t t f f t f f f f e , - $ $ $ , , q x x y q q q t e , e t e e e 9 9 q q e e t t t t , , , , : ; , , ; ; ; ; ; ; % ; , - - $ $ $ $ $ $ $ $ $ $ o o o o $ $ $ $ $ $ $ $ & $ $ $ $ $ $ $ $ , e t f g t t t t t t t f f 1 , - $ $ $ $                 L 9.OXXX[.$X&X5X8X7X7X7X7X8X8X8X+X+XoXE.E.'.2XeXxXhXhXjXhXjXwX5X*X%X*X5X0X6XH.] w r r y g , $                                                                                                                                           ",
"                                                                                                                                *.E.).H.S.S.K.K._.`.*XiXnXVXMXCXZXZXNXpX].,.q.F.E.F.D.H.D.F.H.).[.5X6X9XqXeXyXoX9.R ,             O & $ X $ $ % - - % ; ; - ; , e e e , , , , , e h g g g Z Z Z x C Z Z Z Z Z S Z C e - $ $ $ - - - - ; % # $ % ; , t f f f r r t q t t t e e e t e e e e e , , , , , , , , e e , , , : - - - - , , - - - - $ $ o o $ $ $ $ $ $ $ $ $ - > - > > , , $ $ ; , t t f t t t t t f f f t < , - $ o o X               K 6.OXyXsXqX0XqXuXyX8XXXE.G.W.B.B.B.B.5.} [ 8.Q.6XgXgXiXgXfXrXwX:X:X&X:X5X0X5XF.] r r y y g e -                                                                                                                                           ",
"                                                                                                                                #.H.E.H.S.Z.S.K.T._.%XrXjXhXcXnXNXCXzX7XF.( / [ [ [ [ o.*.-.D.).2X7XqX9X9XrXsXyXB.2.e $           O $ $ X $ $ % , % % % % % % ; , , e , , , , , e f g g Z Z Z Z Z A D S Z Z Z S Z C t - - - - , - - - - ; % $ % , e g S S Z g g Z x Z x y t e , t e e t t t t t e t t t t t e e t t e , : : , , , , , , , , - - $ $ $ $ $ $ % % - - - - , > % % , % $ $ % , t e e e e t t t f f < < < , $ o o o X               R 9.oXuXuX0X0XqXuX7XXXD.[ n F F P P J a 0 i #.D.8XgXhXgXgXgXfXrX0X0X5X0X0XeX6XF.H w r r y g e %                                                                                                                                           ",
"                                                                                                                                #.G.E.H.S.Z.Z.S.)._.&XqXhXjXcXxXMXVXzX7Xc.n a a F F n n / [ l.'.8X7XqX0X5XrXaXyX(.2.r $           O O O O o $ - $ $ - , - % % - , , , , , , ; ; e t C Z S S S A D D D A Z Z Z S Z C t , % % , , - - - , - - - - , , g S J D D D x D D A g t e e t t t t e t t t t t t t t t t t t y g t e 9 t e e t t e t e , $ $ $ $ % % % % % , - - - , , ; ; , , - % , , t t t h t t e f f 1 < , , & $ o o o o               R B.oXuXiX9X9XwXiXqX2XC.n 9 9 e f g t 9 % 9 H c.4XhXhXgXgXgXfXfXrXwX0XrXqXeX6XF.F 0 r y y g e %                                                                                                                                           ",
"                                                                                                                                3.W.~.H.H.Z.S.S.K.).&XuXnXxXMXMXBXCXmXsXE.] F J L { { ' ] #.c.'.8XdXuXqX0XrXgXyX'.3.r $           O O O O O $ & % % - , - % - ; , , t , , , , ; e t C S S S S A D D D b Z Z Z Z J Z f e - % % , - - - - > > - - , , f Z D D b b x D G D Z t t e t t t t t t t t t t y t t t t t y g Z g t t t t t t t t t t t % % $ % % , , , , , ; ; , t t f t f f t t t t t t t f t t < < < , > - $ $ $ o o o o               R c.oXuXgX0XwXfXgXiX6XG.H r t f g Z g t 9 e L B.4XhXhXgXgXgXfXrXrXwX0XeXeXeX6XF.F 0 r y g y e %                                                                                                                                           ",
"                                                                                                                                #.W.~.H.K.F.S.S.H.).&XiXVXVXBXBXDXCXNXaX'.@.H P 2.2.2.{ { #.n.(.8XdXuXqX0XrXgX7X~.2.e $           o o O O O $ $ , % % , ; % - , t < , , , , ; ; t g Z Z S Z Z A D b x x Z Z Z Z J Z f t - % - ; , % % , , , - % , t g S D D D D D G G G Z y t e , , e t t t t t t y y y y t y g g Z Z Z y t t t t t t t t t t , % % % ; , , , , , : , t t g Z Z S S g g f t t t t t t t < < , & $ $ $ $ O o X X X               R c.oXdXgXwXwXfXcXhXuX'.#.x g C S S Z y 9 t L B.8XnXzXgXiXgXgXgXrXwXqXeXeXeX6XH.' w y j g g r ,                                                                                                                                           ",
"                                                                                                                                #.G.E.H.H.Z.S.S.H._.;XiXVXVXMXMXBXBXmXsXW.H D D P L { H F F 5.W.oX8X7X0X5XqXiX8XW.{ e X           o o o X X $ $ - % - , ; % - , t t , , , , ; ; t g C Z Z Z Z S A b D x D A Z D J Z f , - % - , , , , , , , - % - , g S D D D D D G G D Z g t e , , , t e t t t t g Z g y y g Z Z J J Z g y t t t t t e t t e ; - % % - , , , , : : , t g Z S S S S S g f t t t t t t e < , , $ o X X o O X X X X               R c.'.qXiX0X9XwXjXhXaX+X5.D C C S S Z t ; 9 J n.+XzXhXiXrXiXrXrXrX0X6XqXqXeX6XH.' w y g g g r ,                                                                                                                                           ",
"                                                                                                                                } D.E.F.F.Z.Z.Z.S.).&XeXxXxXxXcXjXcXpX8Xn.b y y g D g g r r L n.'.+X8X6X:X0XqX4XW.{ 9 X           X X X X X $ $ , % % - % % % , t t e e , e , , t t g C Z Z S S D D D A Z Z D D Z g t , % % % - - % - - , - % $ $ , t S G D D D D D D Z g t t e , , t t t t t t t g Z Z g g Z J J K K J g g t r t e t t t e , ; - % % % % % % ; ; ; : e t C S S Z Z S g f e t , , t t t < , * $ o X X o o X X X X               R 9.'.7XeX9X,XwXrXgXaX+X5.A C C C C f , $ # Z 3.'.iXpXiXqXeXqXqX0X6X6XqX7XeX7XE.' w y j g g r *                                                                                                                                           ",
"                                                                                                                                } D.E.D.F.Z.S.Z.S.).`.6XrXrXrXwXrXrX6X{.@.0 9 , e e e 9 % 9 J 9.(.4X6X6X:X0XeX4XG.{ 9 X           X X X X X $ $ % $ $ - % % % ; , , , , , , ; ; e t y C Z Z S S D D A Z Z Z Z Z Z g t , % % % % % % - - - - % $ $ , t J K K K P L G K Z g t t e t t t t e t t t t g g g g g Z J J K K Z g r e e e , : : : ; % % ; % % - ; - % , : ; , t f Z S S g g S g f t e , , e t t < , , & $ o o o o X X X X               R c.oX7XeX9X9XwXgXhXsXoX5.x < , 1 < , - $ $ t L ~.uXiXiXqXqX0XqX0X6X5X6X7XeX7X~.' w y g g y r ,                                                                                                                                           ",
"                                                                                                                                } D.E.D.F.Z.S.Z.S.)._.;X0X:X,X,X0X0X;XE.{ % $ $ $ $ $ % % e J 6.(.+X7X0X9XqXiX4XG.{ 9 X           X X X X X $ & $ $ $ , - % % ; ; ; : : : ; ; ; e t g C Z Z S D D A Z x y y y g g f t e , - - - - - - - - - - - ; e g S K K K K L K J Z g t r t t t t t t f e e e t t f f g g C C Z Z g e ; ; ; ; - - - ; - - ; ; ; ; , e , , e t e e t g Z Z Z g g g g f t , , , t t t < < , & $ $ O $ o o X X X               R B.oX7XeX9X9XfXhXpX8XG.H < - o > > $ $ $ $ , D D.7XuXuXqXqX0X0X0X6X6XqX7XuX7X~.{ w y g g y r ,                                                                                                                                           ",
"                                                                                                                                } D.E.C.F.Z.S.Z.S.)._.;X5X:X,X,XwX0X2XE.' # @ $ $ $ $ $ $ % g 6.W.oX6X0X9XwXrX2XD.{ 9 $           X X o X X $ & $ $ - , ; % - ; e e e e e e , : t t g Z Z S S S D Z x y t t t t f t e t , , , , , , , , , , , , , e t Z D D D J D Z Z g t t t e t t e e < < , , t t e e t t f f t g g t e ; ; ; - % % ; ; ; ; e , , e e t t t t t t t f g C g g f g g g f t t , , t t t < < > * $ $ O O O o o o X               P B.oX8X0X>X,XwXgX7X'.7.y - $ O o o O o $ @ % g 7.4X8X8X4X6X5X5X0X6X6X7X7XeX7X~.{ w y j g g r ,                                                                                                                                           ",
"                                                                                                                                [ D.E.C.Z.Z.Z.Z.Z.Y.[.6XqX0XwXfXgXgXqX'.{ % @ X O O O $ $ $ h K 7.W.4X6X0XwX0X&Xl.n 9             X X X X X $ $ $ $ $ - ; % % , t e e t t t t t y g C g C Z Z Z g g t t e 9 e e e e t t t t e e e e f f t t t t t t t t e t t t e e e e , , , , , , , - - - - $ ; ; ; ; , , , e e e , , , ; ; ; ; ; ; : : , e t t t g g g g g g Z C C g g g t t f f f f e t t t , t , , , , , & $ $ O O O O o o o               P c.'.5X5X$X=X,X0X).*.b 9 $ O O o o o O X X $ % ] G.'.'.).H.).;X6X6X6X6X7XdX8XE.{ w r y y y e %                                                                                                                                           ",
"                                                                                                                                ] D.E.F.F.Z.Z.C.Z.K.[.6XrXrXrXfXgXrX7X'.{ % $ o O O O O @ X , J 7.E.4X6X:X0X5X].l.F e             X X X X X $ $ $ $ % , ; % % , t t f g g g y t C Z Z C C Z Z Z g y t e e e e t e e e t t e e e e f f f t t t f t t t e : , e , e , : : , , , , , , - - - - - - % % % % % % ; , , e , , , , , , ; ; : , , e e t g g C Z Z C C Z Z Z Z C g g f f f f f f t t t t , t t , < < > , $ $ $ $ O O O o o               P n.'.5X5X=X#X*X5XD.] 0 # $ O O O O o o X X O $ n l.E.E.).F.Y.[.6X6X6X6X6X7X8XW.{ w r y g y r *                                                                                                                                           ",
"                                                                                                                                } G.Q.H.H.F.Z.C.Z.K.].5XrXwXwXfXfXrX6X'.{ % $ o O O O O $ @ < J 7.~.4X6X*X:X:X_.l.F r             X X X X X $ $ % , $ , , % % e g g Z Z S Z Z Z Z Z Z C C Z Z Z g y t e e e e e e e e e < < e f e f t f g f g g g t t , ; ; - - ; ; % % ; , , , , , , , - - - - - - - - ; ; , , , , , , , , , , : : : , e e e f g g Z Z C C C Z Z Z C C C g g g t f f f t e t t t t t t , , , , $ $ $ $ $ $ o o o               L c.'.6XwX=X=X:X&Xq.n 9 # $ O O O O o o X X o $ n 8.H.H.H.S.K.[.4X6X8X6X8X7X8XW.{ w r y y y r %                                                                                                                                           ",
"                                                                                                                                #.E.).K.K.K.S.Z.S.K.].:XwX0XwXwXwX0X4X~.L # o o O O O O $ $ < K 5.W.XX[._.#X$XK.8.F r             X X X X X $ $ $ , $ , , % % e g C Z D S S S S S S Z C C Z Z Z g y t e t e e e e e e e < e e e f f t t t t g g g g t e - - - - ; % % % - ; , , , , , , - - - - ; ; ; , , , , , ; , , , , , , e , : : e e e e f g g C C C C C C C Z Z Z C g g f f f f t t e t t t t t t < < , , $ $ $ $ $ $ $ o $               2.W.].0XwX*X-X,X*XC.n 9 # $ > > O O o o O O O $ n l.H.H.H.S.K.`.;X6X4X8X8X7X8XE.{ w r y y y e %                                                                                                                                           ",
"                                                                                                                                } G.E.F.F.Z.Z.C.Z.K.K.%X9X,X,X,X,X9X&XE.H $ o o o o o X X $ , D 3.c.E.S.f.f.J.Z.8.F y             X X X X X $ $ $ $ $ , , % % , g C Z S Z Z S D D D Z C g Z Z Z Z g t t t t e e e e e e < < e e e e t t t t t t t y t , - - , , , , , * , , , , % % - - , , , , * , * , , , , , , , , , , , , , ; ; ; ; : e e f t y g g g y g g C C C g g y f f g g f t t e e e t t t e t < , - $ $ $ $ $ $ $ $ $               { D.].9XwX-X-X,X5XD.( 0 # $ O O O O o o O O O $ n l.H.H.H.F.K._.`.;X;X4X4X7X8XE.{ w r r y y e *                                                                                                                                           ",
"                                                                                                                                } G.E.F.F.Z.Z.Z.Z.Z.K._.:X:X:X,X,X:X&XE.L # o O O O o X $ $ , Z 3.7.C.,.<.<.Z.C.8.F D             X X X X X $ $ $ $ $ , , % % , f C Z Z Z Z Z S S S Z g g C Z Z Z C f t t t t t t e e < , , e e e e t t t t t t y y t e , , , , , , , , , , , , , , , , , , , , * * * * , , , , , , , , , , , , , ; ; ; : : t t f g g g g g g C C C y y y t f g C g t t t t t e t t t t e t , - $ $ $ $ $ $ $ $ $               0.D.].0XwX-X-X,X5XH.[ i % $ O O O o o o O o O $ n l.E.~.).H.K.)._.&X;X4X4X6X8XE.} w e r r y e *                                                                                                                                           ",
"                                                                                                                                } H.Q.H.K.S.K.Z.Z.S.K._.*X>X:X,X0X0X4X~.{ % $ O O & $ $ $ $ t D @.#.;.:.<.d.J.F.8.' D             X . X X X $ $ % - - , , % % e f C Z S Z Z Z S S S Z C g C Z Z Z Z f t t t t t < < e e , e e f t t t f t t t t y y t e , , > , , , , , , , , , , , , , , , > , , , , , , , , , , , , , , , , , , , ; ; ; : t f C C g g y y g g C C g t t t y y C g t t t t t e t e t t e e , - $ - - $ $ $ $ $ $               3.E.%XwXkX-X-X,X:XF.[ i ; $ > > > O o o $ o $ $ H G.'.{.`.).K.Y._.&X;X6X4X7X8X~.{ w r r r y e %                                                                                                                                           ",
"                                                                                                                                } E.).H.K.K.K.S.K.K._.%X:X:X:X,XwXwX6X'.@.; $ o & > & $ $ % e J { } :.:.<.J.T.Y.8.}               X . X X X $ $ - , - , , - - e f C S S S Z Z S S S Z C C Z Z Z Z C g t t t e e e t t e e e f f t f f f t t t f g f t , , , , , > , % , * , , $ , , , , , - > > - , * , , , , * , , , , , , , , , , ; ; ; : t f y C g y t y y g C g y t t t y g g g g t t t t e e t t t e e < ; $ - - - $ $ $ $ -               9.E.&XwXfX-X-X-X&XC.( w ; $ > > > > > - $ o $ - ] E.[.[.[.).K.Y.`.;X6X6X6X7X6X~.@.y r r r g e * $                                                                                                                                         ",
"                                                                                                                                } D.E.H.F.Z.Z.C.Z.S.K.).%X=X=X=X,X9X4X~.{ ; $ $ > - - - - , g D { o.;.;.Z.T.`.).-.%.              X X X X X o $ $ - - - , % % e f g Z Z Z Z Z S Z Z Z Z x C C x Z Z g y y t t t 9 e e t t t f f t t t t t t t f f e , > - - & & , > $ $ $ - & & > > & $ $ $ $ $ & & & & , , , , * % % % , , e e e e e : : , t t t f g g g g g f g g f g g g f t t t t g g t t t e t t t t t < ; $ - - - $ $ - - $                 E.2XiXgX,X-X,X4XW.] w - $ , > > > 1 > $ $ $ ; @.~.{.[.`.K.Y.K.Y.;X8X8X8X7X8X~.} b 0 e t t e * $                                                                                                                                         ",
"                                                                                                                                ] c.W.A.C.C.Z.d.,.C.C.Z.K.L.L.T.#X=X].E.{ % $ $ $ - - ; , , g D H #.7.l.F.).[.).k.                X X X X X o $ - - - - , % % e t y Z Z Z Z Z Z Z Z Z Z x A C Z g g y y y y r r 0 0 t e e e f f t t e t e t e e f < > $ $ $ $ $ - - $ $ $ $ $ $ $ $ $ $ $ $ $ $ $ $ $ $ , , , - % % % % , e e t e e e e , e t t t t f f g g f f f f f f g f t t t t t t t t t t e t t t t t t : - - - - - - - - -                 '.2XuXiX0X:X6X8X(.2.y ; - , > > > 1 > $ $ $ 9 ] U.{.`.`.Y.Y.S.).[.4X4X4X8X4X~.{ y 0 e t r e * $                                                                                                                                         ",
"                                                                                                                                F 7.l.8.;.;.8.;.;.;.;.C.S.J.J.L.#X#X].E.{ 9 % $ - - - : e t g g J { 3.8.D.~.'.W.                  X X X X X $ $ - - - , e ; % e t y Z D D Z Z Z A D Z Z Z A A Z D D D D J D D D g y t t e e f f e t e : , , , , , , $ $ o $ $ $ $ $ $ $ $ $ o o O O O O O O O o O O $ & & > , & $ $ % * , t t e t t e e e e e t t t f f f t t t t t t t f f f t g g t g g g t t t y y y g y t e - - - - - - - > >                 (.oX8X2X_.K.!.~.n.L y ; , , > > > 1 , - % - 0 #.).[.[.`._.R.S.S.H.H.).).).~.l.F r 0 0 e r e * $                                                                                                                                         ",
"                                                                                                                                b #.*.*.:.&.*.&.&.;.;.C.K.K.L.T.#X=X].E.{ e * & , > - , , t                                       o o o o o $ $ - - - , e ; % e t g Z D J Z Z Z D D D D D D D D D J P L L L L P K J Z t t t f f e e : - % % - - % $ $ o X o o o o X o o o o X X X X X X X X X X X X O $ & > & $ $ $ % % , t e f e e t t t e t t f f g f t t t t t t t t g g g g g g g g Z Z g g g Z Z Z Z C g e - - - - - - > , <                       W.D.8.8.5.{ D r e , < , , > , , - ; e a 7.4X8X;X:X>X&XY.d.;.:.;.;.;.-.( i 9 9 9 e e , ,                                                                                                                                           ",
"                                                                                                                                a } #.#.*.o.&.o.o.-.C.H.`.`._.$X=X=X[.E.{ 9 * > > , * - ,                                         o O O o o $ $ - - - , , - % , t g Z D D D Z Z D D D A A D D D J K P L Y Y L L L P Z g t t f f t t , % % % - , , $ $ o X X X X X X X X X X X X X X X X X X X X X X O $ > > & $ $ $ $ $ , < e e e t t t e e t t t t t t t t t t t t t t f g g g g g g Z Z Z Z Z Z Z Z Z Z Z g t , , - - - - , , 1                                     y t t < , , , < , - ; e F l.4X6X6X0X0X0X$XS.;.) &.*.o.[ n 0 9 % 9 , , , ,                                                                                                                                           ",
"                                                                                                                                a } #.#.*.*.*.o.*.l.E.XX7X7X6X9X,X,X&XE.{ 4 * * > > , * ,                                         O O $ $ $ $ $ - - ; , , - % , t g Z D D D A A D D S A D D D D D J P L L L L L L P Z y t e e e t t , % % % , , , - $ $ o o o o X X X X X X X X X X X X X X X X X X O $ > > & $ $ $ $ $ , , < e t t e e t e t t t t e e t t e e t t e t t f g g g g g g Z Z Z g Z Z Z Z Z Z f t , , , - - , , , f                                       t f f < < , , , % ; 0 n C.6X0X0XwXrXrX:X).,.) &.-.*.&.n w 9 9 e , , , *                                                                                                                                           ",
"                                                                                                                                a } #.3.*.*.*.o.*.c.'.7XpXpXrXrXrX0X4XW.L % * * * > > , >                                         O O $ $ $ $ % - , ; : , - % e y x Z D D D A D D D D D D D D D D J H P P P L L L P Z y t e e e t e , % % , , , < , & $ $ $ $ $ O X X . X X X X o o o o o X o o X o o O & > & & $ $ $ $ & , < < e e e e e t t e t t e e e e e e e e t t t t y y g g g g g g g g g g Z g Z g t t , , , - , , , , f                                         f g 1 f < e e ; ; r H A.6X0X0XwXfXfX0X_.C._ *.8.8.*./ w 9 ; e , , , &                                                                                                                                           ",
"                                                                                                                                a { } #.*.*.*.[ *.D.{.7XiXiX0X0XrXeX4XW.L 4 * * & 1 1 , ,                                         O $ $ $ $ $ % , , ; e e ; - e y x Z D D D D S G G J D D J D D J P P P P L L @.R P Z y t t e t t e , % , , , , < , , $ & & $ $ O X X . . X X X . X + . + + + + o o o O & & & & $ $ $ $ $ > , < , , , , , , e t t t e e e e e e t t t t t y g g Z g g g g g g y y g g g Z Z g t , , , , , , , < 1 ,                                       1 h 1 f , f t 9 9 y ] H.0X0X,XwXwXfX0X%XZ.&.-.C.l.*.' w 9 % e , , > &                                                                                                                                           ",
"                                                                                                                                a { 3.#.*.*.#.[ *.G.'.7XiXrXwXwXpXeX8X(.{ % * * > > > , 1                                         $ $ $ $ $ $ - : e : e e ; % e t C A D D D S A J G P P H H H G P L L L L L { { L H Z y t t t t t e e % - ; , , , , * * & & $ $ o o o o o . . . . . + + + + + o o o o O > O $ & o $ $ $ $ & > , - - ; , , ; : e t e e t t e t t t t t t y g Z Z Z Z g g g y y y t y y g Z g f t , t e , , , < < f ,                                       h f h g f t t q 0 D +.U.0XtX,X,XkXwX,X`.C.:.-.C.c.-.] r e ; , , , * >                                                                                                                                           ",
"                                                                                                                                j { 3.3.3.7.*.[ *.G.[.7XhXrXfXkXgXuX8X(.L # $ = * & * > 1                                         O $ $ $ $ $ - e e : e t : ; e y Z D D D D S Z J P L L L L L L L Y { L L L L L L J Z t t t t t r e , % - ; , , , , * * > > $ $ o o o o o . . . . . o X + + o o o X o O O O $ & o $ $ $ $ $ - > $ $ % % % % ; t t t t g t t t y g g g g g g g g Z Z g g g g y y y y g Z Z g t t t t e < , , < < , ;                                       1 h f f t t t 0 9 D @.`.tXgXtXfXfXwX,XT.;.) o.-.7.#.M r e ; ; , > > &                                                                                                                                           ",
"                                                                                                                                a F 3.9.9.3.#.] } D.'.7XgXrXkXrXpXuX8X(.L # # % % % , < 1                                         $ $ $ $ $ $ - e e e t r e ; e g Z D D D D b x G L 2.2.2.2.2.2.2.2.2.@.L L L L P D g t t e e e t e e % % ; , , < , - % - , , & $ o o o o . . o o o X X X X o o o . X o o o $ $ $ $ $ $ $ $ $ $ $ $ $ $ $ % , t g g g g g y y g g Z C Z Z Z g g D Z g g D g g y g g Z Z Z y t e e t e e , , < < - - -                                     1 h f f t r r 0 0 F +.`.tXgXfXfXfXwX:XK.;.( ( #.3.] b 0 e ; , , > & &                                                                                                                                           ",
"                                                                                                                                y F { 3.3.{ ' F ' 9.E.4XuX0X0X0XrXeX4XW.F 4 4 9 9 e t f f                                         & $ $ $ $ - - e e e t t e ; t g Z D G D A x y J L 2.2.2.2.2.2.2.2.2.@.L L L P J J Z y t t t t t t e ; ; , , e t , , , , , > > & O o o o X X o o X X . X X X X o o X X o o o $ $ $ $ - - $ $ $ % $ $ $ % % e f g g g Z g g y g g Z Z Z Z Z Z Z g g D D D Z g y g g Z Z Z y t e e t f e t , < , $ > - $                                   h f e r t 0 0 0 0 n o.Y.,XwXwXwXwX,X`.F.*.( M { { H a 9 ; , < < > & O                                                                                                                                           ",
"                                                                                                                                e y D P P D a r a 3.c.'.6X;X=X>X,X4X`.G.] 0 0 w b F H K Z 1                                       & $ $ $ % - - : , e e t e ; t y x D D D A x x J L 2.2.2.2.2.2.2.2.2.@.L L L H H J D Z Z g Z Z g y t 9 ; ; e t t e , , < < < > > o o X o X X X o o . . . . X o o X X X X o o $ $ - - , - % - - - % % % $ - t f g g g Z Z g g g Z Z Z D Z Z Z Z Z D D D D Z g g g g g g Z y t t e t t t e < < , $ $ & & &                                 f g y w w i i 0 i n [ S.%X>X=X#X$X$XS.q.[ F F F F D g ; , , , , &                                                                                                                                               ",
"                                                                                                                                  , e r r e 9 4 0 F 3.D.'._.T.T.$X].).F.-.[ #.+.7.k.n.5.K ,                                       $ $ $ $ % - - ; ; ; e e ; ; t t x A D D x y x J L 2.2.2.2.2.2.2.2.2.{ L L L H H H K J D D S S Z g t e e e e e e t , , < < < , > o o X X X X X o o . . X . X X X X X X X o $ $ - > , , , - - , % % % - - - t f g g g Z D Z Z D Z D D Z Z Z Z Z D D g j D D g g g g g g Z y t t , t e t e < < > $ O $ & O                               h Z R { @.#.} [ ] [ o.;.C.Y.J.f.f.Z.Z.;.&./ a a a y g r t e , , >                                                                                                                                                 ",
"                                                                                                                                    $ $ # # # # % F { 9.H.S.J.J.T.L.K.K.F.D.E.G.'.'.(.n.L : $                                     & $ $ $ % ; % - ; % ; e ; ; e t x Z D D x x y J L 2.3.2.2.2.2.2.2.@.{ { { L H H H P K K J J J D Z y t 9 9 e e e e , , e , , , > o X X o o X X X . X X . . X X X X X X X o $ - , , , , , , , , , , - - - - t f g g g Z D Z D D D D D Z x y y g D j g g D D D g g g g g g y t e , t t t , , , & o o o O O                               r P 6.B.W.W.D.D.D.D.D.H.F.Z.,.:.:.,.q. .' a 0 r e r r r f t ,                                                                                                                                                     ",
"                                                                                                                                        X @ @ $ % F { 9.G.C.Z.J.L.L.K.K.K.H.).Y.`.{.~.c.L ; $                                     & $ $ $ $ % % % - % ; e ; % e t y Z D D x x x D L 2.3.2.2.2.@.2.2.@.@.{ { L H H H P P K J J J J D y t 9 9 e t e e e , e , , , > o X X o o X X . . . .     . . . X X . X o > , < < , , , , , , , , , - - - e g g g g g Z g D D D D D Z y y y g D D g g D D D D g g g g g y t e , t t t , , , & O o o O o o                             e P c.(.'.'.).).Q.).)._.K.Z.:.>.:.q.w.[ n 0 9 e e e t t f <                                                                                                                                                       ",
"                                                                                                                                            X @ 9 L 3.7.G.G.C.H.H.H.F.F.Y.Y.L.J.L.).H.c.L ; $ O                                   $ $ $ $ % % - - - ; ; e : ; e t g Z D S Z Z Z J L 2.2.2.2.2.2.2.2.2.@.L L L L H G K J J D D D D Z t e 9 9 e t e e t t < < , > & o o o o o .                   . . . . X $ > , < , , , , , , , , , ; ; , , e t g g Z Z Z g g Z D J Z g y t g Z Z Z D Z Z D Z g Z x x Z Z g t e e e , e e < , $ O X o o O o                             % F c.~.[.%X%X$X=X=X:X:X$XL.C.<.,.).E.*.n 0 4 % e h f h 1                                                                                                                                                         ",
"                                                                                                                                              @ e J @.9.D.c.-.8.8.l.C.C.K.L.J.f.J.L.F.8.L , $ O o                                 $ $ $ $ $ % % - - - ; , - - t t C Z J A Z Z x J L 2.2.2.2.2.@.2.2.@.L H J J J J J J J D D D D Z Z y t e e e t r e t t < < > , & O o o X .                     . . X . X $ > , < , , , , , , e , , , , , e t t f f g Z g g g Z Z Z Z g y t y Z Z Z Z Z Z Z Z g x x x x g y t e , e , e e < - $ O X o o O o                             % F 9.E.].%X=X$X#X=X>X>X$XL.C.;.q.~.W.@.a 9 % % , 1 1 1                                                                                                                                                           ",
"                                                                                                                                                t D { 3.9.#./ ( ] o.-.l.S.J.f.f.J.J.Z.8.F % $ O O o                               $ $ $ $ $ % % ; ; - ; : - - t t g Z D A Z x x J L 2.2.2.2.2.@.2.2.L H D y x D J J J D D D D D Z Z g t t t t t t r t , , , , > $ O o o . .                       . X X X $ & > , , , , , , e e : : , , , e e t t t y y y y y Z Z D D g y y y g g Z Z g Z D D g Z x y y g y t e , e , e e , - $ O X o o O o                           o # a 9.H.).].$XT.T.T.=X*X].S.;.:.-.D.c.} w ; $ % , 1 1 >                                                                                                                                                           ",
"                                                                                                                                                  g J R { F a a i M ] &.d.d.d.d.J.J.C.8.F # $ O > O +                             $ $ $ $ $ % ; ; ; - ; : - - t t y Z D A Z x y J L 2.2.2.2.@.@.2.{ L D y w r y D D D D D D D Z Z Z g g y y y g t t t , , , > & $ o o o . .                       . X X X $ $ & , - - - ; , e t e e e e e e e t t t t y y y y Z g D D D g g g g g g g g g D D D Z x x x g y t e , e , e < , $ o O o o o O o                           @ @ a 3.C.Q.)._.L.J.J.T.`.).C.o.( ] 5.3.J 9 % $ $ > > O                                                                                                                                                             ",
"                                                                                                                                                    f g g e 9 r w a n ( ;.d.d.d.f.J.C.8.F % & & & O O                             $ $ $ $ $ % , ; ; - ; ; - - , t t Z D S Z x x J L 2.2.@.@.2.@.{ L H b r w r y D J J D D D D D J S Z Z g g g g f t t , , , > & & X X o X                         . X X X $ $ $ $ $ $ $ ; , t t t e t t t t t t y y y y y y y Z D D D D D D g g y g g g Z D D D Z Z Z x y y t t , e , e < , $ o O X o o O o                           X @ w #.8.F.K.K.Z.d.Z.J.Y.D.#.n i i F J y % - & > O O O                                                                                                                                                             ",
"                                                                                                                                                      * , e e % 9 0 w n &.,.d.d.d.J.C.8.F % $ & > > O                             O $ $ $ $ - , ; ; - ; : - - , t t Z D A Z Z x J L 2.2.@.@.@.@.{ L H b r w y y D J J D D D D D J S Z Z g g g g f t e , , , > $ O o X o X                         . X X O $ $ $ $ $ $ $ % , e f t t t t t t t y g g y Z Z x Z Z D D J J J J D D D D D g D D D D Z Z Z Z g y t t e e , , < , $ o O o o o O O                           X # w { 9.8.q.q.<.;.,.C.Z.7.' a 0 9 r y ; - , > > O O                                                                                                                                                               ",
"                                                                                                                                                        $ * , - ; 9 w n o.;.<.<.d.Z.q.8.F % $ O > O O                             O $ $ $ $ - , : : ; 9 e ; - e t C Z D D Z Z Z J L 2.2.@.@.@.@.L L J b y y y Z D D D D D S D D S S Z g g g t t t t , , , , > $ o O o . .                         X X o $ & $ $ $ $ $ $ % , e f f y y y t x x Z Z Z Z Z A x x x D D P P P P P J D F D D D D D D Z Z Z Z g t t e e e < < < , $ $ O X o o O o                           X $ y { #.*.*. . . .&.;.-.{ F r 9 % r t , < < , & O                                                                                                                                                                 ",
"                                                                                                                                                          $ > < % e y F [ *.&.:.<.,.q.8.F ; $ > O                                 O $ $ $ $ % , e t e t t e : t g Z D J D Z Z Z J L 2.2.@.@.@.{ L L J b y y Z Z D D S D S S Z Z S Z Z g t t t t t e < , , , > $ o o o . .                         X X o $ & $ $ $ $ $ $ % , e f g g g g x x Z Z Z Z Z S D x x x D D P P L P P P P P J D D D D g g Z Z Z g t t 9 e e , < < , $ $ o X o o O o                           X $ e F ' ] ] / / / [ [ ] P y r r e t g f f 1 ,                                                                                                                                                                     ",
"                                                                                                                                                            & > , t J L @.#.[ ) :.=.*.} D e $ o                                   O $ $ $ $ ; e t t t t t e t t Z S J K K G D Z G L 2.2.2.@.@.@.L L P D Z g g D A D D D D D D D S Z g t t t e e t t , , , > > $ O O X o +                         . X O O $ $ $ $ $ $ $ % , f g g x Z x y y Z Z Z Z D D D D b x D D D P P L L L L L P P J J D g D Z Z Z g t t t e e e e < , - $ O X o o O O                           $ , g P { { ' ' ' ' ' ] ' D j y r h g g g h <                                                                                                                                                                       ",
"                                                                                                                                                            O > , g K R 2.@.} ] | [ ] F y , &                                     O $ $ $ $ ; e t g f f g t t g D D J K K K D D G L 2.2.2.{ @.@.L L P J Z y g Z A D D D D D D Z S g f t e e e t e t < , > & $ $ o o . o +                         . X o O $ $ $ $ $ $ $ % , f g g x Z x y x Z Z Z Z b D D D b x D D D P P L L L L { L P P P J D Z Z Z Z g t t t e e e e < , - $ O o o o O O                             , Z P L L P F F F F H F J g g r g S S S h                                                                                                                                                                         ",
"                                                                                                                                                              $ > h S R K P F a a a a r % $                                       o $ $ $ $ ; e t g g g g t t g J J J K K K K G P L 2.2.@.@.@.@.Y L P J Z y Z Z Z Z Z Z Z Z Z Z g g t t e e e e t e , - $ $ $ O o o . o +                         . X O O $ $ $ $ $ $ $ % , t f g g Z Z x x C Z D D D D D D b b D D D J K P L L L L L P P K D D Z Z Z Z y t t t e e e e < , - $ O o o o O O                             & f D D J J j j j D D j g f t t h g g h                                                                                                                                                                           ",
"                                                                                                                                                              o O $ , < h e % # 4 4 # @ @                                         o $ $ $ $ , e t g g t f e e g D D J K K K K G P L 2.2.@.L @.@.E L P D Z y x Z Z Z Z Z Z Z g C g f t , , : e e t , , $ o X o X o o . X .                         . o O $ $ $ $ $ $ $ $ % , t f g g g g y x Z Z D D D D D D b b D D D D J P P P L L L P P J D Z Z Z Z Z y t t t t e e e < , - $ O o O o O o                               $ * , e * % * % * * % e , , , , > ,                                                                                                                                                                             ",
"                                                                                                                                                                  $ & & & & $ $ X X X                                           o o $ $ $ - , t t f t t f t e g S S J K K K K D P L 2.2.@.L @.@.E L P D g y x Z Z Z Z Z Z g C g g f t , ; : e t , , - $ o X X X X o . + .                         . o O $ $ $ $ $ $ $ $ $ , t f g g g g y g Z Z D D D D D D D D D D D D J J P H P P P H G J D y Z Z Z x y t t t t e e e < , - o O o O o O o                                   $ % % % % * * & & & $ & $ $                                                                                                                                                                                 ",
"                                                                                                                                                                                                                                X o $ $ $ - , t t g g t t t e g Z S J K K K K D P L @.2.@.@.{ @.E L P D g g Z Z Z Z Z Z Z Z C g g f t , : , t t t , , $ o X X . X o + + .                         X o O $ $ $ $ $ $ $ $ $ * t f g y y y y g Z Z D D D J D D D D D D D D J J J J H P P G J J D x Z Z Z C y y t t e e e e e , - $ O o o o O o                                                                                                                                                                                                                                               ",
"                                                                                                                                                                                                                                . o $ > $ - , , t g g g g t e t Z Z D J K K G D H L @.2.@.{ @.2.2.E P J Z x Z Z Z Z Z Z C C g y f f t , , e t t e , , $ X X X X X o + + +                         X o O $ $ $ $ $ $ $ $ $ * h f f t t t t g Z D D J J J J D D D D D D D G G G G G G G G G G D x Z Z Z x y y t t t e e f f , $ $ O o O o O o                                                                                                                                                                                                                                               ",
"                                                                                                                                                                                                                                . O $ > - > , , t f g t t e e t C C Z D D K D D G L @.2.2.@.@.2.2.2.L J Z Z Z Z Z Z g g g y t t f f t , , e t t t , , $ X X X X X o . o .                       . X o O $ $ $ $ $ $ $ $ $ , t f f t t t t g D D D J J J J J J D D A D D G G G G J G D D D D D Z Z A Z x y y t t t e t f f , $ $ O o O o O o                                                                                                                                                                                                                                               ",
"                                                                                                                                                                                                                                . $ $ $ - - - , t f t t y t e t g g g Z D D D D J L E 2.2.2.2.2.2.E L K D Z g g Z Z Z Z C y t t f f t e , , t t t < , $ X X X X o X X o +                       . X o O $ $ $ $ o $ $ $ $ - < e f t f e t f Z J K G J D D D D D D D D D D D H H G J D D D D D Z Z Z Z y y y y t e t e t f < & $ O o o o O o                                                                                                                                                                                                                                               ",
"                                                                                                                                                                                                                                X $ & > , , , e t f t t y t r t Z Z Z Z D D D D J L E 2.2.2.2.Y Y L K D Z Z g g Z Z Z Z C C C C g f t , , , t t t t , $ X X X X o X X X +                       . X o O $ $ $ $ $ o $ $ $ - , < f t e e e f Z J K G D D J J D D D D D D J J H H P H J J J D D Z Z Z Z y x x y t e t e e f < & $ O o o o O o                                                                                                                                                                                                                                               ",
"                                                                                                                                                                                                                                X $ & > , , , f t f t t f t t f Z Z Z Z Z Z Z Z D K L R R E L L L K G Z g g Z g Z Z D Z Z C C C g f e t e , t t t t , $ X X X o O X X X X                       . X o O $ $ $ $ o $ $ $ $ - < t f f e t e f Z J G G J J J J D D D D D J H H H H L P H H J D D Z Z Z Z Z Z Z g y t t f f f < $ $ o o o o O o                                                                                                                                                                                                                                               ",
"                                                                                                                                                                                                                                . $ $ & , , , e t f t t f t t f g g g Z Z Z g g Z D J P P P P J D D D Z y g Z Z Z Z D Z Z Z S S Z g t t e t t t t e , $ X X o o O o X X o                       X X o $ $ $ $ $ $ $ $ $ $ - < t f f e t e f Z J G G J J J J J D D D D J H H H H H H H H J D Z g Z Z Z Z Z Z g y t y f f f < $ $ $ o o o O o                                                                                                                                                                                                                                               ",
"                                                                                                                                                                                                                                . $ $ $ - - , e e t t t t e e t g g C C g y y t y Z D J K K K D D D A Z g Z D D D D Z Z Z Z S S Z g e t t t t t e , , $ X X o o O o X X o                       X X O $ $ $ $ o $ $ $ o $ > < f f f e t t t Z J G G J J J J J J D D D G P P H H H P L P J D g g g Z Z Z Z Z g y t g f f f < $ $ $ o o o O o                                                                                                                                                                                                                                               ",
"                                                                                                                                                                                                                                X $ $ $ - - - < e t t t t e e t g g C C y y y t y g Z Z J K K D G K K D J J K K J J D Z Z Z S S g f t , , t t t , , - $ X X o O o o o o o                         X O o $ $ $ $ $ $ $ o $ , < f f f e e t t Z J K G J J G J J J J D D G L L P P L L { L P D g g y g x x C Z g y t g g f f < $ $ $ O O O O o                                                                                                                                                                                                                                               ",
"                                                                                                                                                                                                                                X $ $ $ $ $ $ , t e t t g t e t g C Z Z g f t t t g Z Z D K K J K L L L L R R L P K J D Z Z Z S g f t , ; e e e e e - $ o o O O $ O o O O                         . O O & & $ $ $ $ $ $ $ , e f t t e e t t Z J K K J J G J J J J D D H L { L L L @.2.@.P D D g y g y y x x Z g y g g f f < $ $ & O O O O o                                                                                                                                                                                                                                               ",
"                                                                                                                                                                                                                                X $ $ $ $ $ $ - t t t f g t t t f C Z g f f t t t y g Z D K K J K K L L L R E E L P K D Z C Z Z g f , , ; , e e e , , $ o o $ O $ O O O O                         . X O & $ $ $ $ $ $ $ $ , e f t t e e e t Z J K K P P H J J D J D J P { 2.@.@.{ 2.2.2.P D g g y g y y x Z Z g g Z g g f < $ $ $ O O O O o                                                                                                                                                                                                                                               ",
"                                                                                                                                                                                                                                o o $ $ $ $ - ; < e t t t t t f f f t t t t t e t g g Z Z D J D J K L L R L L E 2.L K D g y t t t t : ; ; , e e t , - $ o o o $ $ O O o O                           . o O & & O $ $ $ $ $ - , f f t t t e t g D K K J K J J J J J J J P L 2.2.2.2.@.2.2.K D g y y g x y y x Z g y g g f f , $ o & o o O O o                                                                                                                                                                                                                                               ",
"                                                                                                                                                                                                                                o o $ $ $ $ $ ; < e e e t t t f f f t t t t t e t t g g Z Z D Z D K L L L L L E 2.L K D g t t t e t : ; : , e e t e , $ $ o $ $ $ $ o O                                 X o $ $ $ $ $ $ $ - t f t t t e t t g Z D D D D D D D J J J G L @.2.2.2.2.@.2.2.K D g y g Z Z y y Z Z g y g g f f , $ o $ o o o O o                                                                                                                                                                                                                                               ",
"                                                                                                                                                                                                                                o O $ $ $ $ $ ; , e e e t e t t g g g f t t t e t y y g g Z S Z J K P L L L L 2.2.Y P D g t t t t e , : , e e e e e - $ $ $ $ $ & o o o                                   X O & $ $ $ $ $ , t f f f t t t t g Z Z Z g D D D D J H G H L 2.2.2.@.2.@.2.@.K D g y g Z Z y y Z Z Z y g g f f , $ o $ o o o O O                                                                                                                                                                                                                                               ",
"                                                                                                                                                                                                                                X O $ $ $ $ $ - , e e e t t e t g g Z C y t t t t y g Z Z J K D J K P L L L { 2.2.E P D g t e t e e e e e e e t t e - $ $ $ $ $ & $ o O                                   X O $ $ $ $ $ $ - t f f f t t t t y g g g y g g g D J J H H L @.2.@.@.{ L @.{ J Z g y y g y y y Z Z g y g g f f , $ o O O o o O O                                                                                                                                                                                                                                               ",
"                                                                                                                                                                                                                                X O o $ o o $ - < < t e e < e t y g C Z Z y y t y Z D J K P P K P P P L L L L { 2.L P D g t e t e e e e e e t t t e - $ $ $ $ $ & $ o O                                   . X O $ $ $ $ $ - t f g t t t t t y g g y y y g g D D D D G P L { { L L P L L J D Z g t g y y y Z Z y t g g f f , $ o O O o o O O                                                                                                                                                                                                                                               ",
"                                                                                                                                                                                                                                o O $ $ o o $ - , < t t e < e t y g Z S Z Z g g Z D J P R E R L L L L P P P L L { L P D g t e t e e e e e e e t t e - $ $ $ o $ & $ o O                                   . X $ $ $ $ $ $ - t t g y t t t t g g g y y y g g Z D D D J P L L L L P P L L J D D Z g g x y y Z g t t y f f e , $ o O O o o O O                                                                                                                                                                                                                                               ",
"                                                                                                                                                                                                                                o o o $ o o $ - , < t t e , , t g Z J K K G D D J P L E 2.2.2.2.E R R L P P L L { L P D g t t t e t e t e e e t t e , $ $ $ $ $ & $ o o                                   . O $ $ $ $ $ $ ; t t g y t t t y g Z g g g Z D Z D D D D J H L L L L L L { 2.P J D D Z Z Z Z Z Z g t e t f t < - $ o O O o o O O                                                                                                                                                                                                                                               ",
"                                                                                                                                                                                                                                O o O $ o o $ - , < t t e , , t Z D P R L L P P L R 2.2.2.4.2.2.2.2.E L L L L L { { P J g t t t e e e t e e e t t e , $ $ $ $ $ & $ o o                                   X o O $ $ $ $ $ ; t t g y t t t g Z Z Z Z Z D D D D D J D J H L L L L L L 2.2.L J J D D D D A A A g t e t f e < - $ $ $ O o o O O                                                                                                                                                                                                                                               ",
"                                                                                                                                                                                                                                O O $ $ o o $ - , , t t e e e t g D L R P P P P L 2.2.L 2.2.6.2.2.2.2.L L L L L R R P J g y r t r e e r e e e e t t , $ $ $ & & > o o o                                   . o $ $ $ o $ $ ; t t f t t y t t y Z D D Z Z Z A D G J J K K P L L L { L @.@.P J J J J K J D Z Z g t e t g g < > $ o $ o o o O o                                                                                                                                                                                                                                               ",
"                                                                                                                                                                                                                                o O $ $ o o $ - : , t t t , , t g D P L P H P L { 2.2.@.2.2.3.2.2.2.L L L L L L R R R J g g g g t t e r e e e t t t , $ $ $ & & > o o o                                   . X $ $ $ $ $ $ - t t f t y y t t y Z D g Z g Z A S G J J J H P L L L { L @.2.P J J J J H K D Z Z y t e f g f < - $ o $ o o o O O                                                                                                                                                                                                                                               ",
"                                                                                                                                                                                                                                o O $ $ o o $ - , t t t t , , t j D L L L P L L { @.@.@.2.2.3.@.2.2.{ L L L L L L L L J D Z g g g t t e e e e t , , , $ $ $ & & $ o o O                                   . X $ $ $ $ $ $ - t t t t t y t t y Z D D g Z Z D G K P P P H L { 2.2.@.{ @.@.L H P J H L P D Z x y t e f g f , - $ o $ o o O O O                                                                                                                                                                                                                                               ",
"                                                                                                                                                                                                                                o O $ $ $ $ $ - , e e t e , , t D F L { L L L L { @.@.@.@.3.@.@.@.2.@.L L L L { L L L P K K J J g t e e e e e t , , , $ $ $ $ $ O o o o                                   . o $ $ $ $ $ $ - t f f t y y y t y Z D D D D A D K L L P H P @.3.5.7.5.3.2.2.{ H P P P L L J Z y y t e f g f , - $ O $ o o X O O                                                                                                                                                                                                                                               ",
"                                                                                                                                                                                                                                O O $ $ $ $ $ - e e e t t , , t F F { { { { { { } @.@.@.@.@.@.@.@.@.@.L L L L @.Y Y L L R R R P Z g e e , , , e , , , $ $ $ $ $ & O o X                                     O $ o o o $ $ , t f g g g g t t g Z D D D D D D K L L H F L 2.7.B.B.n.5.3.2.{ H H J J P P D g y t e , e f < > $ $ o $ o o o O o                                                                                                                                                                                                                                               ",
"                                                                                                                                                                                                                                O O $ $ $ $ $ - , e e t t : ; e j F { @.2.2.@.@.{ @.@.@.@.@.@.@.@.@.@.{ L L { { Y @.2.Y 2.2.R P Z t e , : : , e , , , $ $ $ $ O & X . .                                     o o O o o $ $ % t f g f y t t t g Z D D D D D D K P P F F H 3.n.W.(.B.9.5.3.{ H J D D D D y t t t e - , , , $ $ $ o o o o o O o                                                                                                                                                                                                                                               ",
"                                                                                                                                                                                                                                O O $ $ $ $ - , , e t t e : ; 0 y F L { 2.{ { { { { @.@.#.@.#.@.@.2.2.@.{ L @.@.@.@.2.E 2.E P J g t : ; ; ; e e , , - $ $ $ $ O o . .                                       O X O o $ $ $ $ , e t t t t t t y Z Z Z D D D J K P L F F ' 3.c.(.{.W.c.n.9.@.] D b b D Z t t t e : $ - > $ $ $ $ $ $ o o o O O                                                                                                                                                                                                                                               ",
"                                                                                                                                                                                                                                O O $ $ $ $ - , e f t t t e 9 e r y j J P P F P L L { 2.3.#.#.3.2.2.2.2.@.{ @.@.2.2.2.E R L K D g e ; - ; : e e , , $ $ $ $ O X                                           . O O o $ $ $ $ $ , t t t t t t t y Z D J J J J K P H { H F ] *.D.'.oX~.W.D.c.5.{ G x D D Z t t e e ; - - > - $ & & $ o o o o O O                                                                                                                                                                                                                                               ",
"                                                                                                                                                                                                                                O O $ & $ o - , e f f f t e e e e e y y j D j j D J 2.3.3.2.3.2.2.2.2.2.@.{ @.@.2.2.2.L L P D g t e : ; : ; , e , , > $ $ $ .                                             X o O o o o $ $ - , e e e e t t t y Z A D J J J J H L { H ' ] *.D.'.+X'.~.W.W.9.{ D b y x y t t t , ; - - - - & & & & o o o O O O                                                                                                                                                                                                                                               ",
"                                                                                                                                                                                                                                O O $ & $ o $ , e e t t e e , , % % % e r e r 9 y g P 2.2.2.3.@.2.3.3.2.@.@.@.@.2.@.L P P J D y r e ; ; : ; , , , , > $ $ O                                               . X O o o o o $ - , < , ; ; : : e t y Z D J J D D J L { ' F ] *.C.'.XX'.~.W.W.9.{ D x y x y t t t e ; - - > > > > > > o o o O O O                                                                                                                                                                                                                                               ",
"                                                                                                                                                                                                                                O O $ & $ o $ , , e e t e e ; ; % $ $ # % % % @ e r P 2.3.2.2.@.2.2.3.2.2.@.2.2.2.Y P J J D g t r e , , , , , , < , > o O $                                               . X O X o X o $ $ , , % % ; ; ; ; e t Z D D D D D F L { ' ' ' ..D.'.2X].'.'.(.9.{ D y y y g g y t e ; - , , > , , > > o o o o O O                                                                                                                                                                                                                                               ",
"                                                                                                                                                                                                                                O o $ $ $ o $ ; e e t t t e e ; % % % % * * % # e y P 6.6.2.3.@.2.2.2.2.2.@.2.2.2.Y P D D D g t r e , , , , , , < , > o X $                                               . X O o o X o $ $ , , - - ; ; ; ; e t Z D D D D D H { { ] ' ' *.F.XX7X2X2XXXoXn.@.J x y y Z Z g t t , - - , > , , , , $ o o X O O                                                                                                                                                                                                                                               ",
"                                                                                                                                                                                                                                O o o o $ o $ ; e e t t t t e 9 4 % % % e e e % e g L 6.3.3.@.@.2.2.2.2.@.@.2.2.2.Y K D Z Z g g r , , , , , , , , > > o o o                                               . o O o o o o $ $ , , , , , , : , t t x Z D D D D H { { ' ' ' ..F.2X7X8X4X2XoXn.@.J y y Z Z Z C f , - $ - > > > > > > $ o o X O o                                                                                                                                                                                                                                               ",
"                                                                                                                                                                                                                                O o o o o o $ ; e e t t t e e 9 9 4 9 e e e % 4 r y P 3.3.@.@.@.2.2.2.L L L { 2.2.L J y g g g t t , , , , , , , , - & $ o o                                               + O O O O o o $ & , t , , , e , : e t x C D D D D F P ] ' ' /  .q.!.&X&X].'.W.9.{ J y x Z Z Z C t , - $ $ $ & > > > > o o o o O O                                                                                                                                                                                                                                               ",
"                                                                                                                                                                                                                                O O o o o o $ , , e t t e e e e r r e r r 4 4 4 r r P 0.#.@.#.@.@.2.L H D J P L E L D y y g y t e , - - - - , , , $ $ o o o                                               . o o O o X X $ & , t , , , , , : : t t x D D D b F F F ' ' ! | ..q.w.F.w.C.8.@.H D y Z Z Z Z g t , , $ $ $ $ $ & & & o o o o O O                                                                                                                                                                                                                                               ",
"                                                                                                                                                                                                                                O O O o O o $ , < e t t e e e 9 r r p r r 0 5 6 0 p ' 0.#.#.#.@.@.@.L J D D H L E P D t t t t t e , - % - - - , , $ $ O O X                                               . o o o o X o $ & , t e e , , , : : t y Z D D F a a a ' ' ! ! ! _ ....=.....} H F D y Z Z Z g g t e , $ $ $ $ $ $ $ $ o o o o O O                                                                                                                                                                                                                                               ",
"                                                                                                                                                                                                                                & O o $ o o $ , e e e e t t e y k k s s k k u 7 d d | 7.3.#.#.@.@.@.H J D P P L R G y t t f t e e ; - - - - - , , & $ o & &                                               . O o O O o O $ > > < t t , , : ; , t C Z D F F j s d ! ~ ~ ~ ~ ~ ~ ~ ~ ! s s b F b y D D A x y t e , - $ $ $ O O O O o o o o O o                                                                                                                                                                                                                                               ",
"                                                                                                                                                                                                                                & O O $ o o $ , t e e e t e e y ' ' ' ' ' ! d d d ! ..9.7.#.#.@.@.X.L G D J P P L D t q t t e , e ; - - - - - - > $ $ o O O                                               . o o O O o O $ > , , t t , , ; - , t g D D F j s s d ! ~ ~ ~ ~ ~ ~ ~ d d p a a a y y x D A Z g y e - - $ $ o o o O O O o o o O o                                                                                                                                                                                                                                               ",
"                                                                                                                                                                                                                                & O O $ o o $ , , e t e e e e a s ' ' ' ' ' ! ! ! | ..9.*.} } @.@.@.L H D D J J K Z q : t t e , ; ; - - - % % - > $ O X o o                                               . o o O o o o $ > , , e e , , - - e t g g D F j s s d ! ! ! ~ ~ ~ ~ ~ ! s p a a a y y y x Z Z g y e - $ - $ $ o o O o O o o o O O                                                                                                                                                                                                                                               ",
"                                                                                                                                                                                                                                & O O $ o o $ , , e t t e 0 e a k ' ' { | ' ' ! | | ..8.*.[ [ o.@.@.@.H D D D D A y q : t e e , ; ; ; ; - % % - & $ O X o o                                               . O o O O o o $ > , , , , , , - - e t y g j F a s s s s s ! ! ~ ! ~ ! ! ! s s a a y y r y Z Z C t , - $ $ $ $ o o O o O o o o O o                                                                                                                                                                                                                                               ",
"                                                                                                                                                                                                                                & O O O o o $ , < f t t y e e a k | ' { { ' ' s ! | =.8.9...} #.%.5.@.H D y g g x t : : e e t , ; - ; ; - % - > & $ o X o o                                               . O o O O $ $ - , , , < < , , , , e t y g j F j j F s s s ' ! ! ! ! ! ! s s s a a y r t y Z Z C t , - $ $ $ $ O O O o o o o o O o                                                                                                                                                                                                                                               ",
"                                                                                                                                                                                                                                & O O O o o $ , < f t t y e e y k k | ' ' k k p d ! ..q.8.*.&.#.%.5.@.L D y y y y q : 9 e t e < ; ; - ; - - - , & & $ X o o                                               . o O O O $ $ - , , , , , , , , , e t y g j F j j F F F F ' ' ' ! ! ! s s s F F a r 0 t y Z Z Z t , - $ $ $ $ O o O O o o o X O o                                                                                                                                                                                                                                               ",
"                                                                                                                                                                                                                                O o O O o o $ , < f t t y r e r j j p j p p 7 5 7 d ..q.8.9.*.*.+.3.@.L Z y t t t t 9 t t t e t ; - % % - - - - > $ $ o o o                                               . o O $ o o $ - , , , , , , < , , e t y g D D D j j j F a s s s ' ' ' ' ' ' ' F j r 9 e t g Z g t , - $ $ $ $ o o O & o o o X O o                                                                                                                                                                                                                                               ",
"                                                                                                                                                                                                                                O o O O o o $ , t f t t y t 9 r r 7 6 4 5 5 3 3 7 d | q.q.8.*.*.#.@.@.H g t e e t e e t t t f t , % % % % $ - - $ $ $ o o o                                               . o O $ o o $ $ > , , - , , , , - e t y g D D D j y r y w r a s ' ' | ' ' { ' F j e ; 9 e y g t e - $ $ $ $ $ o $ O O o o o X O o                                                                                                                                                                                                                                               ",
"                                                                                                                                                                                                                                O O O O o o $ , , e t f y y r r 4 4 4 4 4 4 3 3 5 p ..w.q.8.=.*.#.3.@.H y e e t t t t t t t f t , ; % $ $ $ $ $ $ $ O X O O                                               X & o $ $ $ $ $ > , , , , , , - - e t g g Z J D j r 4 % 9 9 r a s | 0.} | } 0.{ D r % % ; e t t , $ $ o $ $ $ $ $ & $ o o o o O O                                                                                                                                                                                                                                               ",
"                                                                                                                                                                                                                                O O O O o o $ > , f f g g y r r 4 4 # # 4 4 3 3 5 p ..w.w.8.9.-.7.5.2.H y t t t t t t t t t f t , % $ $ $ $ $ $ $ $ O o O o                                               + O O $ $ $ $ & - , , > , , , - , e t g g Z D g r 4 # # $ # 4 r k } 0.0.} 0.0.{ D r % % % ; : , % $ $ o $ $ $ $ $ & $ o o o o O O                                                                                                                                                                                                                                               ",
"                                                                                                                                                                                                                                O O O O o o $ > < e f g y y r 9 4 # # # # # 3 3 5 k 0.W.D.q.8.8.7.5.@.J y r t t t t t t t t h t , - $ $ $ $ $ $ $ O o o o o                                                 o O o O $ $ $ $ > > , , , , - - e t g C S J g r % % $ $ @ 4 r F } 0.0.0.0.0.P j e # # % % % % $ $ $ $ $ $ $ $ $ $ $ o o o o O o                                                                                                                                                                                                                                               ",
"                                                                                                                                                                                                                                O O O $ o o $ - , e f g y y e 9 4 # % % # # # # 6 k 0.W.H.C.C.D.n.5.{ D y e e e t t t t t t h t , % $ $ o o $ $ $ $ O X o                                                   X O O O O O $ $ > > , , , - % - e t g C S J g r * % % $ @ # r P 0.0.} } 0.0.P g e # $ $ $ $ $ $ $ $ $ $ $ $ $ $ $ $ o o o o O o                                                                                                                                                                                                                                               ",
"                                                                                                                                                                                                                                & O O $ o o $ - , e g f y e 9 9 # # # % * * # # 6 p 0.W.E.D.D.G.c.7.{ D r e e t t t t t t t h t , $ $ $ $ $ $ $ & $ o X .                                                   . o & & & $ $ $ & > * $ * $ $ - e t g g Z Z g t * * & $ @ % p P } 0.| } 0.{ P g e % $ $ $ % $ $ $ $ $ - & $ $ $ $ $ o o o o O o                                                                                                                                                                                                                                               ",
"                                                                                                                                                                                                                                & O O $ $ o $ $ , e t t t e 9 % # # # % * * # # 6 p 0.w.W.D.D.G.n.7.{ D y t t t t f t t f f h t , $ $ $ $ o $ $ & & O O .                                                     . . X o O $ & & & * & & $ $ - , t g g g Z g e * * & $ $ e j P 0.0.0.} 0.{ P g e % $ % % % $ $ $ $ $ - > & $ $ $ $ o o o X O o                                                                                                                                                                                                                                               ",
"                                                                                                                                                                                                                                & O O $ $ $ $ - - , e e 9 9 % # # # % % = = # # 4 5 F 0.9.7.-.7.%.#.L b y t t t f f t t f f h t , % $ $ $ $ $ $ > & o O o                                                           X X $ & & & & & $ $ $ $ - , e e e t t , * * $ $ $ e j P 0.0.0.} 0.{ J g , $ $ % % % $ $ $ $ $ - > > > > & $ o o o o O o                                                                                                                                                                                                                                               ",
"                                                                                                                                                                                                                                & O O $ $ $ $ $ $ , e e ; % # @ # # @ @ $ $ # @ 4 4 r F ' M / H ' F D y t e e t t f f t f f h t , % $ $ $ $ $ $ & & o > o                                                               O $ $ $ & $ $ $ $ $ $ - % % % % % $ $ $ $ @ $ % j k 0.0.0.| { P j r % $ % % % $ $ $ $ $ $ - , > > > > $ $ o o o O o                                                                                                                                                                                                                                               ",
"                                                                                                                                                                                                                                O o o o $ $ $ $ $ $ , ; % $ $ $ $ $ @ @ @ $ @ @ # 4 r w w w w y Z C y t e e e t e e t t t t e t - $ $ $ $ $ $ $ $ $ & > o                                                               X $ & $ O $ $ $ $ $ $ $ $ $ $ $ $ $ $ $ $ $ $ # r k | 0.' ' k k j r % @ $ $ $ $ $ $ $ $ $ $ * , , , - & $ O & O O o                                                                                                                                                                                                                                               ",
"                                                                                                                                                                                                                                o o o o $ $ $ $ $ $ % % % $ $ $ $ $ @ @ @ @ @ @ # 4 r g g y y r y g t t t e e e e e t t t e , , , $ $ $ o $ $ $ $ $ & &                                                                   O & O O $ $ o o o $ $ $ $ $ $ $ $ $ $ $ O $ % r p k | k k k p r r % $ $ $ $ $ $ $ $ $ $ $ , , , , % $ $ O & O O o                                                                                                                                                                                                                                               ",
"                                                                                                                                                                                                                                o o o $ $ $ $ $ $ $ $ $ % $ $ $ $ @ @ @ @ @ @ @ # e y j j y r r t t t t e , , e : : , , , , , , , $ $ $ o o $ $ $ $ & &                                                                   O & o O o O o o o $ $ $ $ $ $ $ $ $ $ & $ $ % r p k k p 7 p p r r e $ $ $ $ $ $ $ $ $ $ $ , , , , $ $ $ o & O O O                                                                                                                                                                                                                                               ",
"                                                                                                                                                                                                                                o o o $ $ $ $ & $ $ $ $ % $ $ $ $ $ @ @ @ @ @ @ # r g D D g r t t t t t e , : : : : , , , , , , * $ $ $ o $ $ $ $ $ & $                                                                 O O & O O $ $ o o o $ $ $ $ $ $ $ $ $ $ & $ $ % r p k k p 7 p p r r % $ $ $ $ $ $ $ $ $ $ * , > < , $ $ $ o & O O O                                                                                                                                                                                                                                               ",
"                                                                                                                                                                                                                                o o o $ $ $ $ & $ $ $ $ % % # $ $ $ @ @ # # @ @ % e g D D g y t t t t e e e , , e , , , , , , , * $ $ o o $ $ $ $ $ o O                                                                 O O O O O $ o o o o $ $ $ - - , - $ $ $ & $ $ % 4 r p p p p p p r 4 * @ $ $ $ $ $ $ $ $ * , > < < , $ $ $ O $ O O O                                                                                                                                                                                                                                               ",
"                                                                                                                                                                                                                                o o $ $ $ $ $ $ $ $ $ $ % % % % % % % % # % # % e r g D Z g y t t t e t e e e t e e e e , , , , * $ $ o o $ $ o $ $ O o                                                                 O O O O O o o o o o $ $ - - > - - $ % $ & & $ % e r p p p r p j r r * @ $ $ $ $ $ $ $ - , , < < < < , $ $ $ $ O O O                                                                                                                                                                                                                                               ",
"                                                                                                                                                                                                                                & $ $ $ $ $ $ & $ $ $ $ $ $ % % ; e e e e 4 % % e r g g g g f t e e t e e e e t e e e e e , , , , $ $ o o o o o o $ >                                                                   O O O o O o o o o o $ $ > > - - % % % % & & % = * 4 r r r 5 5 r 4 e * @ $ $ $ $ $ $ % , < < < e t < , > $ $ & $ & O                                                                                                                                                                                                                                               ",
"                                                                                                                                                                                                                                > $ $ $ $ $ $ & % $ $ $ $ $ $ % e e r e r r e e r g g g g f t t e e t e : : , e ; ; e e e e , < , $ $ o o o o o o $ >                                                                   . o O O O o o o o o $ $ > > % % % % % % & & * = # 4 4 6 6 3 4 4 # % % @ $ $ $ $ % $ - , < f f f f < , , & $ & $ & O                                                                                                                                                                                                                                               ",
"                                                                                                                                                                                                                                & $ $ $ $ $ $ & $ $ $ $ $ $ $ , e e r r r r e e r r f g g t t t e t e , : : , , ; ; e e t t , , , & $ o o o o o O > O                                                                   o O O X o o o o X o $ & - - $ $ $ % % % & $ $ # # # # # # # # # # # # @ $ $ % % $ % % , e t e e t t e , & $ $ O O O                                                                                                                                                                                                                                               ",
"                                                                                                                                                                                                                                > & & $ $ $ $ & $ $ $ $ $ $ % , e r r r r r e e r r f f g t t t e t e , , : : ; ; ; e e t e , , , & $ o o o o o o > O                                                                   X O o X o o o o X o $ $ - - - $ $ % % % , & % % # # # # # # # # # # $ @ $ $ $ $ $ $ % , e t t e t t e , > $ & $ O O                                                                                                                                                                                                                                               ",
"                                                                                                                                                                                                                                > & $ $ $ $ $ & $ $ $ $ $ $ $ , e e e r r r e e t e y t t t t t e t e e , : : : : e e t t t , < , & $ O o o o o O O o                                                                   o O o X o o o o X o $ $ - - - - , , , , - $ % % # # # # # # # # # # $ $ $ $ $ $ $ $ % % t t e t t t t , > $ & & & O                                                                                                                                                                                                                                               ",
"                                                                                                                                                                                                                              O > & & $ $ $ $ $ $ $ $ $ $ $ $ % e e r r r r e e e e y y t t e t t t t t e , : ; : e e t t t t < , & $ $ $ o o o o O O                                                                   X O o X o o o o o o $ $ - - - - , , % % $ % % % % % # # 4 % # # # # $ $ $ $ $ $ $ % % ; t e e e t t t , , $ $ & & O                                                                                                                                                                                                                                               ",
"                                                                                                                                                                                                                              $ > & & $ $ $ $ $ $ $ $ $ $ $ $ % e e e r e e e e 0 0 t y t t t e t e e t t e , : , , t t t t t t , & $ O $ o O O o o o                                                                   o O o X o o o o o o $ $ - - - - , $ $ $ % % % % 4 e 4 4 e 4 4 % % % % % % % % % - , , , e t e t t t t , , $ $ $ $ o                                                                                                                                                                                                                                               ",
"                                                                                                                                                                                                                              $ > > > > & & & & - $ $ $ $ $ $ $ e e e e e e e 9 0 0 e t t t t e e e e e t t e e e e t t t t t < , & $ o o o O o O o o                                                                   o O O X o o o o o o $ $ - - - - > $ $ $ % $ % ; , e r r e e e % % ; , e e e t t t t t t e t e t t t t , , $ $ o $ O                                                                                                                                                                                                                                               ",
"                                                                                                                                                                                                                            & > > > , , , > > , - $ $ $ $ $ $ $ e e e r e e 9 9 9 0 e e t e t e e e e e e e t t e e e e e , , , & & O o o o X X o o O                                                                   o O O X o o o o o o $ $ - - , , - - $ $ % % % - ; ; 9 % % % % % % ; t f g g g g g f f t t f f f t t t < , > > $ & & o                                                                                                                                                                                                                                             ",
"                                                                                                                                                                                                                        O O & , , < < < < < < < , - $ $ $ $ $ % e e e t e e e 9 9 9 e t t t t e e e e e e e e e e t e , , , , % & $ O o o o X X o o o                                                                   o O O o o o o o o o $ $ > > , , , % $ $ % % - - ; ; % % % % % % % e g Z D D D Z S Z f f t f f f t t t t , > > $ > > o                                                                                                                                                                                                                                             ",
"                                                                                                                                                                                                                  . o O O $ > > ; , < < < < , < , - $ $ $ $ $ % * , e e e e e e ; ; e e e e e t e t t t t t e e e < , > $ $ $ $ O o o X X X X X o o                                                                     o & O X $ $ $ o o o $ - > > - - - $ $ $ % % % - ; ; % % % % % % 9 y g Z D D S D Z Z g t e t t t t t e t , > $ - $ $ $ & O o X                                                                                                                                                                                                                                     ",
"                                                                                                                                                                                                                . . o o o O $ > , , < < < < e , , - $ $ $ $ $ $ % , e e e e , , , , , e t t t e e t t t e e e e < , & $ O o O O O o X X X X X X o o                                                                     O & O X $ o $ $ o o $ - > , - - $ $ $ $ % % % - % % % % 4 % % 9 9 y Z Z D D Z D Z Z y t e t t t t t e t , , , , & $ $ & $ O o O                                                                                                                                                                                                                                   ",
"                                                                                                                                                                                                                . . o o o o $ - , , < < t t < , < , $ $ $ $ $ % % ; ; e 9 9 ; ; ; ; : e e t e t t t t t e t e e < , $ o o o O O O o X X X X X . o o                                                                     O & $ O o o $ $ $ o $ - , , - - - $ % % % % % - % ; % % 9 9 9 9 e g Z D D Z Z D Z Z g t e t t t t t e e < , , , - $ $ & & & & & +                                                                                                                                                                                                                                 ",
"                                                                                                                                                                                                                X o O O o O $ - , , < < < < , , < , $ $ $ $ $ % % ; ; e e 9 ; ; ; ; ; , e t e e e e e t e e , e , , $ $ O O O & O o X X X X X . o o                                                                     O & $ X o o $ $ $ o $ - , , , - - % % % % % - - ; ; 9 9 e 9 9 9 e y Z D Z Z Z Z Z Z g t e t t t t t e e , , , , - $ $ > > > & & .                                                                                                                                                                                                                                 ",
"                                                                                                                                                                                                                o o O O o o $ - , , < < < < , , , - $ $ $ $ $ % ; ; ; e e e ; ; ; ; ; e e e t t e e e , , , , , , - $ $ $ $ $ $ O o X X X X X X o o                                                                     O & $ O o o $ $ $ $ $ > , , - - % % % % - - - ; ; , 9 9 9 9 9 9 e y Z D Z Z Z Z Z Z g t e t f t t t e e , - - - - $ - , > > > & .                                                                                                                                                                                                                                 ",
"                                                                                                                                                                                                                o o O O o o $ $ , , < < , , , , , - $ $ $ $ $ % , ; e e e e , : : ; : e e e t t e e e ; % $ $ - - - & & $ $ & $ o X X X X X X X o o                                                                     o & $ o $ o o o o o $ > , , - - - % - ; ; ; ; : , , 9 9 9 9 9 9 e y Z Z Z Z Z Z Z Z g t e t f t t t e e , , - - - $ - , > > > & X                                                                                                                                                                                                                                 ",
"                                                                                                                                                                                                                X o O O o $ $ $ , , < t < , , , , - % % % % % , t e t t t t e t e e e e e t t t e t , - $ $ $ $ , , > > & & $ $ o X X . X X X X o o                                                                     o & $ O $ o o o o $ $ , , , , , : e e t e t e e e e 9 9 9 9 9 9 e y Z Z Z Z Z Z Z Z y t t t f t e t e e , , , - - $ - , > > & & X                                                                                                                                                                                                                                 ",
"                                                                                                                                                                                                                X o O O $ $ $ $ , , t e t < , , e , ; ; % % , t g g g g g g g f t t t t t t f f t e < ; - $ $ $ , , > > & $ $ $ O X X . X X X X o o                                                                     o & $ O $ o o o o $ - , , , , , t t t f g f t t t e 9 9 9 9 9 9 e y Z Z Z Z Z Z Z Z y t e t f t e e t t < , , , - $ - , > - $ & X                                                                                                                                                                                                                                 ",
"                                                                                                                                                                                                                o o o o o $ $ - , < e < < t t t t , , , , , e t g g Z Z Z Z Z Z g g t t f t g g f e , , - $ $ $ - % - - & & $ $ O X X X X X X . o o                                                                     o & $ X o o o $ $ $ , t e e e t f g g C g C Z g y e 9 9 9 9 9 9 t y Z A D D Z Z Z Z g t t t t t e e t t e t , , - - $ $ $ > & $ X                                                                                                                                                                                                                                 ",
"                                                                                                                                                                                                                o o o o $ $ $ - , < e e t t e t t e , , , , t t g g g Z Z Z Z Z g g g t t f t g e < , - $ $ $ $ $ $ - - $ $ $ $ O X X X X X X . o o                                                                     o & $ X o o o $ $ $ , t e e t e t f g C g g C g t e 9 9 9 9 9 9 t y Z Z D D Z Z C C g t e t t t e t t t t < , , - $ $ $ $ > & $ X                                                                                                                                                                                                                                 ",
"                                                                                                                                                                                                                o o $ $ $ $ $ - , < < < e e e e t e e e , , e t g g g g Z Z C C C g t t t t t t e < , - $ $ $ $ $ $ $ $ $ $ $ $ o o X X X X X X o O                                                                     o & $ X $ $ $ $ $ $ - e f e t t t f g Z y g C y t e 9 9 9 9 9 9 e y Z Z D Z Z Z Z Z y t t t t t t t t t e , , , - $ $ $ $ > & $ o                                                                                                                                                                                                                                 ",
"                                                                                                                                                                                                                o o $ $ $ $ $ - , , < , , e e e e e e e e , e e y y y g Z Z Z C C g t t t t t t e e , - $ $ $ $ $ $ $ % - % & $ o o X X X X X X o o                                                                     O & $ o $ $ $ $ $ $ , e f e t t t f g Z C C C C y t 9 9 9 9 9 0 r y Z A D D Z Z Z Z g t t t t f t t t t e , , , - $ $ - $ $ $ $ o                                                                                                                                                                                                                                 ",
"                                                                                                                                                                                                                o O $ $ $ $ $ - , < t e , e e e e ; : e e e e e t y y g Z Z Z C C y t t t t t t e e , - $ $ $ $ $ $ $ % - - $ $ o o X X X X o X o o                                                                     O & $ o $ $ $ $ $ $ , e t e e e t t g Z Z Z Z C t t 9 9 9 9 9 9 r y Z A Z Z Z Z g g g t t t f f f t t t e < < , > $ $ & $ & & O X                                                                                                                                                                                                                                 ",
"                                                                                                                                                                                                                o O $ $ $ $ $ - - , e , ; : , : : ; ; , e ; e e t y y g Z Z Z C g y t t t t t t e e , - $ $ $ $ $ $ $ % , - $ $ o o X X X o o X o o                                                                     O > $ o $ $ $ $ $ $ , e e t , , e t y g Z Z Z C t t 9 ; 9 9 9 9 r y Z A Z Z Z Z Z Z g t t t t f f t e e < < , , - $ $ $ $ & & O X                                                                                                                                                                                                                                 ",
"                                                                                                                                                                                                                o O $ $ $ $ $ - - , e , ; , e : e e ; ; ; ; e t y y y g Z Z Z C y t t t t t t t e , , - - % $ $ $ $ $ - , $ $ $ $ o o X X o X X o o                                                                     O > $ o $ $ $ $ $ $ , e t e , e e t y g C Z Z C y t e 9 9 9 9 0 r g Z D Z Z Z Z Z Z Z y t t t t t e e e < < , , > $ $ & $ & & & +                                                                                                                                                                                                                                 ",
"                                                                                                                                                                                                                o O $ $ $ $ $ - , e t t e e t e t e e ; ; 9 e t g y g g Z Z Z C y t t e t t t e , , , , , - - , $ $ - , , - $ $ $ o o X o o X X o o                                                                     O > $ o $ $ $ $ $ $ , e e t e e t g g Z Z Z S Z g y t 0 0 0 0 e y g A D D D D D D D Z g t e t t t e , , < < < < > $ & & o $ & O +                                                                                                                                                                                                                                 ",
"                                                                                                                                                                                                                o O $ $ $ $ $ - e t y y y t e t t e , , , , e e f g g Z Z Z A C t t t e e e e e , < , , - , , - - - , , , , $ $ $ O X X X X o X o o                                                                     O & $ $ $ $ & $ $ - , e f e t e t t Z D A D D D S Z y r r r r y y D D J G J K J D K J g t t e e e ; - ; e t e , > $ $ o o O o o .                                                                                                                                                                                                                                 ",
"                                                                                                                                                                                                                o O $ $ $ $ $ - e y g y g y t t e e , , , , e e f g g Z Z Z C C t t e 9 e e e , , < , , , , , , , , , , , & $ $ O O X X o X o o o o                                                                     O & $ $ $ $ $ $ $ $ , e e e t t g C Z D D D D D S S x x y x x D D J G G H G H G K K J g t e e e , - % - e t e , > $ $ o o O o o .                                                                                                                                                                                                                                 ",
"                                                                                                                                                                                                                o o $ $ $ @ $ - r g Z g g y t t e e e e e , e t g g g Z Z Z C C t t e : e , , , , , , , , , , , , , < , , & $ $ O O o O o o X X o o                                                                     O & $ $ $ $ $ $ $ $ , e e e t C Z Z Z D D D D D D D J J J J J J H P P P P P L P K K K C t e e e , ; % - e t e , > $ $ $ O O o o X                                                                                                                                                                                                                                 ",
"                                                                                                                                                                                                                o O $ $ $ $ $ - t Z Z Z Z g t t e e e e e , e t g g g Z Z Z C C t t 9 : : : , , , , , , , , e e , , < , , $ $ $ O o O O o o o X o o                                                                     O & $ $ $ $ $ $ $ $ , e f f f Z S Z Z Z D D D G G K J K H J G H P P P P P P L L K L K C t e e e , ; % - e t f e , $ $ $ $ O o o X                                                                                                                                                                                                                                 ",
"                                                                                                                                                                                                                o o $ $ $ $ $ , t Z Z Z Z g t t e t e t e e , t g g g Z Z Z Z Z t t e : : : , , , < , , , e t < , , , - $ $ $ $ O O o o o o X X o o                                                                     o & $ O $ $ $ $ $ $ - e f f f Z Z Z Z Z A D D G G K J J G H H H P P P H P H L L K L K C t e e e e , ; ; t t f f < > $ $ $ & o o X                                                                                                                                                                                                                                 ",
"                                                                                                                                                                                                                o O $ $ $ $ $ , t Z Z Z Z g t t e e e e e e e e g g Z Z Z Z Z Z y t e : : : , , < < , , , e t < e , , - $ $ $ $ $ o o o o o o X o o                                                                     o & $ O $ $ $ $ $ $ - , f f t g C C Z Z Z A D D G G J J G J J F G P P P H H L L K K K g t e e e e , ; ; e r f f < , $ $ $ & o O X                                                                                                                                                                                                                                 ",
"                                                                                                                                                                                                                o o $ $ $ $ $ , t Z D Z Z g t t t e e e e : e e t g g Z Z Z Z Z g t e ; , , , , , , , , < t e e e t , - $ $ $ $ $ o o o o o o X o O                                                                     O > $ $ $ $ $ $ $ $ - , f f f g g C Z Z Z Z D D D K J J K K G G G P P P P P L L K K K g t 9 e e e , ; % , t f f < , & $ $ & $ o X                                                                                                                                                                                                                                 ",
"                                                                                                                                                                                                                o o $ $ $ $ $ - t Z Z Z Z g t t t t e e : : e e t f g Z Z Z Z C g t e ; , , , , , , , , t e t t t e , - $ $ $ $ $ o o o o o o o o O                                                                     O > $ $ $ $ $ $ $ $ - , f f t g C C Z Z D D D D D G K P K K J J G G H P P P L L K K J g e 9 e e e , ; % , t f f t , $ $ $ & o o X                                                                                                                                                                                                                                 ",
"                                                                                                                                                                                                                O O $ $ $ $ $ - t Z D A Z g y t t e : : e e e t y g g g g g t t e t , , , , , , , , , , e t g g Z g t , % % % $ $ $ $ $ $ $ o o o &                                                                     O > & $ & $ $ $ $ $ - , e e f g g y y Z Z Z D J J K K K K K J K P P P H P L R R L K J Z e e e t t t , ; e t f f t , & $ $ & $ $ X                                                                                                                                                                                                                                 ",
"                                                                                                                                                                                                                O O $ $ $ $ $ ; y Z D Z g y y t t e : 9 e , e t t y g g g t t : , , - % % % % % - , , , e t g C Z C t e , , % $ $ $ $ $ $ $ $ o o &                                                                     O > & $ & $ $ $ $ $ - < e e t g t t y g Z Z D J K K K P K J J K K P H H P L R L L K D Z t e e t t t e : e t f f < , $ $ $ & $ $ X                                                                                                                                                                                                                                 ",
"                                                                                                                                                                                                                O O $ $ $ $ $ , y Z A Z y y t t t e : 9 : 9 9 t t t t t t e , % % % % % % % % % % , , e t g C Z S Z f t , , , , $ $ $ $ $ $ $ o o &                                                                     O > & $ $ $ $ $ $ $ - , e e e t t t t t g g Z D J K J J K K K K K J J J P P P P K J D Z y t t t t t t e t t f t < , $ $ $ & o o X                                                                                                                                                                                                                                 ",
"                                                                                                                                                                                                                O O $ $ $ $ $ , y Z D Z x y t t t e : : : : 9 e t t t t r e % $ % % $ $ $ % % % ; , t e t g Z Z S C f t < , , * $ $ $ $ $ $ $ o o &                                                                     O > & $ $ $ $ $ $ $ - , e , e e 9 : 9 e e t g Z J J J J P P P P J J D D J J J J D D Z g y y t t t t t e t t t e , - $ $ $ & o o X                                                                                                                                                                                                                                 ",
"                                                                                                                                                                                                                O O $ $ $ $ $ , y Z D D Z y t t t t e 9 9 : 9 t t y y y t e , $ % % $ $ $ % - ; e t t t f g C Z Z g e e e e , , $ $ $ $ $ $ $ o o &                                                                     O > & $ $ $ $ $ $ $ - e e e t e e 9 9 9 e e t Z J K P P P L L P K D D D D D D Z Z Z Z g y y t t t t t t e e e , , $ $ o O O o o .                                                                                                                                                                                                                                 ",
"                                                                                                                                                                                                                o O $ $ $ $ $ , t Z D D Z x t t t t t e 9 9 e t y x Z g g t , % % % $ $ % , , e t g C g g g C C Z f e e t t t , - $ $ $ $ $ $ o o O                                                                     O > & $ $ $ $ $ $ $ , e f e e e t e 9 9 9 e t g D K P P L L L L J D Z g Z Z Z g g Z g y y y y t t t t t e t , , - $ o O O O o o .                                                                                                                                                                                                                                 ",
"                                                                                                                                                                                                                o O $ $ $ $ $ ; t y Z x y y t t t t t t t t t t Z Z D Z Z t < % % % % , , t e t g Z Z C f g g C Z f e e t t t , , $ $ $ $ $ $ o o >                                                                     O > & $ $ $ $ $ $ - , f g f t f t t e e 9 e t g D K P P R R R L K D Z g g Z Z g g g g y t y t t t t t e t t , - $ $ o o O o o o .                                                                                                                                                                                                                                 ",
"                                                                                                                                                                                                                O O $ $ $ $ $ ; e t y t t q t t t t t t t t t g Z Z D D Z g e % - - , e t f g g g Z Z C f f y g Z f e e t t t , - $ $ $ $ $ o o o >                                                                     O > & $ $ $ $ $ $ > < C Z C g C g t t t t t t Z J K L L L R R L K D D Z Z Z g g g g y y t t f t e t t e t , , - $ $ o o O o o o .                                                                                                                                                                                                                                 ",
"                                                                                                                                                                                                                O $ $ $ $ $ $ - : 9 e 9 , : e t t t t g g f f g Z D D D D g e ; ; e t f C Z Z Z g S Z g g y t t g t t e t t < , > > $ $ $ $ o o $ &                                                                     O > & $ & & $ $ $ - e Z S Z Z x Z x y t t t y S J P P P P L R L K D Z Z g Z Z g g g f t e e e e e e < , < , , - $ $ O $ O o o o .                                                                                                                                                                                                                                 ",
"                                                                                                                                                                                                                O O $ $ $ $ $ $ ; : e : ; ; e t t t g C Z g g C D D D D D g t 9 e t t g Z Z Z C g Z Z g y g y t y t t e t t < , > > $ $ $ $ o o o &                                                                     O > & $ $ & $ $ $ - e Z S Z Z Z A C x y t t y S K P L L L L L P K D Z Z Z Z Z g g g g t e t t t e t , , , , , - $ $ O o O $ o o .                                                                                                                                                                                                                                 ",
"                                                                                                                                                                                                                O O $ $ $ $ $ - ; , , , ; ; e t t f g Z Z Z C Z D D D D D Z g t t y g g Z Z Z C g Z Z g g f g y f t e e t t < , , > $ $ $ $ o o $ >                                                                     O > & $ & & $ $ $ - e Z S Z A A A A x y y t g S K L L L R R L P J D Z Z Z D Z Z g g f t t t t t e t , , , , , - $ $ O o O $ o o .                                                                                                                                                                                                                                 ",
"                                                                                                                                                                                                                O O $ $ $ $ $ $ ; , , , ; : e t f t g C C Z C Z Z Z D D D D g y y y g g Z Z Z C Z S Z g t g y t t e e e t t < , > $ $ o o $ $ o $ >                                                                     O > & $ & $ $ $ $ - e C Z S A A A A x x y t g Z K L L L E R L P J D Z Z Z Z Z g g f t e e e e e t t , , , , > - $ $ o O O $ o o .                                                                                                                                                                                                                                 ",
"                                                                                                                                                                                                                o O $ $ $ $ $ $ , , e , , e e t g f f g g g g Z Z Z Z Z Z Z g g g g g g Z Z Z C S S Z g t t f t t t t t < e < , > $ o o $ $ $ o $ >                                                                     O > & $ & & $ $ $ - < C Z S S S S S Z Z C g g Z K K L L E R L K D Z Z C Z Z Z g f f e e e , , , , , , , , > > - $ $ o o O $ O o .                                                                                                                                                                                                                                 ",
"                                                                                                                                                                                                                o O $ $ $ $ $ $ , , e e e e e t g f t f f t y C Z Z Z Z Z Z Z g g g C Z Z Z C g g S Z g f t f t e e , t t e < , > $ o o o $ o o $ >                                                                     O > & $ & & $ $ $ - , f S S S S S Z Z g C g g Z J K P L L L K D D Z Z C Z Z Z Z g f t e , , , , , , - - > > - - $ $ $ o O & O o .                                                                                                                                                                                                                                 ",
"                                                                                                                                                                                                                o o $ $ $ $ $ $ , , < < , , e t t t t t t t t t C C g g Z Z g g t f g C C C C g g g g g t t t t e < , , h h < , & $ o o o $ o o $ >                                                                     O > & $ & & $ $ $ $ , f Z Z Z Z C g y t f t t C Z J J J P J D D S Z Z Z Z Z Z Z Z g t e - ; - - - - - - - - > - $ $ $ $ O & O o +                                                                                                                                                                                                                                 ",
"                                                                                                                                                                                                                o O $ $ $ $ $ $ $ , , , , , , e t t t t t t t t t t e e t t e t t e t g C C C g f g g g f f f t e < , , f h < , & $ o o o $ o o $ >                                                                     O > & $ & & $ $ $ $ , f f C g g t t t t t e e t Z Z D D J D D A S S S Z Z Z Z Z g g t e - - - - - - % - - > > - $ $ o $ O & O o +                                                                                                                                                                                                                                 ",
"                                                                                                                                                                                                                o O $ $ $ $ $ $ $ $ $ , , - - - : , e e t t 9 : , , - - - , , % ; - e g y y t t t g g t f g f t e < < < < < , , $ $ o o o o o o $ >                                                                     O > & $ & & $ $ $ - - t t t t t t e e e e , ; e t g g Z A Z x Z S S S Z Z Z Z C g g t e - - - - - - - - - - $ $ $ $ O O $ O O O .                                                                                                                                                                                                                                 ",
"                                                                                                                                                                                                                o O $ $ $ $ $ $ $ $ $ - - $ - - : e e t t t 9 : , - % % - - % % % % e g g g z t f g g t t f t t < , , , , , , , $ $ o o o o o o $ &                                                                     O > & $ & & $ $ $ $ - t e e e e t e e e e , , e t g Z Z A Z x Z Z Z Z C Z Z Z C C g e : - - % - - - - - - - $ $ $ $ $ O $ $ O O +                                                                                                                                                                                                                                 ",
"                                                                                                                                                                                                                o O $ $ $ $ $ $ $ $ $ & - $ $ - , , e e t t e : - - $ $ $ $ $ $ $ $ , f g g x t g g f t , , < , , $ $ $ , , - - $ $ o o o $ o o $ &                                                                     O > & $ & & $ $ $ $ - , t t t t e e e , t , , e t g Z D D D S S S S C C Z Z Z Z C f e , - % % % - - - - > - $ $ $ $ $ $ $ $ O O +                                                                                                                                                                                                                                 ",
"                                                                                                                                                                                                                o O $ $ $ $ $ $ $ $ $ $ $ $ $ - , , e e 9 t e , - $ $ $ $ $ $ $ $ $ , f g C x x y g f t , , , % $ $ $ $ $ * - $ $ $ o o o $ $ o $ &                                                                     O > & $ & & $ $ $ $ - , , , e e e e e , < , , t g Z Z J G D D S S S Z Z Z Z S Z C f e , - % % - - - - - > - $ $ $ $ O $ $ $ O O .                                                                                                                                                                                                                                 ",
"                                                                                                                                                                                                                O O $ $ $ $ $ $ $ $ $ $ $ $ $ , , , e e 9 t e , - $ $ o $ $ $ $ $ $ , C C C x z t f f , , % $ $ $ $ $ $ - - - - $ $ o o o $ $ o O &                                                                     o > & $ & & $ $ $ $ - , , , e t e t e , , , , e C Z D J J D S S Z Z S S Z Z Z Z C f e : - - - - - - - - > - $ $ o o O O $ O o o .                                                                                                                                                                                                                                 ",
"                                                                                                                                                                                                                O O $ $ $ $ $ $ $ $ $ $ o o $ , , , e e 9 t t , % $ $ o $ $ $ $ $ $ e Z Z x x x t f e , , $ $ $ $ $ $ $ > , ; - > $ o o o $ $ o O &                                                                     o > & $ & & $ $ $ $ - , , , e t e e e , , , , e C Z D D J J S Z Z Z S S S S S Z C f t < - - - - , , - - > - $ $ $ o O O o O o o .                                                                                                                                                                                                                                 ",
"                                                                                                                                                                                                                O O $ $ $ $ $ $ $ $ $ $ o o $ , , , e e 9 t t ; $ $ o X O $ $ O $ - f S S x x z t f f , , $ $ $ $ $ $ & , < , , > $ $ o o $ o o O &                                                                     o > & $ & & $ $ $ $ - , e , t t t t , % % $ * t g Z Z J K J D D S Z C Z S S Z Z f f e , $ $ - - ; ; , - , - $ $ $ $ O $ $ O o O .                                                                                                                                                                                                                                 ",
"                                                                                                                                                                                                                O O $ $ $ $ $ $ $ $ $ $ o o $ , , , t e 9 t t : $ $ X X o $ $ O $ - f S S C C x g f f , , $ $ $ $ $ $ > , < < < > $ $ o o o o o O $ O                                                                   o > & $ & & $ $ $ $ , , e e , < t e ; % $ $ $ , f Z Z D D D D D Z C C f C Z f t e e , - $ - - - ; , , , , - - $ $ $ $ $ $ o O O .                                                                                                                                                                                                                                 ",
"                                                                                                                                                                                                                o o o o $ $ $ $ o o o o X o $ - - , , , , t 9 ; $ $ $ $ $ O X O $ , f S S C x C C g f , $ o X X o X o - < t < , > $ o o $ $ o o O $ O                                                                   $ & $ $ $ $ $ $ $ $ - , < < < < , % $ $ $ $ $ - , t C S S A G D Z g t t , e , , - > - $ $ $ - > , : : ; , - - $ $ $ $ $ $ O o O +                                                                                                                                                                                                                                 ",
"                                                                                                                                                                                                                o o o o $ $ $ o o o o X X X $ - ; , , , , t 9 ; $ $ $ $ $ o O o $ , f S S x Z Z C C f , $ X X . X X O - < e e < , - o o $ $ o o o & O                                                                   $ & $ $ $ $ $ $ $ $ - , < < < , - $ o o o o o $ , t g S A A A S C e , % $ - $ $ $ $ $ o o $ $ > , , , ; ; ; - $ $ $ $ $ $ o O O +                                                                                                                                                                                                                                 ",
"                                                                                                                                                                                                                o o o o $ $ $ o o o o X X X o - , , , , < t e : $ $ $ $ $ $ $ $ - , t C S C Z Z Z g e , $ X . . X X o $ , e t e , > $ o $ $ $ $ o & O                                                                   & & $ $ $ $ $ $ $ $ > < < < , - $ o X X o X X $ - < y A A G K K Z t % $ $ $ $ $ o $ o o o o $ > , , , , , , , , - $ $ $ $ $ O O .                                                                                                                                                                                                                                 ",
"                                                                                                                                                                                                                o o o o $ $ $ o o o o X X X o $ , , , e e t e : $ $ $ - , ; - - - , t C A A x Z Z g e , $ X X X X X O $ , < f f , > $ $ $ $ $ $ $ & o                                                                   $ & $ $ $ $ $ $ $ $ > 1 < , , $ $ o X X o X o $ - , t x S G Y K Z t - % $ $ $ $ $ $ $ o o o $ - , < , , , , , , - $ $ $ $ $ O O .                                                                                                                                                                                                                                 ",
"                                                                                                                                                                                                                o O $ $ o o o o o o o X X X o $ > , < e e , , ; % - : < e e < : ; < t x Z D A Z C t < $ O X X X X X o $ > < < e , > $ $ $ $ $ $ $ & o                                                                   & & $ $ & $ $ $ $ $ > 1 , > & $ o o o o O o o $ - ; : q S K K K g e % $ $ $ $ $ $ $ $ o o o $ $ > , < < < < , , - $ $ $ & & O O .                                                                                                                                                                                                                                 ",
"                                                                                                                                                                                                                o O $ $ o o o o o o o o X X o $ $ - , < , , ; ; ; : t t y z t < : : t t Z A A x y e - $ X . X X X X o O $ > , , > > $ $ $ $ $ $ & & o                                                                     & $ $ & $ $ $ $ $ > , > > $ $ X X X X o o o $ - - ; : C S D Z t ; $ $ $ - - $ $ $ $ o o o $ $ - , , < , , , $ $ $ $ $ & & O O +                                                                                                                                                                                                                                 ",
"                                                                                                                                                                                                                o o o o O O O O o o o o X . o $ $ $ $ - % $ % - ; q t y x x t q 9 t e t y g g t t : $ $ X X X X X o o O o $ - > > & o $ $ $ $ & & & o                                                                     & $ O $ $ $ $ o o $ > > > & O o o o o o o $ - - - - - t y g t e % $ $ - - - $ $ $ $ $ $ $ $ $ $ - , , - - & $ $ $ $ $ O O O O +                                                                                                                                                                                                                                 ",
"                                                                                                                                                                                                                . X o X o O O O O o o o X . o $ $ $ $ $ $ $ $ - 9 q y y y x y q t t e e t y t e ; - $ @ o X O O o o o o o $ $ > & $ $ $ $ $ $ & & & o                                                                     & & O $ $ $ O o o $ > > $ $ O O O O o o o $ - ; - - - : 9 e 9 - % $ $ $ - $ $ $ $ $ $ $ $ $ $ $ - - - $ $ $ $ $ $ O O O O O o o                                                                                                                                                                                                                                 ",
"                                                                                                                                                                                                                  . . . . . . . + . + O X X O O $ $ $ $ $ $ $ % e q t t t y y t y t e ; e e , % - - $ $ $ $ o $ O O o o & $ $ $ & & & $ $ $ & & > & O                                                                       O $ > $ O $ $ O $ > $ o O o $ O o o o $ - ; < < : ; : ; ; % % $ % % - - % % $ $ $ $ $ $ $ $ - - $ $ $ o $ $ O O X O O O + .                                                                                                                                                                                                                                   ",
"                                                                                                                                                                                                                                  . + O X X O o $ $ $ $ $ $ @ % e t y y y y y y y e 9 ; % ; % # $ - % $ $ $ o o & & O O & $ $ $ O $ $ & & & & > > $                                                                           X o $ & & > > > > o O o O o o o X X $ - < t t t : 9 : ; ; - ; - - - ; ; ; ; ; - - % $ - - , - $ $ $ o $ o                                                                                                                                                                                                                                                   ",
"                                                                                                                                                                                                                                    . o . X O $ $ $ $ $ $ $ $ % 9 t r r y y y y y t 9 % % % # # % : , ; - $ o o $ & & & & & & & X   O & & & $ $ > O                                                                                     . o O O o X X X o X X o X $ , t C C t 9 9 9 ; ; ; 9 ; ; ; ; 9 9 9 9 ; ; ; ; ; : , - - $ o o & X                                                                                                                                                                                                                                                   ",
"                                                                                                                                                                                                                                    o o . . O o $ & $ $ $ $ $ % e r y y y y y y j y e % % % % % ; t t e e % $ $ $ & > > & & & >       O $ $ $ O > &                                                                                         O > o X X o O o o o o - t z S C y q q 9 9 9 e e e 9 9 9 9 e t t e 9 9 9 e e e , $ $ o $ $ X                                                                                                                                                                                                                                                   ",
"                                                                                                                                                                                                                                  O o o . X O O $ & % $ $ $ % ; r y b b a a a a a w 0 9 % % ; ; 9 r y t e - $ $ $ $ > > & & > >       O $ & $ & & $                                                                                         O O o X X o o o o o o - t x Z Z r 0 0 9 0 0 r r y t y t 0 0 t y y r 0 9 e t t , - $ $ & o                                                                                                                                                                                                                                                     ",
"                                                                                                                                                                                                                                  O o o . X O o $ $ % $ $ $ % e y y b y a b a a a w 9 9 % % ; 9 0 r y t 9 % $ $ $ $ > > & & > > >       O X X o X                                                                                             X o X X o o o X o $ - t x Z x w 0 9 9 9 0 q r g Z r t 9 9 9 r r w 0 0 e e e , % $ $ & O                                                                                                                                                                                                                                                     ",
"                                                                                                                                                                                                                                  o o o . X o o $ - , % $ $ - e y y b b b b b i i w w 9 9 ; 9 q 0 y r 0 9 % $ $ $ $ > > & & & > >           X                                                                                                 o o X X o o o X X $ - t x b b r 0 9 9 9 9 0 y D P D y 0 9 9 w w 0 9 9 0 e e e - $ o O o                                                                                                                                                                                                                                                     ",
"                                                                                                                                                                                                                                  X X X X X o $ $ ; , - - - , t D D b b b n b i N a w 0 9 9 9 q w y r 0 9 % $ $ $ - > > & & > > >                                                                                                             . O X X o $ o o o $ - y x D b r 9 9 0 9 0 w b L 2.2.{ F a a b b y 9 9 9 9 e e ; $ $ > O                                                                                                                                                                                                                                                     ",
"                                                                                                                                                                                                                                  X O o . X X $ % , e : ; ; - g D F n n n M n n n F y w 0 9 q y y y y r e % $ $ $ $ - - > > > > >                                                                                                               o o O O O $ o o $ 9 x D D b y w 0 w 0 0 w F #.c.c.9.@.' F F F y 9 9 9 9 9 ; % $ $ & O                                                                                                                                                                                                                                                     ",
"                                                                                                                                                                                                                                  X o o X o $ $ - , t : : - - y F F H M ] ] ] H ' L F y r q q y w y y t e % $ $ $ $ > > > , > , 1                                                                                                               o & > & O O o o $ : Z D D b w w w w 0 0 a F #.c.G.D.8.#.H L D y 9 9 9 9 9 ; ; $ $ & O                                                                                                                                                                                                                                                     ",
"                                                                                                                                                                                                                                  X O o o $ & - - t t 9 9 ; % y F H ] @.o.+.#.@.@.@.L D b y w w w y r e e % $ $ $ - > > , , > , >                                                                                                               > > > & O O o o $ , Z D D b i w w w 0 0 a H #.c.E.W.c.#.F F F y 9 9 9 9 e 9 ; $ $ & o                                                                                                                                                                                                                                                     ",
"                                                                                                                                                                                                                                  X O O O & & - , e t t t 9 ; y F H ] ] @.o.@.] } @.L F b w w w w w w e e % $ $ $ - , , , , > , >                                                                                                                 > > > O O o o $ e g D F n b i b a w w F } 7.c.D.W.8.' a F F r 9 9 9 9 e 9 ; $ $ & o                                                                                                                                                                                                                                                     ",
"                                                                                                                                                                                                                                  X O o O $ > , e g g t y e 9 y F H ] ( ( ( ( n ] ' F b a w w w w w 0 0 e ; $ $ $ - , , , , > ,                                                                                                                   1 > O O O $ $ $ e Z H H M N b F b a a { *.8.C.l.c.#.a 0 a j r 9 0 9 q e 9 % % $ & o                                                                                                                                                                                                                                                     ",
"                                                                                                                                                                                                                                  X O O O $ > , e g Z y y e 9 D ' ] [ [ [ [ ( ( ] ] n a a w w i w i w r r ; $ $ $ - > , , > > >                                                                                                                   1 > O O O o $ $ e j F ' ] M M F F F F 3.c.D.H.c.l.[ i 0 a a e 9 0 9 q e e % $ $ & o                                                                                                                                                                                                                                                     ",
"                                                                                                                                                                                                                                  + O O O $ & , t g Z y r e 0 F #.#.-.-.-.-.&.o.o.[ ' b i i i N b n F y y - $ $ $ - > > , > > >                                                                                                                   1 > O o o o o $ r D H ] ] ] ] n F ' } c.E.'.'.E.c.#.n a F F r 9 9 9 9 e e - $ $ & X                                                                                                                                                                                                                                                     ",
"                                                                                                                                                                                                                                  . O O o $ $ , e g D y r 0 0 F @.-.7.l.l.l.-.-.*.*.] n N N N M M H H D y % $ $ $ $ > > > > > >                                                                                                                   > > O O o o o $ e D H ] ] ] ] n ' } 3.E.'.[.XX).G.#.M F F F y 4 9 ; 9 e e - $ $ $ X                                                                                                                                                                                                                                                     ",
"                                                                                                                                                                                                                                  O O O & $ > , t Z Z g r 0 9 P 3.8.D.G.G.G.C.C.D.8.*.] ] ( ] X.@.+.@.H g ; $ $ $ & > > , > > >                                                                                                                   > > > o O $ o $ r F L ] } [ [ ] ' } 9.E.'.[.4X'.E.8.] F { L g 9 9 : q e e ; $ $ $ o                                                                                                                                                                                                                                                     ",
"                                                                                                                                                                                                                                  O O O & $ - , e Z g g w 0 9 F 9.l.G.G.G.G.F.F.G.D.7.#.o.o.o.#.#.%.3.L D , $ $ $ $ > > , > > >                                                                                                                   > > > O > > o $ e D { } o.#.[ ] ] #.8.E.'.[.4X[.~.l.} ' { L g 9 9 : 9 t e , $ $ O o                                                                                                                                                                                                                                                     ",
"                                                                                                                                                                                                                                  O O O $ $ $ - e g g y 0 9 4 F 5.l.D.A.A.A.H.H.G.D.7.#.o.#.#.o.%.%.@.L D , $ X $ $ > > > > > >                                                                                                                   > > > O > > $ $ e D { #.#.*.#.] [ *.D.E.'.[.4X`.~.8.[ ' { P y 9 9 : 9 e , % $ O O X                                                                                                                                                                                                                                                     ",
"                                                                                                                                                                                                                                  O & & & $ $ - e y r t 9 9 4 F 5.8.D.C.l.l.C.F.D.l.-.o.o.o.o.o.#.+.#.L D , $ o $ $ - > > > > >                                                                                                                   > > > > > > o $ e D { #.#.*.o.( [ 7.C.E.).[.4X`.E.8.] F L P y 0 9 : 9 e : % $ O O o                                                                                                                                                                                                                                                     ",
"                                                                                                                                                                                                                                  O & > & - - ; e t 0 0 9 9 4 F 5.l.D.C.l.l.C.A.D.8.-.o.o.#.o.o.o.#.+.{ D e $ $ $ - > > > > > >                                                                                                                   > > > & > > o $ e J { #.*.*.*.( [ -.D.).`.;X8XXX).8.} F { L j 0 0 9 : , : - $ $ o o                                                                                                                                                                                                                                                     ",
"                                                                                                                                                                                                                                  O > > > - , : ; t 0 0 9 9 4 F 5.c.D.D.l.l.C.C.D.l.7.#.o.*.-.*.o.%.@.{ D , $ o $ - - > > > > >                                                                                                                   > > > O & - o $ t P @.#.-.-.*.[ #.8.G.'.4X6X7X4X'.c.} ' @.{ j 0 9 9 : : , - $ $ $ o                                                                                                                                                                                                                                                     ",
"                                                                                                                                                                                                                                  & > > > - , - ; t r r 0 9 9 F 3.7.c.D.C.C.C.C.D.l.7.#.o.*.-.-.-.-.#.{ D , $ o $ - - - - - - >                                                                                                                   > > > o & $ o $ t G @.#.7.-.-.[ #.8.G.[.4X6X6X[.~.8.} ' @.2.D 0 9 ; ; ; ; - $ $ $ O                                                                                                                                                                                                                                                     ",
"                                                                                                                                                                                                                                  & > , > > % ; 9 r r y w 0 9 n #.7.c.D.G.G.D.l.C.l.7.#.o.#.-.-.-.-.%.{ D : $ $ $ - $ $ $ - - >                                                                                                                   > > > $ $ - $ $ e J @.#.7.-.-.#.*.7.D.'.4X4X[.).E.7.} ' 3.{ F 9 9 % ; - * $ $ $ $ O                                                                                                                                                                                                                                                     ",
"                                                                                                                                                                                                                                  & , 1 > > % ; 9 a n n n i i n #.7.c.D.D.D.l.7.8.7.*.#.#.#.%.#.*.-.#.H x ; $ $ $ - > > > > > >                                                                                                                   , , , , , - $ % y L #.7.7.8.;.*.*.*.C.E.]._.).G.c.*.] { 3.{ a 9 4 % % - % $ $ o & $                                                                                                                                                                                                                                                     ",
"                                                                                                                                                                                                                                  , 1 1 1 > * ; w F } #.@.M n ] *.8.D.D.c.l.7.#.#.#.] ] ] @.3.@.#.%.@.H x - $ $ $ , < 1 1 1 1 1                                                                                                                   f f f C C t e 9 y { 3.7.8.8.8.*.*.&.*.8.C.q.;.*.#.[ ' ] 3.{ b 9 4 % % % % & & @ $ &                                                                                                                                                                                                                                                     ",
"                                                                                                                                                                                                                                  > 1 1 1 > ; ; r ' @.7.7.@.] #.-.8.D.D.l.7.#.[ ] ] ] ] ] +.@.#.o.+.@.G y - $ $ $ , f C C C 1 1                                                                                                                   g Z S J J Z y q D @.5.8.l.C.q.=.*.*.*.=.=.:.&.o.*.o.] } 3.} F 0 9 % ; ; ; % & $ $ & &                                                                                                                                                                                                                                                   ",
"                                                                                                                                                                                                                                  , 1 1 , , ; 9 y ' 3.-.-.o.] #.-.8.c.l.7.*.o.] ( ( / / M ] ] M ( ] H b q - o $ $ , h C S C h 1                                                                                                                 1 f Z D K G A y w b @.-.l.C.C.C.;.;.;.;.;.8.,.;.;.l.8.*.#.3.#.] a w 0 w r e % $ $ $ & &                                                                                                                                                                                                                                                   ",
"                                                                                                                                                                                                                                * , > > , $ ; e a @.7.7.7.#.o.-.l.l.l.8.-.*.o.[ o.o.( n M ] ] M n M F y t - $ $ > < f C C C h 1                                                                                                                 g C Z J J J D x y n @.-.l.C.C.8.8.8.;.-.8.C.C.C.C.G.D.8.*.*.#.[ H n b D D y ; $ $ O & & O                                                                                                                                                                                                                                                 ",
"                                                                                                                                                                                                                                $ & > > $ $ , t F @.8.l.8.-.#.7.C.D.D.C.C.l.l.l.c.l.-.o.] [ ] H M ] F y t - $ $ - < f f f C f 1                                                                                                                 g Z Z D D J D b a F ] *.8.;.8.*.*.*.*.*.8.D.H.F.F.H.D.-.*.#.#.[ ] M F H H Z e % O O & & O                                                                                                                                                                                                                                                 ",
"                                                                                                                                                                                                                                % & , , $ - e r F %.l.l.l.-.&.;.C.D.H.E.E.~.~.'.~.W.G.7.*.#.] M ] ] H x t - $ $ $ , t e f f f 1                                                                                                                 g Z Z Z D D D b b n H [ #.&.[ [ [ [ ] #.7.D.E.H.H.H.D.-.o.o.[ ] ] M H H P D e % o o O O O                                                                                                                                                                                                                                                 ",
"                                                                                                                                                                                                                                * , , , - - e r H 7.C.l.8.*.:.;.C.C.H.~.).'.'.{.oX{.~.G.c.l.7.#.] @.H x t - $ $ $ , t t f f f f                                                                                                               S g C Z Z D D D b b b n H ] ] ] / ' F F ] 3.c.c.c.G.G.D.-.o.o.[ ] ] M F H H D e % o o o O O +                                                                                                                                                                                                                                               ",
"                                                                                                                                                                                                                              $ , , , t < ; e a F *.l.8.;.*.:.:.;.C.E.'.XX+X+XXX+X+XXX{.'.W.7.*.#.@.H x 9 $ o $ $ $ - , e e f 1                                                                                                               C g C Z Z b D D b b y a b n n s a a a a b } 9.n.c.l.l.8.-.#.] ] ] ] n b D J g ; $ o X O o O o                                                                                                                                                                                                                                               ",
"                                                                                                                                                                                                                              , e t f g f e e w F *.C.8.;.;.;.;.C.F.).[.4X8X4X+X8X8XXX'.~.W.l.7.*.3.@.D t $ X $ $ $ ; e e f f 1                                                                                                               f g Z Z A D D D D D g y b b a a a a a w a { 5.9.l.l.l.7.-.#.[ ] ] ] n b D H D 9 $ o X X o O O                                                                                                                                                                                                                                               ",
"                                                                                                                                                                                                                            > f g g D J j y r a / *.C.C.;.;.;.C.F.).[.8X7XyXyX8X8X8X+X'.~.G.l.l.7.7.3.H y $ $ $ $ - , e e e f h                                                                                                               f f C Z D D D D b g g b b b b a a F D y y L 3.9.c.l.l.8.*.#.#.#.] ] M H H H D e % $ X o O & &                                                                                                                                                                                                                                               ",
"                                                                                                                                                                                                                          > 1 h g g D D j r w a / *.C.C.C.8.C.C.F.).4X7XyXuXyX7XyXyX+X'.E.D.l.l.l.7.3.L g - $ $ $ , , , e < < 1                                                                                                               1 f f g Z Z D y y t r y F F F F b D D y a H #.7.c.l.D.l.*.*.*.*.o.] ] ] ] H F r % $ X X o $ > O                                                                                                                                                                                                                                             ",
"                                                                                                                                                                                                                        > < f f r w a y w 0 0 i ( -.C.F.C.C.C.A.H.).4X7X7X7X7X7XuXdX8X'.E.D.l.l.8.7.@.L D ; $ $ $ , , , , , , , >                                                                                                             , < , t t y y q q 9 t y F F F F F F F w w n @.7.G.H.H.D.8.8.8.8.#.o.o.o.] { F w 9 $ X X o $ & $                                                                                                                                                                                                                                             ",
"                                                                                                                                                                                                                    & > < f f r w a j j y w a n [ 8.D.F.F.D.D.F.H.`.8X7X7X7X7XyXuXyX+X~.G.C.8.l.8.7.@.{ D : $ $ $ $ , , - - > > O                                                                                                             , , , , , t e 9 ; ; 0 a F { { { L F F a a M o.l.~.).).).H.D.D.C.-.*.*.*.#.#.' b w % $ - - , > $ $                                                                                                                                                                                                                                           ",
"                                                                                                                                                                                                                O O & > < < t t D L 0.3.0.{ { #.7.l.F.F.H.F.G.H.).`.4X7X7X7X7XyXyX8X'.C.l.l.l.c.l.7.#.@.P t $ $ $ $ $ $ $ $ & & o                                                                                                             , , - $ - : - - % % 0 F ' #.#.#.@.{ { F H o.8.H.[.4X;X%X`._.).F.C.;.8.l.8.7.3.#.L y t S S f e , $ X X                                                                                                                                                                                                                                       ",
"                                                                                                                                                                                                                O & > > & , t g { 3.n.B.n.n.c.c.D.H.H.F.H.H.H.H.).`.4X8X7X7X7X7X8XXXH.;.-.8.l.D.l.l.7.3.P t $ $ $ $ $ $ $ $ $ & o                                                                                                             , > - $ $ $ $ $ $ % 0 F { @.3.3.#.3.@.} [ *.C.'.6X7X6X6X4X&X].Q.F.C.C.D.D.D.c.7.7.{ H 2.2.J C , $ O o .                                                                                                                                                                                                                                     ",
"                                                                                                                                                                                                              o O > > > & $ e D 3.W.~.).).).).H.Q.H.D.F.H.D.H.H.).).XX2X2X4X8X8XXX'.C.&.*.7.8.l.c.7.7.3.P t $ $ $ $ $ $ $ $ $ $ o                                                                                                             > > - - $ $ $ $ $ % 0 F { #.*.7.7.7.*.[ [ -.D.'.8X6X5X4X6X&X_.K.Z.C.C.C.D.D.C.8.8.[ } 9.7.Y C < X X O & X                                                                                                                                                                                                                                   ",
"                                                                                                                                                                                                              $ 2 > > > > $ e j 9.~.[. X;X`.%X`.).H.D.F.E.D.D.H.).).[.XXXXXX4X8X[.).8.o.o.7.8.l.l.7.7.3.P t o $ $ $ $ $ $ $ $ -                                                                                                               > > - - - - $ $ $ # 0 D { @.*.*.*.-.*.#.#.8.H.`.7X6X4X4X4X&X_.K.Z.d.C.C.F.F.F.C.;.*.*.n.B.4.G f o o & & O X                                                                                                                                                                                                                                 ",
"                                                                                                                                                                                                              & 1 1 1 1 > , e F 9.Q.XX4X4X;X;X[._.H.D.F.H.D.F.H.).).`.[.[.[.+X4X[.'.8.[ *.8.8.8.l.8.7.5.P t $ $ $ $ $ $ $ - > >                                                                                                               > , > - - , - * $ $ 0 J @.3.7.-.-.7.7.*.-.c.E.[.8X6X4X4X4X;X[.).F.C.C.A.F.H.H.F.C.8.8.W.(.j.Y C > > > 1 1 &                                                                                                                                                                                                                                 ",
"                                                                                                                                                                                                              > 1 1 1 1 t e r F 9.E.[.[.;X[.&X[.].H.D.H.E.H.H.).).).`.[.XXXX+X4XXX'.C.*.*.8.8.8.8.8.k.5.L t $ $ $ - - - - - > >                                                                                                               > , > > > , - $ $ $ t H 3.5.7.8.8.8.8.7.7.D.E.XX7X7X6X6X6X4X&X).S.C.S.F.H.H.H.F.D.8.8.W.(.n.Y S , > 1 1 1 1 O                                                                                                                                                                                                                               ",
"                                                                                                                                                                                                              h < 1 f t e 9 r a 7.E.[.4X4X;X[.`.).H.D.H.E.H.H.).).`.[.4X8X8X4X4XXX'.C.*.*.7.7.*.*.*.-.#.H y $ $ - - - - - - > >                                                                                                               > > > > > , * $ $ $ e H @.7.7.8.;.l.8.8.8.D.~.2XuXuX7X7X7X4X&X_.K.Z.F.S.S.S.S.F.C.8.8.W.(.n.Y Z : * < , > 1 > &                                                                                                                                                                                                                             ",
"                                                                                                                                                                                                          t * t e t e e e 9 0 a *.E.[.8X7X4X[.).).H.F.H.E.H.H.U.`.[.4X8X7X8X4X4XXX'.8. .[  .....&.&.-.@.F t $ $ - - - - - - > > O                                                                                                             > > > - - , * $ $ $ e J @.7.8.;.;.8.8.-.8.D.).8XuXsXuXqX7X4X&X_.K.Z.F.F.Z.S.S.S.F.8.8.G.W.7.L D 9 % , * % > 1 1 1                                                                                                                                                                                                                           ",
"                                                                                                                                                                                                      , < e 9 y g g j a a 0 i n &.H.].4X8X[._.).).H.H.).).).).).).{.[.+X4X8XXXXX'.'.D.*.*.=.=.=.;.C.D.7.H t $ $ - - - - , > & > o                                                                                                             > > > > > , > $ $ @ e F 3.8.l.;.;.;.;.8.8.C.E.XXyXyX7X7X8X[.`._.K.Z.S.K.Z.F.K.S.S.,.;.H.W.7.@.F w 0 r e e f f 1 1 , 1                                                                                                                                                                                                                       ",
"                                                                                                                                                                                                > > 1 < t r e a F H F F M N n ( *.E.].2X4X].).Q.Q.).).).].[.`.`.~.~.'.'.{.{.'.~.'.'.E.C.C.C.C.C.K.).'.c.@.y $ - - ; - - , , > > O                                                                                                             > > > & > > > $ $ $ e H 9.D.H.C.d.;.;.;.8.C.D.'.XX4X4X2X[.).).Y.S.S.K.K.K.K.K.K.K.,.;.E.).c.-.] N i b F D D e > , , 1 1 , >                                                                                                                                                                                                                 ",
"                                                                                                                                                                                            , > > , < ; 9 0 w @.n.c.c.;.-.-.;.;.C.F.E.).Q.H.D.C.F.).`.[.4X;X6X).D.c.9.9.c.n.9.c.D.E.'.[.[.`.`.%X:XeX7X~.2.t $ - - - - - , - - & O                                                                                                             & $ > & > > > & $ @ r { B.{.[.).K.K.S.H.).l.8.c.D.E.E.H.l.C.C.Z.).T._._._.K._.&X_.C.,.K.).).H.l.;.-.7.l.n.6.K t , & > , , > >                                                                                                                                                                                                               ",
"                                                                                                                                                                                          o > & - - , - 9 w H c.8X7X6X4X[.[.[.`.).H.D.q.=.&.&.=.D.).[.4X8X8X7X).9.} F F ' ' F ' #.c.].7XrXrXtXtXgXxXaXoX5.y $ $ - - , - , , - $ O                                                                                                             & $ > & > > > & $ $ y 2.(.yXuXqX6X6X6X6X8XE.-.} ] ] [ [ ( &.;.C._.5X6X6X:X:X5XqX:XZ.d.Y._.4X4X4X4X8X7XyXyX+Xn.Z e $ > , > > > &                                                                                                                                                                                                             ",
"                                                                                                                                                                                          X > & $ - ; % ; w } ~.sXiXeX0X0X0X6X4X`.S.;.&.[ ) [ *.D.{.4X8X7X7XuX'.3.F 0 0 a a a i / -.[.pXzXcXcXcXvXNXmX+X5.y $ $ - - , - , , $ $                                                                                                               O & > > > > > & $ $ y 3.oXaXmXcXpXpXpXaXaX).*.n i i N n d ) :.C.[.qXqXqX0XqXrXgX0XS.d.S.).4XqXiXiXrXpXzXmXdXB.x % $ - , > > > &                                                                                                                                                                                                             ",
"                                                                                                                                                                                          X , - $ ; , - ; w ] W.eXqX:X:X>X6X6X;X`.F.;.=.[ / [ ;.D.[.7X7X7XeXuX'.9.{ a a F P s a / -.[.pXjXgXgXgXxXMXzX{.%.y $ - - - - , , , $ $                                                                                                               O & > > > > > > $ $ t 2.'.aXnXcXfXfXgXzXaX'.-.' s n H ' n ( :.Z.;XrXrXwXrXrXrXgX0Xd.:.d.Z.[.6X0X0XwXwXpXzXdXW.a ; $ - > , > > &                                                                                                                                                                                                             ",
"                                                                                                                                                                                          X , - % ; , ; ; r H D.7X5X>X=X>X:X:X;X_.Z.;.8.*.' [ *.H.4XeX7XeXuXaX[.9.2.F j L L F F ] *.'.iXpXfXgXgXjXxXaX{.%.y $ $ - , , - , % $ $                                                                                                               O & > > > > > > $ $ r @.'.aXxXcXgXgXcXxXaX'.*.' n F { ] / [ ;.F.4XiXrXrXrXrXfXgX,Xd.&.:.,._.5X9X,XwX,XtXpX7XD.b 9 $ $ , , > > $                                                                                                                                                                                                             ",
"                                                                                                                                                                                          X - $ % - , $ % 0 F D.6X:X=X=X=X*X%XR.K.C.;.9...' [ *.H.4XdX7X7XeXaX[.n.3.F a F P F F ' [ ).eXiXrXfXfXgXcXaX{.5.y $ $ , , - - % % $ $                                                                                                               O & > $ > > > > $ $ r 3.'.iXcXcXfXfXgXzXaX).*.' F F { { ' [ ;.F.;XrXrXwXwXwXrXfX,XZ.&.&.:.T.&X,X:X,X,X,XrX7Xc.a % $ $ , , , > $                                                                                                                                                                                                             ",
"                                                                                                                                                                                          o % % % , > $ % e F l.6X5X>X=X=X%X$XL.S.Z.C.8...| [ 8.H.4XdX7X7XeXaXXXW.3.b a F H F F F [ E.eXiXrXfXfXfXcXaX{.5.y $ $ - - , - % % $ $                                                                                                               O & > & > > > > $ $ y #.'.iXcXgXfXwXrXgXpX).*.' F P { { ' [ ;.F.;XrXrX0X0X0XtXfX,XS.&.:.;.!.*X,X:X,X,XtXfX7XD.a 9 $ $ , , > - -                                                                                                                                                                                                             ",
"                                                                                                                                                                                          $ , % % , < , , r H D.8X5X*X=X$X=XT.L.K.F.C.8.*.[ ..8.E.8XuXeXeXuXaX4XW.3.b a F L F b ' [ E.uXiXgXjXfXjXxXzX[.%.r @ $ $ & , , % $ $ $                                                                                                               O & & & > > > > $ $ y @.'.aXxXcXfXfXfXjXpX).*.' F F { { n ( *.F.;XrXrXwXwXwXfXjX0XS.*.=.q.].5X9X,X,X,XfXfX7XD.F 9 $ - , , , > >                                                                                                                                                                                                             ",
"                                                                                                                                                                                          $ , & , , , - 9 r H c.8X4X%X_.].%X].).H.F.C.8.&.[ } 8.Q.yXuXuXuXpXaX4XW.3.a a F L F n n [ E.uXiXgXjXgXcXMXzX[.-.w @ $ $ > , * * % % $                                                                                                               X > & & & > > > & # r 3.{.zXMXcXfXfXfXcXgX`.-.] b F { F n ] *.F.4XiXrXiXrXrXgXhXqXH.;.;.C.`.qX:X,X,XwXfXgX7XW.F 9 $ , , , > > >                                                                                                                                                                                                             ",
"                                                                                                                                                                                          & , & , , , - ; w H n.+XXX].).)._._.K.H.D.8.8.} / [ 7.H.8XyXuXuXuXaX+XW.2.a w D F F j M ] D.8XqXqXiXrXiXzXuX~.+.w @ $ * > 1 * * % $ X                                                                                                               o & & & > > > > & # r 2.(.sXmXcXtXtXrXcXpX{.-.] a b H n N / &.C.[.qX7X0X0X6XqXiX8XC.#.*.8.).8X;X:X:X,XqXuX4Xc.b ; $ > , > > > >                                                                                                                                                                                                             ",
"                                                                                                                                                                                          $ > & $ > < - % 0 F 5.OX'.E.G.H.H.H.D.l.7.*.#.' n ' } 9.oXXX8X8X8X7X'.9.{ y 0 j D D F b F 9.'.XX4X6X6X8XyX+Xc.{ e @ $ & > > > > $ $ X                                                                                                               o & & & > > > > , $ t L W.yXsXeX0X0XeXuXdX).#.F a y J F a n ] 7.~.4X[.2XXX[.4X4XXX9.] ] #.c.'.).)._.`.[.+X'.5.b ; $ - , - & > &                                                                                                                                                                                                             ",
"                                                                                                                                                                                          $ & & $ & > - % ; r L 9.9.9.#.#.#.*.#.] H F n a 0 a F { 6.B.W.W.W.W.9.{ D r 9 e y y r w a { 9.8.C.D.G.W.W.n.{ y ; X $ & & & > > $ $                                                                                                                   O & & & & > > > $ e D 2.B.'.~.H.H.H.).~.7.H a 0 t g y w a a ] *.c.l.C.c.l.c.D.9.F j j F { 9.3.8.8.8.8.c.5.H t ; $ - , - & $ &                                                                                                                                                                                                             ",
"                                                                                                                                                                                            o & $ & > $ $ - % t y a y w w w w w 0 9 9 9 4 # 4 4 r a F F F F F a r e % % % % % % % 4 0 a a a i s a a y 9 # $ o $ & o o o o $ o                                                                                                                     o O & & > > > $ - : r D M n n n / ( M a 0 9 9 % , ; % 9 9 0 i a i a a a a a w 9 # % % e r r 0 i i i a w 9 % $ % - - - $ $ $                                                                                                                                                                                                             ",
"                                                                                                                                                                                            O $ & & > & * % $ % # # % % # # # # $ $ # # # @ # # % % 4 9 4 9 9 ; % % # # # $ $ $ # # % # # # # 4 # # % @ X $ o $ o o o o o X                                                                                                                         X O & > > & $ - $ % 9 9 4 0 9 0 0 9 4 % % % % $ # # # % % 4 4 4 4 4 4 % % # @ @ $ $ @ @ @ # # # # # % # $ $ - ; ; - $ $ $                                                                                                                                                                                                             ",
"                                                                                                                                                                                              O $ & > > , , $ % # # % % % % % # $ $ $ $ # % % % e % e r e 9 9 9 ; % % % % % % % % % % % % 4 4 4 e * , * $ $ $ $ o o o o o X                                                                                                                           X O & & & $ , - ; 9 9 9 0 0 0 4 4 4 % % % % $ % % % % % % % 9 r 9 9 e , ; $ $ $ $ & = $ % # # 4 % % % - , ; ; % % $ $ $                                                                                                                                                                                                             ",
"                                                                                                                                                                                                O & > > , < % , % % % % % * * * % % % % % , * * e * e f t r e 9 9 ; % % % ; , % , t e , e e e e h , h < , > $ o o X X o o                                                                                                                                 O & > > , , e t e 9 r 9 9 4 4 9 ; - - , $ % , % % e e , e r e t t , t % * $ & & & * , * 4 e e e - - - % % % % $ $ $                                                                                                                                                                                                             ",
"                                                                                                                                                                                                    & , t t , , , , , , , > > , , - , * * , , , , , e t t t e e 9 9 % % % % , , , , e e e e t t h f f < < - $ $ o o o X                                                                                                                                     o $ > , < f f g g g g r e r e ; ; - , , * % % % * , e e e t t h h t , - $ $ & * * * e e r r e , ; - % % % , & $                                                                                                                                                                                                               ",
"                                                                                                                                                                                                        , < , , , , , , , > > , , - , , , , , , , , e t t t t e 9 % % % % % , , , , , e e e t t t t < , , - $ $ $ o .                                                                                                                                           $ - < f f f g g g g r e e ; ; - , , * * % * , , e t t t h h h t , - $ $ & > , , , e 9 9 ; ; - $ $ - , $ $                                                                                                                                                                                                                 ",
"                                                                                                                                                                                                          $ $ , * * > $ & & & $ $ $ $ $ $ $ % $ % % % % , % % % % # $ $ $ $ % % $ $ % % * * * % % % - - $ $ $ $ X .                                                                                                                                               o $ & , * , e e * * % % % % % $ $ $ $ $ $ $ $ * * * * * * * % $ $ $ $ & & & * * % % % % % $ $ $ $ &                                                                                                                                                                                                                     ",
"                                                                                                                                                                                                            O $ $ $ $ $ @ O O O $ $ $ $ $ $ $ $ $ $ $ $ % $ $ $ $ $ $ $ $ $ @ $ @ $ @ $ $ $ @ $ X X X X X X X X .                                                                                                                                                     X X @ @ @ @ @ @ @ $ $ $ $ $ $ $ $ $ $ $ $ $ $ $ $ $ $ $ $ $ $ o O $ $ $ $ $ $ @ @ @ @ X X o                                                                                                                                                                                                                         ",
"                                                                                                                                                                                                                            . . . . . . . X X X X X X X X $ X X X X X X X X X X .                                                                                                                                                                                                       X X X X X o X O @ O @ o X X X @ X X X X X                                                                                                                                                                                                                                                         ",
"                                                                                                                                                                                                                                                                                                                                                                                                                                                                                                                                                                                                                                                                                                                                                                                          ",
"                                                                                                                                                                                                                                                                                                                                                                                                                                                                                                                                                                                                                                                                                                                                                                                          ",
"                                                                                                                                                                                                                                                                                                                                                                                                                                                                                                                                                                                                                                                                                                                                                                                          ",
"                                                                                                                                                                                                                                                                                                                                                                                                                                                                                                                                                                                                                                                                                                                                                                                          ",
"                                                                                                                                                                                                                                                                                                                                                                                                                                                                                                                                                                                                                                                                                                                                                                                          ",
"                                                                                                                                                                                                                                                                                                                                                                                                                                                                                                                                                                                                                                                                                                                                                                                          ",
"                                                                                                                                                                                                                                                                                                                                                                                                                                                                                                                                                                                                                                                                                                                                                                                          ",
"                                                                                                                                                                                                                                                                                                                                                                                                                                                                                                                                                                                                                                                                                                                                                                                          ",
"                                                                                                                                                                                                                                                                                                                                                                                                                                                                                                                                                                                                                                                                                                                                                                                          ",
"                                                                                                                                                                                                                                                                                                                                                                                                                                                                                                                                                                                                                                                                                                                                                                                          ",
"                                                                                                                                                                                                                                                                                                                                                                                                                                                                                                                                                                                                                                                                                                                                                                                          ",
"                                                                                                                                                                                                                                                                                                                                                                                                                                                                                                                                                                                                                                                                                                                                                                                          ",
"                                                                                                                                                                                                                                                                                                                                                                                                                                                                                                                                                                                                                                                                                                                                                                                          ",
"                                                                                                                                                                                                                                                                                                                                                                                                                                                                                                                                                                                                                                                                                                                                                                                          ",
"                                                                                                                                                                                                                                                                                                                                                                                                                                                                                                                                                                                                                                                                                                                                                                                          ",
"                                                                                                                                                                                                                                                                                                                                                                                                                                                                                                                                                                                                                                                                                                                                                                                          ",
"                                                                                                                                                                                                                                                                                                                                                                                                                                                                                                                                                                                                                                                                                                                                                                                          ",
"                                                                                                                                                                                                                                                                                                                                                                                                                                                                                                                                                                                                                                                                                                                                                                                          ",
"                                                                                                                                                                                                                                                                                                                                                                                                                                                                                                                                                                                                                                                                                                                                                                                          ",
"                                                                                                                                                                                                                                                                                                                                                                                                                                                                                                                                                                                                                                                                                                                                                                                          ",
"                                                                                                                                                                                                                                                                                                                                                                                                                                                                                                                                                                                                                                                                                                                                                                                          ",
"                                                                                                                                                                                                                                                                                                                                                                                                                                                                                                                                                                                                                                                                                                                                                                                          ",
"                                                                                                                                                                                                                                                                                                                                                                                                                                                                                                                                                                                                                                                                                                                                                                                          ",
"                                                                                                                                                                                                                                                                                                                                                                                                                                                                                                                                                                                                                                                                                                                                                                                          ",
"                                                                                                                                                                                                                                                                                                                                                                                                                                                                                                                                                                                                                                                                                                                                                                                          ",
"                                                                                                                                                                                                                                                                                                                                                                                                                                                                                                                                                                                                                                                                                                                                                                                          ",
"                                                                                                                                                                                                                                                                                                                                                                                                                                                                                                                                                                                                                                                                                                                                                                                          ",
"                                                                                                                                                                                                                                                                                                                                                                                                                                                                                                                                                                                                                                                                                                                                                                                          ",
"                                                                                                                                                                                                                                                                                                                                                                                                                                                                                                                                                                                                                                                                                                                                                                                          ",
"                                                                                                                                                                                                                                                                                                                                                                                                                                                                                                                                                                                                                                                                                                                                                                                          ",
"                                                                                                                                                                                                                                                                                                                                                                                                                                                                                                                                                                                                                                                                                                                                                                                          ",
"                                                                                                                                                                                                                                                                                                                                                                                                                                                                                                                                                                                                                                                                                                                                                                                          ",
"                                                                                                                                                                                                                                                                                                                                                                                                                                                                                                                                                                                                                                                                                                                                                                                          ",
"                                                                                                                                                                                                                                                                                                                                                                                                                                                                                                                                                                                                                                                                                                                                                                                          "
};
