/* XPM */
static char *_3df16caa8d74242c34185e004b9db45GT2YdipqUpFAhaiG[] = {
/* columns rows colors chars-per-pixel */
"1258 152 178 2 ",
"   c None",
".  c #030303",
"X  c #080704",
"o  c #060806",
"O  c #090906",
"+  c #060608",
"@  c #090708",
"#  c #070908",
"$  c #0B0C0A",
"%  c #100C06",
"&  c #110E0B",
"*  c #0E100C",
"=  c #12110E",
"-  c #1B150E",
";  c #1D180E",
":  c #110F10",
">  c #0F1110",
",  c #141513",
"<  c #1A1613",
"1  c #171813",
"2  c #1B1A15",
"3  c #161619",
"4  c #191718",
"5  c #161B1A",
"6  c #1C1D1C",
"7  c #20120E",
"8  c #211613",
"9  c #221C16",
"0  c #2A1D16",
"q  c #231E19",
"w  c #291E1B",
"e  c #1E201D",
"r  c #222116",
"t  c #292017",
"y  c #23221D",
"u  c #2A231D",
"i  c #27281F",
"p  c #2B281E",
"a  c #31251E",
"s  c #35291F",
"d  c #1E1E21",
"f  c #211F22",
"g  c #1F2120",
"h  c #232422",
"j  c #2A2622",
"k  c #272823",
"l  c #2A2B25",
"z  c #2A2B24",
"x  c #292A24",
"c  c #2B2C25",
"v  c #2B2C26",
"b  c #2C2D26",
"n  c #2C2D27",
"m  c #2D2E27",
"M  c #2B2A25",
"N  c #262628",
"B  c #252528",
"V  c #272A28",
"C  c #29292A",
"Z  c #2D2D2B",
"A  c #2E2F2A",
"S  c #2E2F29",
"D  c gray18",
"F  c #2D2D2D",
"G  c #2D2D2B",
"H  c #312623",
"J  c #322B25",
"K  c #392B25",
"L  c #322E2A",
"P  c #392E2A",
"I  c #2F3029",
"U  c #2F302B",
"Y  c #2E302B",
"T  c #333126",
"R  c #383027",
"E  c #30312A",
"W  c #31322B",
"Q  c #31322D",
"!  c #32332C",
"~  c #32332E",
"^  c #30312C",
"/  c #33342D",
"(  c #33342F",
")  c #35362F",
"_  c #33322D",
"`  c #3A342D",
"'  c #3A392E",
"]  c #2D3331",
"[  c #333333",
"{  c #353631",
"}  c #343530",
"|  c gray21",
" . c #353534",
".. c #3A3632",
"X. c #363836",
"o. c #393937",
"O. c #383836",
"+. c #3A3936",
"@. c #363638",
"#. c #393738",
"$. c #373938",
"%. c gray23",
"&. c #3A3A39",
"*. c #3D3E39",
"=. c #3D3E3A",
"-. c #3E3E3C",
";. c #3E3E3E",
":. c #3B3B3A",
">. c #42342E",
",. c #40382F",
"<. c #413733",
"1. c #423C35",
"2. c #413E3A",
"3. c #3F403B",
"4. c #3F403C",
"5. c #454036",
"6. c #42433E",
"7. c #43443F",
"8. c #42423E",
"9. c #49443D",
"0. c #4D483F",
"q. c #3F4140",
"w. c #414141",
"e. c #434341",
"r. c #444540",
"t. c #454641",
"y. c #464742",
"u. c #444543",
"i. c #494743",
"p. c #474843",
"a. c #474845",
"s. c #484944",
"d. c #4A4B46",
"f. c #4B4C47",
"g. c #4A4A46",
"h. c #464749",
"j. c #494748",
"k. c #474949",
"l. c #4B4B4B",
"z. c #4C4D48",
"x. c #4B4B4B",
"c. c #524D44",
"v. c #504E4D",
"b. c #4E504D",
"n. c #535046",
"m. c #51524E",
"M. c #4E4F51",
"N. c #514F50",
"B. c #4F5150",
"V. c #525756",
"C. c #525251",
"Z. c #595755",
"A. c #565854",
"S. c #595956",
"D. c #575B58",
"F. c #585A59",
"G. c #585D5C",
"H. c #5C5C5A",
"J. c #5B605E",
"K. c #5E615C",
"L. c #60615E",
"P. c #5F6160",
"I. c #626262",
"U. c #646464",
"Y. c #656565",
"T. c #676767",
"R. c #626362",
"E. c #656A66",
"W. c #686868",
"Q. c gray42",
"!. c DimGray",
"~. c #726F71",
"^. c #747474",
"/. c #767977",
"(. c #787878",
"). c #868786",
"_. c #8F8F8F",
"`. c #8D8F8F",
/* pixels */
"                                                                                                                                                                                                                                                                                                                                                                                                                                                                                                                                                                                                                                                                                                                                                                                                                                                                                                                                                                                                                                                                                                                                                                                                                                                                                                                                                                                                                                                                                                                                                                                                                                                                                                                                                                                                                                                                                                                                                                                                                                                                                                                                                                                                                                                                                                                                                                                                                                                                                                                                                                                                                    ",
"                                                                                                                                                                                                                                                                                                                                                                                                                                                                                                                                                                                                                                                                                                                                                                                                                                                                                                                                                                                                                                                                                                                                                                                                                                                                                                                                                                                                                                                                                                                                                                                                                                                                                                                                                                                                                                                                                                                                                                                                                                                                                                                                                                                                                                                                                                                                                                                                                                                                                                                                                                                                                    ",
"                                                                                                                                                                                                                                                                                                                                                                                                                                                                                                                                                                                                                                                                                                                                                                                                                                                                                                                                                                                                                                                                                                                                                                                                                                                                                                                                                                                                                                                                                                                                                                                                                                                                                                                                                                                                                                                                                                                                                                                                                                                                                                                                                                                                                                                                                                                                                                                                                                                                                                                                                                                                                    ",
"                                                                                                                                                                                                                                                                                                                                                                                                                                                                                                                                                                                                                                                                                                                                                                                                                                                                                                                                                                                                                                                                                                                                                                                                                                                                                                                                                                                                                                                                                                                                                                                                                                                                                                                                                                                                                                                                                                                                                                                                                                                                                                                                                                                                                                                                                                                                                                                                                                                                                                                                                                                                                    ",
"                                                                                                                                                                                                                                                                                                                                                                                                                                                                                                                                                                                                                                                                                                                                                                                                                                                                                                                                                                                                                                                                                                                                                                                                                                                                                                                                                                                                                                                                                                                                                                                                                                                                                                                                                                                                                                                                                                                                                                                                                                                                                                                                                                                                                                                                                                                                                                                                                                                                                                                                                                                                                    ",
"                                                                                                                                                                                                                                                                                                                                                                                                                                                                                                                                                                                                                                                                                                                                                                                                                                                                                                                                                                                                                                                                                                                                                                                                                                                                                                                                                                                                                                                                                                                                                                                                                                                                                                                                                                                                                                                                                                                                                                                                                                                                                                                                                                                                                                                                                                                                                                                                                                                                                                                                                                                                                    ",
"                                                                                                                                                                                                                                                                                                                                                                                                                                                                                                                                                                                                                                                                                                                                                                                                                                                                                                                                                                                                                                                                                                                                                                                                                                                                                                                                                                                                                                                                                                                                                                                                                                                                                                                                                                                                                                                                                                                                                                                                                                                                                                                                                                                                                                                                                                                                                                                                                                                                                                                                                                                                                    ",
"                                                                                                                                                                                                                                                                                                                                                                                                                                                                                                                                                                                                                                                                                                                                                                                                                                                                                                                                                                                                                                                                                                                                                                                                                                                                                                                                                                                                                                                                                                                                                                                                                                                                                                                                                                                                                                                                                                                                                                                                                                                                                                                                                                                                                                                                                                                                                                                                                                                                                                                                                                                                                    ",
"                                                                                                                                                                                                                                                                                                                                                                                                                                                                                                                                                                                                                                                                                                                                                                                                                                                                                                                                                                                                                                                                                                                                                                                                                                                                                                                                                                                                                                                                                                                                                                                                                                                                                                                                                                                                                                                                                                                                                                                                                                                                                                                                                                                                                                                                                                                                                                                                                                                                                                                                                                                                                    ",
"                                                                                                                                                                                                                                                                                                                                                                                                                                                                                                                                                                                                                                                                                                                                                                                                                                                                                                                                                                                                                                                                                                                                                                                                                                                                                                                                                                                                                                                                                                                                                                                                                                                                                                                                                                                                                                                                                                                                                                                                                                                                                                                                                                                                                                                                                                                                                                                                                                                                                                                                                                                                                    ",
"                                                                                                                                                                                                                                                                                                                                                                                                                                                                                                                                                                                                                                                                                                                                                                                                                                                                                                                                                                                                                                                                                                                                                                                                                                                                                                                                                                                                                                                                                                                                                                                                                                                                                                                                                                                                                                                                                                                                                                                                                                                                                                                                                                                                                                                                                                                                                                                                                                                                                                                                                                                                                    ",
"                                                                                                                                                                                                                                                                                                                                                                                                                                                                                                                                                                                                                                                                                                                                                                                                                                                                                                                                                                                                                                                                                                                                                                                                                                                                                                                                                                                                                                                                                                                                                                                                                                                                                                                                                                                                                                                                                                                                                                                                                                                                                                                                                                                                                                                                                                                                                                                                                                                                                                                                                                                                                    ",
"                                                                                                                                                                                                                                                                                                                                                                                                                                                                                                                                                                                                                                                                                                                                                                                                                                                                                                                                                                                                                                                                                                                                                                                                                                                                                                                                                                                                                                                                                                                                                                                                                                                                                                                                                                                                                                                                                                                                                                                                                                                                                                                                                                                                                                                                                                                                                                                                                                                                                                                                                                                                                    ",
"                                                                                                                                                                                                                                                                                                                                                                                                                                                                                                                                                                                                                                                                                                                                                                                                                                                                                                                                                                                                                                                                                                                                                                                                                                                                                                                                                                                                                                                                                                                                                                                                                                                                                                                                                                                                                                                                                                                                                                                                                                                                                                                                                                                                                                                                                                                                                                                                                                                                                                                                                                                                                    ",
"                                                                                                                                                                                                                                                                                                                                                                                                                                                                                                                                                                                                                                                                                                                                                                                                                                                                                                                                                                                                                                                                                                                                                                                                                                                                                                                                                                                                                                                                                                                                                                                                                                                                                                                                                                                                                                                                                                                                                                                                                                                                                                                                                                                                                                                                                                                                                                                                                                                                                                                                                                                                                    ",
"                                                                                                                                                                    Q.Y.Y.Y.Y.Y.Y.Y.R.R.Q.                                                                                                                                                                                                                                                                                                                                                                                                                                                                                                                                                                                                                                                                                                                                                                                                                                                                                                                                                                                                                                                                                                                                                                                                                                                                                                                                                                                                                                                                                                                                                                                                                                                                                                                                                                                                                                                                                                                                                                                                                                                                                                                                                                                                                                                                                                                                                                                                                          ",
"                                                                                                            $ . . . . . . . . . . . . . . . . . . . . . . . . . . . . . . . . . . . . . . .                                                                                                                                                                                                                                                                                                                                                                                                                                                                                                                                                                                                                                                                                                                                                                                                                                                                                                                                                                                                                                                                                                                                                                                                                                                                                                                                                                                                                                                                                                                                                                                                                                                                                                                                                                                                                                                                                                                                                                                                                                                                                                                                                                                                                                                                                                                                                                                                                         ",
"                                                                                                            $ . . . . . . . . . . . . . . . . . . . . . . . . . . . . . . . . . . . . . . .                                                                                                                                                                                                                                                                                                                                                                                                                                                                                                                                                                                                                                                                                                                                                                                                                                                                                                                                                                                                                                                                                                                                                                                                                                                                                                                                                                                                                                                                                                                                                                                                                                                                                                                                                                                                                                                                                                                                                                                                                                                                                                                                                                                                                                                                                                                                                                                                                         ",
"                                                                                                            $ $ . . O $ O O O . O O O O O O O O o . o . o . . . . . . . . . . . . . . . . .                                                                                                                                                                                                                                                                                                                                                                                                                                                                                                                                                                                                                                                                                                                                                                                                                                                                                                                                                                                                                                                                                                                                                                                                                                                                                                                                                                                                                                                                                                                                                                                                                                                                                                                                                                                                                                                                                                                                                                                                                                                                                                                                                                                                                                                                                                                                                                                                                         ",
"                                                                                                  Y.Q.Y.    , $ . . O $ O O $ O o o O O o . o O . . . . . . . . . . . . . . . . . . . $ . .                                                                                                                                                                                                                                                                                                                                                                                                                                                                                                                                                                                                                                                                                                                                                                                                                                                                                                                                                                                                                                                                                                                                                                                                                                                                                                                                                                                                                                                                                                                                                                                                                                                                                                                                                                                                                                                                                                                                                                                                                                                                                                                                                                                                                                                                                                                                                                                                                         ",
"                                                                                                . . . . . . $ O $ $ , 2 2 2 6 6 h l v v l x k k l x x x x k h h y y y y y 6 6 6 $ . . . . . D h C k 3 ,                                                                                                                                                                                                                                                                                                                                                                                                                                                                                                                                                                                                                                                                                                                                                                                                                                                                                                                                                                                                                                                                                                                                                                                                                                                                                                                                                                                                                                                                                                                                                                                                                                                                                                                                                                                                                                                                                                                                                                                                                                                                                                                                                                                                                                                                                                                                                                                                             ",
"                                                                                                . . $ . $ $ . . $ $ , 2 3 2 6 6 h l A U n x k h x h k k x x h y 6 6 e y y 6 2 2 . $ . . . . h k N h d h l.                                                                                                                                                                                                                                                                                                                                                                                                                                                                                                                                                                                                                                                                                                                                                                                                                                                                                                                                                                                                                                                                                                                                                                                                                                                                                                                                                                                                                                                                                                                                                                                                                                                                                                                                                                                                                                                                                                                                                                                                                                                                                                                                                                                                                                                                                                                                                                                                          ",
"                                                                                                $ $ . . . . 2 , , , 2 2 = = 2 2 y x n n x h y y y y y y y y y y 2 e y y y y 6 2 $ . $ . . . . . . . . . D [                                                             . + . . . . . . . . . . . . . . . . . . . . . o . . . . $ + . $ . . . . . . . . . . . . . . . . . . . . . . . . . . . . . . . . . . . . . . . . . . . . . . . . . . . . . . . . . . . . . . . . . . . . . . . . . . . . . . . . . . . . . . . . . . . . . . . . . . . . . . . . . . . . . . . . . . . . . . . . . . . . . . . . . . . . . . . . . . . . . . . . . . . . . . . . . . . . . . . . . . . . . . . . . . . . . . . . . . . . . . . . . . . . . . . . . . . . . . . . . . . . . . . . . . . . . . . . . . . . . . . . . . . . . . . . . . . . . . . . . . . . . . . . . . . . . . . . . . . . . . . . . . . . . . . . . . . . . . . . . . . . . . . . . . . . . . . . . . . . . . . . . . . . . . . . . . . . . . . . . . . . . . . . . . . . . . . . . . . . . . . . . . . . . . . . . . . . . . . . . . . . . . . . . . . . . . . . . . . . . . . . . . . . . . . . . . . . . . . . . . . . . . . . . . . . . . . . . . . . . . . . . . . . . . . . . . . . . . . . . . . . . . . . . . . . . . . . . . . . . . . . . . . . . . . . . . . . . . . . . . . . . . . . . . . . . . . . . . . . . . . . . . . . . . . . . . . . . . . . . . . . . . . . . . . . . . . . . . . . . . . . . . . . . . . . . . . . . . . . . . . . . . . . . . . . . . . . . . . . . . . . . . . . . . . . . . . . . . . . . . . . . . . . . . . . . . . . . . . . . . . . . . . . . . . . . . . . . . . . . . . . . . . . . . . . . . . . . . . . . . . . . . . . . . . . . . . . . . . . . . . . . . . . . . . . . . . . . . . . . . . . . . . . . . . . . . . . . . . . . . . . . . . . . . . . . . . . . . . . . . . . . . . . . . . . . . . . . . . . . . . . . . . . . . . . . . . . . . . . . . . . . . . . . . . . . . . . . . . . . . . . . . . . . . . . . . . . . . . . . . . . . . . . . . . . . . . . . . . . . . . . . . . . . . . . . . . . . . . . . . . . . . . . . . . . . . . . . . . . . . . . . . . . . . . . . . . . . . . . . . . . . . . . . . . . . . . . . . . . . . . . . . . . . . . . . . . . . . . . . . . . . . . . . . . . . . . . . . . . . . . . . . . . . . . . . . . . . . . . . . . . . . . . . . . . . . . . . . . . . . . . . . . . . . . . . . . . . . . . . . . . . . . . . . . . . . . . . . . . . . . . . . . . . . . . . . . . + $ $ $ . $ $ $ $ + + . . . . . .                                           ",
"                                                                                                , 3 . . $ $ $ = , , 3 3 = = 1 1 y x n n l h y y y y y y y y y y 2 2 y y h y 6 2 $ $ . . . . . . . . . . D |                                                           6 . . . . . . . . . . . . . . . . . . . . . . . . . . . . . . . . . . . . . . . . . . . . . . . . . . . . . . . . . . . . . . . . . . . . . . . . . . . . . . . . . . . . . . . . . . . . . . . . . . . . . . . . . . . . . . . . . . . . . . . . . . . . . . . . . . . . . . . . . . . . . . . . . . . . . . . . . . . . . . . . . . . . . . . . . . . . . . . . . . . . . . . . . . . . . . . . . . . . . . . . . . . . . . . . . . . . . . . . . . . . . . . . . . . . . . . . . . . . . . . . . . . . . . . . . . . . . . . . . . . . . . . . . . . . . . . . . . . . . . . . . . . . . . . . . . . . . . . . . . . . . . . . . . . . . . . . . . . . . . . . . . . . . . . . . . . . . . . . . . . . . . . . . . . . . . . . . . . . . . . . . . . . . . . . . . . . . . . . . . . . . . . . . . . . . . . . . . . . . . . . . . . . . . . . . . . . . . . . . . . . . . . . . . . . . . . . . . . . . . . . . . . . . . . . . . . . . . . . . . . . . . . . . . . . . . . . . . . . . . . . . . . . . . . . . . . . . . . . . . . . . . . . . . . . . . . . . . . . . . . . . . . . . . . . . . . . . . . . . . . . . . . . . . . . . . . . . . . . . . . . . . . . . . . . . . . . . . . . . . . . . . . . . . . . . . . . . . . . . . . . . . . . . . . . . . . . . . . . . . . . . . . . . . . . . . . . . . . . . . . . . . . . . . . . . . . . . . . . . . . . . . . . . . . . . . . . . . . . . . . . . . . . . . . . . . . . . . . . . . . . . . . . . . . . . . . . . . . . . . . . . . . . . . . . . . . . . . . . . . . . . . . . . . . . . . . . . . . . . . . . . . . . . . . . . . . . . . . . . . . . . . . . . . . . . . . . . . . . . . . . . . . . . . . . . . . . . . . . . . . . . . . . . . . . . . . . . . . . . . . . . . . . . . . . . . . . . . . . . . . . . . . . . . . . . . . . . . . . . . . . . . . . . . . . . . . . . . . . . . . . . . . . . . . . . . . . . . . . . . . . . . . . . . . . . . . . . . . . . . . . . . . . . . . . . . . . . . . . . . . . . . . . . . . . . . . . . . . . . . . . . . . . . . . . . . . . . . . . . . . . . . . . . . . . . . . . . . . . . . . . . . . . . . . . . . . . . . . . . . . . . . . . . . . . . . . . . . . . . . . . . . . . . . . . . . . . . . . . . . . . . . . . . . . + $ $ $ $ . $ $ $ $ $ $ . $ . $ $ . .                                         ",
"                                                                                            V.J.. . $ $ 6 2 h y 6 6 6 6 2 1 6 2 x n ( ) W U W W W W x l U v v x y e x k v v v x . . . . $ $ $ $ . . . . 2 6 *.6.e.-.                                                , , . . . . . . . . . . . . . . . . . . . . . . o . . . . . . . . . . . . . . . . . . . . . . . . . . . . . . . . . . . . . . . . . . . . . . . . . . . . . . . . . . . . . . . . . . . . . . . . . . . . . . . . . . . . . . . . . . . . . . . . . . . . . . . . . . . . . . . . . . . . . . . . . . . . . . . . . . . . . . . . . . . . . . . . . . . . . . . . . . . . . . . . . . . . . . . . . . . . . . . . . . . . . . . . . . . . . . . . . . . . . . . . . . . . . . . . . . . . . . . . . . . . . . . . . . . . . . . . . . . . . . . . . . . . . . . . . . . . . . . . . . . . . . . . . . . . . . . . . . . . . . . . . . . . . . . . . . . . . . . . . . . . . . . . . . . . . . . . . . . . . . . . . . . . . . . . . . . . . . . . . . . . . . . . . . . . . . . . . . . . . . . . . . . . . . . . . . . . . . . . . . . . . . . . . . . . . . . . . . . . . . . . . . . . . . . . . . . . . . . . . . . . . . . . . . . . . . . . . . . . . . . . . . . . . . . . . . . . . . . . . . . . . . . . . . . . . . . . . . . . . . . . . . . . . . . . . . . . . . . . . . . . . . . . . . . . . . . . . . . . . . . . . . . . . . . . . . . . . . . . . . . . . . . . . . . . . . . . . . . . . . . . . . . . . . . . . . . . . . . . . . . . . . . . . . . . . . . . . . . . . . . . . . . . . . . . . . . . . . . . . . . . . . . . . . . . . . . . . . . . . . . . . . . . . . . . . . . . . . . . . . . . . . . . . . . . . . . . . . . . . . . . . . . . . . . . . . . . . . . . . . . . . . . . . . . . . . . . . . . . . . . . . . . . . . . . . . . . . . . . . . . . . . . . . . . . . . . . . . . . . . . . . . . . . . . . . . . . . . . . . . . . . . . . . . . . . . . . . . . . . . . . . . . . . . . . . . . . . . . . . . . . . . . . . . . . . . . . . . . . . . . . . . . . . . . . . . . . . . . . . . . . . . . . . . . . . . . . . . . . . . . . . . . . . . . . . . . . . . . . . . . . . . . . . . . . . . . . . . . . . . . . . . . . . . . . . . . . . . . . . . . . . . . . . . . . . . . . . . . . . . . . . . . . . . . . . . . . . . . . . . . . . . . . . . . . . . . . . . . . . . . . . . . . . . . . . . . . . . . . . . . . . . . . . . . . . . . . . . . . . . . . . . . . . . . . . . . . . . . . . . . . . $ . . . . . . . . . . . . . . . . . . . . .                                         ",
"                                                                                      )._._.G.F.O O , $ 6 2 h k 6 y e e 1 , 6 2 x v W ( U U Q Q W W k x n n v k y y x y x l l x . . . . $ . + . . . . . 6 h +.-.e.e._.                                              , , . . . . . . . . . . . . . . . . . . . . . . . . . . . . . . . . . . . . . . . . . . . . . . . . . . . . . . . . . . . . . . . . . . . . . . . . . . . . . . . . . . . . . . . . . . . . . . . . . . . . . . . . . . . . . . . . . . . . . . . . . . . . . . . . . . . . . . . . . . . . . . . . . . . . . . . . . . . . . . . . . . . . . . . . . . . . . . . . . . . . . . . . . . . . . . . . . . . . . . . . . . . . . . . . . . . . . . . . . . . . . . . . . . . . . . . . . . . . . . . . . . . . . . . . . . . . . . . . . . . . . . . . . . . . . . . . . . . . . . . . . . . . . . . . . . . . . . . . . . . . . . . . . . . . . . . . . . . . . . . . . . . . . . . . . . . . . . . . . . . . . . . . . . . . . . . . . . . . . . . . . . . . . . . . . . . . . . . . . . . . . . . . . . . . . . . . . . . . . . . . . . . . . . . . . . . . . . . . . . . . . . . . . . . . . . . . . . . . . . . . . . . . . . . . . . . . . . . . . . . . . . . . . . . . . . . . . . . . . . . . . . . . . . . . . . . . . . . . . . . . . . . . . . . . . . . . . . . . . . . . . . . . . . . . . . . . . . . . . . . . . . . . . . . . . . . . . . . . . . . . . . . . . . . . . . . . . . . . . . . . . . . . . . . . . . . . . . . . . . . . . . . . . . . . . . . . . . . . . . . . . . . . . . . . . . . . . . . . . . . . . . . . . . . . . . . . . . . . . . . . . . . . . . . . . . . . . . . . . . . . . . . . . . . . . . . . . . . . . . . . . . . . . . . . . . . . . . . . . . . . . . . . . . . . . . . . . . . . . . . . . . . . . . . . . . . . . . . . . . . . . . . . . . . . . . . . . . . . . . . . . . . . . . . . . . . . . . . . . . . . . . . . . . . . . . . . . . . . . . . . . . . . . . . . . . . . . . . . . . . . . . . . . . . . . . . . . . . . . . . . . . . . . . . . . . . . . . . . . . . . . . . . . . . . . . . . . . . . . . . . . . . . . . . . . . . . . . . . . . . . . . . . . . . . . . . . . . . . . . . . . . . . . . . . . . . . . . . . . . . . . . . . . . . . . . . . . . . . . . . . . . . . . . . . . . . . . . . . . . . . . . . . . . . . . . . . . . . . . . . . . . . . . . . . . . . . . . . . . . . . . . . . . . . . . . . . . . . . . . . . . . . . . . . . . . . . . . . . . . . . . . . . . . . . . $ $ $ . . . . . . . . . . . . . . Q.                                      ",
"                                                                                . . # . . o . . $ . $ = k A +.+.l U Q { Q ( *.3.6.7.p.s.r.p.f.z.s.r.{ ( ) W v h n x W v n v v l $ * = * 2 3 3 3 2 2 $ $ $ . . . . . :.[                                             , 3 . . . . . . . . . O O O . X O O O O O O $ $ $ $ $ $ $ $ O O O O O . . O . . . . . . . . . . . . . . . . . . . . . . . . . . . . . . . . . . . . . $ $ $ . . . . . . . . . . . . . . . . . . . . . . o O X X X . o . . . . . . . . . . . . . . . . . . . . . . . . . . . . . o o o o . . . . . . . . . . . . . . . . $ $ . . . . . . . . . . . . . . . . $ $ $ . . . . $ . . . . + + . . . . . . . . . . . . . . . . . . . . . . . . . . . . . . . . . . . . . . . . . . . . . . . . . . . . . . . . . . . . . . . . . . . . . . . . . O @ . . . . . . $ . . . . . . . . . . . . . . . . . . . . . . . . $ O O O . . . . $ $ . . . . . . . . . . . . . . . . . . . . . . . . . . . . . . . . . . . . . . . . . . . . . . . . . . . . . . . . . . . . . . . . . . . . . . . . . . . . . . . . . . . . . . . . . . . . . . . . . . . . . . . . . . . . . . . . . . . . . . . . . . . . . . . . . . . . . . . . . . . . . . . . . . . . . . . . . . . . . . . . . . . . . . . . . . . . . . . . . . . . . . . . . . . . . . . . . . . . . . . . . . . . . . . . . . . . . . . . . . . . . . . . . . . . . . . . . . . . . . . . . . . . . . . . . . . . . . . . . . . . . . . . . . . . . $ . . . . . . . . . . . . . . . . . . . . . . . . . . . . . . . . . . . . . . . . . . . . . . . . . . . . . . . . . . . . . . . . . . . . . . . . . . . . . . . . . . . . . . . . . . . . . . . . . . . . . . . . . . . . . . . . . . . . . . . . . . . . . . . . . . . . . . . . . . . . . . . . . . . . . . . . . . . . . . . . . . . . . . . . . . . . . . . . . . . . . . . . . . . . . . . . . . . . . . . . . . . . . . . . . . . . . . . . . . . . . . . . . . . . . . . . . . . . . . . . . . . . . . . . . . . . . . . . . . . . . . . . . . . . . . . . . . . . . . . . . . . . . . . . . . . . . . . . . . . . . . . . . . . . . . . . . . . . . . . . . . . . . . . . . . . . . . . . . . . O . . . . . . . . . . . . . . . . . . . . . . . . . . . . . . . . . . . . . . . . . . . . . . . . . . . . . . . . . . O O . . . . . . . . . . . . . . . . . . . . . . . . X X X X . . . . . . . . . . . . . . . . . . . . . . . . . . . . . . . . X . . . X X O O X . . . . . . . . . . . . . . . . . . . . . . . . . o o . . . . . X X . . . . . . X X X . . . . O O O O O O $ $ O O O . . . . . . . Q.                                      ",
"                                                                                . . . . . . . . $ . = , k A :.+.l n A ( Q ( *.*.r.r.r.r.r.r.f.z.s.p.{ Q U A l k x y W v n l l x $ = $ = , , , , , , $ $ $ $ . . . . :.:.                                            3 3 . . . . . . . O o O O o X O $ $ $ O O O O O O O O O O O O O O O . . . . O O O O O . . . . . . . . . . . . . . . . . . . . . . . . . . . . . . . . . . . . . . . . . . . . . . . . . . . . . . . . . X O X X o o o . . . . . . . . . . . . . . . . . . . . . . . . . . . . . . . . . . . . . . . . . . . . . . . . . . . . . . . . . . . . . . . . . . . $ . . . . . . . . . . . . . . . . . . . . . . . . . . . . . . . . . . . . . . . . . . . . . . . . . . . . . . . . . . . . . . . . . . . . . . . . . . . . . . . . . . . . . . . . . . . . . . . . . . . . . . . $ $ . . . . . . . . . . . . . . $ O . . . . . . . . . . . . . . . . . . . . . . . . . . . . . . . . . . . . . . . . . . . . . . . . . . . . . . . . . . . . . . . . . . . . . . . . . . . . . . . . . . . . . . . . . . . . . . . . . . . . . . . . . . . . . . . . . . . . . . . . . . . . . . . . . . . . . . . . . . . . . . . . . . . . . . . . . . . . . . . . . . . . . . . . . . . . . . . . . . . . . . . . . . . . . . . . . . . . . . . . . . . . . . . . . . . . . . . . . . . . . . . . . . . . . . . . . . . . . o . . . . . . . . . . . . . . . . . . . . . . . . . . . . . . . . . . . . . . . . . . . . . . . . . . . . . . . . . . . . . . . . . . . . . . . . . . . . . . . . . . . . . . . . . . . . . . . . . . . . . . . . . . . . . . . . . . . . . . . . . . . . . . . . . . . . . . . . . . . . . . . . . . . . . . . . . . . . . . . . . . . . . . . . . . . . . . . . . . . . . . . . . . . . . . . . . . . . . . . . . . . . . . . . . . . . . . . . . . . . . . . . . . . . . . . . . . . . . . . . . . . . . . . . . . . . . . . . . . . . . . . . . . . . . . . . . . . . . . . . . . . . . . . . . . . . . . . . . . . . . . . . . . . . . . . . . . . . . . . . . . . . . . . . . . . . . . . . . . . . . . . . . . . . . . . . . . . . . . . . . . . . . . . . . . . . . . . . . . . . . . . . . . . . . . . . . . . . . . . . . . . . . . . . . . . . . . . . . . . . . . . . . . . . . . . . . . . . . . . . . . . O o . . . . . . . . . . . . . . . o O O O . X . . . . . . . . . . . . . . X X X X . . . . o . . . . . . . . . . . . . . . X X . . . . . . o . . . . . . . . . . . . . . . . . . . . . . . . X . . X X X O X X O O O O O O O O O O $ $ $ $ . O O O O O O O $ $ + . . . Q.                                      ",
"                                                                                , 3 $ $ , $ . . 2 2 A l C h X.+.{ { { *.*.6.f.s.z.s.s.s.p.s.z.z.r.r.Q A h h y y v l +.+.+.+.*.+.e y , , , = 1 1 2 2 = , , , . . . . { [                                             2 3 . . . o e e h x y y y y k k x x l k h h v v l v v n n v l l l l l l l l x x k h y y y h k k k k k k k h k h h h h h k k k k h h h h h k h h h h h h h h y q y y y y q q y y h y y y y y y k y y y q q q q q w q q q q q k k k k k k k k k k k k k k k k l N N l l l l l h h h h l l l C k k l C C C C C C C k k N C C C C C C C C C C C D D D D D D D D D D D D D D D D D D D D D D D D D A A Z A A A A D A A A A D D D D D A A A A A A A A A D D D A A A A D D D D D D D D D A D D D D D A A C C A A A C C C C C A A A C C C C D D C C D D D D D D D D D D [ [ D D D [ [ D D D C D D D Q Q D D D A D Q A C l l C C A A C C C C D D D D D D D D D D D D D D D D D [ [ [ | | [ [ [ D D D [ [ [ [ [ | [ [ D D D D D D C C D C C C D D D C D D D D D D Z C A A A A Z Z A D A A D D D A A A D D D D D D [ [ D D D D D D D D D D D D D D Q Q Q Q Q Q D D [ [ D D D D Q Q Q Q D D D D D Q L Q [ [ [ [ [ [ [ [ [ [ D D [ [ [ [ [ [ [ [ [ [ [ [ | | | | | | | | [ [ [ [ Q Q Q Q [ [ [ [ [ [ [ [ { | | | [ [ [ | [ { { | { [ { | [ [ [ [ [ { [ | [ [ [ | | | [ [ { [ [ [ [ [ [ [ | | | [ [ | | | | |  . . . .| X.| | | X.X.X.X.X.:.+.X.X.+.:.*.*.X.X.+.+.X.X.X.X.| | @.:.:.:.| | | | | | | [ [ [ | | [ [ [ [ [ [ [ [ [ [ D D D [ D D [ [ [ [ D D Q Q D D [ [ D D [ [ [ [ [ [ [ [ [ [ [ [ [ [ [ [ } } [ [ [ [ Q Q Y Y Y [ [ } } } D [ [ [ [ [ [ [ [ [ [ [ [ [ [ [ } } } } } [ [ } Y Q } [ Q Y Y Q [ [ [ [ [ [ [ [ [ [ [ [ [ [ [ | [ [ [ D D D L [ [ [ [ [ [ [ [ [  . . .} } } }  .} [ [ [  . . . . . . . . . .| |  . . . . .}  . .[ [ | | | | [ [ [ [ | | | | | | { { { { { { { { | | | | | | | | { { { { { | { { { { | { [ [ { | | | | | | |  . . . .| X.X.X.| | | | +.:.| | | | | | | | | | | {  . .}  . . . .} }  . . . .| | X.@.@.:.| | | | | | | :.:.| | | | | { { [ [ Q Q Q | [ [ [ [ [ [ [ [ [ [ [ [ [ [ [ | | #.#.:.:.:.:.:.:.:.| :.:.:.:.| | | [ [ [ [ | Q Q L Q [ { { { Q Q Q Q [ [ { { *.:.+.{ { | :.*.+.| | | :.*.*.*.*.-.6.6.6.6.6.6.6.6.e.6.6.6.e.r.e.e.-.-.-.e.e.e.e.e.e.e.e.e.q.-.-.-.-.-.6.6.-.-.6.6.6.-.*.:.+.+.| | { { | | | | [ [ [ [ { { { | { ) W W W W U A n n n n L W Q Q L W W ( ( W W W W W W W W W W W Q Y Q Q Q Y A n A A A A A A L v n n i i v n v n A v l v Z A A A v v v v A A A A l v A A A n l l k k x k h h h k h k l l l l l l l l l l v v l l h x x x k x l C $ $ . . . . Y.                                      ",
"                                                                                , 3 . . , $ . @ , 3 A C C k +.+.{ ( Q +.*.6.f.s.z.f.f.f.s.s.z.s.s.s.{ Q y y 6 e k x +.+.*.*.*.*.y k = = = $ = , 1 1 = , , 3 O O . . { |                                             2 2 . . O O e y x n y y k y k k k k k l k k k l l l v v l v l x h h h k k k A n l x h h h h k k k k k k k k k k k k k k k k h h y h h k l k k h h h h h h y h h y y y y y y y y y y y y y y y h 6 6 u y 9 q 2 9 q 9 q q q y h h h h h k k k k k k k h h k N N N k N l l l N N N h h h h h h h k k C C C C C D C k k k C C C C C C C C C C C D D D D D D D D C D D D D D D D D D D Z C D D D D D A A A A D A D D A A A A A D D D D A A A A A C A A A A A A A A D D L Q D D A Q Q D A D D D L D D A A A A A A C C l l C C C C C C C D D D D C D D [ [ [ L D D D D [ [ D D D D D D D C D D D [ Q Q D D D D Q Q D C l l l C C C C C C Z D D Q Q D D D D D D D D Q [ D D D D [ [ | | |  .[ [ D D [ [ | | | | | | D D D D D D C C C C k C C D C C C C C C C D D D A A D D D D D D A A A A A A A Z D D D D D D D D D [ [ [ [ [ [ [ D D D D D D D D Q Q Q Q D D D D D D D Q Q Q Q Q D D D D D D Q Q [ [ [ [ [ [ [ [ [ [ [ [ [ [ [ [ [ [ [ | | | | | [ [ [ [ [ [ | | { { [ [ [ [ [ Q [ [ [ | | | | | | | | | | | [ [ | | | | | | | | | | | | | | | | [ [ | | | | | | | | [ | | | | [ | | | |  .| | | $.| |  . .| | | | | | | | | | | } } } | X.:.:.:.X.X.:.:.*.+.+.X.:.:.:.@.| | | :.| | [ [ [ [ [ [ | | [ [ [ [ D D [ [ | [ [ [ D [ D D [ [ [ D D D [ Q D D D [ D D { [ [ [ | | | | [ [ [ [ [ [ [ [ } } } } } } } Q [ [ [ } } } } } [ [ | | [ [ [ [ [ [ [ [ [ [ [ [ { { { { } } } } } } } } [ Q Q Y [ [ [ [ [ [ [ [ Q [ [ [ [ [ [ | | | [ [ [ [ [ [ [ [ [ [ [ [  .[  . . . . .| | |  . . . .| | | | |  . . . . .| | | | |  .| | | | | | | | | | | | | | | | | | :.:.| | | | | | | | | | | | | | | | | | +.+.+.+.| | | +.+.| | | +.:.X.$.$.$.:.:.$.$.$.X.$.:.$.$.$.$.| :.:.:.:.+.| | | | | | | | | | |  . . . .| | | | |  . .| | :.*.| | | | | | | [ | | :.:.#.| [ [ [ [ [ [ [ [ [ [ | | | | { | | | | [ [ [ [ [ [ [ D D | | :.:.| | | | | | | | | | :.| [ [ [ [ [ [ L D D Q [ { { { Q [ { { | | | | +.+.| | { | +.:.| | { { | +.:.*.:.*.-.e.e.e.6.6.6.6.e.e.e.e.e.r.e.e.-.-.-.e.e.e.e.e.;.q.-.-.-.-.-.-.-.-.6.6.-.*.6.6.6.-.*.:.+.| :.+.| { { { | | Q Q D [ { +.:.+...{ ) ( W W W W W W n n A n A A n L T ) ) ) ( T W W W W W ( ( W ( Y Y Y Q Y U A Q Q Q L A A J v b b y u n W n L v v v A L D D D L J v v l v l l l l l A n v x h k k k h h h h l l l l l l l l l v l l l l v l l h k l l x l v A $ $ . . . . U.                                      ",
"                                                                                , 3 $ $ k h f h = = k C { +.f.s.s.s.7.r.r.r.f.s.z.l.l.l.h.s.s.r.-.6.A D h k y h D Q 6.6.r.6.7.6.x n = = $ $ = , = = , , 1 2 $ * = O = . -.h.Y.                                      2 2 . . O O k k Q { z z W A { ( Q Q { ..+.+.+.+.*.2.2.2.2.8.p.r.6.6.6.6.6.6.3.*.+.X.{ { | X.| | @.| @.| | | [  .| | | | | | | { { +.3.r.7.6.6.*.+.{ +.+.*.*.*.+...( W W ) ..8.8.2.2.8.8.2.*.+.2...+.i.9.<.<.u j H j k v L ..2.-.-.-.q.e.e.u.l.h.e.;.-.-.e.h.e.e.6.e.e.r.e.6.r.e.*.+.| { [ [ -.e.h.h.h.h.h.l.x.l.e.-.| [ [ [ h.h.e.u.h.h.h.h.e.e.h.h.e.-.-.-.-.e.e.e.e.e.-.-.e.e.e.;.-.-.-.-.-.6.6.6.6.6.6.6.6.6.6.6.3.3.3.3.6.6.6.6.6.6.6.6.r.r.r.r.r.r.r.r.6.6.6.6.6.2.6.-.6.6.6.6.6.6.6.6.6.6.6.2.-.-.-.-.*.*.*.*.*.*.:.+.:.-.-.e.h.h.h.h.h.h.h.h.e.e.e.e.e.e.h.e.e.e.e.e.h.j.l.l.l.l.l.l.s.s.s.s.s.l.l.l.h.e.6.-.*.*.+.| -.-.e.e.r.r.h.e.h.h.h.h.h.l.l.l.h.l.h.i.h.h.l.l.l.l.l.x.z.l.l.l.h.h.h.s.l.h.h.h.e.e.-.-.-.-.-.:.-.:.:.:.-.-.:.| [ [ | :.-.e.e.e.6.e.e.r.e.e.r.r.r.r.e.e.e.e.e.r.h.h.h.e.e.e.h.h.e.e.h.h.r.e.e.e.h.h.h.h.h.h.h.h.h.h.h.h.h.h.h.h.h.h.h.h.h.h.h.h.r.h.h.h.h.r.r.h.h.h.e.e.e.e.e.e.e.e.e.e.e.;.-.-.e.e.e.h.l.l.l.l.C.x.x.x.C.C.C.C.l.l.l.l.l.s.s.l.x.x.x.x.x.x.x.l.l.i.l.l.l.l.l.h.h.h.h.h.h.h.h.h.h.h.h.h.h.h.r.r.h.h.h.h.h.h.h.h.r.r.h.h.h.h.e.e.h.h.h.h.u.u.e.e.u.u.u.u.u.r.r.r.e.e.e.e.e.e.q.q.k.l.z.m.C.A.C.C.C.A.S.H.H.H.F.S.H.H.F.A.C.A.F.H.F.A.C.M.C.C.C.C.C.C.C.C.C.x.l.h.h.h.C.x.x.x.h.h.h.h.l.l.l.l.h.h.s.h.h.h.h.h.h.h.h.r.e.e.h.h.h.h.h.h.e.e.u.u.u.u.r.r.r.r.r.r.r.r.r.r.r.r.r.r.r.r.h.h.h.e.e.e.e.e.-.e.e.e.h.h.h.e.r.r.r.h.r.r.r.r.r.r.r.r.r.r.r.e.h.e.e.e.e.e.h.h.h.h.l.l.s.h.h.h.h.h.h.h.h.h.h.h.h.h.h.h.h.h.h.e.u.u.u.u.u.u.u.h.u.u.u.u.u.u.u.u.u.u.r.e.e.e.r.r.k.h.u.u.u.u.h.k.h.h.h.h.s.s.l.l.j.l.l.l.h.h.h.l.h.h.h.h.h.h.h.h.h.h.h.h.h.h.h.h.h.h.h.s.s.h.h.h.h.s.s.l.l.s.s.s.k.k.k.k.l.l.l.l.l.l.k.k.h.h.k.k.h.h.s.h.h.h.h.h.h.h.h.h.h.h.h.h.h.u.u.r.u.h.u.u.h.u.u.u.h.h.l.z.C.C.C.C.A.A.A.C.A.A.F.F.F.A.C.x.:.*.-.6.e.r.r.r.h.h.h.h.r.h.h.h.h.e.e.-.-.-.-.e.h.j.C.A.A.A.x.C.C.C.x.x.x.x.x.C.l.h.e.e.e.e.e.-.*.*.*.-.6.e.e.r.r.h.s.l.l.l.s.s.s.l.x.m.m.x.l.l.C.C.C.C.m.m.C.C.C.A.S.H.H.H.H.H.H.H.H.H.H.H.H.F.H.F.F.F.F.F.F.F.H.H.F.F.F.F.A.A.S.S.S.S.F.S.A.C.x.m.C.C.C.m.x.z.z.l.h.e.e.e.r.r.r.r.r.l.m.C.C.m.m.z.f.f.b.f.f.s.s.i.8.2.*.+.....8.7.f.v.m.v.f.f.f.f.f.f.f.f.f.f.s.p.p.p.s.s.s.p.p.p.i.r.6.2.2.1.+.+.' ' 0.0.8.8.7.7.i.s.f.f.f.f.f.i.2.1.+.+.+...+.+.*.2.6.*.+.+.{ Q A A L ( { { { ..{ { { ( Q ( { { { { { { { { A A U A A A Q { : $ . . . . R.                                      ",
"                                                                          k.h.l.3 , . . h k N h = = l A [ { f.s.s.s.r.r.7.r.f.s.z.l.l.l.l.s.s.r.-.6.A Q k l 6 6 Q Q e.e.r.7.r.r.v U = = $ O = = = = 2 1 2 2 $ = $ $ $ $ h.h.Y.Q.                                    2 2 . . O O k k ( ) x x ! Q { ( L L ( ..+.+.+.+.2.6.2.2.8.6.p.r.6.3.3.3.3.3.6.3.*.+.| | +.:.| | #.#.:.@.| | [ [ | | | | | { { Q ( +.6.r.7.3.6.*.{ { +.*.6.6.8.2...( L W ..*.2.*.*.*.2.8.2.*.+.*...+.i.i.<.` w u j u u j L ..-.-.-.-.;.e.e.u.x.l.e.-.:.%.e.h.e.e.6.6.e.r.e.6.s.r.2.+.{ [ [ [ :.2.e.r.e.e.h.h.i.h.e.:. .Q [ | e.e.e.e.e.h.h.h.e.h.h.h.e.-.-.e.6.e.r.h.h.e.-.-.e.e.e.e.;.-.-.-.*.*.6.7.7.6.6.2.7.7.6.8.6.8.6.6.6.6.6.6.6.6.6.7.r.r.r.7.7.7.7.r.7.6.e.6.6.6.6.6.6.6.e.7.e.6.6.6.6.6.6.2.6.-.-.-.*.*.*.*.*.:.O.| :.:.-.-.h.h.l.h.l.h.h.e.e.e.e.e.e.e.h.e.e.e.e.e.e.h.j.l.l.l.h.r.h.h.s.l.l.z.l.l.r.e.6.-.-.*.+.{ :.-.e.h.h.h.e.e.h.h.h.h.h.h.l.l.h.h.l.h.h.h.h.h.l.l.x.x.x.l.l.l.l.l.l.l.l.l.l.l.h.e.-.:.-.-.-.:.:.:.:.-.-.-.:.| D D [ :.e.h.e.e.e.e.r.r.r.r.r.h.h.h.e.e.e.e.e.r.h.e.e.e.e.e.e.e.e.h.h.h.h.e.e.e.h.h.h.h.h.h.h.h.h.h.h.h.h.h.h.h.r.r.r.r.r.r.r.r.r.r.h.h.r.r.r.r.h.h.h.r.h.e.e.e.e.e.e.e.e.-.-.-.-.e.e.h.l.x.x.z.N.x.l.x.C.C.C.x.s.s.l.l.l.l.z.z.x.x.x.x.x.x.x.x.i.h.h.l.l.l.l.h.l.l.l.l.s.h.h.l.h.h.h.h.h.h.h.r.i.h.h.h.h.h.h.h.h.h.h.h.h.h.h.h.h.h.h.h.h.e.e.e.u.u.u.u.r.e.e.e.e.e.e.e.q.q.3.3.r.h.z.m.C.A.C.C.C.A.F.H.H.H.H.H.P.H.F.C.x.C.F.R.H.F.M.x.x.C.A.A.C.m.C.C.C.x.l.e.e.e.C.C.C.m.h.h.e.h.l.l.l.l.h.e.s.h.h.h.h.h.h.h.l.h.h.h.h.h.h.h.h.h.h.h.h.h.h.h.h.r.r.r.h.h.r.r.h.h.r.u.h.r.r.r.l.h.h.h.e.e.r.h.-.e.e.h.h.h.h.h.r.r.h.k.k.k.r.r.k.h.r.r.h.r.r.e.h.h.e.e.e.h.h.h.e.h.l.x.l.h.e.e.e.h.h.l.l.s.h.h.h.h.l.l.h.h.h.h.u.u.u.u.u.u.u.u.u.u.u.u.u.u.u.u.h.u.u.r.r.r.u.u.k.h.u.u.r.h.k.k.l.l.l.l.l.l.l.l.l.l.l.l.h.h.l.l.s.s.s.s.s.s.s.s.l.l.l.h.h.h.h.h.h.h.s.s.s.s.h.h.s.s.l.z.z.z.l.s.k.k.k.k.l.z.x.x.b.x.l.k.k.k.k.l.l.l.l.s.h.h.h.h.h.h.h.h.h.h.h.h.k.h.u.u.u.h.h.u.h.h.u.u.h.k.l.z.x.x.x.C.A.F.A.C.A.A.A.F.H.F.C.l.+.:.-.e.r.r.r.e.j.h.h.h.h.h.h.h.h.h.e.-.-.-.-.-.u.h.C.A.A.A.x.x.x.x.x.x.x.x.x.C.l.h.e.q.e.e.-.-.*.*.*.-.6.e.e.r.r.i.l.z.z.z.s.s.s.l.x.m.m.x.z.l.x.m.C.m.m.m.C.C.C.A.F.H.H.H.H.H.H.H.H.H.L.H.H.F.F.F.F.S.F.F.F.S.H.H.F.F.F.A.A.A.S.S.S.S.S.S.C.C.m.m.C.C.C.m.x.z.m.z.h.e.6.e.e.e.e.6.e.l.C.S.C.m.m.m.m.m.m.f.f.i.f.0.7.1.1.....` 1.6.f.n.n.n.c.d.c.f.c.d.i.s.f.f.s.r.r.r.p.s.s.s.s.s.f.s.7.2.1.+...+.' ' s.s.*.3.8.7.s.f.f.f.l.z.c.i.2.+.+.+.+...{ +.+.2.6.2.*.O.+.Q v l L { +.+.+.+...[ Q Q Q Q ( Q Q Q ( { { { U U U A A A Q { = $ . . . . R.                                      ",
"                                                                        . . . . $ $ [ Q Q Q l v k n *.6.6.r.s.z.f.f.s.s.s.s.s.p.s.s.s.s.p.r.r.r.U U y e h y y y L A 6.6.6.6.r.6.+.O.2 , 2 1 6 h y y h h h y 6 6 $ $ . O . O . . O $                                 q 6 . . O O k y n U y v U W A W ....) ! ) ( ) ) *.3.+.*.6.7.8.2.+.......7.7.3.3.X.*.{ +.+.| { | +.+.| | | +.| { | | [ { +.+.{ { +.*.6.r.7.r.7.6...{ ....2.:.6.6...[ L L +.1.2.2.+.+.....2.7.....1.1.2.7.1.1.w w 9 w w u ....7.6.-.-.-.e.r.h.l.l.r.e.e.-.h.h.2.2.2.1.+.+.1.1.2.2.....j j ....1.2.e.e.e.7.u.r.e.6.2.+...+.:.*.i.i.r.h.e.e.s.r.r.3.r.r.3.e.3.3.*.6.6.e.-.-.-.-.e.h.-.-.-.*.r.r.2.5.7.5.7.5.9.9.7.5.7.5.5.5.9.i.6.7.7.i.i.7.7.7.7.7.s.s.p.r.7.7.8.8.6.6.6.7.7.7.6.8.6.8.6.8.6.6.7.6.3.*.*.3.3.6.3.3.*.*.*.*.+.+.*.:.z.l.l.z.6.e.e.e.s.l.z.z.e.-.:.-.[ { | +.z.x.x.x.l.l.s.s.z.z.s.s.s.s.z.z.z.z.x.C.-.*.| | -.e.-.-.e.e.6.r.l.z.z.x.z.l.s.s.l.z.h.j.j.l.h.e.l.l.x.x.l.h.h.h.h.l.h.h.s.l.s.h.h.h.l.h.;.%.:.:.:.:.| +.*.6.e.6.-.*.[ { :.e.s.s.h.e.r.r.r.r.h.h.h.h.r.r.r.r.e.e.r.r.e.r.r.r.r.r.r.h.r.r.r.r.r.r.r.r.r.h.h.s.s.h.h.h.h.h.h.r.h.r.r.r.r.r.r.r.r.r.r.e.r.r.r.r.r.e.6.6.e.7.e.7.e.e.e.e.e.e.e.e.e.e.e.-.-.e.h.l.z.x.m.m.m.m.x.x.x.m.C.C.C.x.l.l.l.x.C.A.A.A.C.C.C.C.C.A.x.l.l.k.k.l.l.z.k.k.k.k.k.k.k.k.s.h.h.r.h.h.h.h.r.r.r.r.r.r.r.r.h.h.h.e.e.e.h.h.h.h.h.h.h.h.h.e.e.e.e.e.e.e.e.e.e.e.e.e.e.e.e.e.k.f.m.C.C.A.K.L.K.K.J.K.H.H.H.J.Y.E.A.D.b.b.F.A.C.B.z.z.m.C.J.R.S.A.C.C.H.C.z.r.-.e.l.z.z.s.e.-.e.e.C.C.A.F.z.m.l.l.h.h.h.h.h.e.e.e.e.e.h.e.e.e.e.e.e.h.h.h.h.h.h.h.h.u.u.r.u.u.u.u.u.h.h.k.k.k.h.k.k.k.l.h.e.%.-.q.l.x.b.B.l.l.z.l.k.k.k.k.l.l.k.k.k.k.k.k.k.h.h.h.l.l.x.x.l.l.e.j.l.l.h.h.i.l.l.l.k.h.h.h.h.h.r.u.u.u.u.h.h.h.e.e.r.u.u.h.h.h.u.h.h.u.u.e.r.r.r.r.r.r.r.r.r.r.h.h.h.h.h.h.s.l.l.l.k.k.h.k.l.x.k.l.k.k.k.k.l.l.s.s.s.s.s.s.s.s.h.h.h.h.h.h.h.h.k.k.k.k.k.k.l.z.z.z.z.z.z.l.z.z.m.C.C.m.x.z.z.x.z.x.b.b.z.l.k.h.r.h.h.h.s.h.h.h.s.s.s.h.h.h.h.s.h.h.h.h.h.k.k.s.k.k.k.l.l.x.C.V.A.A.C.C.C.C.A.A.C.C.F.H.H.F.x.l.-.e.k.s.k.k.s.z.z.l.k.h.r.h.k.s.h.h.e.e.e.e.e.e.l.x.A.F.A.A.F.F.B.B.b.x.b.B.V.A.C.C.-.-.-.:.e.%.*.*.6.6.r.7.6.2.e.r.s.z.f.z.m.C.C.Z.i.s.s.p.C.m.S.C.C.C.C.C.C.m.C.A.H.H.H.H.H.H.L.L.H.H.H.H.H.H.J.H.F.S.F.S.F.S.H.H.F.S.Z.S.S.S.S.S.S.S.C.C.A.S.S.C.m.m.b.b.z.z.s.p.s.s.f.s.r.3.*.6.s.m.C.A.C.m.z.z.s.s.s.f.i.c.c.c.i.9.<.' <.5.0.0.c.n.c.c.n.n.c.n.n.c.c.0.c.c.s.s.f.f.f.f.f.s.i.9.c.c.9.9.L L W T +.*.) +.s.f.2.6.7.7.7.r.r.i.9.9.5.2.+...` ( ....+.*.*.*.+.+...` ( T W T ) ` T T ( ( L T ` { { { L Q v L A Q h h Z h Z l l L $ $ . . . . H.                                      ",
"                                                                      Y . O . . $ $ Q L A L k l l n +.3.*.r.p.s.f.f.s.s.s.s.p.r.s.s.s.s.f.s.r.r.A A y e k h y y ( Q 6.6.6.6.r.7.+.+.2 , 2 1 6 q y y y y y 6 6 2 $ = O $ O $ . . O .                                 y 6 . . O O k y W ( y v n A ! ) ..+.) / ) / ) ) +.*...*.8.8.8.8.*.*.+.+.7.7.6.3.+.+.( { +.O.[ { | | { { | +.| { | | [ { +.+.{ { +.*.6.r.7.r.2.7.........1.1.6.2...{ ( ( ..+.<.2.........2.2.....2.5.5.7.1.1.9 w w u y k ....7.6.6.6.6.e.r.h.h.h.e.e.h.e.h.r.2.2.2.1.1.1.1.2.1.:.....v v ....1.2.7.7.2.2.2.7.7.2.2.1.<.+.<.1.i.i.h.s.r.e.s.r.e.-.e.3.*.3.4.3.6.8.6.6.-.-.-.e.e.h.6.6.6.*.7.7.2.2.5.5.5.5.9.9.5.5.5.5.5.5.5.9.7.6.7.7.7.7.7.7.7.7.s.s.p.p.p.s.8.8.6.6.7.7.7.7.7.7.7.7.7.7.7.7.r.r.6.6.6.6.6.7.3.3.*.*.*.*.*.*.-.-.l.l.z.x.6.6.6.6.s.z.x.x.r.e.*.-.[ { { | l.l.z.x.l.l.l.s.x.z.s.f.f.f.s.f.z.z.z.m.-.6.:.+.-.-.6.-.e.r.e.h.z.x.l.z.z.z.l.s.l.l.l.l.h.h.e.-.j.h.l.l.l.h.l.h.e.h.h.h.l.l.l.l.l.l.h.e.-.:.:.:.:.:.| +.*.-.6.2.*.:.{ | :.-.r.h.r.e.h.r.h.h.h.h.h.s.h.h.r.h.h.h.h.s.h.h.h.h.r.r.r.h.h.h.h.h.h.r.h.h.r.h.h.s.s.h.h.h.h.h.h.s.s.s.h.h.r.r.r.r.r.r.h.h.h.h.r.r.h.r.r.e.7.7.7.7.6.6.e.e.6.6.6.6.e.-.-.-.6.r.h.l.z.m.m.C.m.m.m.m.m.m.m.m.C.x.l.l.l.x.C.C.C.C.C.C.C.C.C.C.x.l.l.l.l.l.z.z.l.l.l.l.k.k.l.k.s.h.h.h.h.h.h.h.r.r.r.r.r.r.r.r.h.h.h.u.e.e.h.h.h.h.e.e.h.u.h.e.e.e.e.e.e.e.e.e.e.e.e.e.e.e.e.e.k.f.m.C.C.A.H.J.H.K.J.L.H.H.K.J.P.E.D.H.b.b.D.D.B.B.z.b.B.V.J.J.S.S.C.C.S.C.z.s.6.e.h.l.s.r.6.2.r.r.C.C.C.S.z.x.l.l.h.h.h.h.h.h.e.e.h.h.h.h.h.h.h.h.h.h.h.h.h.h.h.h.k.h.h.u.h.h.u.u.h.k.k.l.l.l.l.k.k.l.l.k.r.3.q.q.l.x.b.C.x.x.z.l.k.k.k.l.l.l.l.k.k.k.l.l.l.k.h.h.l.l.l.x.h.e.h.h.l.l.h.h.l.x.l.l.l.k.k.k.k.k.h.h.h.h.h.h.h.h.h.h.h.h.h.h.k.k.h.h.h.h.h.h.h.h.h.h.r.h.r.r.h.h.h.h.h.h.h.l.l.l.l.l.l.l.k.k.l.x.l.l.l.l.l.l.l.l.s.s.s.s.l.l.l.l.s.s.s.s.s.s.s.s.k.k.k.s.s.l.z.z.z.z.z.z.z.z.x.b.C.C.C.m.x.z.z.z.x.x.b.b.z.l.k.k.h.h.s.s.s.s.s.s.s.s.s.s.h.h.s.s.k.k.k.h.k.k.k.s.l.l.l.l.l.x.B.C.A.S.C.C.C.C.C.C.C.C.S.F.F.F.m.z.e.r.k.s.l.l.z.x.z.l.k.h.h.k.k.s.h.h.e.e.e.e.e.e.l.x.C.A.C.C.A.A.C.C.B.x.x.b.C.C.C.C.e.-.:.| e.*.-.2.6.7.r.r.6.6.i.i.f.z.s.z.m.C.Z.Z.s.s.s.r.m.m.C.C.C.C.C.C.m.b.C.A.H.H.H.H.H.L.H.H.H.H.H.H.H.H.H.H.S.S.S.H.H.H.S.S.S.S.Z.S.S.S.S.S.S.A.C.C.C.A.C.C.m.m.b.b.b.m.s.s.s.s.f.s.r.7.6.7.s.b.m.C.C.m.z.z.f.s.i.i.i.i.c.c.0.9.1.<.1.1.0.0.c.n.c.c.n.c.c.c.c.c.i.0.0.0.i.i.f.c.c.c.f.i.i.9.c.f.7.9.T T ) / +.*.) +.s.s.6.7.7.7.r.7.r.r.9.5.2.1.+.....` ....*.*.8.*.+.+.( ( ( T W W T T T L ( ( L ( ....( ( A L l A n A h h Z k A C N C $ $ . . . . H.                                      ",
"                                                                      { = . y 2 C l r.6.6.6.....7.6.f.s.r.s.p.s.p.p.s.s.s.f.s.s.s.s.s.f.z.f.s.r.A n 6 e l k y y { Q 6.6.6.e.f.f.i.h.h h h h N N h h y 6 6 2 2 2 6 2 = $ $ $ . O 2 6                                 y 6 o o O $ y y W ( y y e 2 2 2 y y y u y y y q y y y y x x y y y y e e h y Q Y k h 2 2 6 6 6 6 6 6 6 y h h y y h h y y h h q 6 y y h l h h k l k j q q k j l l q y q q k j k j u u y y j v n A ......+.` ..w u w y q q k k l l l l k k l C k k h k C C C l j j j v v v j k v j j k q q k k k j J v v j j j v N j k j j k k v Z Z D C l A l C C Y [ [ [ V V y y y h h k C D C C k k h y l x J j j j b J J J J J J J v J J J J J J v v n n n v n n n n n A U v v v v n n n n n n n n n n n n U U A n n n n A U U A A A A A A C l [ [ { | C l l l [ { +.+.D C k k 6 6 h k { | | +.{ | [ D [ Q ( { { ( Q Q [ | [ { y y 6 6 h k 6 6 h h h h C A C A D D A C C C N C k C C D -.q.e.h.h.e.h.-.| | k C C C C C C C D C N k C C C C C A D Q [ Q D A C C A Q { | { { Q Q Q Q Q Q Y Q D D Q Q Q Q Q [ [ [ [ Q Q Q Q Q Q Q Q Q Q Q Q Q D Q Q Q Q Q Q Q Q Q [ [ [ { { { [ [ [ [ [ [ { { { [ [ [ { { [ [ { { { { { { { { { { { { | | | | D Q [ { | +.:.:.+.+.:.:.:.:.+.+.:.|  .[ | | :.:.:.:.:.%.-.:.:.:.| | | |  .| X.X.$.$.$.$.X.| | | | | | | | | | | +.+.+.+.+.+.+.+.:.:.:.#.| | | :.| | | | #.@.:.:.| | | | | | | | | | | | | | | | { X.*.3.*.3.r.p.7.r.p.p.p.r.r.k.z.b.r.e.Q n } } { } Q } X.+.3.3.3.3.+.X.+.{ Y Y Q Q [ [ [ Q D A Q Q *.*.-.e.:.:.| | [ [ [ [ [ [ [ [ [ [  . .| | | | | | | [ { |  . .|  . . .}  .[ }  .| X.X.$.$.X.|  . . .[ ] D F F  .| :.*.| :.X.X.|  .| | | | | |  . .| | |  .| | *.-.-.-.| [ C C D D [ [ | :. .| | | |  .| | | | | {  .} [ [ | | |  .|  . . .} } | | | | | | [ [ { { { { { { | |  . .| | | | X.X.X.X.| | $.$.X.X.$.X.X.| X.X.| | | | | | +.+.| | | | | | | | } { { { | | X.X.X.X.| | X.X.*.3.3.3.3.-.*.:.+.X.*.*.*.*.*.+.X.| { { | | | | | +.| | | { { { { { { } } } } } } { { { | | | | $.:.:.:.+.O.| | | | +.| :.+.+.+.Q D Y Y Y Q } } | | { } [ Q Y Q } } { { { { { [ Q D [ { :.-.:.*.6.e.:.:.:.:.:.%.-.q.-.;.[ [ C k [ D L Q Q ( { { { ( Q Q { +...+.6.r.7.7.{ { ( Q *.+.*.*.*.-.3.3.*.*.+.:.-.6.6.6.e.r.e.e.e.6.6.6.6.e.3.3.3.3.3.6.6.3.6.6.6.6.6.7.r.r.6.7.7.6.6.6.6.6.6.6.8.*.+.{ X.+.+.+.+.+.+.+.+.{ Q ( { +.*.*.3.3.*.*.+.+...' ' ' 1.,.' ` R R L L L K ' ' ` ` ' ` ,.,.,.' ' ` ` R ( ` ` ` ..` ` ` ( T ` ` J T u y u y y i r y J L k x x x l l l l J j j u k y y y y y l n n v k h y y y y y y y y 6 2 y y y y v v l l y y 2 6 2 2 = = 6 6 l l N l $ $ . . . . H.                                      ",
"                                                                      6.. = 3 6 C C 3.*.6.2...{ 7.6.p.r.7.r.r.r.p.p.s.s.f.z.z.f.s.s.s.f.z.z.s.s.A n e 6 k k y y { ( 6.6.6.7.l.z.s.i.h h 6 6 h h h h y 6 3 3 3 2 y 6 , = $ $ . o , ,                                 y 6 o o O $ k k ) ) y y 2 1 e e y y u y k i y q y y y y k x x x y k y y y e ( ( x k 1 1 2 2 2 2 6 6 6 6 y h y y h h 6 y h h y q y y h k y y k N k k u y j j h h q y y q k y u k q y y q k h l n ........` ..q w u u w y u y h l n l k h k l h k y h k k D C v j j v v v j k k N h j j y k j k k v v j j j j j k k k j j k k j Z C A l k A l k k Y Y [ [ k k y y y h k l C D Z D l l x h v l J j j j j J J j j j j j j j j j v v j v x x x x n n n J A A U U n n n n n n U U n n U U U U U U Y Y Y Y U U U U A A A A Z Z Z A D A [ [ { | A A A A { | +.+.D A k k 6 y h k [ [ +.:.{ { [ D [ Q { { ( Q U Q [ { [ [ y y 6 6 h h h h h k h k C A C A D D D A A A C N h k k C :.%.e.h.e.e.h.-.[ D C C D D D Z D D C C k k C C N N l C A D D D A C A A A A D Q Q Q [ [ [ [ Q Q Q [ D Q [ [ [ [ [ { { { { { [ [ [ [ [ [ [ [ [ [ [ [ [ [ [ [ [ [ [ [ { { { { { { { { { { { { | | | | | | { | | | | | { { { { { { { { Q [ [ [ [ [ [ [ [ { { | | +.:.:.+.+.+.+.+.+.+.| | | | | | | | | :.:.:.:.:.:.:.:.X.X.X.X.X.$.$.$.:.:.:.:.:.$.X.X.+.+.+.+.:.+.+.+.+.+.+.+.:.:.:.+.:.:.:.:.:.:.:.:.:.:.:.| #.:.:.:.| | | | @.@.@.| @.@.@.@.:.:.@.| X.X.*.3.*.*.6.6.r.r.p.k.k.p.k.s.l.l.r.3.} D [ Y | X.} | X.+.-.*.3.3.+.X.+.{ } } Q Q D D D D A A { [ :.:.-.e.:.:.| | | |  .| | [ | | | | | @.@.:.#.#.O.| | | | | | X.$.X.X.X.X.X. .| X.$.$.:.:.:.$.X.X.| | |  .[ } [ X.X.$.*.$.:.:.:.$.$.X.$.$.$.$.X.X.X.X.X.X.| :.| *.*.-.-.| [ D Z D D [ | :.:.| | | | | | | | | | | | | | | | :.| | @.| | | | | | | | :.| | | | | | | | | | | | | | | | O.:.:.$.$.:.:.$.$.$.$.$.:.$.$.$.$.:.:.:.:.+.+.+.+.+.:.+.+.+.+.+.+.+.+.X.X.X.X.X.X.X.X.X.X.X.X.X.:.*.3.3.3.-.-.*.*.X.| *.-.3.3.*.*.+.X.+.+.+.+.+.+.:.:.:.+.+.| { | | | X.X.| | { { { { { { | | | | $.:.*.:.+.+.| | | | +.| +.| { | Q Q { } [ [ } { | | } } } [ [ } { | [ [ [ [ { [ Q D { [ | :.+.*.-.-.$.:.:.:.:.%.-.q.:.:.[ [ D C [ D Q Q Q ( { { { ( { { +.+.+.*.7.r.6.2...{ { { +.+.*.*.*.*.-.3.*.*.*.*.-.-.-.6.6.e.6.6.6.6.6.6.6.6.3.3.3.3.3.3.*.*.3.6.6.6.6.6.6.6.6.6.6.6.6.3.3.*.6.6.3.*.+.X.X.+.X.X.X.X.{ { { { X.+.+.+.*.*.3.6.+.+.+...' ' ' ` <.' ` ` ` R R L R R ' ,.' ' ,.' ` ` ` ` ` ` R R ( ( ( ` ` ( ` ( T L T T v L y u i u y y y y v x x x x x l l k x j j u k k x h y y k l n n l h y q y y k y y q q y q y y y u n L v l y y 2 2 1 2 = = 2 2 l C N N $ $ . . . . H.                                      ",
"                                                                      +.= $ Q D A A *.*.s.s.7.6.z.s.m.b.f.z.s.s.z.z.z.f.f.s.s.p.p.s.s.f.f.f.z.z.n A y 6 y y y y +.{ 6.8.*.*.r.r.+.:.2 6 6 6 [ [ | { [ A l k l C l C h h 6 6 $ $ 3 ,                                 y 6 O o O $ y y W ) e e 2 2 2 2 2 2 2 2 2 2 1 1 2 2 2 2 u u x x y h 2 2 6 2 k k e e , = , , = = = = = , , , 3 , 3 3 , , , , , 1 6 6 6 2 , 1 2 2 2 < 1 1 1 1 < 2 < 2 < 1 2 2 1 2 , 1 , , 2 2 e y x k y y u u u q y y q q y y 2 6 e e 6 2 2 6 6 e 2 2 2 6 h k k u y u y y u w w u q w y w u w q q u u u w u u u u q q u u w q y y q y 6 6 y y A n n l U Q l A 1 2 6 6 6 6 6 6 6 6 3 3 3 , 2 2 u q 9 9 q q q q 9 q q q q 9 9 q q w q q q q q q 2 2 6 6 6 6 2 2 2 2 2 2 2 2 2 2 2 2 2 2 2 2 2 2 2 2 2 2 2 2 2 2 2 2 2 2 2 2 2 2 2 2 6 6 6 6 2 2 6 2 6 6 y y 2 2 h y 2 2 2 2 y 6 y y 6 6 6 6 h h x h y y y y k k h h 2 6 2 2 3 3 3 , 3 2 , 3 2 2 , 3 3 3 2 2 2 2 h 6 2 6 2 6 C C C C C C D C k h 2 6 6 6 2 2 2 2 6 6 6 2 2 2 2 2 6 6 6 y 6 6 6 6 y y y y y 6 6 6 6 6 6 6 6 6 6 6 2 6 6 6 6 6 6 6 6 6 6 6 6 6 6 6 6 6 6 6 6 6 6 6 2 6 6 6 2 2 2 2 6 6 6 6 6 6 6 6 2 2 2 2 2 2 6 6 2 2 2 2 6 6 6 6 6 6 6 2 2 2 2 2 6 6 6 6 6 6 6 6 6 6 6 6 6 6 6 q y 6 6 6 6 6 6 6 6 6 6 6 6 6 6 6 6 6 6 6 6 6 6 6 6 6 6 6 6 6 6 6 6 6 6 6 6 6 6 6 6 6 6 2 2 2 2 2 2 2 6 6 6 6 2 2 6 6 6 6 6 6 6 6 6 6 6 6 2 2 6 6 6 6 6 6 6 6 6 6 2 2 6 6 6 6 6 2 6 6 y y y y y y e e e e e e y y h y y y 6 6 h 6 6 y 6 e y 6 h 6 6 e 6 6 e e 6 y h h q y y y 6 6 6 6 6 6 6 6 2 2 2 6 6 6 6 6 6 2 6 6 6 2 2 6 6 6 6 6 6 6 6 6 6 6 6 6 6 6 6 6 6 6 6 6 6 6 6 6 6 6 6 6 e e g g d 6 e 6 h 6 6 g 6 g 6 6 6 6 6 6 6 6 e e 6 6 6 6 6 6 d 6 h d h h 6 2 d 6 2 2 6 6 6 6 6 6 6 6 6 6 6 6 6 6 6 6 6 6 6 6 6 6 6 6 6 6 6 6 6 6 6 6 6 6 6 6 2 2 6 6 6 6 6 6 6 6 6 6 6 6 6 6 6 6 6 6 6 6 6 6 6 6 e 6 6 6 6 6 y 6 6 6 6 6 6 6 6 6 6 6 6 6 6 6 6 6 6 6 6 6 6 6 6 6 6 6 6 6 6 e e e 6 6 6 6 2 1 6 e e e 6 6 6 6 6 6 6 6 6 6 y y y 6 6 6 6 6 6 6 6 6 6 6 6 6 6 6 6 6 6 6 6 6 6 6 y y q q 6 6 6 6 6 2 6 6 6 y 6 y h e 6 6 6 6 6 6 6 6 6 6 6 6 6 6 h h h h h h y q y 6 6 6 2 6 6 6 h h g 6 6 6 6 d h h 6 h h f f 6 y y y y y y y y 6 6 y y q q y y y y 2 2 2 2 6 6 y y y y h h h h h h h h h h k k h h h h h h h h h h h h y y y y y y y y h h y y y y y y y y y y y y y y y y y y y h h h y y y y y y y y y y y h k h h h i x p u p u u u u u u 0 t w u u t t p u u u u u a a a u j j j j j j j j u u u k y y 9 q y q q 2 2 q y q y y q y y y q q y q 6 y y y y 6 2 6 e y e 2 2 1 , 1 2 2 2 1 1 1 1 , 2 2 1 2 y y 6 2 1 1 = < = = = = 2 2 Z A Z Z O $ . . . . H.                                      ",
"                                                                    r.r.$ $ [ Q C A X.+.s.f.r.r.z.f.m.b.s.s.r.r.z.z.z.z.z.f.s.s.s.s.f.f.s.f.z.m.v n e 2 y 6 e y +.{ r.6.*.3.r.r.:.:.2 2 3 , { { | { Q C l k l l C C y h y 6 $ O . 2                                 y 6 O o O $ y y W W 2 2 1 1 2 1 2 2 1 2 2 2 1 2 r r 2 9 u u A L y k 1 2 2 2 k k e 6 = = , , = = $ $ = = , , , , , , = = , , , 1 y y 6 6 1 2 2 1 2 < < 2 < < < q 2 2 < 1 2 2 2 2 , 1 , , 2 1 y y h y y y q y u y u y 2 2 2 2 1 2 2 6 2 2 2 2 6 e 2 2 2 2 h h k u u u u u w w u j w y u y y u q q u y u u y u u y q q q q w q 6 6 2 6 2 2 y y A A l k U U h l , 1 2 6 6 6 6 2 h y 2 3 3 2 e e 6 q 9 9 9 9 9 9 9 9 9 9 9 9 9 9 q q q q q q 2 2 6 6 q q q q 6 6 2 2 6 2 2 2 2 2 2 2 2 2 2 2 2 2 2 2 6 2 2 2 2 2 2 2 2 2 2 2 2 2 2 2 6 6 6 6 6 6 y 6 y 6 6 y 6 6 y y 6 6 2 2 6 6 y h 6 6 6 6 k k h y y y y y h h y y 2 2 2 2 , 3 2 3 2 2 3 2 2 2 3 , , , 3 2 6 6 6 6 2 6 6 6 C C C C k k C C k h 6 6 6 6 6 2 2 2 6 6 6 2 2 2 2 2 6 6 6 6 6 6 6 6 y y y y 6 6 6 6 6 6 6 6 6 6 6 6 6 6 6 6 6 6 6 6 6 6 6 6 6 6 6 6 6 6 6 6 6 6 6 6 6 6 6 6 6 6 6 6 6 6 6 6 6 6 6 6 6 6 6 6 6 6 6 6 6 6 2 6 6 6 6 6 6 6 6 6 6 6 6 6 6 2 6 6 6 6 6 6 6 6 6 6 6 6 6 6 y 6 6 6 6 6 6 6 6 6 6 6 6 6 6 6 6 6 6 6 6 6 6 6 6 6 6 6 6 6 6 6 6 6 6 6 6 6 6 6 6 6 6 2 2 2 2 2 6 6 6 6 6 6 6 6 6 d 6 6 d 6 6 6 h h h 6 6 6 6 6 d d f h h h 6 6 6 6 6 6 d d d 6 y e y y y y y e y y y y y y y y 6 2 6 6 y 6 h q e y 6 e 6 6 y 6 2 6 6 6 e e 6 y q 6 6 6 y 6 6 6 6 6 6 6 6 6 2 2 6 6 6 6 f f 6 6 6 6 6 6 6 6 6 6 6 6 6 6 6 6 6 6 6 6 6 6 6 6 6 6 e e 6 6 6 6 6 6 6 6 e h h g h g h e h e g g 6 g e e e e e 6 g g g e 6 6 e e g 6 h 6 h h h k d h h f 6 6 6 6 6 6 6 6 6 6 6 6 6 6 6 6 6 6 6 6 6 6 6 6 6 6 6 6 6 6 6 6 6 6 6 6 6 6 6 6 6 6 6 6 6 6 6 6 6 6 6 6 6 6 6 6 6 6 6 6 6 6 6 6 e 6 6 6 6 e 6 6 6 6 6 6 6 6 6 6 6 6 6 6 6 6 e 6 6 6 6 e 6 6 6 6 6 6 6 6 6 6 6 6 6 6 6 6 2 2 6 6 e e 6 6 6 6 y y 6 6 6 6 y y y 6 6 6 6 6 6 6 6 6 6 6 6 6 6 6 6 6 6 6 6 6 d h 6 6 6 6 6 6 6 6 6 2 6 6 6 y 6 y h y e e 6 e e 6 e 6 6 6 6 6 6 e 6 6 6 6 y y y y h y y 6 2 2 6 6 h h g e 6 6 6 6 6 6 6 h h h 6 6 q q q q y y q 6 y q y y y y y q y 6 6 6 6 6 6 6 y e 6 6 e h h h h h h h h h h h h y y y y y y y y y h y y y y y y y y y h h y y y y y y y y y y y y y y y h y y y y y y y y y y y y h h y y h k y y y y y y u u u u u u u u t r p p a p u p H p u t u t u p u p j k j j k k k u y u y u y u 9 q y y q 2 q q q q 2 2 6 6 6 6 6 6 y e q y y y y e e e 6 6 2 2 2 1 1 2 2 2 2 2 2 2 2 2 2 2 1 2 e e q q < < - 1 < < & & , 1 N A A A O $ . . . . H.                                      ",
"                                                              $ . $ $ $ 3 2 l A k l Q ( r.p.6.6.r.r.z.z.s.z.z.b.z.f.z.z.z.z.z.f.s.s.f.z.z.z.z.z.l v 2 2 e 2 2 2 X.X.s.s.r.r.f.f.2 2 . . $ $ 6.e.m.z.s.r.r.7.7.7.Q A y y y y 1 = 6 $ = . .                           h 6 O . O $ x l ) ) 2 2 2 2 2 2 e e 2 6 y y y y u u 9 u b J +.+.A Q e y y k Q Y h y , , 3 , , , , , , 3 3 3 2 3 2 1 , , 2 2 h h A A A D l Z L l Z l C Z j j y j q q q q y y q y 2 6 6 2 y 6 y y k h h x h l y y l x h l k k h h k k x k k x x x y y h h n A v v j j u u u u u j w w u u u y y u y y y u u u u u k u u u u u h h y h y y A U { X.{ { *.+.v A 6 6 y h k l l l h y 3 3 2 2 y y y y y y y y y y y y y y y y y y y y y u j y q q y q q q y y y q y e e e e e e e 6 6 e 6 e e e e 6 6 6 6 6 6 6 6 y y q y h h h h 6 6 6 6 d d h d h 6 h h h k 6 h h h h y y h h k k k y y y y l C ( ( [ [ Q Q [ [ D C h 6 6 h 6 6 6 6 6 6 6 6 h 6 6 6 2 2 6 h k k C k h k h h C C D D C C D D C C h h h h h h h h h h h h h d h h 6 y y y h h h h h h h y y 6 6 6 y y y y y 6 y y y y h y y y h h h y h h h h h y h h h h h y y y 6 y h h h h y h y y h h h y y y h h h h h h h h h h h h h h h h h y h y h y y 6 h h h h h h h h h h h h h h h k h h h h h h h h h h h h h h h h h h h h h h h h h h k k k k k k h k h h h h k k k k k h h h h k h h h h h h h h h h h h h h h h k k h h h h h h h h h h h h h h h h h h h h h h k h l C l l l k k k k k k k k k C k A k C k C k l C k l l h l h k k h h k k h h k k k k k k k h y h y h h y h h h h h h h k h h h h h k k k h h h h h h h h h h h h h h h h h h h h h h h h h h h h h k h k k k h h k h h k h h k k h h k k k k h h h h h h h h h f k h h k h k k h h h h h h h h h h h h h h h h h h h h h h h h h h h h h h h h h h h h h f h y y h y h h h h h h h h h h h h h h h h h k h h h h h h h h h h h h h h h h h h h h h h h h h h k h h h h k k k k k k h h h h h h h h h h h h h h h h h h h h h k h h h h h h h h h h h h h h h h h h h h h h h h h h h h h h k h h k k k k k k k h k h h h y h h h h h h h h h k k h h h h h k k k h k k l l l k h k h h y k k h h h h k k N C k k C C C C C k l l l l C l l N h h h N h k N h k h h y y h h k k k h h k k k C C A A A A A A C A A C C C C C C n n n n C l l l k l l C C C l l l l k l l l l l C C l l l l k k C C n C C C C C C C A C l l C A A A n n n n n n b J J J J J J H J j H J H j J j J J J J J J L J J J J J J J v v j v j J k x u u h h y y h h h h k h y y y h h h h h y h h k k k k h h y e e 6 e 2 2 6 6 6 6 6 6 k h h h 6 e h y y w < 2 - < - - 1 1 q q v v N k . $ . . . . H.                                      ",
"                                                          . $ . $ $ , $ 3 , C D h k n Q p.s.r.r.s.s.b.z.s.f.f.z.z.z.z.z.z.z.f.s.z.f.f.z.z.z.z.s.x x 2 1 e 2 2 1 +.+.z.z.s.p.f.s.2 6 O . $ O e.h.m.z.s.r.r.r.r.7.U v 6 y y y 1 = = , O $ . . =                       y 6 O . O $ h k ) ) 2 2 2 2 2 2 e e 2 2 y y u r u u r u J T *.*.U Q 6 y h k Q D y y , , 2 1 , , , , , , 3 3 3 , 3 3 , , 2 2 h h C A D Q Z A A l A l l Z h j k k q q q q y y y y 6 e e 6 y y y y h h y k y x h y v l h x y y k h h h k k k k k k y h x x v l j v v j k u u k u v w w u u y u u u y y y u u u y u k j u u u k h h y y e y A Q +.+.{ Q +.X.l A 6 6 y h h h h h h y 2 3 2 2 h h h k x x y y y y y y y y y y y y q y y y y y y y y y y y y y y y e e e e e y y y e e e e e e y y y y q q q q q y q q q q q h h y 6 6 6 6 h h h 6 6 6 k k k k h h h h h q 6 y h k h k y h h h A A Q ( { [ Q Q Q [ A l h d 6 h 2 2 6 2 6 6 6 d h h 6 2 2 3 2 h k N k k h h h k D C C C C C D D C C h k k k k k k k h g g d 6 6 h h y y y h h h h h h h h y y y y y y y y y y y y y h h h h h h h h h h h h h h h y h h h h h y y y 6 6 y h h h h h y y h h h h h h h h h h h h h h k h h h h h h h h h h h h h h h h h h h h h h h h h h k k k k k h h h h h h h k h h h h h h h h h h h h h h h h k k k k h h k k h h k h k k k k h h k k h h h k h h k k k k k h k k h h h k k k k k k k h h h h h k k k k k h h k h h h k k k k N h l Z l C l N N N l l l l l N k h A k C l A A l C h k k h k h h k h h k k h h k h h k k k k h y h h h y 6 h y h h h h h h h h h h h k h k h h h h h h h h h h h h h h h h h h h h h h h h h h h h h h h h k k h h k h h k h k h h h h h h h h h h h h h h h h h h k h h k h k N k h h h k h h h h h h h h h h h h h h h h h h h h h h h h h h h h h h h f f f y y h h h h h h h h h h h h h h k h h h h k h h h h h h h h h h y h h h h h h h h h h h h h h h h h h h k k k k k k h h h h h k y h h h h h h h y h h h h h h h h h h h h h h h h h h h h h h h h h h y h h h h h h k h h h k k h h h h h h k k h h k h h h y h h h k k k k k k k k k h h h k k h h h h k k k k l k k h y y h h k h h h k k k N N k C k k k k C k k N l l l l N N h h k h h h h l h h y y k h k h h h h h k k l l C C A A A C C C C C l l l l C n n n n l l l C l l l C Z Z Z C C l l l l C l l C C n C l l C C C l l l C C A A C C A C l l C A A A n v v x x x p b J J b j j J v j J J j v J v J J J J v v J J J J J J J J v v j J j J j j u u y h y y h h h k h h y y y y y y y h h h h k l l l k h e 6 6 6 e 6 2 2 6 6 e 6 6 k h h h 6 6 y y q q 1 2 - < 1 1 & = q q Z Z N k . $ . . . . H.                                      ",
"                                                          . . . . . 3 3 6 h { +.C C X.{ z.m.6.r.r.r.s.p.z.s.z.z.z.z.z.z.z.z.f.s.z.z.f.f.f.f.s.s.A Q = 2 6 2 y y Q | r.r.-.:.{ :.6 y . . $ $ r.r.C.C.m.m.m.m.C.S.+.X.y y n U y h , 2 $ $ $ $ ,                       h 6 . . $ $ y y ) W k y 2 2 y y 2 2 6 2 x h y y 9 u u u p j h k y y , 1 = 1 1 3 , , = = = = , , , , = = , , , , , , , , , , , , , 3 1 3 3 , 2 2 1 3 3 , 1 1 < 1 , , , 3 1 1 3 3 3 3 2 2 2 2 1 1 2 2 2 2 2 2 1 2 2 2 2 2 2 2 2 2 2 2 2 2 2 2 2 2 1 1 1 1 2 2 9 2 2 2 9 9 q q 9 9 2 ; ; ; 1 2 1 1 1 1 2 2 2 < 2 2 < ; ; ; 1 2 , , , = = = 1 2 2 2 6 2 2 2 1 , 3 3 2 2 3 3 3 3 , , , , = , 3 3 2 2 2 1 1 1 2 2 , 1 2 2 2 2 2 2 < < < < < 2 2 2 1 2 2 2 2 2 2 2 3 2 2 2 2 2 2 6 2 2 2 2 2 2 2 2 2 2 2 2 2 2 2 2 2 2 2 2 2 2 2 2 3 3 3 3 3 3 3 3 3 3 4 2 2 3 3 3 , 3 3 2 2 3 , , , 3 3 , = = = , , , , , = = = = $ $ $ : , , , , $ , , , , , , , , $ $ $ , , 3 3 3 3 3 3 3 3 3 3 3 3 3 2 2 3 3 , 3 3 3 3 3 3 3 3 3 3 3 3 3 3 2 2 , 3 3 2 2 2 2 2 2 2 2 2 2 2 3 1 2 2 2 2 2 2 2 2 2 2 2 2 2 2 2 2 3 2 2 2 2 2 2 2 2 2 3 3 3 2 2 2 2 2 3 3 2 1 2 2 2 2 2 2 2 2 2 2 2 2 2 2 2 2 6 6 2 2 2 2 2 2 2 2 6 2 2 2 6 6 2 2 2 2 6 2 2 2 2 6 2 6 6 2 2 2 2 2 2 2 2 2 2 2 6 6 6 6 2 2 2 2 2 2 2 2 2 2 6 6 6 6 6 6 6 6 6 6 6 6 6 6 6 6 6 6 6 2 2 2 2 6 6 6 2 2 6 6 2 2 6 6 6 6 6 6 6 2 2 2 2 6 2 6 6 6 2 2 2 2 2 2 2 6 6 6 6 2 2 2 2 2 2 2 2 2 2 2 6 6 6 6 6 6 6 2 2 2 6 6 2 2 2 2 2 2 2 2 2 6 2 2 2 2 2 2 2 2 2 2 2 2 2 2 2 2 3 2 2 6 6 6 6 6 2 2 2 2 2 2 2 2 3 3 2 2 2 2 2 2 2 2 2 2 6 6 6 6 2 2 6 6 6 6 2 2 6 6 6 2 2 2 6 6 6 6 6 6 6 6 6 6 6 6 6 2 2 2 2 2 6 6 6 2 2 2 2 2 6 6 6 6 6 6 6 6 6 2 2 2 2 2 2 2 6 6 6 2 2 2 2 2 2 2 3 3 2 2 2 2 4 2 2 2 2 2 2 4 4 4 4 4 2 2 2 2 2 2 2 2 2 2 2 2 6 6 2 2 2 2 6 6 6 6 2 2 2 2 2 2 2 2 2 2 2 2 2 6 2 2 6 6 6 2 2 2 2 2 2 2 2 6 6 6 6 2 2 2 2 2 2 2 2 2 2 2 2 2 2 2 2 2 2 6 6 6 6 2 2 2 2 2 2 2 2 2 2 2 2 6 6 6 6 6 2 2 2 2 2 2 2 2 6 6 6 6 6 6 6 6 6 6 2 2 2 2 6 6 6 6 6 6 6 6 2 2 2 2 2 2 6 6 6 6 6 6 6 6 6 6 6 6 6 6 2 2 2 2 2 2 6 6 2 6 6 6 2 2 2 2 2 6 6 6 2 2 2 2 2 2 2 2 2 2 2 2 2 2 2 2 2 2 2 2 6 6 6 6 6 2 2 2 2 2 6 6 6 6 2 2 6 6 6 6 6 6 6 6 2 2 2 6 6 6 6 2 2 2 2 2 6 6 6 6 6 6 6 6 e e 6 6 y y y y y y y y 6 6 6 6 y y h y e e y y y y y y y y y y y y h y y y y 6 6 6 y y 6 6 6 6 6 6 6 6 6 6 6 6 6 6 6 6 6 6 6 6 6 6 e 6 e 2 2 6 2 r y r 2 2 2 2 2 2 2 2 9 2 9 2 9 2 9 2 9 2 9 2 9 9 w q 9 9 2 9 9 9 9 9 9 2 2 9 9 9 2 2 6 2 2 2 2 2 2 2 2 2 2 2 2 2 2 2 2 2 2 2 6 6 6 2 3 , , , , , > * $ > $ $ h 6 n C F C g 6 h h h u j u j u 9 2 < < q y A L k h O . . O . . H.                                      ",
"                                                          . . . . . 2 2 6 y [ [ k k { { z.b.6.7.r.r.s.s.z.f.b.b.z.f.f.f.z.f.s.s.z.z.f.s.f.s.s.s.A U 1 2 y y y 6 { +.6.6.*.:.| +.y e O . O * r.s.C.C.m.m.m.m.C.S.+.X.k y n U y y 3 2 $ O $ $ ,                       h 6 O O $ $ y y Q W x k 2 2 y y 2 2 2 2 k y y y u u u u u u l l y e 1 2 1 1 , , , , = = = = , , = = = = , , , , , , , , , = , 3 3 2 2 2 3 3 2 2 2 2 2 2 2 2 1 , , , , 3 , , 2 2 2 2 2 2 1 2 1 1 1 2 2 2 2 2 2 2 2 2 2 1 2 2 1 2 2 2 2 2 2 2 2 2 1 1 1 1 2 2 2 2 2 2 9 9 9 q 9 9 2 1 1 1 1 2 1 1 2 2 2 2 < < 2 2 2 < 1 1 2 1 , 1 1 , , , 1 2 2 2 2 2 2 1 1 3 3 2 2 2 3 3 , , , , , , , , 3 3 2 2 2 2 2 2 2 2 , 1 2 2 1 1 1 1 2 2 2 2 2 2 2 2 2 2 2 2 6 6 6 6 3 2 2 2 2 2 2 2 2 2 2 2 1 2 2 2 6 6 6 2 2 2 2 2 2 2 2 2 2 2 q 6 3 3 3 3 3 3 3 3 3 3 2 2 2 3 3 3 3 3 3 3 3 3 , , , 3 3 3 , , , , , , , , , , , , $ $ $ $ , , $ $ , , , , , , , , , , , , , 3 3 3 2 3 3 3 3 3 3 3 3 3 3 3 3 3 3 3 3 3 3 3 3 3 3 4 3 3 3 3 3 3 3 3 , 3 3 3 3 3 2 2 2 2 2 2 2 2 3 3 2 2 2 2 2 2 2 2 2 2 2 2 2 2 2 2 2 2 2 2 2 2 2 2 2 2 2 2 2 2 2 6 2 2 2 2 2 2 2 2 2 2 2 2 6 6 6 2 2 6 2 2 6 6 6 6 6 2 6 2 2 2 2 2 6 6 6 6 6 6 6 6 6 6 6 6 2 6 6 6 6 6 6 6 2 2 2 6 2 2 2 2 6 6 6 6 6 6 2 2 2 2 6 6 2 2 2 6 6 6 6 6 6 6 6 6 6 6 6 6 6 6 2 2 6 6 6 6 2 2 6 6 6 6 6 2 2 2 2 2 6 6 6 6 6 6 6 2 2 2 6 6 6 6 6 6 6 6 6 6 2 2 6 6 6 6 6 6 6 6 6 2 6 6 6 6 2 2 6 6 6 6 6 6 6 6 6 6 q 6 6 2 2 2 2 6 6 6 6 6 6 6 6 2 2 2 2 6 6 6 6 6 6 2 2 2 2 2 2 6 6 6 6 6 2 2 2 2 2 2 2 2 2 2 2 2 6 6 2 2 6 2 2 6 6 6 6 6 6 6 6 6 6 2 6 2 6 6 6 6 6 2 6 6 6 6 6 2 6 6 6 6 6 6 2 2 2 2 6 2 6 6 6 2 6 2 6 6 6 6 6 6 6 6 2 6 6 6 6 6 6 6 6 6 6 6 6 2 2 2 2 6 2 2 2 2 2 2 2 2 2 2 6 6 2 2 2 2 2 2 4 2 2 6 2 6 2 2 2 2 2 2 6 6 6 6 2 2 2 2 6 6 6 6 2 2 2 2 2 2 2 2 6 2 2 2 2 6 2 2 6 6 6 6 2 2 2 2 2 2 6 6 6 6 2 2 2 2 2 2 2 6 2 2 2 2 2 2 2 2 2 2 2 6 6 6 6 6 6 2 2 2 6 6 6 6 2 2 2 6 6 6 6 6 6 6 6 2 2 2 2 2 6 6 6 6 6 6 6 6 6 6 6 2 6 6 6 6 6 6 6 6 6 6 6 2 6 6 6 6 6 6 6 6 6 6 6 6 6 6 6 6 6 6 6 6 6 6 6 6 6 6 2 6 6 6 6 2 2 2 2 6 6 6 6 6 2 2 2 2 2 2 2 2 2 2 2 2 2 2 2 2 2 6 6 6 6 6 6 6 6 6 6 6 6 6 6 6 6 6 6 6 6 6 6 6 6 6 6 6 6 6 6 6 2 2 2 2 2 2 6 6 6 6 6 6 6 e 6 6 6 6 6 y y y y 6 y y 6 6 6 y y h h h e e y y y y y y y h y y y y y 6 q q 6 6 6 6 y y 6 6 6 6 6 6 6 6 6 6 6 6 6 6 6 6 6 6 6 6 6 6 e 6 6 6 6 q q y y r 2 2 2 2 y y 2 2 q 2 2 2 2 2 6 2 2 2 2 2 2 2 6 q 9 9 9 9 9 9 9 9 9 9 9 9 9 6 6 6 6 6 6 6 2 2 2 2 2 2 2 2 2 2 6 2 2 2 2 2 6 2 6 2 1 3 3 1 3 3 > $ $ $ $ $ h 6 V C n V g e h h h u j k j j 9 9 8 < y y A A k h O . . O . . H.                                      ",
"                                                        . . . . . . 6 2 2 6 D A h k Q { z.b.6.r.7.7.s.s.b.z.m.m.m.m.m.m.m.b.z.z.z.z.s.s.s.s.s.r.6.3.Q ( +.+.U A . . $ $ O O . . 6 y h h A v p.r.m.m.m.m.m.m.m.C...X.h h n A e y 2 2 O . $ O ,                       g e O $ $ $ y y W A x x q q 9 2 ; 9 r u u u y k k v y y 2 2 , = . . . . . . . . . . . . . . . . . . . . . . . . . . . . . . . . . . . . . . . . . . . . . . . . . . . . . . . . . . . . . . . . . . . . . . . . o o . . . . . . . . . o . . . . . . . . o o . . O O O O O O O O X X . . . . . . . . . . . . . . . . . . . . . . . . . . . . . . . . . . . . . . . . . . . . . . . . . . . . . . . . . . . . . . . . . . . . . . . . . . . . . . . . . . . . . . . . . . . . . . . . . . . . . . . . . . . . . . . . . . . . . . . . . . . . . . . . . . . . . . . . . . . . . . . . . . . . . . . . . . . . . . . . . . . . . . . . . . . . . . . . . . . . . . . . . . . . . . . . . . . . . . . . . . . . . . . . . . . . . . . . . . . . . . . . . . . . . . . . . . . . . . . . . . . . . . . . . . . . . . . . . . . . . . . . . . . . . . . . . . . . . . . . . . . . . . . . . . . . . . . . . . . . . . . . . . . . . . . . . . . . . . . . . . . . . . . . . . . . . . . . . . . . . . . . . . . . . . . . . . . . . . . . . . . . . . . . . . . . . . . . . . . . . . . . . . . . . . . . . . . . . . . . . . . . . . . . . . . . . . . . . . . . . . . . . . . . . . . . . . . . . . . . . . . . . . . . . . . . . . . . . . . . . . . . . . . . . . . . . . . . . . . . . . . . . . . . . . . . . . . . . . . . . . . . . . . . . . . . . . . . . . . . . . . . . . . . . . . . . . . . . . . . . . . . . . . . . . . . . . . . . . . . . . . . . . . . . . . . . . . . . . . . . . . . . . . . . . . . . . . . . . . . . . . . . . . . . . . . . . . . . . . . . . . . . . . . . . . . . . . . . . . . . . . . . . . . . . . . . . . . . . . . . . . . . . . . . . . . . . . . . . . . . . . . . . . . . . . . . . . . . . . . . . . . . . . . . . . . . . . . . . . . . . . . . . . . . . . . . . . . . . . . . . . . . . . . . . . . . . . . . . . . . . . . . . . . . . . . . . . . . . . . . . . . . . . . . . . . . . . . . . . . . . . . . . . . . . . . . . . . . . . . . . . . . . . . . . . . . . . . . . . . . . . . . . . . . . . . . . . . . . . . . . . . . o o o . . . . . . . . . . . . . . . . . . . . . . . . . . . . . . . . . . . . . . . . . . . . . . . . . . . . . . . . . . . . . . . . . . . . . . 1 , h h h e 6 6 6 h y u k u H j 9 9 < < y q v l y y O O . O . . H.                                      ",
"                                                        . . . . . . 6 6 2 2 l k k l Q ( f.z.7.r.6.6.s.s.b.z.m.m.b.b.z.z.z.z.z.z.z.f.s.s.s.s.s.p.*.+.{ { +.*.x x O . O O O $ . . y 2 A k x v 6.p.m.m.m.m.m.m.m.m...X.h h v n e y 6 2 O . O O ,                       e 6 $ $ $ $ y y L n k k q q 2 9 9 r u u u u u u x v y y = , = & o O . . . . . . . . . . . . . . . . . . . . . . . . . . . . . . . . . . . . . . . . . . . . . . . . . . . . . . . . . . . . . . . . . . . . . . . . . . . . . . . . . . . . . . . . . . . o . . O O O O O X X X X X X X . . X X . . . . . . . . . X . . . . . . . . . . . . . . . . . . . . . . . . . . . . . . . . . . . . . . . . . . . . . . . . . . . . . . . . . . . . . . . . . . . . . . . . . . . . . . . . . . . . . . . . . . . . . . . . . . . . . . . . . . . . . . . . . . . . . . . . . . . . . . . . . . . . . . . . . . . . . . . . . . . . . . . . . . . . . . . . . . . . . . . . . . . . . . . . . . . . . . . . . . . . . . . . . . . . . . . . . . . . . . . . . . . . . . . . . . . . . . . . . . . . . . . . . . . . . . . . . . . . . . . . . . . . . . . . . . . . . . . . . . . . . . . . . . . . . . . . . . . . . . . . . . . . . . . . . . . . . . . . . . . . . . . . . . . . . . . . . . . . . . . . . . . . . . . . . . . . . . . . . . . . . . . . . . . . . . . . . . . . . . . . . . . . . . . . . . . . . . . . . . . . . . . . . . . . . . . . . . . . . . . . . . . . . . . . . . . . . . . . . . . . . . . . . . . . . . . . . . . . . . . . . . . . . . . . . . . . . . . . . . . . . . . . . . . . . . . . . . . . . . . . . . . . . . . . . . . . . . . . . . . . . . . . . . . . . . . . . . . . . . . . . . . . . . . . . . . . . . . . . . . . . . . . . . . . . . . . . . . . . . . . . . . . . . . . . . . . . . . . . . . . . . . . . . . . . . . . . . . . . . . . . . . . . . . . . . . . . . . . . . . . . . . . . . . . . . . . . . . . . . . . . . . . . . . . . . . . . . . . . . . . . . . . . . . . . . . . . . . . . . . . . . . . . . . . . . . . . . . . . . . . . . . . . . . . . . . . . . . . . . . . . . . . . . . . . . . . . . . . . . . . . . . . . . . . . . . . . . . . . . . . . . . . . . . . . . . . . . . . . . . . . . . . . . . . . . . . . . . . . . . . . . . . . . . . . . . . . . . . . . . . . . . . . . . . . . . . . . . . . . . . . . . . . o o . . . . . . . . . . . . . . . . . . . . . . . . . . . . . . . . . . . . . . . . . . . . . . . . . . . . . . . . . . . . . . . . . . . , 3 g h 6 2 6 e 6 h j u j j J H w w 8 8 j y J l y h O O . O . . H.                                      ",
"                                                        . . . . . . 2 2 2 2 k y l C n A p.k.6.6.*.3.r.r.z.z.m.m.z.z.z.z.z.f.f.f.z.s.s.s.s.f.s.s.z.f.s.s.z.b.X.X.. . . . . o . . l n A.A.m.b.m.m.m.m.m.m.m.C.m.m.X.X.h h v A e y 6 6 $ . O O = ,                     d 6 . $ $ $ y y W n u u 9 q u u p p u u 9 2 2 y h k 6 6 $ * O $ O $ . . . . . . . . . . . . . . . . . . . . . . . . . . . . . . . . . . . . . . . . . . . . . . . . . . . . . . . . . . . . . . . . . . . . . . . . . . . . . . . . . . . . . . . . . o o o . o O O O O O . . . . O O O O . o o o . . . . . . . o O . o . . $ . . . o o . . . . . . . . . . . . . . . . . . . . . . . . . . . . . . . . . . . . . . . . . . . . . . . . . . . . . . . . . . . . . . . . . . . . . . . . . . . . o o . . . . . . . . . . . o . . . . . . . . . . . . . . . . . . . . . . . . . . . . . . . . . . . . . . . . $ . . . . + + + . . . . . . . . . . . . . . . . . . . . . . . . . . . . . . . . . . . . . . . . . . . . . . . . . . . . . . . . . . . . . . . . . . . . . . . . . . . . . . . . . . . . . . . . . . . . . . . . . . . . . . . . . . . . . . . . . . . . . . . . . . . . . . . . + + + . . . . . . . . . . . . . . . . . . . . . . . . . . . . . . . . . . . . . . . . . . . . . . . . . . . . . . . . . . . . . . . . . . . . . . . . . . . . . . . . . . . . . . . . . . . . . . . . . . . . . . . . . . . . . . . . . . . . . . . . . . . . . . . . . . . . . . . . . . . . . . . . . . . . . . . . . . . + # . . . . . . . . . . . . . . . . . . . . . . . . . . . . . . . . . . . . . . . . . . . . . . . . . . . . . . . . . . . . . . . . . . . . . . . . . . . . . . . . . . . . . . . . . . . . . . . . . . . . . . . . . . . . . . . . . . . . . . . . . . . . . . . . . . . . . . . . . . . . . . . . . . . . . . . . . . . . . . . . . . . . . . . . . . . . . . . . . . . . . . . . . . . . . . . . . . . . . . . . . . . . . . . . . . . . . . . . . . . . . . . . . . . . . . . . . . . . . . . . . . . . . . . . . . . . . . . . . . . . . . . . . . . . . . . . . . . . . . . . . . . . . . . . . . . . . . . . . . . . . . . . . . . . . . . . . . . . . . . . . . . . . . . . . . . . . . . . . . . . . . . . . . . . . . . . . . . . . . . . . . . . . . . . . . . . . . . . . . . . . . . . . . . . . . . . . . . . . . . . . . . . . . . . . . . . . . . . . . . . . . . . . . . . . . . . . . . . . . . . . . . . . . . . . . . . . . . . . . . . . . . . . . . . . . . . . . . . . . . . . . $ . . . 3 2 k k 6 2 k k k l j j J J P P w w 9 w v j L v k k $ O . O . . H.                                      ",
"                                                        . . . . . . 1 1 6 6 h h D D n A r.r.6.6.*.3.r.r.z.s.z.z.z.z.z.z.f.f.f.z.s.s.s.s.s.s.s.s.s.s.r.r.s.f.{ { . . . . . . . . h k S.S.m.b.b.b.m.m.m.m.m.m.m.m.{ X.x k A A y y 6 6 $ O $ O = $                     6 6 . $ $ $ y y W n u y 2 9 u u J J p u 9 9 2 6 h h 2 2 $ $ . O O $ . . . . . . . . . . . . . . . . . . . . . . . . . . . . . . . . . . . . . . . . . . . . . . . . . . . . . . . . o . O O o o . o o o O o o o o o o o . . o o o o O O O O . . o o o o o o O O $ $ $ $ O O . . . O O $ $ $ O O O O O O O O . O O $ $ O O O $ $ . @ $ $ $ . . @ . . . . + $ + + . . . . . . . . . . . . + + . . . . . . . . . . . . . . . . . . . . . . . . . . . . . . . . $ $ . + . . . . . . . . . . . . . . o o . . . . . . . . o . . . . . . . . . . . . . . . . . . . . . . $ . . . . . . . . . . . . . . . . . . . . . . . . . . . . . . . . . . . . . . . . . . . . + $ . . . . . . . . . . . . + $ . . $ @ . . + + . . . . . o $ $ . . . . . . . . . . . . . . . . . . . . . . . . . . . . . . . . . . . . . . . . . . . . . . . . . . . . . . . . . . . . . . . . . . . . . . . . . . . . . . . . + + + + . . . . . . . . . . . . . . . . . . . . . . . . . . . . . . . . . . . . . . . . . . . . . . . . . . . . . . . . . . . . . . . . . . . . . . . . . . . . . . . . . . . . . . . . . . . . . . . . . . . . . . . . . . . . . . . . . . . . . . . . . . . . . . . . . . . . . . . . . . . . . . . . o o . . . . . . . . + # . . . . . . . . . . . . . . . . . . . . . . . . . . . . . . . . . . . . . . . . . . . . . . . . . . . . + . . . . . . . . . . . . . . . . . . . . . . . . . . . . . . . . . . . . . . . . . . . . . . . . . . . . . . . . . . . . . . . . . . . . . . . . . . . . . . . . . . . . . . . . . . . . . . . . . . . . . . . . . . . . . . . . . . . . . . . . . . . . . . . . . . . . . . . . . . . . . . . . . . . . . . . . . . . . . . . . . . . . . . . . . . . . . . . . . . . . . . . . . . . . . . . . . . . . . . . . . . . . . . . . . . . . . . . . . . . . . . . . . . . + + + + + + + + . . . . . . . . . . . . . . . . . . . . . . . . . . . . . . . . . . . . . . . . . . . . . . . . . . . . . . . . . . . . . . . . . . . . . . . . . . . . . . . . . . . . . . . . . . . . . . . . . . . . . . . . . . . . . . . . . . . . . . . . . . . . . . . . . . . . . . . . . . . . . . . . . . . . . . . . . . . . . . . . . . . . . . . . . . . . . . . . . . . . . . . . . . . . . . . . . . . . @ . , 3 h h 6 6 h k N N J H L J P P j w w w J J ( A k k $ O O O . . H.                                      ",
"                                                        . . . . . . , , h h h h [ { U Y p.p.r.7.6.6.r.r.s.r.s.s.r.r.r.r.r.r.r.p.r.p.s.s.s.s.s.s.f.z.s.s.z.z.*.*.. . . . . . . . k h A.S.m.b.m.b.m.b.m.m.m.m.b.f.) X.l l U U y y 2 2 $ O $ O $ $                     6 6 o $ $ $ y y W n u u 9 9 u t J s p p 9 u y y l k 6 6 $ $ . O O $ . . . . . . . . . . . . . . . . . . . . . . . . . . . . . . . . . . . . . . . . . . . . . . . . . . . . . . . . . . . . . . . . . . . . . . . . . . . . . . . . . . . . . . . . . . . . . . . . . . . . . . . . . . . . . . . . . . . . . . . . . . . . . . . . . . . . . . . . . . . . . . . . . . . . . . . . . . . . . . . . . . . . . . . . . . . . . . . . . . . . . . . . . . . . . . . . . . . . . . . . . . . . . . . . . . . . . . . . . . . . . . . . . . . . . . . . . . . . . . . . . . . . . . . . . . . . . . . . . . . . . . . . . . . . . . . . . . . . . . . . . . . . . . . . . . . . . . . . . . . . . . . . . . . . . . . . . . . . . . . . . . . . . . . . . . . . . . . . . . . . . . . . . . . . . . . . . . . . . . . . . . . . . . . . . . . . . . . . . . . . . . . . . . . . . . . . . . . . . . . . . . . . . . . . . . . . . . . . . . . . . . . . . . . . . . . . . . . . . . . . . . . . . . . . . . . . . . . . . . . . . . . . . . . . . . . . . . . . . . . . . . . . . . . . . . . . . . . . . . . . . . . . . . . . . . . . . . . . . . . . . . . . . . . . . . . . . . . . . . . . . . . . . . . . . . . . . . . . . . . . . . . . . . . . . . . . . . . . . . . . . . . . . . . . . . . . . . . . . . . . . . . . . . . . . . . . . . . . . . . . . . . . . . . . . . . . . . . . . . . . . . . . . . . . . . . . . . . . . . . . . . . . . . . . . . . . . . . . . . . . . . . . . . . . . . . . . . . . . . . . . . . . . . . . . . . . . . . . . . . . . . . . . . . . . . . . . . . . . . . . . . . . . . . . . . . . . . . . . . . . . . . . . . . . . . . . . . . . . . . . . . . . . . . . . . . . . . . . . . . . . . . . . . . . . . . . . . . . . . . . . . . . . . . . . . . . . . . . . . . . . . . . . . . . . . . . . . . . . . . . . . . . . . . . . . . . . . . . . . . . . . . . . . . . . . . . . . . . . . . . . . . . . . . . . . . . . . . . . . . . . . . . . . . . . . . . . . . . . . . . . . . . . . . . . . . . . . . . . . . . . . . . . . . . . . . . . . . . . . . . . . . . . . . . . . . . . . . . . . . . . . . . . . . . . . . . . . . . . . . . . . . . . . . . . . . . . . . . . . . . $ $ = , 2 2 6 6 y h k h J H J H L L w w 0 w J J ( A h h $ $ O O . . H.                                      ",
"                                                        . . . . . . = = l k h h { { A Y p.r.r.6.6.6.p.r.s.r.p.r.r.r.r.r.r.r.r.p.7.r.s.s.s.r.r.p.p.f.7.p.s.s.3.3.o . . . . . . . h y C.A.m.m.C.z.m.b.b.b.b.b.f.f.) ..v n Q U y y 2 2 O O $ O $ $                     6 6 # $ $ $ y y A n k u 9 9 u u J J p p u u y y l k 6 6 O O O O . O . . . . . . . . . . . . . . . . . . . . . . . . . . . . . . . . . . . . . . . . . . . . . . . . . . . . . . . . . . . . . . . . . . . . . . . . . . . . . . . . . . . . . . . . . . . . . . . o . . . . . . . . . . . o . . o o # o o o . . o o o o . . . . . . . . . . . . . . . . . . . . . . . . . . . . . . . . . . . . . . . . . . . . . . . . . . . . . . . . . . . . . . . . . . . . . . . . . . . . . . . . . . . . . . . . . . . . . . . . . . . . . . . . . . . . . . . . . . . . . . . . . . . . . . . . . . . . . . . . . . . . . . . . . . . . . . . . . . . . . . . . . . . . . . . . . . . . . . . . . . . . . . . . . . . . . . . . . . . . . . . . . . . . . . . . . . . . . . . . . . . . . . . . . . . . . . . . . . . . . . . . . . . . . . . . . . . . . . . . . . . . . . . . . . . . . . . . . . . . . . . . . . . . . . . . . . . . . . . . . . . . . . . . . . . . . . . . . . . . . . . . . . . . . . . . . . . . . . . . . . . . . . . . . . . . . . . . . . . . . . . . . . . . . . . . . . . . . . . . . . . . . . . . . . . . . . . . . . . . . . . . . . . . . . . . . . . . . . . . . . . . . . . . . . . . . . . . . . . . . . . . . . . . . . . . . . . . . . . . . . . . . . . . . . . . . . . . . . . . . . . . . . . . . . . . . . . . . . . . . . . . . . . . . . . . . . . . . . . . . . . . . . . . . . . . . . . . . . . . . . . . . . . . . . . . . . . . . . . . . . . . . . . . . . . . . . . . . . . . . . . . . . . . . . . . . . . . . . . . . . . . . . . . . . . . . . . . . . . . . . . . . . . . . . . . . . . . . . . . . . . . . . . . . . . . . . . . . . . . . . . . . . . . . . . . . . . . . . . . . . . . . . . . . . . . . . . . . . . . . . . . . . . . . . . . . . . . . . . . . . . . . . . . . . . . . . . . . . . . . . . . . . . . . . . . . . . . . . . . . . . . . . . . . . . . . . . . . . . . . . . . . . . . . . . . . . . . . . . . . . . . . . . . . . . . . . . . . . . . . . . . . . . . . . . . . . . . . . . . . . . . . . . . . . . . . . . . . . . . . . . . . . . . . . . . . . . . . . . . . . . . . . . . . . . . . . . . . . . . . . . . . . . . . . . . . . . . . . . . . . $ , = = 3 3 y h y h k h L J J H P L w w w w L J ..Q k y $ $ O O . . H.                                      ",
"                                                        . . . . . . = = n n x k +.+.{ Q h.r.e.e.-.6.r.h.r.e.e.e.e.e.e.e.e.6.6.6.r.7.r.r.3.6.r.r.r.k.r.k.r.6.X.[ * = o o , = = = A l C.m.z.m.f.z.m.m.m.m.m.m.b.z.{ { v n A A y y 2 3 $ $ $ O $ $                     6 6 # $ $ $ y y n W 9 u 2 ; 8 0 J H p u u u y y l h 2 , . O . . . . = $ | D [ [ [ { | | | | [ | | | | | | | { { { { { { { | | | | | | | | | | | | | | | | | $.$.$.:.:.:.:.:.:.:.:.%.:.:.:.:.:.:.:.:.:.:.:.:.:.:.:.:.:.:.:.:.O.+.| | | | | | | | | +.+.+.| | | | O.| +.+.+.+.+.+.+.+.O.+.+.+.| | | O.:.:.:.:.:.:.:.:.:.@.@.@.@.@.@.$.@.@.@.@.@.@.@.@.| @.@.@.| | | | | | | | :.:.| | | :.:.:.:.:.:.:.:.:.:.:.:.:.:.:.:.:.-.-.:.:.:.:.:.:.:.:.:.:.:.:.:.:.:.:.:.:.:.:.:.:.:.:.:.:.:.:.:.:.:.:.:.:.:.:.:.:.:.:.:.:.:.:.:.-.-.-.:.:.:.:.:.:.:.:.:.:.-.:.:.:.:.:.:.:.:.:.:.:.:.@.@.:.:.:.:.:.:.:.:.:.#.#.| | | | :.:.:.| $.:.*.%.:.:.:.:.:.-.:.:.-.:.:.:.:.:.| | :.:.:.:.:.:.| | :.:.:.:.:.:.:.:.:.O.| | | @.| | :.:.:.:.:.:.:.:.%.:.:.:.| :.:.:.:.:.:.:.| | @.@.:.:.:.:.| :.:.:.:.:.| @.| | :.:.| | :.:.:.:.:.:.:.:.:.:.:.:.:.:.| :.:.:.:.:.:.:.:.:.:.:.:.:.:.:.:.:.:.:.:.:.:.:.:.:.:.:.:.:.#.:.:.:.:.:.:.:.:.:.:.:.:.:.*.:.:.:.| @.:.:.:.:.:.:.:.#.:.:.:.:.:.| :.:.| | | | | | | | :.:.| | | | | | | | | | :.:.:.:.:.:.:.:.:.:.:.:.@.| | :.:.:.:.:.#.:.:.:.:.:.:.:.:.:.:.:.:.:.:.| | :.:.:.:.| | | | | | | | | | | | :.:.:.:.:.| | | | | | | | | | | | | | | | :.:.| | | | | | | | | | | | | | | | | | | X.X.X.X.X.| X.X.$.$.X.| | | | | | :.:.| | :.| | | :.:.X.:.+.+.X.X.X.+.+.+.+.+.+.+.:.:.| :.:.:.:.:.:.:.:.:.:.:.:.:.:.:.:.:.:.:.:.:.:.:.:.:.:.| | | :.:.:.:.:.| | :.:.:.:.:.:.:.:.:.:.:.:.:.:.:.:.:.:.:.:.:.| | | | | | | | | | | | | | | :.:.:.:.:.:.:.| | | | | | | | | | | | | | | | :.:.| | | | | :.:.:.:.:.:.:.:.:.$.X.$.$.$.:.:.:.X.$.$.$.$.$.$.:.:.:.:.:.:.:.:.:.:.:.:.:.:.:.:.:.:.:.:.:.:.:.:.:.:.:.:.:.:.:.:.:.| | | | | | :.:.:.:.:.:.:.:.:.:.:.:.| | | | :.:.:.| | | | | | | | | :.:.| | | | :.:.:.:.| | | | :.:.| | | | | | | | | | | | | | :.:.| | | | | | :.| | | | | :.:.:.:.:.:.:.:.:.:.:.:.:.:.:.:.| | :.:.#.#.:.:.:.:.:.:.$.$.:.:.*.%.:.:.:.:.:.:.:.:.:.:.:.:.:.:.:.:.:.:.:.:.:.:.:.:.:.:.:.:.:.:.:.:.:.:.:.:.:.:.:.:.:.:.:.:.:.:.:.:.$.$.$.:.:.:.:.:.:.:.:.:.%.%.%.:.:.:.:.:.:.:.:.:.:.:.:.:.:.:.:.:.:.:.:.:.:.:.:.:.:.:.:.:.:.:.:.:.*.:.:.:.:.:.*.*.:.:.:.:.:.:.:.:.| | :.:.:.:.:.:.:.:.:.%.-.-.-.-.*.:.:.:.:.-.:.:.-.-.-.-.-.-.-.-.-.-.-.:.:.%.-.-.-.-.-.%.:.:.:.:.:.:.-.-.%.:.:.:.:.:.:.| O.+.:.:.-.e.2 6 . . . . . . 6 2 l h 6 6 j p v H H H w 0 0 0 H j ( A y y O $ . $ . . R.                                      ",
"                                                        . . . . . . = = v v x k +.+.{ Q h.r.e.r.-.6.r.r.r.e.e.e.6.e.e.e.e.6.6.6.r.7.r.r.6.7.r.r.r.s.h.l.*.*.| | $ $ $ . = = * = n v z.b.m.m.z.z.m.m.m.m.m.m.b.z.{ { n n n A y h 3 , $ $ $ O $ $                     6 6 o # $ $ y y L ( q u 9 8 8 0 s s p p 9 u y y x y 2 2 X O . . . . $ O | [ [ [ [ [ [ | [ [ [ [ [ [ [ [ [ [ { { [ [ [ [ [ [ [ [ [ [ [ [ | | | | | | | | | | |  .X.X.$.$.:.:.| :.#.#.#.#.#.#.O.| :.@.:.:.:.:.:.@.@.@.:.:.:.:.| | | | | | | | | | | { | | | | | | | O.+.+.+.+.+.+.+.+.O.O.O.+.| | | | | :.:.| | | | | @.@.@.@.@.@.@.@.@.@.@.@.| | | | @. . . .| | | | | | | | | | | | | | | | | | | | | | | | #.:.| | :.:.:.:.| | | | | | | :.:.:.:.:.:.:.:.:.-.-.:.:.:.-.-.-.-.-.-.-.-.:.:.:.:.:.:.:.:.-.-.-.-.-.:.-.-.-.-.-.:.:.:.:.:.:.:.:.| :.:.:.:.| :.:.:.:.:.:.:.:.:.:.| | | :.:.| | | O.O.O.| | | | | :.:.| | | X.$.$.:.| | | :.:.:.| :.:.| | | | | | | | :.:.:.:.| | :.:.:.:.:.:.:.:.:.| | | | | | | :.@.| | :.:.:.:.:.:.:.:.| :.:.:.:.:.| | | | | | :.:.| | | | | :.| | | | | | | | | | | :.:.:.:.:.| | | | | | | | | | | | | | | :.:.:.:.:.:.:.:.:.:.:.:.:.:.:.:.:.:.:.:.:.:.:.:.:.$.$.$.$.X.X.X.X.$.$.$.$.$.$.$.$.| | | | | | | | | | | | | | | | | | | | | | | | | | | | | | | | | | | | | | | | | | | | | | | | @.@.| | | | :.:.:.:.@.@.:.:.:.:.:.:.:.| | | | | | | | | :.| | | | | | | | | | | | | | | | | | | | | | | | | | | | | | | | | | | | | | | | | | | | | | | | | | | | | | | | | | | | | | | $.X.X.| | | | | | | | | | | | | | | | | X.X.X.X.X.X.X.X.| | +.| | | | +.| | | | | | | | :.:.| | | | | | #.@.| | | | | | | | | | | | | | | | | | | | | | | | | | | | | | | | | | | | | | | | | | | | | | | | | | | | | | | | :.| | | | | | | | | | | | | | | | | | | | | | | | | | | | | | | | | | | | | | | | X.$.$.$.$.| | X.X.X.X.X.X.| | | | | :.:.:.| | | | | | :.:.:.:.| | | | | @.:.:.| | :.:.:.| | | | | | | | | | | :.| | | | #.:.| | | | | | | | | | | @.| | | | | | | | | | | | | | | | | | | | | | | | | | | | | | | | | | | | | | | | | | | | | | | | | | | | | | :.:.@.:.| :.:.:.:.| | | | #.O.O.O.O.#.| | :.:.X.X.$.:.:.:.:.:.:.:.:.:.:.:.:.:.:.:.| | | | | | | :.:.O.| | :.:.:.@.:.#.:.:.%.:.-.-.-.-.-.-.:.:.#.#.:.:.:.:.X.X.X.X.$.$.:.:.:.:.#.#.:.:.:.#.:.:.| | | :.:.:.| | :.:.:.:.:.:.:.:.:.:.:.:.:.:.:.:.:.:.-.-.:.-.:.:.:.:.:.:.:.:.+.+.+.+.+.+.+.+.| | | | :.:.:.:.:.:.:.:.:.:.:.:.-.*.:.:.:.-.:.:.-.-.-.-.-.-.-.-.-.-.-.-.-.-.-.-.-.-.-.-.:.:.:.:.:.:.:.:.:.:.:.:.:.:.:.:.+.:.:.:.-.e.2 2 . . . . . . 6 2 k h y y k u J v H H w w 9 0 j k L A h y $ $ . $ . . R.                                      ",
"                                                        . . . . . . = = l l k k +.+.{ ( s.h.r.h.6.e.h.h.h.r.r.r.6.6.e.e.e.e.e.7.r.7.r.r.7.r.k.k.z.f.3.+.* $ . . * = *.6.C.C.m.m.f.s.C.b.b.z.z.z.m.m.m.b.m.m.m.b.{ { n n l v h x , , $ $ $ O $ O                     6 6 o # $ $ y h Q ) u u q q 0 0 a s H p 9 9 y q y y 2 2 O O . . . . , 2 v.C.x.x.x.x.x.x.x.x.x.x.x.x.x.x.x.x.x.x.x.z.z.z.z.z.l.l.x.x.x.x.x.m.x.x.x.C.C.C.C.C.B.B.B.B.B.B.C.C.C.C.C.C.N.C.C.C.N.C.C.C.C.C.C.C.C.C.C.C.C.C.C.C.C.C.C.C.C.C.m.m.C.m.m.m.m.C.C.C.m.m.m.m.C.C.C.C.C.C.C.C.C.C.C.C.m.m.m.m.C.C.C.C.C.C.C.C.C.C.C.C.C.C.C.B.B.B.B.B.B.M.M.M.M.M.M.M.C.C.C.C.C.C.C.C.C.C.C.C.C.C.C.x.C.C.C.C.C.C.C.C.x.m.x.x.C.M.C.C.C.C.C.C.M.x.C.C.x.x.x.x.x.x.x.x.x.x.x.x.x.x.x.x.x.x.x.x.x.x.l.l.x.x.x.x.x.x.x.x.x.x.x.x.x.x.x.x.x.x.C.C.C.C.C.C.x.M.C.C.C.C.C.C.x.x.m.m.C.C.N.M.C.C.C.C.C.C.C.C.C.C.C.N.C.C.C.C.C.C.C.C.B.B.B.B.C.C.C.C.C.C.C.C.C.C.C.C.C.C.C.x.x.C.C.C.C.C.C.C.C.C.C.C.C.C.C.C.C.C.C.C.C.C.C.C.C.C.C.C.C.C.C.C.C.C.C.C.C.C.C.C.C.C.C.C.C.C.C.C.C.C.C.C.N.C.C.C.C.C.C.C.x.x.x.x.x.x.m.C.M.N.x.x.C.C.C.x.C.C.C.C.x.C.C.C.M.x.C.C.x.x.x.x.x.x.x.x.C.M.M.M.x.x.x.x.x.x.x.x.x.C.x.x.C.C.C.C.B.B.B.B.B.B.b.b.B.B.B.B.C.C.C.C.C.C.x.x.A.C.C.C.C.C.C.C.C.C.C.C.C.C.C.C.C.C.C.C.C.C.m.C.C.C.C.C.C.C.C.C.C.C.C.C.C.C.C.C.C.C.C.C.x.C.C.C.C.C.C.C.C.C.C.C.C.C.C.C.C.C.C.C.C.C.C.C.C.C.C.v.C.C.C.C.C.C.C.C.x.C.C.C.C.C.C.C.C.C.C.C.x.x.x.x.C.C.C.C.x.x.C.C.C.C.C.C.C.C.C.C.C.C.x.x.C.C.C.x.C.C.C.B.C.C.C.C.C.B.B.B.C.C.C.C.C.C.C.C.C.C.C.C.x.x.C.x.x.x.C.C.C.C.C.m.m.b.m.m.m.C.C.m.m.m.m.m.C.C.C.C.x.C.C.C.C.C.C.C.C.C.C.C.C.C.C.C.C.C.C.C.C.C.C.M.C.C.C.C.C.C.C.C.C.C.C.C.x.x.x.x.x.C.x.x.C.C.C.C.C.C.C.C.C.C.C.C.C.C.C.C.C.C.C.C.C.C.C.C.x.C.C.C.C.N.C.C.C.C.C.C.C.C.C.C.C.C.C.C.C.C.C.C.C.C.C.C.C.C.C.C.C.C.C.C.C.C.C.C.B.B.C.C.C.C.C.C.B.B.C.B.C.C.C.C.C.C.C.C.C.C.C.C.C.C.C.C.C.C.C.C.C.C.C.C.C.C.C.C.C.C.C.C.C.C.C.C.C.C.C.C.C.C.C.C.C.C.C.C.C.C.C.C.C.C.C.C.C.C.C.C.C.C.C.C.C.C.C.C.C.C.C.C.C.C.C.C.x.x.C.C.C.C.C.C.C.C.x.x.x.x.C.C.C.C.C.C.C.C.C.C.C.C.C.C.C.C.C.C.C.C.C.x.x.x.x.m.C.C.C.C.C.C.C.C.C.C.C.C.C.C.C.C.C.N.N.N.C.C.C.C.C.C.C.C.C.C.C.C.C.C.C.x.x.x.x.x.C.C.C.C.C.C.C.C.C.C.C.C.C.C.C.C.C.C.C.C.C.C.C.C.x.x.x.x.x.x.x.x.C.C.C.C.C.C.C.C.b.B.B.B.C.C.C.C.C.C.C.C.C.C.C.C.C.C.C.C.C.C.C.C.C.C.C.C.C.C.C.C.C.C.x.C.C.C.C.x.x.x.x.C.C.C.C.C.x.m.m.m.m.m.x.x.C.C.C.C.C.C.C.m.C.C.C.C.C.C.C.C.C.C.C.C.C.C.C.A.C.C.C.C.C.C.C.C.C.C.C.C.M.M.C.C.x.x.x.x.x.x.x.x.x.x.x.x.x.x.x.x.N.x.C.C.x.x.x.x.x.x.x.x.x.x.x.x.A.A.k h . . . . . . 3 , h h 6 q k k L J J H u u 0 q j j L l y y $ $ . $ . . R.                                      ",
"                                                        . . . . . . = $ k k h h { X.( Q s.h.r.r.e.r.r.h.r.r.r.r.e.e.e.e.6.e.e.r.7.7.r.p.r.r.s.k.z.f.-.*.o o . . $ O 7.3.m.m.m.b.m.m.z.s.z.z.z.z.m.m.b.z.b.z.z.b.{ { A n h x h l , , $ $ $ O $ O                     6 6 o # $ $ y h Q ) u u t t 0 0 u p p u u 9 q 2 y y 2 2 X O . . . . , 2 m.A.x.x.x.x.x.x.x.x.x.x.x.x.x.x.x.x.l.l.l.l.l.l.l.s.l.l.l.l.l.x.x.x.x.x.x.x.x.x.x.x.x.x.x.x.x.b.x.x.x.x.x.x.x.v.N.N.x.x.x.x.x.x.C.C.C.N.C.C.C.C.C.C.m.m.m.m.m.m.m.m.m.m.x.x.x.m.m.x.v.v.v.x.m.m.m.m.v.v.v.v.m.m.m.m.x.m.x.x.x.x.x.x.x.x.x.x.M.M.C.C.M.M.M.M.M.M.x.x.x.x.x.x.x.x.x.x.x.x.x.x.x.x.C.C.x.x.x.x.x.x.x.x.x.x.x.x.x.x.x.x.z.z.l.x.x.x.x.l.x.x.x.x.x.x.x.x.x.x.x.x.x.x.x.x.C.C.C.C.C.C.C.C.C.C.C.m.C.C.C.x.C.C.C.C.C.C.C.C.C.C.C.C.x.x.x.x.l.x.x.x.x.x.x.x.x.x.x.x.x.x.x.x.C.C.C.C.C.C.C.C.x.x.x.x.x.x.x.x.v.N.v.v.x.x.x.x.x.M.x.x.B.x.b.x.x.x.x.x.x.x.x.x.x.x.x.x.x.x.x.x.x.x.x.x.x.x.x.x.C.C.C.x.x.x.x.x.C.C.x.x.x.x.x.x.C.C.M.M.N.M.C.C.x.x.x.x.x.x.x.x.x.x.x.x.x.x.x.x.C.C.x.x.x.x.x.x.C.x.x.x.x.x.x.x.x.x.x.x.x.l.l.l.x.x.x.x.x.x.x.x.x.x.x.x.x.x.x.x.x.x.x.x.x.x.l.l.x.x.x.x.x.x.x.x.x.z.l.x.x.C.x.x.x.x.x.x.x.x.x.x.x.x.x.x.x.x.x.x.x.x.x.x.x.x.x.x.C.N.N.x.x.x.x.C.x.x.x.x.x.x.x.x.x.x.x.x.x.x.x.x.x.x.x.x.x.x.x.x.x.x.x.x.x.x.x.x.x.x.x.x.x.x.x.x.x.x.x.M.M.x.x.x.x.x.x.x.x.x.x.x.x.x.C.C.x.x.x.x.x.x.x.x.x.x.x.x.x.x.x.x.x.x.x.x.x.x.x.x.x.x.x.x.x.x.x.x.x.x.x.x.x.x.x.x.x.x.x.x.x.x.x.x.x.x.x.x.b.b.b.b.b.b.b.b.x.x.x.x.x.b.x.x.B.x.B.x.x.x.x.x.x.x.x.x.x.x.x.x.x.b.b.b.x.x.x.b.x.m.m.m.x.x.x.x.v.x.x.x.x.x.x.x.x.x.x.x.x.x.x.x.x.x.x.x.x.x.x.x.x.x.x.x.x.x.x.x.x.x.x.x.x.x.x.x.x.x.x.x.x.x.x.x.x.x.x.x.x.x.x.x.x.x.x.x.x.x.x.x.x.x.x.x.x.x.x.x.x.x.x.x.x.x.x.x.x.x.x.x.x.x.x.x.x.x.x.x.x.x.x.x.x.x.x.x.x.x.x.x.x.x.x.x.x.x.x.x.b.b.b.b.B.B.b.x.x.x.x.x.b.b.b.x.x.x.x.x.x.x.x.x.x.x.x.x.x.x.x.x.x.x.x.x.x.x.x.x.x.x.x.x.x.x.x.x.M.x.C.C.x.x.x.x.x.x.x.x.x.x.x.x.x.x.x.x.x.x.x.x.x.x.x.x.C.C.x.x.x.x.C.C.x.x.x.x.x.x.x.x.x.x.x.C.x.x.x.x.x.x.x.x.x.x.x.x.x.x.x.x.x.x.x.C.C.C.C.C.x.x.x.x.x.x.x.z.x.x.x.x.x.x.x.x.x.x.x.x.x.x.x.x.N.v.x.x.x.x.x.x.x.x.x.x.x.b.x.x.C.C.C.C.C.C.C.C.x.x.x.x.x.x.x.x.x.x.x.x.x.x.x.x.x.N.x.x.x.x.x.x.C.C.C.C.C.C.C.C.x.x.x.x.x.x.x.x.x.x.x.x.x.x.x.x.N.x.x.x.x.x.x.x.x.x.x.x.x.x.x.x.x.x.C.C.x.x.x.x.M.x.x.x.x.x.x.x.x.x.x.x.M.C.C.C.m.C.C.C.m.m.m.m.m.x.x.x.x.x.x.x.C.x.x.x.x.x.x.C.C.x.x.x.x.x.x.x.C.C.C.C.C.C.C.x.x.x.x.x.x.x.x.x.C.C.C.C.C.C.C.C.C.C.C.C.C.C.C.C.x.x.x.x.x.x.x.l.x.l.l.l.l.l.l.l.A.A.k h . . . . . . 3 , h y 6 e l j J J J J u u q q k h A v h h $ $ . $ . . R.                                      ",
"                                                        . . . . . . = $ h y y y Q ( Q Q r.r.6.e.e.e.e.e.e.e.e.e.r.r.e.e.6.6.e.r.7.7.r.p.r.r.k.p.m.z.-.*.. o . . o . p.7.S.C.A.C.f.m.s.f.m.z.s.s.z.z.z.b.z.z.z.z.{ ( A n y h h k , , $ $ $ O $ O                     6 6 o # $ $ h h W ) u u t t 9 0 q q q 9 9 9 q 2 y y 1 2 . . . . . . = , l.x.s.s.h.h.h.h.h.h.h.h.h.h.h.h.h.h.h.h.h.h.h.h.h.h.l.l.h.h.h.h.l.l.l.l.l.l.l.l.l.l.l.l.z.z.z.z.l.l.l.l.l.l.l.l.x.x.x.x.l.l.l.l.l.l.x.x.x.x.x.x.x.x.z.z.z.z.z.z.z.z.x.z.l.l.l.l.l.l.l.l.l.l.z.z.z.z.l.l.s.l.l.z.l.l.l.l.l.l.l.l.l.l.l.l.l.l.l.l.l.l.z.z.z.z.l.l.k.k.l.l.l.l.l.l.l.l.l.l.l.l.l.l.x.x.l.l.l.l.l.l.l.l.l.l.l.l.l.l.l.l.l.l.l.l.l.l.l.l.l.l.l.l.l.l.l.l.l.l.l.l.l.l.l.l.h.h.h.h.h.h.h.h.h.h.h.h.h.h.l.l.h.h.j.l.l.l.h.h.h.h.h.h.h.h.h.h.l.l.l.x.l.x.x.l.l.l.l.l.l.l.l.l.h.h.h.s.l.l.l.l.l.l.l.l.l.l.l.l.x.x.l.l.x.l.l.l.l.l.l.x.x.x.z.z.l.l.l.l.l.l.l.x.l.l.l.l.l.l.l.l.l.l.l.x.x.x.x.x.l.l.l.l.l.l.l.l.l.l.l.l.l.l.l.l.l.l.l.l.l.l.l.l.l.l.x.x.x.x.l.l.x.x.l.l.l.l.l.l.x.x.x.x.l.l.l.x.x.x.x.l.l.l.l.l.l.l.l.l.l.l.l.l.l.l.l.l.l.l.l.l.i.h.s.s.j.l.l.l.l.l.l.l.l.l.l.l.l.l.l.l.l.l.l.l.l.s.h.s.l.l.l.l.l.l.l.l.k.k.l.l.l.l.l.l.l.l.l.l.l.l.l.l.l.l.l.l.l.l.l.l.l.l.l.l.l.l.l.l.l.l.l.l.l.l.l.l.l.l.l.l.l.l.l.l.l.l.l.l.l.l.l.l.l.l.l.l.l.l.l.l.l.l.l.l.l.l.l.l.l.l.l.l.l.l.l.l.l.l.l.l.l.l.l.l.l.l.l.l.l.l.l.l.l.l.l.l.l.l.l.l.l.l.l.l.x.x.l.l.l.l.l.l.l.l.l.l.l.l.l.l.l.l.l.l.l.l.l.l.l.l.l.l.l.l.l.l.z.z.z.z.z.z.z.x.l.k.k.k.z.z.l.l.l.l.l.l.l.l.l.l.l.l.l.l.l.l.l.l.l.z.z.z.l.l.l.z.l.z.z.z.z.l.l.l.l.l.l.l.l.l.l.l.l.l.l.l.l.l.l.l.l.l.l.l.l.l.l.l.l.l.l.l.l.l.l.l.l.l.l.l.l.l.l.l.l.l.l.l.l.l.l.l.l.l.l.l.l.l.l.l.l.l.l.l.l.l.l.l.l.l.l.l.l.l.l.l.l.l.l.l.l.l.l.l.l.l.l.l.l.l.l.l.l.l.l.l.l.l.l.l.l.l.l.l.l.l.l.l.l.l.l.l.l.l.l.l.x.x.x.x.x.l.l.l.z.l.l.l.z.z.z.l.l.l.l.l.l.l.l.l.l.l.l.l.l.l.l.l.l.l.l.l.l.l.l.l.l.l.l.l.l.x.l.l.l.l.l.x.l.l.l.l.l.l.l.l.l.l.l.l.l.l.l.l.l.l.l.l.l.l.l.l.l.l.l.l.l.l.l.l.l.l.h.h.l.l.l.l.l.l.x.x.l.l.l.l.l.l.l.l.l.l.l.l.l.l.l.l.h.h.l.l.l.l.l.l.l.l.l.l.l.l.l.s.l.l.l.l.l.l.l.l.l.l.l.l.l.l.l.x.x.l.l.l.l.l.l.l.l.l.l.l.l.l.l.l.l.j.j.h.h.h.h.h.l.l.l.l.l.l.l.l.l.l.l.l.l.l.l.l.l.l.l.l.l.l.l.l.h.h.h.h.h.h.s.s.l.l.l.l.l.l.l.l.k.l.l.l.l.l.l.l.x.l.l.l.l.l.l.j.l.l.l.l.l.l.l.l.l.l.x.x.l.l.l.l.l.l.l.l.l.l.l.l.l.l.l.l.l.l.l.l.s.s.s.h.h.h.h.h.l.l.l.l.l.z.l.l.l.l.l.l.l.l.x.x.x.l.l.l.l.l.x.x.x.x.l.x.x.x.x.x.x.x.x.x.l.x.x.x.l.l.l.l.l.l.l.l.l.l.l.j.h.h.k.s.l.l.l.l.l.l.s.l.l.l.l.l.l.l.l.l.C.M.h h . . . . . . 2 2 k h h y x h x x k k q w q 2 y y Q Q A n $ $ O $ . . R.                                      ",
"                                                        . . . . . . = $ y y y y Q Q Q Q h.r.e.e.e.e.e.6.6.e.e.e.r.r.r.e.6.6.e.7.7.7.r.p.r.r.r.r.f.s.*.*.o $ . . . . p.p.S.C.m.z.m.Z.z.b.m.b.s.s.f.z.b.b.b.z.z.z.{ Q A A y h h h , , $ $ $ O $ O                     6 6 # # $ $ h h L Q r u u u 9 q 9 9 9 2 u u y q y y 1 1 . . . . . . , 2 x.m.h.h.h.h.h.h.h.h.e.e.e.e.h.h.h.h.r.r.h.h.h.h.h.h.l.l.h.h.h.h.h.s.h.h.h.l.l.l.l.l.l.l.l.l.l.l.l.l.l.l.l.l.l.l.l.l.l.l.l.l.l.l.l.l.l.l.l.l.l.l.l.l.l.l.l.l.l.l.l.l.l.l.l.s.l.l.s.s.s.s.s.s.l.l.l.s.s.s.h.s.s.l.s.s.s.s.s.s.l.l.l.l.l.l.l.l.l.l.l.l.l.l.k.l.k.k.k.k.k.k.k.k.k.l.l.l.l.l.l.l.l.l.l.l.l.l.l.l.l.l.l.l.l.l.l.l.l.l.l.l.l.h.l.l.l.l.l.l.l.l.l.l.l.l.l.l.h.h.h.h.h.h.h.h.h.h.h.h.h.h.l.l.i.h.h.h.l.l.l.l.h.l.l.l.l.l.l.l.s.s.l.l.l.l.l.l.l.l.l.l.l.l.l.l.l.l.l.l.l.l.l.l.l.l.l.l.l.l.l.l.l.l.l.l.l.l.l.l.l.l.l.l.l.l.l.l.l.l.l.l.x.x.z.z.l.l.l.l.l.l.l.l.l.l.l.h.h.h.h.h.l.l.l.l.l.l.l.l.l.l.l.l.l.l.h.h.l.l.l.l.l.l.l.l.l.l.l.l.l.l.l.l.l.l.l.l.l.l.l.l.l.l.l.l.l.l.l.l.l.l.l.l.l.l.l.l.l.l.l.l.l.l.l.l.l.l.l.l.l.l.l.l.l.h.h.h.l.l.h.h.h.h.h.h.h.l.h.h.h.h.h.h.h.h.h.h.h.h.h.h.h.h.h.h.h.h.h.h.h.h.h.h.k.k.k.k.k.k.k.k.k.k.k.k.l.l.l.l.l.l.l.l.l.l.h.h.h.h.h.h.l.l.l.l.s.s.h.j.h.h.h.h.l.l.h.h.h.h.i.s.l.l.l.l.h.h.h.h.l.l.l.l.l.l.l.h.l.l.l.l.h.h.h.h.h.h.h.h.j.l.l.l.i.h.l.h.h.l.l.l.h.h.l.l.l.l.l.l.l.l.l.l.l.l.l.l.l.l.l.l.l.l.l.l.l.l.l.l.l.l.l.l.l.l.l.l.l.l.l.l.l.l.l.l.l.l.l.l.l.l.l.l.l.l.j.h.l.l.l.l.l.l.l.l.k.k.k.k.k.k.k.k.l.l.l.l.l.l.l.l.l.h.l.l.l.l.l.l.k.k.l.k.s.k.s.s.s.l.l.l.l.l.l.l.h.l.l.l.l.l.l.l.l.l.h.l.l.l.l.l.l.l.l.l.l.l.l.l.l.l.l.l.l.l.l.l.l.h.k.l.l.l.l.l.l.l.l.l.l.l.l.j.l.l.l.l.l.l.l.l.l.l.l.l.l.l.l.l.l.l.l.l.l.l.l.j.l.l.l.l.l.l.l.l.l.h.l.l.l.l.l.l.l.l.l.l.l.l.l.l.l.l.l.l.l.l.l.l.l.l.l.l.l.l.l.l.z.z.z.l.l.k.k.k.l.l.k.k.l.z.l.l.l.l.l.l.l.l.l.l.l.l.l.l.l.l.l.l.l.l.l.l.l.l.l.l.l.l.l.l.l.l.l.l.l.l.l.l.l.l.l.l.l.l.l.l.l.l.l.k.l.l.l.l.l.l.l.h.l.l.l.l.l.l.l.l.h.h.l.l.l.l.h.h.l.l.l.l.l.l.l.l.l.l.l.l.l.l.h.h.i.h.h.h.l.l.l.l.h.s.l.s.l.h.h.h.l.l.l.l.l.h.h.h.l.l.l.l.l.l.l.l.l.l.l.l.l.l.l.l.l.l.l.l.l.l.l.j.l.l.l.h.l.l.l.k.l.l.l.l.l.l.l.l.l.l.l.l.l.l.l.l.l.l.l.l.l.l.h.h.l.l.l.l.l.l.l.l.l.l.l.l.h.l.l.l.l.l.l.l.l.l.l.h.k.k.l.l.l.l.l.l.l.l.l.l.l.l.j.j.l.l.l.l.l.l.l.l.l.l.l.l.l.l.l.l.l.j.i.h.l.l.h.h.l.l.l.l.h.h.h.h.z.z.l.s.l.l.l.l.s.s.s.s.l.l.l.l.l.l.l.l.l.l.l.l.l.l.l.l.l.l.l.l.l.l.l.l.l.l.l.l.l.l.l.l.l.l.l.l.l.l.l.l.l.l.l.l.l.l.l.l.l.l.l.l.l.h.h.h.h.h.h.h.h.h.h.h.h.h.h.h.A.A.k h . . . . . . 2 2 k h h h n h x y h k q q q 2 y y Q { Y A $ $ $ $ . . R.                                      ",
"                                                        . . . . O . = $ h h y y Q ( Q Q s.s.r.r.h.r.e.e.e.e.r.r.h.r.r.e.e.6.e.7.r.7.p.k.r.r.r.7.z.z.r.6.$ $ . . O o +.+.m.m.S.S.b.b.s.s.s.b.s.z.f.z.b.m.b.z.z.z.{ Q U W y k k h , , $ $ $ . $ O                     6 6 # $ $ $ h y A W 9 y u u q u 9 9 9 9 k x y y y u 1 1 . . . . . . , , s.l.l.l.h.i.h.i.l.l.h.h.h.s.l.l.l.l.s.s.s.s.s.s.s.s.l.l.l.j.h.h.s.l.h.h.l.l.l.l.l.l.z.z.z.z.l.l.l.l.l.l.l.l.l.l.l.l.l.l.l.l.l.x.x.x.x.x.x.x.l.l.x.x.l.l.l.l.l.l.l.l.l.l.l.l.l.l.l.l.l.l.l.l.l.l.l.l.l.l.l.l.l.l.l.l.l.l.l.l.l.l.l.l.l.l.l.l.l.l.l.l.l.l.l.l.l.l.l.l.l.l.l.l.l.l.l.l.l.l.l.l.l.l.l.l.l.l.l.l.l.l.l.l.l.l.l.l.l.l.l.l.h.l.l.l.l.l.l.l.l.l.l.l.l.l.l.l.z.z.x.x.x.x.x.x.l.l.l.l.l.l.l.l.l.l.l.l.l.l.l.l.l.l.l.l.l.l.l.l.l.l.l.l.l.l.l.x.l.l.l.l.l.l.l.l.l.l.l.l.x.x.x.l.l.l.h.h.l.l.l.l.l.l.l.l.x.x.x.x.x.x.x.x.x.x.x.x.x.x.x.x.x.x.x.x.x.l.l.l.x.x.x.l.l.l.l.l.l.l.l.l.l.l.l.l.l.l.l.l.l.l.l.l.l.l.l.l.l.l.l.l.l.l.l.l.l.l.l.l.l.l.l.l.l.l.l.l.l.l.l.l.l.l.l.l.l.l.l.x.l.l.l.l.l.l.l.l.l.l.l.l.l.l.l.l.l.l.l.l.l.l.l.l.l.l.l.l.l.l.l.l.l.l.h.h.l.l.l.l.l.l.l.l.l.l.l.x.x.x.z.x.x.l.x.x.l.l.l.l.l.l.l.l.l.l.l.l.l.l.l.l.l.l.l.l.l.l.l.l.l.l.l.l.l.l.l.l.l.l.l.l.l.l.l.l.l.l.l.l.l.l.l.l.l.l.l.l.l.l.l.l.l.l.l.l.l.l.l.l.l.l.l.l.l.l.l.l.l.l.l.l.l.l.l.l.l.l.l.l.l.l.l.l.l.l.l.l.l.l.l.l.l.l.l.l.l.l.l.l.l.l.l.l.l.l.l.l.l.l.l.l.l.l.l.l.l.l.l.l.l.x.x.x.x.x.x.x.l.l.l.l.l.l.l.l.l.l.l.l.x.x.x.l.l.l.l.l.z.x.z.x.z.z.z.z.z.l.l.l.z.l.z.l.l.l.l.l.l.l.l.l.l.l.l.l.l.l.l.l.l.z.z.z.l.l.l.z.l.l.z.z.l.l.l.l.l.l.l.l.l.l.l.l.l.l.l.l.l.l.l.l.l.l.l.l.l.l.l.l.l.l.l.l.l.l.l.l.l.l.l.l.l.l.l.l.x.x.x.l.l.l.l.l.l.l.l.l.l.l.l.l.x.x.x.l.l.l.l.l.l.l.l.l.l.l.l.l.l.l.l.l.x.x.l.l.l.l.l.l.l.l.l.l.l.l.l.x.x.l.l.l.l.l.l.l.l.l.l.l.l.l.l.l.l.x.l.x.x.x.x.x.x.z.z.z.x.z.l.l.x.x.x.l.x.x.x.x.x.x.l.l.l.l.l.l.l.l.x.x.l.x.x.x.x.x.l.l.l.l.l.l.l.l.l.l.l.l.l.l.l.l.l.l.l.l.l.l.x.l.l.l.l.l.l.l.l.l.l.l.l.l.l.l.l.l.l.l.l.l.l.l.l.l.l.l.l.l.l.l.l.l.l.l.l.l.l.l.l.x.l.l.l.l.l.l.l.l.l.l.l.l.l.l.l.l.l.l.l.l.l.l.l.l.l.l.l.l.l.l.l.l.l.l.l.l.l.l.l.l.l.l.x.l.l.l.l.l.l.l.l.l.l.l.l.l.l.l.l.l.l.l.s.s.l.l.l.l.l.l.l.l.l.l.x.l.l.l.l.l.l.l.l.l.l.l.l.l.l.l.l.l.l.l.l.l.l.l.l.l.l.l.x.l.l.l.l.l.l.l.l.l.l.l.l.l.l.l.l.x.l.l.l.l.l.l.l.l.l.l.l.l.x.x.x.x.x.x.x.x.x.x.x.x.x.x.x.x.x.x.x.x.x.x.l.l.l.l.l.l.l.l.l.l.l.l.l.x.x.l.x.x.x.x.x.x.x.x.x.x.x.x.x.x.x.x.x.x.x.x.C.x.x.x.C.C.x.x.x.x.x.M.l.x.x.x.x.l.l.l.l.x.x.l.l.l.l.l.x.x.x.x.l.l.l.l.l.l.l.l.l.l.l.l.M.M.h h . . . . . . 2 3 h h y y A l l h h h y y q q h h ) { U A $ $ O $ . . R.                                      ",
"                                                        . . . . $ . $ $ h k h h U Q Q Q s.s.r.h.h.r.e.e.e.e.r.r.r.r.r.e.e.e.e.7.r.7.k.k.r.r.r.7.k.z.h.e., $ . . O $ ..*.m.m.m.m.b.b.z.m.z.m.p.s.z.b.m.m.b.z.z.z.{ Q U Q y x l h , , $ $ O . O O                     6 6 # $ $ $ y h A A 2 9 9 u u u 2 9 9 9 x x y y k y 2 1 . O . . . . , 3 z.z.h.h.h.h.h.h.h.h.h.h.h.h.s.l.l.l.s.s.s.s.s.s.s.s.l.l.l.l.h.h.h.s.h.h.h.l.l.l.l.l.l.l.l.l.l.l.l.l.l.l.l.l.l.l.j.j.l.l.l.l.l.l.l.x.x.l.l.l.l.x.x.x.l.l.l.l.l.l.l.l.l.l.l.l.l.l.l.l.l.l.l.l.l.l.l.l.x.l.l.l.l.l.l.l.l.l.l.l.l.l.h.h.l.l.l.l.l.l.l.l.l.l.l.l.l.l.l.l.l.l.l.l.l.l.l.l.l.l.l.l.l.l.l.l.l.l.l.l.l.l.l.x.l.l.l.l.l.l.l.l.l.l.l.l.l.l.l.l.l.l.l.l.l.l.l.l.l.l.l.l.l.l.l.l.l.l.l.l.l.l.l.l.l.l.l.l.l.l.l.l.l.l.l.l.l.l.l.l.l.l.l.l.l.l.l.l.l.l.l.l.l.l.l.l.l.l.l.l.x.x.x.l.l.l.l.l.l.l.l.l.l.l.x.x.x.x.x.x.x.x.x.x.x.x.x.x.x.x.x.x.x.x.x.x.x.l.l.l.x.x.x.l.l.l.l.l.l.l.l.l.l.l.l.l.l.l.l.l.x.l.l.l.l.l.l.l.l.l.l.l.j.l.l.x.l.l.l.l.l.l.l.l.l.l.l.l.l.l.l.l.l.l.l.l.l.l.l.x.l.l.l.l.l.l.l.l.l.l.l.l.l.l.l.l.l.l.l.l.l.l.l.l.l.l.l.l.l.l.l.l.l.s.h.k.l.l.l.l.l.h.s.h.s.s.l.l.l.l.l.l.l.l.l.l.l.l.l.l.l.h.l.l.l.l.l.l.l.l.l.l.l.l.l.l.l.l.l.l.l.l.l.l.l.l.l.l.l.l.l.l.l.l.l.l.l.l.l.l.l.l.l.l.l.l.l.l.l.l.l.l.l.l.l.l.l.l.l.l.l.l.l.l.l.l.l.l.l.l.l.l.l.l.l.l.l.l.l.l.l.l.l.l.l.l.l.l.l.l.l.l.l.l.l.l.x.x.l.l.l.l.l.l.l.l.x.l.x.l.l.l.l.l.l.l.l.l.l.x.l.l.x.x.x.x.x.x.x.x.l.x.x.l.l.l.l.l.x.x.x.x.x.l.l.l.l.l.l.l.l.l.l.l.l.l.z.z.l.l.z.x.z.z.l.l.x.x.l.l.l.l.l.l.l.l.l.l.l.l.l.z.z.z.l.z.z.z.s.l.l.l.l.l.l.l.x.x.l.l.l.l.l.l.l.l.l.l.l.l.l.l.l.l.l.l.l.l.l.x.l.l.l.l.l.l.l.l.l.l.l.l.l.l.l.l.l.x.l.l.l.l.l.l.l.l.l.l.l.l.l.l.x.x.l.l.l.x.x.x.l.l.l.l.l.l.l.l.l.l.l.l.x.x.l.l.l.l.l.l.l.l.l.l.l.l.x.x.x.x.l.l.l.l.l.l.l.l.l.l.l.l.l.l.l.l.l.l.z.z.x.x.x.x.x.z.x.z.k.l.x.x.x.l.x.x.x.x.x.x.x.x.l.l.l.x.l.l.l.l.l.l.x.x.x.x.l.l.l.l.l.l.l.l.l.l.x.x.x.l.x.x.x.x.l.l.l.l.x.l.l.l.x.l.l.l.l.l.l.l.l.l.l.l.l.l.l.l.l.l.l.l.l.l.l.l.l.l.l.l.l.l.l.l.l.l.l.l.l.l.x.x.l.l.l.l.l.l.l.l.l.l.l.l.l.l.l.l.l.l.l.l.l.l.l.l.l.l.l.l.l.l.l.l.l.l.l.l.l.l.l.l.x.l.l.l.l.l.l.l.l.l.l.l.x.x.l.l.l.l.l.l.l.l.l.l.l.l.l.l.l.l.l.l.x.x.l.l.l.l.l.l.l.l.l.l.l.l.l.l.l.l.l.l.l.l.l.l.l.l.l.l.x.l.l.l.l.l.l.l.l.l.l.l.l.l.l.l.x.x.l.l.l.l.l.l.l.l.l.j.l.l.l.x.x.x.x.x.x.l.l.x.x.x.x.l.l.l.l.l.l.l.l.l.l.l.z.z.z.x.l.l.l.l.l.l.l.x.l.l.x.x.x.x.x.x.l.l.x.x.x.x.x.x.x.x.x.x.x.x.x.x.x.x.x.x.x.x.x.x.x.x.l.l.l.l.l.l.l.l.l.l.l.l.l.l.l.x.l.l.l.l.l.l.l.l.h.l.l.l.l.l.l.l.A.C.k h . . . . . . 2 3 h h h h v k l h y y y y 6 2 h h ) { Q Q = = O $ . . R.                                      ",
"                                                        . . . . O O $ = l k k y A A { { h.s.r.s.s.h.r.e.e.e.e.r.h.h.h.r.r.e.r.7.r.p.r.p.r.p.+.+.n n h k D n -.X.*.*.6.p.z.b.m.b.m.z.s.s.p.s.s.s.f.z.m.m.b.z.f.f.{ Q x k y k h x = = $ $ O . $ O                     6 6 $ $ $ $ l k Q L y y y y y x 2 q q q l v h y y y 1 1 O o . . . . 2 2 x.z.l.l.l.l.l.l.l.l.l.l.l.l.l.l.l.l.l.l.l.l.z.l.l.l.l.l.l.l.l.l.l.l.l.l.l.l.l.l.l.l.x.x.x.x.x.x.x.x.l.l.l.l.l.l.l.l.x.x.x.x.x.x.x.x.l.l.x.x.x.x.x.x.x.x.x.x.x.x.x.x.x.x.x.x.x.x.l.l.l.l.l.l.l.l.l.l.x.x.x.x.x.x.x.x.z.z.z.z.x.l.l.l.x.x.x.x.x.x.x.x.x.x.x.x.x.x.x.x.z.x.x.x.x.x.x.x.x.x.l.l.l.l.x.x.x.l.l.l.x.x.x.l.l.l.l.l.l.l.l.l.l.l.l.l.l.l.l.l.l.l.l.l.l.l.l.l.l.l.l.l.l.l.l.l.l.l.l.l.l.l.x.x.l.l.x.l.l.l.l.l.l.l.l.l.l.l.l.l.l.l.l.l.l.l.x.x.l.l.x.x.x.x.x.x.x.x.x.x.x.x.x.x.l.l.l.l.l.l.l.l.x.x.x.x.x.x.x.x.x.x.x.x.x.x.l.l.x.x.x.x.x.x.x.x.x.x.x.x.x.l.x.x.l.l.x.x.x.x.l.l.l.l.x.x.x.x.l.l.x.x.x.x.x.x.x.x.x.l.x.x.x.x.x.l.l.l.x.x.x.x.x.x.x.x.x.x.x.x.x.x.x.x.l.l.l.l.x.x.l.l.x.x.l.l.l.l.l.l.l.l.l.l.l.l.l.l.l.l.l.l.l.l.l.l.l.l.l.l.l.l.l.l.l.l.l.l.l.l.l.l.l.l.l.l.l.l.l.l.l.l.l.l.l.l.l.l.l.l.l.l.l.l.l.l.l.l.l.l.l.l.l.l.l.l.l.l.l.l.l.l.l.l.l.l.l.l.l.l.l.l.l.l.l.l.l.l.l.l.l.l.l.l.l.l.l.l.l.l.l.l.l.l.l.l.l.l.l.l.l.l.l.l.l.l.l.l.l.l.l.l.l.l.l.l.l.l.l.l.l.l.x.x.l.l.l.l.l.l.l.l.l.l.l.l.l.l.l.l.l.l.l.l.l.l.x.x.l.l.l.l.l.l.l.l.l.l.l.l.l.l.x.x.l.l.l.x.x.x.x.z.x.x.x.l.l.l.l.l.x.x.x.x.x.x.l.l.z.x.x.x.x.x.x.x.x.x.x.x.x.x.x.x.x.x.x.x.x.x.x.x.l.l.x.x.x.x.x.x.x.z.l.l.l.x.x.x.x.x.l.l.l.l.l.x.l.l.l.l.l.l.l.l.l.l.l.l.l.l.l.l.l.l.l.l.x.x.x.l.l.l.l.l.l.l.l.l.l.l.l.l.l.l.l.l.l.l.z.z.x.x.x.x.l.l.l.l.l.l.z.z.x.x.x.z.x.l.l.l.x.x.l.l.x.x.x.l.l.l.l.l.x.l.l.l.l.l.l.l.l.l.l.l.x.l.l.l.l.x.l.l.l.l.l.l.l.l.l.l.l.l.l.l.x.l.l.l.z.x.x.x.x.z.z.z.z.z.x.x.x.x.x.x.x.x.x.x.x.x.l.l.x.x.x.x.x.x.x.x.l.l.x.x.x.x.x.x.l.l.l.x.x.x.x.x.x.x.x.x.x.x.x.l.x.x.l.x.x.x.x.x.l.l.l.l.l.l.l.l.l.l.l.l.l.l.l.l.l.l.l.l.l.l.l.l.l.l.l.l.l.l.x.x.l.l.l.l.x.x.x.x.l.l.l.l.l.l.l.l.l.l.l.l.l.l.l.l.l.l.l.l.l.l.l.l.l.l.l.l.l.x.x.l.l.l.l.l.l.l.x.x.l.l.l.l.l.l.l.l.l.l.l.l.l.l.l.l.l.l.l.l.l.l.l.l.l.l.l.l.l.l.l.l.l.l.l.l.l.l.l.l.l.l.l.l.l.l.l.l.l.l.l.l.l.l.l.l.l.l.l.l.l.l.l.l.l.l.l.l.l.l.l.x.x.x.x.x.x.x.x.x.l.l.l.l.l.l.l.l.l.l.l.l.l.x.x.x.x.x.x.x.x.x.x.x.l.l.l.x.x.x.x.x.x.x.l.l.x.x.l.l.x.x.x.x.x.x.l.l.x.x.x.l.x.x.x.x.x.x.x.x.x.x.x.x.x.x.x.x.x.x.x.x.x.x.x.x.x.x.x.x.x.x.x.x.x.l.l.l.l.l.l.l.x.x.x.x.l.l.l.l.l.l.l.l.x.x.l.l.l.l.l.l.C.C.k k . . . . . . 2 2 y h y y v l Y Y Y Y k y y y y y v U Q A $ $ . O . . R.                                      ",
"                                                        . . . . . O $ $ l h k y n A { { s.s.r.h.h.h.r.e.6.e.r.r.h.h.h.h.r.r.r.r.k.p.r.r.7.p.+.+.n n e e n k 3.*.+.*.8.r.z.b.m.m.m.z.f.s.p.p.s.s.f.z.b.b.b.z.f.s.{ ( v l y k h k = = $ $ O . $ $                     6 6 $ $ $ $ k h Q W y y y y k k 2 2 q y x l y y y y 1 1 O o . . . . 2 2 x.z.l.l.l.l.l.l.l.l.l.l.l.l.l.l.l.l.l.l.l.l.z.z.l.l.l.l.l.l.l.l.l.l.l.l.l.l.l.l.l.l.x.x.x.x.x.x.x.x.x.x.x.x.x.x.x.x.x.x.x.x.x.x.x.l.x.x.x.x.x.x.x.l.x.x.x.x.x.x.x.x.x.x.x.x.x.x.l.l.l.l.x.x.x.x.x.x.x.x.x.x.x.x.x.x.l.l.z.z.x.z.x.l.x.x.x.x.x.x.l.l.x.x.x.x.x.x.x.x.x.x.x.x.x.x.x.x.x.x.l.l.l.l.x.x.x.x.l.l.x.x.x.x.l.l.l.l.x.x.l.l.l.l.l.l.l.l.l.l.l.l.l.l.l.l.l.l.x.l.l.l.l.l.l.l.l.l.l.l.l.l.x.x.l.l.l.l.l.l.l.l.l.l.l.l.l.x.x.x.l.l.l.l.l.l.x.x.l.l.x.x.x.x.x.x.x.x.x.x.x.x.x.x.l.l.l.l.l.l.l.l.x.x.x.x.x.x.x.x.x.x.x.x.x.x.l.l.x.x.x.x.x.x.x.x.x.x.x.x.x.x.x.x.l.l.x.x.x.x.l.l.x.x.x.x.x.x.x.l.x.x.x.x.x.x.x.x.x.x.x.x.x.x.x.x.x.x.x.x.x.x.x.x.x.x.x.x.x.x.x.x.x.x.l.l.l.l.x.x.l.l.x.x.l.l.l.l.l.l.l.l.l.l.l.l.l.l.l.l.l.l.l.l.l.l.l.l.l.l.l.l.l.l.l.l.l.l.l.l.l.l.l.l.l.l.l.l.l.l.l.l.l.l.l.l.l.l.l.l.l.l.l.l.l.l.l.l.l.l.l.l.l.l.l.l.l.l.l.l.l.l.l.l.l.l.l.l.l.l.l.l.l.l.l.l.l.l.l.l.l.l.l.l.l.l.l.l.l.l.l.l.l.l.l.l.l.l.l.l.l.l.l.z.l.l.l.x.l.l.l.x.x.l.l.x.z.l.l.l.l.l.l.l.l.l.l.l.l.l.l.l.l.l.l.l.l.l.l.l.l.l.l.l.l.l.x.x.l.l.x.x.l.l.l.l.l.l.l.l.l.x.x.x.l.l.x.x.x.x.x.x.x.x.l.l.l.l.l.l.x.x.x.x.x.x.x.x.z.x.x.x.x.x.x.x.x.x.x.x.x.x.x.x.x.x.x.x.x.x.x.x.l.x.x.x.x.x.x.x.x.z.z.l.l.x.z.x.x.x.l.l.l.l.l.x.l.l.l.l.l.l.l.l.l.l.l.l.l.l.l.l.l.l.l.l.x.x.x.l.l.l.l.l.l.l.l.l.x.x.l.l.l.l.l.l.l.l.z.x.x.x.x.x.x.x.x.l.l.l.l.l.x.z.z.z.l.l.l.l.x.x.l.x.x.x.x.l.l.l.l.l.l.l.x.x.l.l.l.l.l.l.l.l.x.l.l.l.l.x.l.l.l.l.l.l.l.l.l.l.l.x.x.x.l.x.l.x.x.x.x.x.x.z.z.z.z.z.x.x.x.x.x.x.x.x.x.x.x.x.l.l.x.x.x.x.x.x.x.x.x.x.x.x.x.x.x.x.l.l.l.x.x.x.x.x.x.x.x.x.x.x.x.x.x.x.x.x.x.x.x.x.l.l.l.l.l.l.l.l.l.l.l.l.l.l.l.l.l.l.l.l.l.l.l.l.l.l.l.l.l.l.x.x.l.l.l.l.x.x.x.l.l.l.l.l.l.l.l.l.l.l.l.l.l.l.l.l.l.l.l.l.l.l.l.l.l.l.l.l.l.x.x.l.l.l.l.l.l.l.x.x.l.l.l.l.l.l.l.l.l.l.l.l.l.l.l.l.l.l.l.l.l.l.l.l.l.l.l.l.l.l.l.l.l.l.l.l.l.l.l.l.l.l.l.l.l.l.l.l.l.l.l.l.l.l.l.l.l.l.l.l.l.l.l.l.l.l.l.l.l.l.l.x.l.x.x.x.x.x.x.x.l.l.l.l.l.l.l.l.l.l.l.l.l.l.l.l.x.x.x.x.x.x.x.x.l.x.l.l.l.x.x.x.x.x.l.l.x.x.l.l.x.x.x.x.x.x.l.l.x.x.x.x.x.x.x.x.x.x.x.x.x.x.x.x.x.x.x.x.x.x.x.x.x.x.x.x.x.x.x.x.x.x.x.x.x.l.l.l.l.l.l.l.l.l.l.l.l.l.l.l.l.l.l.x.x.x.l.l.l.l.l.l.C.C.k k . . . . . . 2 2 y h e y l k Y Y ( Y k y y y y h v A A A $ $ . O . . R.                                    E.",
"                                                        . . . . O O $ $ l k l h A A { { s.s.e.r.r.r.e.e.6.e.r.h.h.h.h.h.r.r.r.r.r.7.r.s.f.f.X.} 6 e 6 6 } } A.S.m.m.m.m.m.b.z.s.z.f.s.s.s.s.s.s.z.z.b.m.m.b.z.f.{ { U U x l h k = = $ $ O . $ $                     6 6 O O $ $ v A +.+.n x x x k y 2 2 6 e h y y y y y 1 , O . . . . . 1 2 x.z.l.l.l.l.l.l.l.l.l.l.l.l.l.l.l.l.l.l.l.z.z.z.l.l.l.l.l.l.l.l.l.l.l.l.l.l.l.l.l.l.x.x.x.x.x.x.x.x.x.x.x.x.x.x.x.x.x.x.x.x.x.x.x.x.x.x.x.x.x.x.x.l.x.x.x.x.x.x.x.x.x.x.x.x.x.x.x.x.x.x.x.x.x.x.x.x.x.x.l.x.x.x.x.x.l.l.l.z.x.x.x.x.x.x.x.x.x.x.x.l.x.x.x.x.x.x.x.x.x.x.x.x.x.l.l.l.x.x.l.l.l.x.x.x.x.x.x.x.x.x.x.x.x.l.l.x.x.x.x.l.l.l.l.l.l.l.l.l.x.x.l.l.l.l.x.x.x.x.x.l.l.l.x.x.l.l.l.l.l.l.x.x.x.x.x.x.x.l.l.x.x.x.z.x.x.x.x.x.l.l.x.l.l.l.x.x.x.x.x.x.x.x.x.x.x.x.x.x.x.x.x.x.l.l.x.x.l.l.l.l.x.x.x.x.x.x.x.x.x.x.x.x.x.x.l.l.l.l.x.x.x.x.x.x.x.x.x.x.x.x.x.x.l.l.l.z.x.x.x.x.x.x.x.x.x.x.x.x.x.x.x.l.x.x.x.x.x.x.x.x.x.x.x.x.x.x.l.l.l.x.x.x.x.x.x.x.x.x.x.x.x.x.x.x.x.x.x.x.l.x.x.l.l.l.l.x.l.l.l.l.l.l.l.l.l.l.l.l.x.l.l.l.x.x.x.x.x.x.x.x.l.l.l.x.x.x.x.x.x.x.x.x.l.l.l.l.x.x.x.l.l.l.l.l.l.l.x.x.l.l.l.l.l.l.l.l.l.l.l.l.l.l.x.x.l.l.l.l.l.l.l.l.l.l.l.l.s.i.l.l.l.l.l.l.l.l.l.l.l.l.l.l.l.l.l.l.l.l.l.l.l.z.z.l.l.l.z.z.x.x.x.x.x.x.x.x.l.x.x.x.x.x.x.x.z.z.l.l.l.l.l.l.l.l.l.l.l.l.l.l.x.x.l.l.l.l.l.l.l.x.x.x.l.l.x.x.l.x.x.x.l.l.l.l.z.z.z.z.x.x.x.x.z.x.x.x.x.x.x.x.x.x.x.x.x.x.x.x.x.x.x.x.x.x.x.x.z.x.x.x.x.x.x.x.x.x.x.x.x.x.x.x.x.x.x.x.x.x.x.x.l.l.x.x.x.x.x.x.x.x.z.z.x.x.x.x.x.l.l.l.l.l.l.l.x.l.l.l.x.x.l.l.l.l.l.l.l.l.x.x.l.l.l.l.x.x.x.l.l.l.l.l.l.l.l.l.z.z.x.x.z.z.z.z.x.x.x.x.x.x.x.x.x.x.x.x.x.x.x.x.z.z.x.x.x.x.x.x.x.x.x.x.x.x.x.l.z.l.l.z.z.z.x.x.l.l.l.l.l.l.l.l.x.l.l.l.l.x.l.l.x.x.x.x.x.x.x.x.x.x.x.x.x.x.x.x.x.x.x.x.x.x.z.z.x.x.x.x.x.x.x.x.x.x.x.x.x.x.x.x.x.x.x.x.x.x.x.x.x.x.x.x.x.x.x.x.l.l.x.x.x.x.x.x.x.x.x.x.x.x.x.x.x.x.x.x.x.x.x.x.l.l.l.x.x.x.l.l.l.l.l.l.l.l.l.l.l.l.l.l.l.l.l.l.l.l.l.l.l.x.x.x.l.l.l.l.x.x.x.l.l.l.l.l.l.l.l.l.l.l.l.l.l.l.l.l.l.l.l.l.l.l.l.l.l.l.l.l.l.x.l.l.l.l.l.l.l.l.x.x.z.z.l.l.l.x.x.x.l.l.l.l.l.l.l.l.l.l.l.l.l.l.l.l.l.l.l.l.l.l.l.l.l.l.l.l.l.l.l.l.l.l.l.l.l.l.l.l.x.x.l.l.l.l.l.l.l.l.l.l.l.l.l.l.l.l.l.l.l.l.l.x.l.x.x.x.x.x.x.x.l.l.l.l.l.l.l.l.x.x.x.l.l.l.l.l.x.x.x.x.x.x.x.x.x.x.l.l.l.l.x.x.x.x.x.x.x.x.x.l.x.x.x.x.x.x.l.l.x.x.x.x.x.x.x.x.x.x.x.x.x.x.x.x.x.x.x.x.x.x.x.x.x.x.x.x.x.x.x.x.x.x.x.x.x.x.x.l.l.l.l.l.l.l.l.l.x.x.l.l.l.x.x.x.x.x.l.l.l.l.l.l.C.C.h k . . . . . . 6 6 e h e h V V Y Y ] Y k h y y h k l n A n $ = . . . . R.                                    ^.",
"                                                        . . . . $ O $ $ l k l x A U { { h.s.e.e.r.r.e.e.e.r.h.h.h.h.h.h.r.r.r.r.7.p.k.b.z.z.X.} 6 6 2 1 Q Q F.H.m.m.m.m.b.z.z.f.f.f.s.f.f.z.f.f.z.z.z.b.m.b.z.s.{ { ( { n n k x $ = $ $ O . $ $                     6 2 o O O $ l v +.+.n x x x k y y e y y y y y q y y 1 1 O . . . . . 3 3 x.z.l.l.l.l.l.l.l.l.x.z.l.l.l.l.l.l.l.l.l.z.z.z.z.l.x.l.l.l.l.l.l.l.l.l.l.l.l.l.l.l.x.x.x.x.x.x.x.x.x.x.x.x.x.x.x.x.x.x.x.x.x.x.x.x.x.x.x.x.x.x.x.x.x.x.x.x.x.x.x.x.x.x.x.x.x.x.x.x.x.x.x.x.x.x.x.x.l.l.x.x.x.x.x.x.l.l.z.z.x.x.x.x.x.x.x.x.x.x.x.x.x.x.x.x.x.x.x.x.x.x.x.x.x.x.l.l.x.x.x.x.x.x.x.x.x.x.x.x.x.x.x.x.x.x.l.x.x.x.x.l.l.l.l.l.l.l.l.l.x.x.l.l.x.x.x.x.x.x.x.l.l.l.x.x.l.l.l.l.l.l.l.l.x.x.x.x.x.x.x.x.x.x.x.x.x.x.x.x.l.x.x.l.l.l.x.x.x.x.x.x.x.x.x.x.x.x.x.x.x.x.x.x.x.x.x.x.x.x.x.x.x.x.x.x.x.x.x.x.x.x.x.x.x.x.x.l.l.l.l.x.x.x.x.x.x.x.x.x.x.x.x.x.l.l.l.x.x.x.x.x.x.x.x.x.x.x.x.x.x.x.l.l.x.x.x.x.x.x.x.x.x.x.x.x.x.x.l.l.l.x.x.x.x.x.x.x.x.x.x.x.l.x.x.x.x.x.x.l.x.x.x.l.l.l.l.x.l.l.l.l.l.l.l.l.l.l.x.x.x.x.l.l.x.x.x.x.x.x.x.x.l.l.l.x.x.x.x.x.x.x.x.l.l.l.l.l.x.x.x.l.l.l.l.l.l.x.x.x.l.l.l.l.l.l.l.l.l.l.l.l.l.l.x.x.l.l.l.x.l.l.l.l.l.l.l.l.h.l.l.l.l.l.l.l.l.l.l.l.l.l.l.l.l.l.l.l.l.l.l.l.l.l.x.z.l.l.z.x.x.x.x.x.x.x.x.x.x.x.x.x.x.x.x.x.z.z.x.x.x.x.x.x.x.x.x.x.x.x.x.x.x.x.x.l.l.l.l.l.l.x.x.x.x.x.x.x.x.x.x.x.x.l.l.x.x.x.z.z.x.x.x.x.x.x.x.x.x.x.x.x.x.x.x.x.x.x.x.x.x.x.x.x.x.x.x.x.x.x.x.x.x.z.x.x.x.x.x.x.x.x.x.x.x.x.x.x.x.x.x.x.x.x.x.x.x.x.x.x.x.x.x.z.x.x.x.x.l.l.l.l.l.l.l.l.l.l.l.l.l.l.l.l.l.l.l.l.l.l.l.l.l.l.l.l.x.x.l.l.l.l.l.l.x.x.x.x.x.x.x.x.x.x.x.x.x.x.x.x.x.z.x.x.x.x.x.x.x.x.x.x.x.x.x.x.x.x.x.x.x.x.x.x.x.z.x.x.z.z.z.l.z.z.x.x.l.l.l.l.l.l.l.l.x.l.l.l.l.x.l.l.x.x.x.x.x.x.x.x.x.x.x.x.l.x.x.x.x.x.x.x.x.x.x.x.x.x.x.x.x.x.x.x.x.x.x.x.x.x.x.x.x.x.x.x.x.x.x.x.x.x.x.x.x.x.x.x.l.x.x.x.x.x.x.x.x.x.x.x.x.x.x.x.x.x.x.x.x.x.x.x.l.l.x.x.x.x.x.x.x.x.l.l.l.l.l.l.l.l.l.l.l.l.l.l.l.l.l.l.l.l.l.l.l.l.l.l.x.x.x.l.l.l.l.l.l.l.l.l.l.l.l.x.x.x.x.x.l.l.l.l.l.l.l.l.l.l.l.l.l.l.l.l.l.l.l.l.l.l.x.x.z.z.l.x.x.x.x.x.l.l.z.l.l.l.l.l.x.l.l.l.l.l.l.l.l.l.l.l.l.l.l.l.l.l.l.l.l.l.l.l.l.l.l.l.l.l.x.x.x.x.x.l.l.l.l.l.l.l.l.l.l.l.l.l.l.l.l.l.l.l.l.l.l.x.x.x.x.l.z.x.x.x.x.x.x.x.x.x.x.x.x.x.l.l.l.l.x.x.x.x.x.x.x.x.x.x.l.l.l.l.x.x.x.x.x.x.x.x.x.x.x.x.x.x.x.x.x.l.x.x.x.x.x.x.x.x.x.x.x.x.x.x.x.x.x.x.x.x.x.x.x.x.x.x.x.x.x.x.x.x.x.x.x.x.x.x.x.x.l.l.l.l.l.l.l.l.x.x.l.l.l.x.x.x.x.x.x.x.l.l.l.l.V.V.h k . . . . . . 6 6 e h e g Y V ] ] ] ] n n y h k l l l l l $ $ . . . . R.                                    ^.",
"                                                        . . . . $ O $ $ k h x h Q Q { { h.s.e.r.h.h.r.r.r.h.h.s.s.s.h.h.h.h.h.p.s.f.s.f.s.f.*.*.h h e 2 Y n m.C.f.z.z.z.z.z.z.z.m.m.b.z.z.z.s.s.f.s.s.f.z.z.s.p.{ +.{ +.Q Q l l $ = O O O . $ O                     2 2 . . O O l l +.+.n l x k v k k k k k h y 6 q y y 2 1 O . . . . . 3 3 x.z.l.l.l.l.l.l.l.l.x.x.x.x.x.x.l.l.l.l.z.z.z.z.z.z.x.x.l.l.l.l.l.l.x.x.x.x.x.x.x.x.x.x.x.x.x.x.x.x.x.x.x.x.x.x.x.x.x.x.x.x.x.x.x.x.x.x.x.x.x.x.x.x.x.x.x.x.x.x.x.x.x.x.x.x.l.l.l.l.x.x.z.z.x.x.x.x.z.z.x.x.x.x.x.x.z.z.z.z.x.x.l.l.x.x.x.x.x.l.l.l.x.z.z.z.z.z.z.z.z.z.z.z.z.z.z.z.x.x.x.x.x.x.x.x.x.x.x.x.x.x.x.x.x.l.l.l.l.x.l.l.l.l.l.l.l.l.l.l.x.x.l.l.l.l.l.l.l.l.l.l.l.l.l.l.l.l.l.l.l.l.l.l.l.l.l.l.l.l.l.l.x.x.x.x.x.l.l.l.x.x.x.x.l.l.x.x.x.x.x.x.x.x.x.x.x.x.x.x.x.x.x.x.x.x.x.x.x.x.x.x.x.x.x.x.x.x.x.x.x.x.x.x.x.x.x.x.z.z.z.x.x.x.x.x.x.x.x.x.x.x.x.x.l.x.x.x.x.x.x.x.x.x.x.x.x.x.x.x.x.x.l.l.l.l.x.x.x.x.x.x.x.x.x.x.x.x.l.l.x.x.x.x.x.x.x.x.x.x.x.x.l.x.x.x.x.x.x.l.x.x.x.l.l.l.l.x.x.x.x.x.x.x.x.x.x.x.x.x.x.x.x.l.l.l.l.l.l.l.l.l.l.l.l.l.x.x.x.x.x.x.l.l.l.l.l.x.l.l.l.l.l.l.l.l.l.x.x.x.l.l.l.l.l.l.l.l.l.l.l.l.l.l.x.x.l.l.l.x.l.l.l.l.l.l.l.l.l.l.l.l.l.l.l.h.l.l.l.l.l.l.l.l.l.l.l.l.l.z.z.x.z.x.x.x.l.l.x.x.x.x.x.x.x.x.x.x.x.x.x.x.x.x.x.x.x.x.x.x.x.x.x.x.x.x.x.x.x.x.x.x.x.x.x.l.l.l.l.l.l.l.x.x.x.x.x.x.l.x.x.x.x.x.x.x.x.x.x.x.x.x.x.x.x.x.x.x.x.x.x.x.x.x.x.x.x.x.x.x.x.x.x.x.x.x.x.x.x.x.x.x.x.x.x.x.x.x.x.x.x.x.x.x.x.x.x.x.x.x.x.x.x.x.x.x.x.x.x.x.x.x.x.x.x.x.x.z.l.l.l.l.l.l.l.l.l.l.l.l.l.l.l.l.l.l.l.l.l.l.l.l.l.l.l.l.x.x.l.l.l.l.l.l.x.x.x.x.x.x.x.x.x.x.x.x.x.x.x.x.x.x.x.x.x.x.x.x.x.x.x.x.x.x.x.x.x.x.x.x.x.x.x.x.x.x.x.x.x.x.x.x.z.z.x.x.l.l.l.l.l.l.l.l.x.l.l.l.l.x.l.l.l.l.l.l.l.l.l.l.x.x.x.l.x.x.x.x.x.x.x.b.x.x.x.x.x.x.x.x.x.x.x.x.x.x.x.x.x.x.x.x.x.x.x.x.x.x.x.x.x.x.x.x.x.x.x.x.x.x.x.x.x.x.x.x.x.x.x.x.x.x.x.x.x.x.x.x.x.x.x.x.l.l.x.x.x.x.x.x.x.x.l.l.l.l.l.l.l.l.l.l.l.l.l.l.l.l.l.l.l.l.l.l.l.l.l.l.l.x.l.l.l.l.l.l.x.l.l.l.x.x.x.x.x.x.x.x.l.l.l.l.l.l.l.l.l.l.l.l.l.l.l.l.l.l.l.l.l.l.x.x.z.z.z.x.x.x.x.x.l.l.x.x.l.l.l.l.x.x.x.l.l.l.l.l.l.l.l.l.l.l.l.l.l.l.l.l.l.l.l.l.l.l.l.l.l.l.x.x.x.x.x.x.l.l.l.l.l.l.l.l.l.l.l.l.l.l.l.l.l.l.l.l.l.l.x.x.x.z.z.z.x.x.x.x.x.x.x.x.l.l.l.l.x.x.x.x.x.x.x.x.x.x.x.x.l.l.l.x.x.x.x.x.x.x.x.x.x.x.x.x.x.x.x.x.x.x.x.x.x.x.x.x.x.x.x.x.x.x.x.x.x.x.x.x.x.x.x.x.x.x.x.x.x.x.x.x.x.x.x.x.x.x.x.x.x.x.x.x.l.l.l.l.l.l.x.l.x.x.l.l.l.l.l.x.x.x.x.x.x.x.x.l.A.V.k k . . . . . . 6 6 e y e g ] Y ] ] ] } Y Y h k l l l l l N $ $ . . . . R.                                    /.",
"                                                        . . . . $ $ $ $ x k v l { ( { { s.l.r.h.s.s.s.s.s.s.l.l.l.l.s.s.s.s.l.s.f.f.z.z.f.z.*.3.h h e 6 Y Y C.C.m.m.m.m.z.z.z.z.m.m.m.m.m.b.z.f.f.f.f.z.z.f.s.s.+.+.+.+.( Q v l $ $ O O . . $ .                     2 3 . . . O l v +.+.L n x k l k v k k k y y 2 6 y y 2 1 O . . . . . 3 3 x.x.l.l.l.l.l.l.l.l.x.x.x.x.x.x.x.l.l.l.z.z.z.z.z.z.x.x.x.l.l.l.l.x.x.x.x.x.x.x.x.x.x.x.x.x.x.x.x.x.x.x.x.x.x.x.x.x.x.x.x.x.x.x.x.x.x.x.x.x.x.x.x.x.x.x.x.x.x.x.x.x.x.x.x.l.l.l.l.l.z.l.l.l.l.z.x.z.l.z.x.x.x.x.x.x.z.x.x.z.x.x.l.l.x.x.x.x.x.x.x.x.x.z.z.z.z.z.z.z.l.l.l.z.z.z.z.z.x.x.x.x.x.x.x.x.x.x.x.x.x.x.x.x.x.l.l.l.l.l.l.l.l.l.l.l.l.l.l.l.l.l.l.l.l.l.l.l.l.l.l.l.l.l.l.l.l.l.l.l.l.l.l.l.l.l.l.l.l.l.l.l.l.l.l.l.l.l.l.l.x.x.x.x.l.l.l.x.x.x.x.x.x.x.x.x.l.x.x.x.x.x.x.l.x.x.x.x.x.x.x.x.x.x.x.x.x.x.x.x.x.x.x.x.l.x.x.x.z.z.x.x.x.x.x.x.l.x.x.x.x.x.x.x.x.x.x.x.x.x.x.x.x.x.x.x.x.x.x.x.x.x.x.l.l.x.x.x.x.x.x.x.x.x.x.x.x.x.l.l.x.x.x.x.x.x.x.x.x.x.x.x.l.x.x.x.x.x.x.l.l.x.x.l.l.l.l.x.x.x.x.x.x.x.x.x.x.x.x.x.x.x.l.l.l.l.l.l.l.l.l.l.l.l.l.l.l.l.l.l.l.l.l.l.l.l.l.x.l.l.l.l.l.l.l.l.l.l.l.l.l.l.l.l.l.l.l.l.l.l.l.l.l.l.l.l.l.l.l.x.l.l.l.l.l.l.l.l.l.l.l.l.l.l.l.l.l.l.l.l.l.l.l.l.l.l.l.l.l.l.l.l.x.x.x.x.z.z.x.x.z.z.x.x.x.x.x.x.x.x.x.x.x.x.x.x.x.x.x.x.x.x.x.x.x.x.l.l.l.l.x.x.x.x.x.l.l.l.l.l.l.l.x.x.x.x.x.x.l.x.x.x.x.x.x.x.x.x.x.x.x.x.x.x.z.x.x.x.x.x.x.x.x.x.x.x.x.x.x.x.x.x.x.x.x.x.x.x.x.x.x.x.x.z.x.x.x.x.x.x.x.x.x.x.x.x.x.x.x.x.x.x.x.x.x.x.x.x.x.x.x.x.x.x.z.z.z.z.l.l.l.l.l.l.l.l.l.l.x.l.l.l.l.l.l.l.l.l.l.l.l.l.l.l.l.l.x.l.l.l.l.l.l.l.x.x.x.x.x.x.x.x.x.x.x.x.x.x.x.x.x.x.x.x.x.x.x.x.x.x.x.x.x.x.x.x.x.x.x.x.x.x.x.x.x.x.x.x.x.x.x.x.z.x.x.x.l.l.l.l.l.l.l.l.x.l.l.l.l.x.l.l.l.l.l.l.l.l.l.l.l.x.x.l.x.x.x.x.x.x.x.x.x.x.x.x.x.x.x.x.x.x.x.x.x.x.x.x.x.x.x.x.x.x.x.x.x.x.x.x.x.x.x.x.x.x.x.x.x.x.x.x.x.x.x.x.x.x.x.x.x.x.x.x.x.x.x.x.x.x.x.x.l.l.l.x.x.x.l.l.x.x.l.l.l.l.l.l.l.l.l.l.l.l.l.l.l.l.l.l.l.l.l.l.l.l.l.l.l.x.l.l.l.l.l.x.x.x.l.l.x.x.x.x.l.l.l.l.l.l.l.l.l.l.l.l.l.l.l.l.l.l.l.l.l.l.l.l.l.l.x.x.z.z.z.z.l.x.x.x.l.l.x.x.l.l.l.l.x.l.l.l.l.l.l.l.l.l.l.l.l.l.l.l.l.l.l.l.l.l.l.l.l.l.l.l.l.l.x.x.x.x.x.l.l.l.l.l.l.l.l.l.l.l.l.l.l.l.l.l.l.l.l.l.l.x.x.x.z.z.z.z.l.l.l.l.l.l.l.l.l.l.l.x.x.x.x.x.l.l.x.x.x.x.x.x.l.l.l.x.x.x.x.x.x.x.x.x.x.x.x.x.x.x.x.x.x.x.x.x.x.x.x.x.x.x.x.x.x.x.x.x.x.x.x.x.x.x.x.x.x.x.x.x.x.x.x.x.x.x.x.x.x.x.x.x.x.x.x.x.l.l.l.l.x.x.x.x.x.x.l.l.l.l.l.l.x.x.x.x.x.x.x.x.A.A.k k . . . . . . 6 6 e y e g ] ] } ] ] } Y ] h k l l l l k h $ $ . . . . H.                                    ^.",
"                                                        . . . . $ $ = $ l v Q U { { +.+.l.z.s.s.l.l.l.l.l.z.z.z.x.z.l.l.l.z.z.z.s.f.z.m.b.z.*.+.h h 2 6 k n l.z.s.f.z.z.z.z.m.m.m.m.m.m.m.m.m.m.z.z.b.b.b.z.z.z.+.*.+.+.( Q v l $ $ . . . . O .                     2 3 . . . . k k { [ v l y e k e l k h k y y 2 6 q y 1 1 O . . . . . 3 3 x.x.l.l.l.l.l.l.l.l.x.x.x.x.x.x.x.x.l.l.z.z.z.z.z.z.x.x.x.l.l.l.x.x.x.x.x.x.x.x.x.x.x.x.x.x.x.x.x.x.x.x.x.x.x.x.x.x.x.x.x.x.x.x.x.x.x.x.x.x.x.x.x.x.x.x.x.x.x.x.x.x.x.x.x.l.l.l.l.l.l.l.k.l.l.l.x.x.l.x.x.x.x.x.x.x.z.z.z.z.x.x.x.x.x.x.x.x.x.x.x.x.x.z.z.z.z.z.z.z.z.z.z.z.z.l.l.l.x.x.x.x.x.x.x.x.x.x.l.x.x.x.x.x.x.l.l.l.l.l.l.l.l.l.l.l.l.l.l.l.l.l.l.l.l.l.l.l.l.l.l.l.l.l.l.l.l.l.l.l.l.l.l.l.l.x.x.x.l.l.x.x.l.l.l.l.l.l.l.l.x.x.x.x.l.l.l.x.l.l.x.x.x.x.x.x.l.l.x.x.x.x.l.l.x.x.x.x.x.x.x.x.x.x.x.x.x.x.x.x.x.x.x.l.l.l.x.x.x.x.x.x.x.x.x.x.l.x.x.x.x.x.x.x.x.x.x.x.l.x.x.x.x.x.x.x.x.x.x.x.x.x.x.x.x.x.x.x.x.x.x.x.x.x.x.x.x.x.x.x.x.x.x.x.x.x.x.x.x.x.x.x.x.x.x.x.x.x.x.x.l.l.x.x.l.l.l.l.x.x.x.x.x.x.l.l.x.x.x.l.l.l.l.l.l.l.l.l.l.l.l.l.l.l.l.l.l.l.l.l.l.l.l.l.l.l.l.l.l.l.l.l.l.l.l.l.x.l.l.l.l.x.l.l.l.l.l.l.l.l.l.l.l.l.l.l.l.l.l.l.l.l.l.l.l.l.l.l.l.l.l.l.l.l.l.l.l.l.l.l.l.l.l.l.l.l.l.l.x.x.x.x.x.x.x.z.x.x.x.x.x.x.x.x.x.x.x.x.x.x.x.x.x.x.x.x.x.x.x.x.x.x.x.x.x.l.l.l.l.l.l.x.l.x.x.x.l.l.l.l.l.l.x.x.x.l.l.l.x.x.x.x.x.x.x.x.x.x.x.x.x.x.x.x.z.z.x.x.x.x.x.x.x.x.x.x.x.x.x.x.x.x.x.x.x.x.x.x.x.x.x.x.x.x.x.x.x.x.x.x.x.x.x.x.x.x.x.x.x.x.x.x.x.x.x.x.x.x.x.x.x.x.x.z.l.z.z.x.l.l.l.l.l.l.l.l.l.x.x.x.l.l.l.x.l.l.l.l.l.l.l.l.l.l.l.l.l.l.l.l.l.l.l.x.x.x.x.x.x.x.z.z.z.z.x.x.x.x.x.x.x.x.x.x.x.x.x.x.x.x.x.x.x.x.x.x.x.x.x.x.x.x.x.x.z.x.x.x.x.x.x.x.x.x.x.x.l.l.l.l.l.l.l.l.x.l.l.l.l.x.l.l.x.x.x.x.x.x.x.x.l.l.x.x.x.x.x.x.x.x.x.x.x.x.x.x.z.z.x.x.x.x.x.x.x.x.x.x.x.x.x.x.x.x.x.x.x.x.x.x.x.x.x.x.x.x.x.x.x.x.x.x.x.x.x.x.x.x.x.x.x.x.x.x.x.x.x.x.x.x.x.x.l.l.l.l.l.l.l.l.x.l.l.l.l.l.l.l.l.l.x.l.l.l.l.x.l.l.l.l.l.l.l.x.x.l.l.l.l.x.l.l.l.l.l.x.x.x.x.l.x.x.l.l.l.l.l.l.l.l.l.l.l.l.l.l.l.l.l.l.l.l.l.l.l.l.l.l.l.l.x.x.x.x.z.x.z.z.l.l.l.l.x.x.l.l.l.l.l.l.l.l.l.l.l.l.l.l.l.l.l.l.l.l.l.l.l.l.l.l.l.l.l.l.l.l.l.l.l.x.x.l.l.l.l.l.l.l.l.l.l.l.l.x.x.x.l.l.l.l.l.x.l.l.l.l.z.z.z.z.x.x.l.l.l.l.l.l.l.l.x.x.x.x.x.x.x.x.l.l.l.l.x.x.x.x.l.l.l.x.x.x.x.x.x.x.x.x.x.x.x.x.x.x.x.l.x.l.x.x.x.x.x.x.x.x.x.x.x.x.x.x.x.x.x.x.x.x.x.x.x.x.x.x.x.x.x.x.x.x.x.x.x.x.x.x.x.x.x.x.l.l.l.x.x.x.x.x.x.x.x.x.x.x.x.x.l.x.x.x.x.x.x.x.F.A.V V . . . . . . 6 6 e h h h ] ] X.] ] ] Y Y k k l l v l k h $ $ . . . . H.                                    /.",
"                                                        . . . . $ $ $ $ l n Q Q X.X.+.+.x.m.l.l.z.z.z.z.z.x.x.m.m.x.z.z.z.x.x.b.b.b.z.z.z.z.*.+.h h 2 6 k D z.z.z.z.m.m.b.b.m.m.m.m.m.m.m.m.m.b.z.b.m.m.b.z.z.z.*.*.X.+.Q Q l x $ $ . o . . O .                     2 3 . . . . l l [ { n l h y k y l k y k y h 2 2 6 q 1 , O . . . . . 3 2 m.m.l.l.l.x.x.x.x.x.x.x.x.x.x.x.x.x.l.l.z.z.z.z.z.z.x.x.x.x.l.l.x.x.x.x.x.x.x.x.x.x.x.x.x.x.x.x.x.x.l.l.l.l.x.x.x.x.x.x.x.x.x.x.x.x.x.x.x.x.x.x.x.x.x.x.x.x.x.x.x.x.x.x.l.l.l.l.l.l.l.l.k.l.l.z.x.x.l.z.x.x.x.x.x.x.l.z.z.z.x.x.x.x.l.l.l.x.x.x.M.x.x.z.z.z.z.z.z.z.z.z.z.z.l.l.l.l.x.x.x.x.x.x.x.x.x.x.x.x.x.x.x.x.x.x.l.l.l.l.l.l.l.l.l.l.l.l.l.l.l.l.l.l.l.l.l.l.l.l.l.l.l.l.l.l.l.l.l.l.l.l.l.l.l.l.l.l.l.l.l.l.l.l.l.l.x.x.x.x.x.x.x.x.l.l.l.x.l.l.l.x.x.x.x.x.l.l.x.x.x.x.l.l.x.x.x.x.x.x.x.x.x.x.x.x.x.x.x.x.x.x.x.l.l.l.x.x.x.x.x.x.x.x.x.x.l.x.x.x.x.x.x.x.x.x.x.x.l.l.x.x.x.x.x.x.x.x.x.x.x.x.x.x.x.x.x.x.x.x.x.x.x.x.x.x.x.x.x.x.x.x.x.x.x.x.x.x.x.x.x.l.x.x.x.x.x.x.x.x.l.l.x.x.l.l.l.l.x.x.x.x.x.l.l.l.x.l.l.l.l.l.l.l.l.l.l.l.l.l.l.x.l.l.l.l.l.l.l.l.l.l.x.x.x.x.l.l.x.x.l.l.l.l.l.l.x.l.h.l.l.x.l.l.l.l.l.l.l.l.l.l.l.l.l.l.l.l.l.l.l.l.l.l.l.l.l.l.l.l.l.l.l.l.l.l.l.l.l.l.l.l.l.l.x.x.x.x.x.x.x.x.x.x.l.z.x.x.x.x.x.x.x.x.x.x.x.x.x.x.x.x.x.x.x.x.x.x.x.x.x.x.l.l.x.l.l.l.l.l.l.x.l.l.l.x.x.l.l.l.l.x.x.x.l.l.l.l.x.x.x.l.l.l.z.x.x.x.x.x.x.x.x.x.x.z.x.x.x.x.x.x.x.x.x.x.x.x.x.x.x.x.x.x.x.x.x.z.x.x.x.x.x.x.x.x.x.x.x.x.x.x.x.x.x.x.x.x.x.x.x.x.x.x.x.x.x.x.x.x.z.x.l.l.l.z.z.x.l.l.l.l.l.l.l.l.l.x.x.x.x.l.x.x.x.x.x.x.x.l.l.l.l.l.l.l.l.l.l.l.l.l.l.x.x.x.x.x.x.x.z.z.z.z.x.x.x.x.x.x.x.x.x.x.x.x.x.x.x.x.z.z.x.x.x.x.x.x.x.x.z.x.x.x.z.z.x.b.z.z.x.x.x.x.x.x.l.l.l.l.l.l.l.l.x.l.l.l.l.x.l.l.l.l.l.l.l.x.x.x.x.x.x.x.x.x.x.x.x.x.x.x.x.x.x.z.z.z.x.x.x.x.x.x.x.x.x.x.x.x.l.l.x.x.x.x.x.x.x.x.x.x.x.x.x.x.x.x.x.x.x.x.x.x.x.x.b.x.x.x.x.x.x.b.x.x.x.x.x.x.x.x.l.l.l.l.l.l.l.l.l.l.l.l.l.l.l.l.l.l.x.l.l.l.l.x.l.l.l.l.l.x.x.x.x.l.l.l.l.x.l.l.l.l.l.x.x.x.x.x.l.l.l.l.l.l.l.l.l.l.l.l.l.l.l.l.l.l.l.l.l.l.l.l.l.l.l.l.l.l.x.x.l.l.l.x.z.z.l.l.l.l.x.l.l.l.l.l.l.l.l.l.l.l.l.l.l.l.l.l.l.l.l.l.l.l.l.l.l.l.l.l.l.l.l.l.l.l.l.l.l.l.l.l.l.l.l.x.l.x.x.x.x.x.x.x.x.l.l.l.l.x.l.l.l.l.l.l.l.z.x.x.l.l.l.l.l.l.l.l.x.x.x.x.x.l.l.l.l.l.l.l.l.l.x.x.x.x.l.l.l.l.x.x.x.x.x.x.x.x.x.x.x.x.x.l.l.l.x.x.x.x.x.x.x.x.x.x.x.x.x.x.x.x.x.x.x.x.x.x.x.x.x.x.x.x.x.x.x.x.x.x.x.x.x.x.x.x.x.x.x.x.x.x.x.x.x.l.x.x.x.x.x.x.x.x.l.x.x.x.x.x.x.x.F.A.V V . . . . . . 6 6 e h h k ] ] $.$.] ] n n l l l l l l k y = = . . . . H.                                    ^.",
"                                                        . . . . = * = * l n Q ( U Q 3.+.r.7.7.p.3.6.r.r.p.s.f.z.r.s.6.p.3.6.6.6.6.-.r.e.e.-.r.6.r.6.+.+.{ +.f.b.S.m.Z.S.m.m.b.r.s.r.7.6.6.3.3.*.3.3.3.7.+.+.6.3.3.*.U v h k y h $ $ . . . . O .                     3 3 . . . . h k X.{ y y y y k h n n n v y y 6 2 2 6 1 1 X . . . . . 2 2 C.C.x.x.x.x.x.x.x.x.x.x.x.x.x.x.x.x.x.x.x.x.x.x.x.x.x.x.x.x.x.x.x.x.x.x.x.x.x.x.x.x.x.x.x.x.x.x.x.x.x.x.l.l.l.l.l.l.x.x.x.x.x.x.x.x.x.x.x.x.x.x.x.x.x.x.x.x.x.l.l.l.l.l.l.l.l.l.x.x.l.l.l.l.l.l.l.l.l.l.x.x.l.l.l.l.l.l.x.x.l.l.x.x.l.x.x.x.x.x.x.x.l.z.x.x.x.x.x.x.x.x.x.x.x.x.x.x.x.x.x.x.x.x.x.x.x.x.x.x.x.x.x.x.l.l.x.x.x.x.l.l.l.l.l.l.l.l.l.l.x.l.l.l.l.l.l.l.l.l.l.l.l.l.l.l.l.l.l.l.l.l.l.l.l.l.l.l.l.l.l.l.x.x.x.x.x.x.x.x.x.x.x.x.x.x.x.x.x.l.l.l.l.x.x.x.l.l.l.l.l.x.x.x.x.x.x.x.x.x.x.x.l.l.l.l.x.x.x.x.x.x.x.x.x.x.x.x.x.x.x.x.x.x.x.x.x.x.x.x.x.x.x.x.x.x.x.x.x.x.l.l.l.l.x.x.x.x.x.x.x.x.x.x.x.x.x.x.x.x.x.x.x.x.x.x.x.x.x.x.x.x.x.x.x.x.x.x.x.x.x.x.x.x.x.x.x.x.x.x.z.z.x.x.l.z.x.x.l.l.l.l.l.l.x.x.x.x.l.x.x.x.x.x.l.l.l.l.l.l.l.l.l.l.l.l.x.x.x.x.l.l.l.l.l.l.l.l.l.l.l.l.l.l.l.l.l.l.l.x.x.x.x.x.l.l.l.l.l.l.l.l.l.l.x.l.l.l.l.x.l.l.l.l.l.l.l.l.x.x.x.x.l.l.l.l.l.l.l.l.l.l.x.x.x.x.x.x.x.x.x.x.x.x.x.x.x.l.l.l.l.x.x.x.x.x.l.x.x.x.x.x.l.l.l.l.l.l.x.x.x.x.l.l.x.x.l.l.l.l.l.l.l.l.x.x.x.x.x.x.x.x.x.l.l.l.l.x.l.l.l.l.l.l.l.x.x.x.x.x.x.x.x.x.x.x.x.x.x.x.x.x.x.x.x.x.x.x.x.x.x.x.x.x.x.x.z.z.x.x.x.x.x.x.x.x.x.x.x.x.x.x.x.x.x.x.x.x.x.x.x.x.x.x.x.x.x.x.x.z.l.l.l.x.x.x.l.l.l.l.l.l.l.l.l.l.l.l.l.l.l.l.l.l.l.l.l.l.l.l.l.l.l.l.l.l.l.l.l.l.l.l.l.l.l.l.x.x.x.z.z.z.x.x.x.z.z.x.x.x.x.x.x.x.x.x.x.x.x.x.x.x.x.x.x.x.x.x.x.x.x.x.x.x.x.x.x.x.z.z.z.z.z.z.z.z.l.l.l.x.x.x.l.l.l.l.l.l.l.l.l.l.l.l.x.x.x.x.x.l.l.l.x.x.x.x.l.l.z.x.x.x.x.x.x.x.x.x.x.x.x.x.x.x.x.x.z.x.z.x.x.x.x.x.x.x.x.x.x.x.x.x.x.x.x.x.x.x.x.x.x.x.x.x.x.x.x.x.x.x.x.x.x.x.x.x.x.x.x.x.z.z.l.l.l.l.x.x.x.l.l.l.l.l.l.l.x.x.x.x.l.l.l.l.l.l.l.l.l.l.l.l.l.l.l.l.l.l.l.l.l.l.l.l.l.l.l.l.l.l.l.l.l.l.l.l.l.l.l.l.l.l.l.l.l.l.l.l.l.l.l.l.l.l.l.l.l.l.l.l.l.l.l.l.l.l.l.l.l.l.l.l.l.l.l.l.l.l.l.l.l.l.l.l.l.l.l.l.l.l.l.l.l.l.l.l.l.x.l.x.x.x.l.l.l.x.l.l.l.l.l.l.l.l.l.l.l.l.x.l.l.l.l.l.l.l.l.l.l.l.l.l.l.l.x.x.l.l.l.l.l.l.l.l.l.l.l.l.l.l.x.x.x.x.z.z.z.x.x.x.l.l.l.l.l.l.l.l.l.l.l.l.x.x.b.x.x.x.x.x.x.x.x.x.x.x.x.x.x.x.x.x.x.x.x.x.x.x.x.x.x.x.x.x.x.x.x.x.x.x.x.x.x.x.x.x.x.x.x.l.l.l.x.x.x.x.x.x.x.x.x.x.x.x.x.x.x.x.x.x.x.x.x.x.x.x.x.x.x.x.x.x.x.x.F.F.C C . . O . O O 6 6 h k h h ] ] $. .| [ F F h h h k y y j j & & . o . . H.                                    ^.",
"                                                        . . $ . $ $ = = v v Q Q A Y *.+.7.7.7.r.6.7.r.r.r.r.s.s.7.r.7.r.6.7.7.7.-.-.6.-.6.-.s.p.6.*.+.+.+.3.s.f.C.C.Z.C.Z.C.z.z.p.r.7.6.6.6.6.3.3.3.3.7.+.+.r.6.*.*.( U k k y h $ $ . . . . O .                     3 3 . . . . y h { { k y y y h h n n n n h y 2 2 2 6 1 1 X . . . . . 2 2 C.C.x.x.x.x.x.x.x.x.x.x.x.x.x.x.x.x.x.x.x.x.x.x.x.x.x.x.x.x.x.x.x.x.x.x.x.x.x.x.x.x.x.x.x.x.x.x.x.x.x.x.l.l.l.l.l.l.x.x.x.x.x.x.x.x.x.x.x.x.x.x.x.x.x.x.x.x.l.l.l.l.l.l.l.l.l.l.l.x.l.l.l.l.l.l.l.l.l.x.x.x.l.l.l.l.l.l.x.x.l.l.x.x.l.l.x.x.x.x.x.x.l.z.x.x.x.x.z.x.x.x.x.x.x.x.x.x.x.x.x.x.x.x.x.x.x.x.x.x.x.x.x.x.x.x.x.x.x.x.l.l.l.l.l.l.l.l.l.l.x.l.l.l.l.l.l.l.l.l.l.l.l.l.l.l.l.l.l.l.x.x.l.l.x.x.x.x.x.x.x.x.x.x.x.x.x.x.x.x.x.x.x.x.x.x.x.x.x.l.l.l.l.x.x.x.l.l.l.l.l.x.x.x.x.x.x.x.x.x.x.x.l.l.l.x.x.x.x.x.x.x.x.x.x.x.x.x.x.x.x.x.x.x.x.x.x.x.x.x.x.x.x.x.x.x.x.x.x.x.x.l.l.x.x.x.x.x.x.x.x.x.x.x.x.x.x.x.x.x.x.x.x.x.x.x.x.x.x.x.x.x.x.x.x.x.x.x.x.x.x.x.x.x.x.x.x.x.x.x.z.x.x.x.x.z.x.x.l.l.l.l.l.l.x.x.x.x.l.l.x.x.x.l.l.l.l.l.l.l.l.l.l.l.l.l.l.x.x.x.l.l.l.l.l.l.l.l.l.l.l.l.l.l.l.l.l.l.l.x.x.x.x.x.l.l.l.l.l.l.l.l.l.l.l.l.l.l.l.l.l.l.l.l.l.l.l.l.l.l.l.l.l.l.l.l.l.l.l.l.l.l.x.x.l.l.x.x.x.x.l.l.x.l.l.l.x.l.l.l.l.x.x.x.x.l.l.x.x.x.x.x.x.l.l.l.l.l.x.x.x.x.l.l.l.x.x.l.l.l.l.l.l.l.l.x.x.x.l.l.x.x.l.l.l.l.l.l.l.l.x.x.l.l.x.x.z.x.x.x.x.x.x.x.x.x.x.x.x.x.x.x.x.x.x.x.x.x.x.x.x.x.x.x.x.x.z.z.x.x.x.x.x.x.x.x.x.x.x.x.x.x.x.x.x.x.x.x.x.x.x.x.x.x.x.x.x.x.x.z.l.l.l.l.l.l.l.x.x.l.l.l.l.l.l.l.l.l.l.l.l.l.l.l.l.l.l.l.l.l.l.l.l.l.l.l.l.l.l.l.l.l.l.l.l.l.x.x.z.x.x.x.x.x.x.x.z.z.x.x.x.x.x.x.x.x.x.x.x.x.x.x.x.x.x.x.x.x.x.x.x.x.x.x.x.x.x.x.z.z.z.z.z.z.z.z.l.l.x.x.x.x.l.l.l.l.l.l.l.l.l.l.l.x.x.x.x.x.x.l.l.l.l.x.x.x.x.x.z.x.x.x.x.x.x.x.x.x.x.x.x.x.x.x.x.x.z.x.z.x.x.x.x.x.x.x.x.x.x.x.x.x.x.x.x.x.x.x.x.x.x.x.x.x.x.x.x.x.x.x.x.x.x.x.x.x.x.x.x.x.z.z.l.l.l.l.x.x.l.l.l.x.x.x.l.l.x.x.x.x.l.l.l.l.l.l.l.l.l.l.l.l.l.l.l.l.l.l.l.l.l.l.l.l.l.l.l.l.l.l.l.l.l.l.l.l.l.l.l.l.l.l.l.l.l.l.l.l.l.l.l.l.l.l.l.l.l.l.l.l.l.l.l.l.l.l.l.l.l.l.l.l.l.l.l.l.l.l.l.x.x.l.l.l.l.l.l.l.l.l.l.l.l.l.l.l.l.x.l.x.x.x.l.l.l.l.l.l.l.l.l.l.l.l.l.l.l.l.l.l.l.l.l.l.l.l.l.l.l.l.l.l.l.l.x.x.l.l.l.l.l.l.x.l.l.l.l.x.l.l.x.x.x.x.z.z.z.x.x.x.l.l.l.l.l.l.l.l.l.l.l.l.x.x.x.x.x.x.x.x.x.x.x.x.x.x.x.x.x.x.x.x.x.x.x.x.x.x.x.x.x.x.x.x.x.x.x.x.x.x.x.x.x.x.x.x.x.x.x.l.l.l.x.x.x.x.x.x.x.x.x.x.x.x.x.x.x.x.x.x.x.x.x.x.x.x.x.x.x.x.x.x.x.x.F.F.C C . . O . O O 6 e h k h h ] ] $.@.|  .D D h h k v k j j j & & . o . . H.                                    ^.",
"                                                        . . $ O $ * = = h y x x h h l h k y 6 e 2 6 6 6 2 2 2 6 2 6 h k U A Q Q k h k k A A 3.6.m.m.z.z.s.s.r.7.*.6.+.+.f.7.k y = = $ $ $ $ $ $ = = = 1 = = y y v U k l h h e y $ O . . . . . .                     3 3 . . . . h y Q ( k k y y h h v v n A k h 2 2 6 y , , X . . . . . 2 2 C.C.x.x.x.x.x.x.x.x.x.x.x.x.x.x.x.x.x.x.x.x.x.x.x.x.x.x.x.x.x.x.x.x.x.x.x.x.x.x.x.x.x.x.x.x.x.x.x.x.x.l.l.l.l.x.x.l.x.x.x.x.x.x.x.x.x.x.x.x.x.x.x.x.x.x.x.x.l.l.l.l.l.l.l.l.l.l.l.l.l.l.l.l.l.l.l.x.l.x.x.x.l.l.l.l.l.l.l.l.l.l.l.x.l.l.l.x.x.x.x.x.z.z.x.x.x.x.x.x.z.z.x.x.x.x.x.x.x.x.x.x.x.x.x.x.x.x.x.x.x.x.x.x.x.x.x.x.x.x.x.x.l.l.l.l.l.l.l.l.x.l.l.l.x.x.l.l.l.l.x.x.l.l.l.x.l.l.x.x.x.x.l.l.x.x.x.x.x.x.x.x.x.x.x.x.x.x.x.x.x.x.x.x.x.x.x.x.x.x.l.l.l.x.x.x.l.l.l.l.l.x.x.x.x.x.x.x.x.x.x.x.l.l.l.x.x.x.x.x.x.x.x.x.x.x.x.x.x.x.x.x.x.x.x.x.x.x.x.x.x.x.x.x.x.x.x.x.x.x.x.x.l.x.x.x.x.x.x.x.x.x.x.x.x.x.x.x.x.x.x.x.x.x.x.x.x.x.x.x.x.x.x.x.x.x.x.x.x.x.x.x.x.x.x.x.x.x.x.x.x.x.x.x.z.x.x.x.x.l.l.l.l.l.l.x.x.l.l.l.l.x.l.l.l.l.l.l.l.l.l.l.l.l.l.l.l.x.x.x.l.l.l.l.l.l.l.l.l.l.l.l.l.l.l.l.l.l.l.x.x.x.x.x.l.l.l.l.l.l.l.l.l.l.l.l.l.l.l.l.l.l.l.l.l.l.l.l.l.l.l.l.l.l.l.l.l.l.l.l.l.l.x.x.l.l.l.l.l.l.l.l.l.l.l.l.l.l.l.l.l.x.x.x.x.l.l.x.x.x.x.x.x.l.l.l.l.l.l.x.x.l.l.l.l.x.x.l.l.l.l.l.l.l.l.l.l.l.l.l.l.l.l.l.l.l.l.l.l.l.x.x.x.x.x.x.z.x.x.x.z.z.z.x.x.z.x.x.x.x.x.x.x.x.x.x.x.x.x.x.x.x.x.x.x.x.x.x.x.x.x.x.x.x.x.x.x.x.x.x.x.x.x.x.x.x.x.x.x.x.x.x.x.x.x.x.x.x.z.z.x.l.l.l.l.l.x.x.x.x.l.l.l.l.l.l.l.l.l.l.l.l.l.l.l.l.l.l.l.l.l.l.l.l.l.l.l.l.l.l.l.l.l.l.l.l.l.x.l.x.x.x.x.z.x.x.z.x.x.x.x.x.x.x.x.x.x.x.x.x.x.x.x.x.x.x.x.x.x.x.x.x.x.x.x.x.x.x.z.z.z.z.z.z.z.z.x.x.x.x.x.x.l.l.l.l.l.l.l.l.l.l.l.x.x.x.x.x.l.l.l.l.l.l.l.x.x.x.z.x.x.x.x.x.x.x.x.x.x.x.x.x.x.x.x.x.z.x.x.x.x.x.x.x.x.x.x.x.x.x.x.x.x.x.x.x.x.x.x.x.x.x.x.x.x.x.x.x.x.x.x.x.x.x.x.x.x.x.x.x.x.x.x.l.l.l.x.x.l.l.x.x.x.x.l.l.x.x.x.l.l.l.l.l.l.l.l.l.l.l.l.l.l.l.l.l.l.l.l.l.l.l.l.l.l.l.l.l.l.l.x.x.l.l.l.l.l.l.l.l.l.l.l.l.l.l.l.l.l.l.l.l.l.l.l.l.l.l.l.l.l.l.l.l.l.l.l.l.l.l.l.l.l.l.l.l.l.l.l.x.x.x.l.l.l.l.l.l.l.l.l.l.l.l.l.l.l.x.x.x.x.l.l.l.l.l.l.l.l.l.l.l.l.l.l.l.l.l.l.l.l.l.l.l.l.l.x.l.l.l.l.l.l.l.x.x.l.l.l.l.l.l.x.l.l.l.x.x.x.l.x.x.x.x.z.z.x.x.l.l.l.x.l.l.x.x.l.l.l.l.l.l.x.x.x.x.x.x.x.x.x.x.x.x.x.x.x.z.x.x.x.x.x.x.x.x.x.x.x.x.z.z.k.k.x.x.x.x.x.x.x.x.x.x.x.x.x.x.x.x.x.l.x.x.x.x.x.x.x.x.x.x.x.x.x.x.x.x.x.x.x.x.x.x.x.x.x.x.x.x.x.x.x.x.F.F.C C . . O . $ O y y h k h h ] ] X. .|  .D A h h l l k k k k & = . o . . H.                                    ^.",
"                                                        . . $ O $ * = = k y h y y e k h y y e e e e e 6 2 2 2 2 , 1 x k ( U Q U h h h h C A r.p.b.b.z.b.z.z.8.*.*.2.+.*.b.s.v y = = = = * * * * $ * = = $ = y h v A k v l n h k O O . . . . . .                     3 3 . . . . h y Q Q y y y y h h v v n A x l 6 6 y y 1 , O X . . . . 6 6 C.C.x.x.x.x.x.x.x.x.x.x.x.x.x.x.x.x.x.x.x.x.x.x.x.x.x.x.x.x.x.x.x.x.x.x.x.x.x.x.x.x.x.x.x.x.x.x.x.x.x.l.l.l.x.x.x.x.x.x.l.l.l.l.x.x.x.x.x.x.x.x.x.x.x.x.x.l.l.l.x.x.l.l.l.l.l.l.l.l.l.l.l.l.l.l.l.l.l.l.l.l.l.l.l.l.l.l.l.l.l.l.l.x.l.l.l.l.x.x.x.x.z.x.x.z.x.l.l.x.z.z.x.x.x.x.x.z.x.x.x.x.x.x.x.x.x.x.x.x.x.x.x.x.x.x.x.x.x.x.x.x.x.l.l.l.l.l.l.l.l.l.l.x.x.x.l.l.l.l.l.l.l.l.l.x.l.l.x.x.x.x.x.x.x.x.x.x.x.x.x.x.x.x.x.x.x.x.x.x.x.x.x.x.x.x.x.x.x.x.l.l.x.x.x.x.l.l.l.l.x.x.x.x.x.x.x.x.x.x.x.x.l.x.x.x.x.x.x.x.x.x.x.x.x.x.x.x.x.x.x.x.x.x.x.x.x.x.x.x.x.x.x.x.x.x.x.x.x.x.x.x.x.x.x.x.x.x.x.x.x.x.x.x.x.x.x.x.x.x.x.x.x.x.x.x.x.x.x.x.x.x.x.x.x.x.x.x.x.x.x.x.x.x.x.x.x.x.x.x.x.x.x.x.z.z.z.x.x.x.l.l.l.l.l.l.l.l.l.l.l.l.l.l.l.l.l.l.l.l.l.l.l.l.l.l.l.l.l.x.l.l.l.l.l.l.l.l.l.l.l.x.x.l.l.l.l.l.l.l.x.x.l.l.l.l.l.l.l.l.l.x.l.l.x.l.l.l.l.l.l.l.l.l.l.l.l.l.l.l.l.l.l.l.l.x.l.l.l.l.l.l.l.x.l.l.l.l.l.l.l.l.l.l.l.l.l.x.l.l.l.x.x.x.l.l.l.x.x.x.x.x.x.l.l.l.l.l.l.x.x.l.l.l.l.l.x.x.l.l.l.l.l.l.l.l.l.l.l.l.l.l.l.l.l.l.l.l.l.l.x.x.x.x.x.x.x.z.x.x.z.z.z.x.x.x.x.x.x.x.x.x.x.x.x.x.x.x.x.x.x.x.x.x.x.x.x.x.x.x.x.x.x.x.x.x.x.x.x.x.x.x.x.x.x.x.x.x.x.x.x.x.x.x.x.x.x.x.z.z.l.l.l.l.l.l.x.x.x.x.l.l.l.l.l.l.l.l.l.l.l.l.l.l.l.l.l.l.l.l.l.l.x.l.l.l.l.l.l.l.l.l.l.l.l.l.l.l.x.x.x.x.x.x.x.x.z.x.x.x.x.x.x.x.x.x.x.x.x.x.x.x.x.x.x.x.x.x.x.x.x.x.x.x.x.x.x.x.z.z.z.z.z.z.z.z.x.x.x.x.x.x.l.l.l.l.l.l.l.l.l.l.x.x.x.x.x.l.l.l.l.l.l.l.l.x.x.x.x.x.x.x.x.x.x.x.x.x.x.x.x.z.z.x.x.x.z.z.x.x.x.x.x.x.x.x.x.x.x.x.x.x.x.x.x.x.l.l.l.l.x.x.x.x.x.x.b.x.x.x.x.x.x.x.x.x.x.x.x.x.x.x.x.x.x.x.x.x.l.l.l.x.x.x.l.l.l.l.l.l.l.l.l.l.l.l.l.l.l.l.l.l.l.l.l.l.l.l.l.l.l.l.l.l.l.l.l.l.l.l.l.l.l.l.l.l.l.l.l.l.l.l.l.l.l.l.l.l.l.l.l.l.l.l.l.l.l.l.l.l.l.l.l.l.l.l.l.l.l.l.l.l.l.l.l.l.l.l.l.l.x.l.l.l.l.l.l.x.l.l.l.l.l.l.l.l.l.x.x.x.l.l.l.l.l.l.l.l.l.l.l.l.l.l.l.l.l.l.l.l.l.l.l.l.l.l.x.l.l.l.l.l.l.l.l.l.l.l.l.l.l.l.x.l.l.l.l.x.l.l.x.x.x.z.z.z.x.x.l.l.x.x.l.l.x.x.l.l.l.l.l.l.l.x.x.z.x.x.x.x.x.x.x.x.x.x.x.z.x.x.x.x.x.x.x.x.x.x.x.x.z.z.k.k.x.x.x.x.x.x.x.x.x.x.x.x.x.x.x.x.x.x.x.x.x.x.x.x.x.x.x.x.x.x.x.x.x.x.x.x.x.x.x.x.x.x.x.x.x.x.x.x.C.C.F.F.C C . . O . $ $ h h k k h h ] ] X.X.X.| D D h h l l j y k h $ $ . . . . F.                                    ^.",
"                                                        . . $ O $ $ = = l x l k A n Q A y y 6 6 y y e 2 2 1 1 1 1 1 Q Q 6.*.8.*.C C h h l l r.r.f.z.s.z.s.f.) ( & = , , 2 2 , 1 = = = = = = = = 2 2 2 2 = 1 k l n v y y y h e e O $ . . . . . .                     3 3 . . . . y y U U y y y y k h v v n A x l e y y y 1 1 O O . . . . 2 6 A.A.x.x.x.x.x.x.x.C.x.x.x.x.x.x.x.x.x.x.x.x.x.x.x.x.x.x.x.x.x.x.x.x.x.x.x.x.x.x.x.x.x.x.x.x.x.x.x.x.x.l.l.l.x.x.x.l.x.x.l.l.l.l.x.x.l.l.l.x.x.x.x.x.x.x.l.l.l.x.x.x.l.l.l.l.l.l.l.l.l.l.l.l.l.l.l.l.l.l.l.l.l.l.l.l.l.l.l.l.l.l.l.l.l.l.l.l.x.x.x.x.z.x.x.x.x.z.l.z.z.z.x.x.x.x.x.x.x.x.x.x.x.x.x.x.x.x.x.x.x.x.x.x.x.x.x.l.l.x.x.x.x.x.l.l.l.l.l.l.l.l.l.l.l.l.l.l.l.l.l.l.l.l.l.l.l.l.x.x.l.l.l.l.l.l.l.l.l.l.l.l.x.x.x.x.x.x.x.x.x.x.x.x.x.x.x.x.x.x.x.x.x.x.x.x.l.l.l.x.x.x.x.x.x.x.x.x.x.x.x.x.x.x.x.x.x.x.x.x.x.x.x.x.x.x.x.x.x.x.x.x.x.x.x.x.x.x.l.l.x.x.x.x.x.x.x.x.x.x.x.x.x.x.x.x.x.x.x.x.x.x.x.x.x.x.x.x.x.x.x.x.x.x.x.x.x.x.x.x.x.x.x.x.l.l.x.x.x.x.x.x.x.x.x.x.x.x.x.x.x.x.x.x.l.l.z.x.x.x.l.l.l.l.l.l.l.l.l.l.l.l.l.l.l.l.l.l.l.l.l.l.l.l.l.l.l.l.l.l.l.l.l.l.l.l.l.l.l.x.x.x.x.x.x.x.l.l.l.l.l.l.l.l.l.l.l.l.l.l.l.l.l.x.x.x.l.l.l.l.l.l.l.l.l.l.l.l.l.l.l.l.l.x.x.x.l.l.l.l.l.l.l.l.l.l.l.l.l.l.l.l.l.l.l.l.l.x.l.l.l.x.x.x.l.l.l.x.x.x.x.x.l.l.l.l.l.l.l.l.l.l.l.l.l.x.x.x.l.l.l.l.l.l.l.l.l.l.l.l.l.l.l.l.l.l.l.l.l.x.x.x.x.x.x.x.x.x.x.x.z.x.x.x.x.x.x.x.x.x.x.x.x.x.x.x.x.x.x.x.x.x.x.x.x.x.x.x.x.x.x.x.x.x.x.x.x.x.x.x.x.x.x.x.x.x.x.x.x.x.x.x.x.x.x.x.x.x.x.x.l.l.l.x.x.x.x.l.x.x.l.l.l.l.l.l.l.l.l.l.l.l.l.l.l.l.l.l.l.l.l.x.x.x.x.l.l.l.l.l.l.l.l.l.l.l.l.l.x.x.x.x.x.x.x.x.x.x.x.x.x.x.x.x.x.x.x.x.x.x.x.x.x.x.x.x.x.x.x.x.x.x.x.x.x.x.x.x.z.z.z.z.z.z.z.z.x.x.x.x.x.l.l.l.l.l.l.l.l.l.l.l.x.x.x.l.l.l.l.l.l.l.l.l.l.x.x.x.x.x.x.x.x.x.x.x.x.x.x.x.x.z.x.x.x.x.x.x.x.x.x.x.x.x.x.x.x.x.x.x.x.x.x.x.x.l.l.l.l.l.l.l.x.x.x.x.b.x.x.x.x.x.x.x.x.x.x.x.x.x.x.x.l.l.x.x.l.x.x.x.l.l.l.l.l.l.l.l.l.l.l.l.l.l.l.l.l.l.l.l.l.l.l.l.l.l.l.l.l.l.l.l.l.l.l.l.l.l.l.l.l.l.l.l.l.l.x.x.l.l.l.l.l.l.l.l.l.l.l.l.l.l.l.l.l.l.l.l.l.l.l.l.l.l.l.l.l.l.l.l.l.l.l.l.l.l.l.l.h.l.l.l.l.l.l.x.l.l.l.l.l.l.l.l.l.l.l.l.x.l.l.l.l.l.l.l.l.l.l.l.l.l.l.l.l.l.l.l.l.l.l.l.l.l.l.l.l.l.l.l.l.l.l.l.l.l.l.l.l.l.l.l.l.l.l.l.l.l.l.l.z.z.z.z.x.x.x.x.l.l.x.x.l.l.l.x.l.l.l.l.l.l.l.x.x.x.x.x.x.x.x.x.x.x.x.x.x.x.x.x.x.x.x.x.x.x.x.z.x.x.x.z.l.z.z.x.x.x.x.x.x.x.x.x.x.x.x.x.x.x.x.x.x.x.x.x.x.x.x.x.x.x.x.x.x.x.x.x.x.x.x.x.x.x.x.x.x.x.x.x.x.x.C.C.F.F.C C . . O . $ $ h h k k h k ] ] $.$.$.$.Y D k h k k y y y y $ $ . O . . H.                                    ^.",
"                                                        . . $ $ $ $ = = l k x h l l Q Y y y y y y y e 2 2 2 2 1 = = U U 3.*.*.*.C A h k l l r.r.m.m.z.z.s.f.U W = & 1 1 , 2 2 2 1 , 1 , = = = = 1 2 2 1 $ = y h A v e y y k y y O $ . . . . . .                     3 3 . . . . y y U A e e y y l k v v n A l v y y y y 1 1 $ O . . . . 6 6 A.A.x.x.C.C.x.x.C.C.x.x.x.x.x.x.x.x.x.x.x.x.x.x.x.x.x.x.x.x.x.x.x.x.x.x.x.x.x.x.x.x.x.x.x.x.x.x.x.x.x.x.x.x.x.x.l.l.l.l.l.l.l.l.l.l.x.x.x.x.x.x.x.x.x.x.x.x.x.x.x.x.l.l.l.l.l.l.l.l.l.l.l.l.l.l.l.l.l.l.l.l.l.l.l.l.l.l.l.l.l.l.l.l.l.l.l.l.l.x.x.x.x.x.x.x.x.x.z.x.x.x.x.x.x.x.z.z.x.x.x.x.x.x.x.x.x.x.x.x.x.x.x.x.x.x.l.l.l.x.x.x.x.x.l.l.l.l.l.x.l.l.l.l.l.l.l.l.l.l.l.l.l.l.l.l.l.l.l.l.l.l.l.l.l.l.l.l.l.l.l.l.x.x.x.x.x.x.x.x.x.x.x.x.x.x.x.x.x.x.x.x.x.x.x.x.x.x.x.x.x.x.x.x.x.x.x.x.x.x.x.x.x.x.x.x.x.x.x.x.x.x.x.x.x.x.x.x.x.x.x.x.x.x.x.x.x.x.l.l.x.x.x.x.x.x.x.x.x.x.x.x.x.x.x.x.x.x.x.x.x.x.x.x.x.x.x.x.x.x.x.x.x.x.x.x.x.x.x.x.x.x.x.x.l.l.l.x.x.x.x.z.x.x.x.x.x.x.x.x.l.x.x.x.l.l.z.x.l.l.l.l.l.l.l.l.l.l.l.l.l.l.l.l.l.l.l.l.l.l.l.l.l.l.l.l.l.l.l.l.l.l.l.l.l.l.l.l.l.l.x.x.x.x.x.x.l.l.l.l.l.l.l.l.l.l.l.l.l.l.l.l.l.l.x.x.l.l.l.l.l.l.l.l.l.l.l.l.l.l.l.l.l.l.x.x.l.l.l.l.x.l.l.l.l.l.l.x.x.l.l.l.l.l.l.l.x.x.x.l.l.x.x.l.l.l.l.x.l.x.x.l.l.l.l.l.l.l.l.l.l.l.l.l.l.x.x.x.l.l.l.l.l.l.l.l.l.l.l.l.l.l.l.l.l.l.l.l.x.x.x.x.l.l.l.x.x.x.x.x.x.x.x.x.z.x.x.x.x.x.x.x.z.z.z.z.x.x.x.z.x.x.x.x.x.x.x.x.x.x.x.x.x.x.x.x.x.x.x.x.x.x.x.x.x.x.x.x.x.x.x.x.x.x.x.x.x.x.x.x.l.l.l.x.x.x.x.l.x.x.l.l.l.l.l.l.l.l.l.l.l.l.l.l.l.l.l.l.l.l.x.x.x.l.l.l.l.l.l.l.l.l.l.l.l.l.l.l.x.x.z.x.x.x.x.x.x.x.x.x.x.x.x.x.x.x.x.x.x.x.x.x.x.x.x.x.x.x.x.x.x.x.x.x.x.x.x.x.z.z.z.z.z.z.z.z.x.x.x.l.l.l.l.l.l.l.l.l.l.l.l.l.x.x.x.l.l.l.l.l.l.l.l.l.l.x.x.x.x.x.x.x.x.x.x.x.x.x.x.x.x.z.x.x.x.x.x.x.x.x.x.x.x.x.x.x.x.x.x.x.x.x.x.x.l.l.l.l.l.l.l.l.x.x.x.x.x.x.x.x.x.x.x.x.x.x.x.x.x.x.x.x.l.l.x.x.l.l.l.x.l.l.l.l.l.l.l.l.l.l.l.l.l.l.l.l.l.l.l.l.l.l.l.l.l.l.l.l.l.l.l.l.l.l.l.l.l.l.l.l.l.l.l.l.l.x.x.x.l.l.l.l.l.l.l.l.l.l.l.l.l.l.l.l.l.l.l.l.l.l.l.l.x.x.l.l.l.l.l.l.l.l.l.l.l.l.l.l.j.l.l.l.l.l.l.x.l.l.l.l.l.l.l.l.l.l.l.l.l.l.l.l.l.l.l.l.l.l.l.l.l.l.l.l.l.l.l.l.l.l.l.l.l.l.l.l.l.l.l.l.l.l.l.l.l.l.l.l.l.l.l.l.l.l.l.l.l.l.l.l.z.z.z.z.x.x.x.x.l.l.x.l.l.l.l.l.l.l.x.l.l.l.l.x.x.z.x.x.x.x.x.x.x.x.x.x.x.x.x.x.x.x.x.x.x.l.x.x.x.x.x.x.z.z.x.x.x.x.x.x.x.x.x.x.x.x.x.x.x.x.x.x.x.x.x.x.x.x.x.x.x.x.x.x.x.x.x.x.x.x.x.x.x.x.x.x.x.x.x.x.x.x.C.C.F.F.C C . . O . $ $ h h h k h k ] ] $.$.$.$.Y Y k h h y 6 6 y y $ & . O . . H.                                    ^.",
"                                                        . . $ $ = * = * h y h y n l Y n = = $ * = = = = = * * $ = $ y 6 k h y y y h 6 y h h 6.6.r.s.p.s.s.b.W { 2 = 1 1 2 2 = $ = = = = = = = = , , , , $ $ 6 h y 6 , 2 2 y 2 2 . . . . . . . .                     3 3 . . . . y e U A e e y y v l n v v A x v y y e e 1 1 O O + . . . 6 6 A.A.x.x.C.C.x.x.x.x.x.x.x.x.x.x.x.x.x.x.x.x.x.x.x.x.x.x.x.x.x.x.x.x.x.x.x.x.x.x.x.x.x.x.x.x.x.x.x.x.x.x.x.x.x.x.l.l.l.l.l.l.l.l.l.l.x.x.x.x.x.x.x.x.x.x.x.x.x.x.x.l.x.l.l.l.l.l.l.l.l.l.l.l.l.l.l.l.x.l.l.l.l.l.l.l.l.l.l.l.l.l.l.l.l.l.l.l.l.l.x.x.x.x.x.x.z.z.x.x.x.x.x.x.x.x.x.x.x.x.x.x.x.x.x.x.x.x.x.x.x.x.x.x.l.l.x.x.x.x.x.x.x.x.l.l.l.l.l.x.l.l.l.l.l.h.l.l.l.l.l.l.l.l.l.l.l.l.l.l.l.l.l.x.l.l.l.l.l.l.l.l.x.x.x.x.x.x.x.x.k.x.b.b.x.x.x.x.x.x.x.x.x.x.x.x.x.x.x.x.x.x.x.x.x.x.x.x.x.x.x.x.x.x.x.x.x.x.x.x.x.x.x.x.x.x.x.x.x.x.x.x.x.x.x.x.x.l.l.l.l.x.x.x.x.x.x.x.x.x.x.x.x.x.x.x.x.x.x.x.x.x.x.x.x.x.x.x.x.x.x.x.x.x.x.x.x.x.x.x.x.x.x.x.x.l.x.x.x.x.z.z.x.x.x.x.x.x.x.x.l.x.x.x.x.z.x.x.l.l.l.l.l.x.x.l.l.l.l.l.l.x.l.l.l.l.l.l.l.l.l.l.l.l.l.l.l.l.l.l.l.l.l.l.l.l.l.l.l.l.l.l.l.l.l.l.l.l.l.l.l.l.l.l.l.l.l.l.l.l.l.l.l.l.l.l.l.l.l.l.l.l.l.l.l.l.l.l.l.l.l.l.l.l.l.l.l.l.l.x.x.x.l.l.l.l.l.l.l.l.l.l.x.l.l.x.x.x.x.l.l.x.x.l.l.l.l.x.x.x.x.x.l.l.l.l.l.l.l.l.l.l.l.l.x.x.x.x.l.l.l.x.l.l.l.x.x.x.l.l.l.l.l.l.l.l.x.x.x.x.x.x.l.l.l.l.x.x.x.x.x.x.x.x.x.x.x.x.x.x.x.x.z.z.x.x.x.x.z.z.x.x.x.x.x.z.x.x.x.x.x.x.x.x.x.b.x.x.x.x.x.x.x.x.x.x.x.x.x.x.x.x.x.x.x.x.x.x.x.x.l.l.l.l.x.x.x.x.x.x.l.l.x.x.l.l.l.l.l.l.l.l.l.l.l.l.l.l.l.l.x.x.l.l.l.l.l.l.l.l.l.x.x.l.l.l.l.l.l.x.x.x.x.x.x.x.x.x.x.x.x.x.x.x.x.x.x.x.x.x.x.x.x.x.x.x.x.x.x.x.x.x.x.x.x.x.x.x.z.z.z.z.z.z.z.z.x.l.l.l.l.l.l.l.l.l.l.l.l.l.l.l.x.x.l.l.l.l.l.l.x.x.x.x.x.l.l.l.x.x.x.x.x.x.x.x.x.x.x.x.x.x.x.x.x.x.x.x.x.x.x.x.x.x.x.x.x.x.x.x.x.x.x.x.l.l.l.l.x.x.l.l.x.x.x.x.x.x.x.x.x.x.x.x.z.z.x.x.x.x.x.x.l.l.x.x.l.l.l.l.l.l.l.l.l.l.l.l.l.l.l.l.l.l.l.l.l.l.l.l.l.l.l.l.l.l.l.l.l.l.l.l.x.l.l.l.l.l.l.x.l.l.l.l.l.l.x.x.l.l.l.l.l.l.l.l.l.l.l.l.l.l.l.l.l.l.l.l.l.l.l.l.x.x.x.l.l.l.l.l.l.l.l.l.l.l.l.l.l.l.l.l.l.l.l.l.l.l.l.l.l.l.l.l.l.l.l.l.l.l.l.l.l.l.l.l.l.l.l.l.l.l.l.l.l.l.l.l.l.l.l.l.l.l.l.l.l.l.l.l.l.l.l.l.l.l.l.l.l.l.l.l.l.l.l.l.l.l.l.l.x.x.z.z.z.x.z.z.l.l.l.l.l.l.l.l.l.l.x.l.l.l.l.x.x.x.x.x.x.x.x.z.z.x.x.x.x.x.x.x.x.x.x.x.x.l.l.l.z.z.x.x.x.x.x.x.x.x.x.x.x.x.x.x.x.x.x.x.x.x.x.x.x.x.x.x.x.x.x.x.x.x.x.x.x.x.x.x.x.x.x.C.C.x.x.x.x.x.x.x.x.x.x.x.F.F.C C . . O . O $ y y h h h h } ] X.$.$.$.Q Y h y y y 2 2 6 6 $ = . O . . H.                                    ^.",
"                                                        . . $ $ $ * = = h y h k l l Y A = = = = = = = = = = = * * $ e 2 y h y h y k 6 h h h 6.6.s.z.s.z.s.b.n ( 1 2 2 , 1 1 = , = = = = = = = = , 3 3 , O $ 2 6 6 6 3 2 6 6 2 2 . . . . . . . .                     3 3 . . . . y e A A e y y y A v A v v A x v y e e e 1 1 O X $ . + . 6 6 A.A.x.C.C.C.x.x.x.C.x.x.x.x.x.x.x.x.x.x.x.x.x.x.x.x.x.x.x.x.x.x.x.x.x.x.x.x.x.x.x.x.x.x.x.x.x.x.x.x.x.x.x.x.x.x.l.l.l.l.l.l.l.l.l.l.x.x.x.x.x.x.x.x.l.x.x.x.x.l.l.l.x.x.l.l.l.l.l.l.l.l.l.l.l.l.l.l.x.x.l.l.l.l.l.l.l.l.l.l.l.l.l.l.l.l.l.l.l.l.l.x.x.x.x.x.x.x.x.x.x.x.x.x.x.x.x.x.x.x.x.x.x.z.x.x.x.x.x.x.x.x.x.x.l.x.x.x.x.x.x.x.x.x.l.l.l.l.x.x.l.l.l.l.l.l.l.l.l.l.l.l.l.l.l.l.l.l.l.l.l.l.l.x.x.x.x.x.x.x.x.x.x.x.x.x.x.x.x.x.x.x.b.b.x.x.x.x.x.x.x.x.x.x.x.x.x.x.x.x.x.x.x.x.x.x.x.x.x.x.x.x.x.x.x.x.x.x.x.x.x.x.x.x.x.x.x.x.x.x.x.x.x.x.x.x.x.l.l.l.l.x.x.x.x.x.x.x.x.x.x.x.x.x.x.x.x.x.x.x.x.x.x.x.x.x.x.x.x.x.x.x.x.x.x.x.x.x.x.x.x.x.x.x.x.x.x.x.x.x.z.z.x.x.x.x.x.x.x.x.l.z.x.x.z.x.x.x.l.l.l.l.x.x.x.x.x.l.l.l.x.x.l.l.l.l.l.l.l.l.l.l.l.l.l.l.l.l.l.l.l.l.l.l.l.l.l.l.l.l.l.l.l.l.l.l.l.l.l.l.l.l.l.l.l.l.l.l.l.l.l.l.l.l.l.l.l.l.l.l.l.l.l.l.l.l.l.l.l.l.l.l.l.l.l.l.l.l.l.x.x.x.l.l.l.l.l.l.l.l.l.l.x.x.x.x.x.x.x.l.l.x.l.l.l.l.l.x.x.x.x.x.x.l.l.l.l.l.l.l.l.l.l.l.x.x.x.l.l.l.x.x.l.l.x.x.x.x.x.x.x.l.l.l.l.x.x.x.x.x.x.x.l.l.l.l.x.x.x.x.x.x.x.x.x.x.x.x.x.x.x.z.z.z.x.x.x.x.z.z.x.x.x.x.z.z.x.x.x.x.x.x.x.x.b.b.x.x.x.x.x.x.x.x.x.x.x.x.x.x.x.x.x.x.x.x.x.x.x.x.l.l.l.l.l.l.x.x.x.l.l.x.x.x.l.l.l.l.l.l.l.l.l.l.l.l.l.l.l.l.x.x.l.l.l.l.l.l.l.l.x.x.x.x.l.l.l.l.l.x.x.x.z.z.x.x.x.x.x.x.x.x.x.x.x.x.x.x.x.x.x.x.x.x.x.x.x.x.x.x.x.x.x.x.x.x.x.x.z.z.z.z.z.z.z.z.l.l.l.l.l.l.l.x.l.l.l.l.l.l.l.l.x.x.l.l.l.l.l.l.x.x.x.x.x.l.l.l.x.x.b.x.x.x.x.x.x.x.x.x.x.x.x.x.x.x.x.x.x.x.x.x.x.x.x.x.x.x.x.x.x.x.x.x.l.l.l.l.x.x.x.l.x.x.x.x.x.x.x.x.x.x.x.x.z.x.x.x.x.x.x.x.l.x.x.x.l.l.l.l.l.l.l.l.l.l.l.l.l.l.l.l.l.l.l.l.l.l.l.l.l.l.l.l.l.l.l.l.l.l.l.l.x.l.l.l.l.l.l.x.x.x.x.x.l.l.l.l.l.l.l.l.l.l.l.l.l.l.l.l.l.l.l.l.l.l.l.l.l.l.l.l.x.x.x.x.l.l.l.l.l.l.l.l.l.l.l.l.l.l.l.l.l.l.l.l.l.l.l.l.l.l.l.l.l.l.l.l.l.l.l.l.l.l.l.l.l.l.l.l.l.l.l.l.l.l.l.l.l.l.l.l.l.l.l.l.l.l.l.l.l.l.l.l.l.l.l.l.l.l.l.l.l.l.l.l.l.l.l.l.x.x.x.z.z.z.z.z.x.l.l.l.l.x.x.l.l.l.x.l.l.l.l.l.x.x.x.x.x.x.x.z.z.z.x.x.x.x.x.x.x.x.x.x.l.l.l.l.z.z.x.x.x.x.x.x.x.x.x.x.x.x.x.x.x.x.x.x.x.x.x.x.x.x.x.x.x.x.x.x.x.x.x.x.x.x.x.x.x.x.x.C.C.x.x.x.C.C.x.x.x.x.x.x.F.F.C C . . O . O O y y h h h h  .] $.$.$.$.[ Y y y y y 2 2 2 2 $ & . O . . H.                                    ^.",
"                                                        . . $ $ $ * = = U n U U k k e e O $ . o . o O O O O O $ o O $ $ $ $ $ $ , , k k C C 6.6.s.s.p.r.r.r.n A $ $ $ $ $ O . . $ $ $ O $ O O O . . O O . . . O O $ 3 2 6 3 2 , O $ . . . . . .                     3 3 . . . . y y Q U y y y y l h k k l A l l y 6 2 2 , 1 O . . . . . 6 6 A.A.x.x.x.x.x.M.x.x.x.x.x.x.x.x.x.x.x.x.x.x.x.x.x.x.x.x.x.x.x.x.x.x.x.x.x.x.x.x.x.x.x.x.x.x.x.x.x.x.x.x.x.l.l.l.l.l.x.x.x.x.x.x.x.x.l.l.l.l.l.l.x.x.l.l.l.l.x.x.x.l.l.l.l.x.x.x.l.l.l.l.l.l.l.l.l.l.l.l.l.l.l.x.x.x.l.x.x.l.l.l.l.l.l.l.l.l.x.x.x.x.x.x.x.x.x.x.x.x.x.x.x.x.x.x.x.x.x.x.x.x.x.x.x.x.x.x.x.x.x.x.x.x.l.x.x.x.x.l.l.l.l.l.l.l.l.l.l.l.l.l.l.l.l.l.l.l.l.l.l.l.l.l.l.l.l.l.l.l.l.l.l.l.l.l.l.l.l.l.l.l.x.l.l.l.z.x.x.x.x.x.x.x.x.x.x.l.x.x.x.x.x.x.x.x.x.x.x.x.x.x.x.x.x.x.x.x.x.x.x.x.x.x.x.x.x.x.x.x.x.x.l.l.x.x.x.x.x.x.x.x.x.x.x.x.x.x.x.x.x.x.x.x.x.x.x.x.x.x.x.x.x.x.x.x.x.x.x.x.x.x.x.x.x.x.x.x.x.x.x.x.x.x.x.x.x.x.x.x.x.x.x.x.x.x.x.x.x.x.x.x.x.x.x.x.x.x.x.x.z.x.x.x.x.x.x.x.l.x.x.x.l.l.l.x.x.x.l.l.x.x.x.l.x.x.x.l.l.l.l.l.l.l.l.x.l.l.l.l.l.l.l.l.l.l.l.l.l.l.l.l.l.l.l.l.l.l.l.l.l.l.l.l.l.l.l.l.l.l.l.x.l.l.l.l.l.l.l.l.l.l.l.l.l.l.l.l.l.l.l.l.l.l.l.x.l.l.l.l.l.l.l.l.x.x.x.x.l.l.l.l.x.l.l.l.l.l.x.x.l.l.l.l.l.l.l.x.l.l.x.x.x.x.x.x.l.l.l.l.l.l.x.x.l.x.x.x.x.l.l.l.l.l.x.x.l.l.x.x.x.x.x.x.x.x.x.x.l.x.x.x.x.x.l.x.x.x.x.x.x.x.x.x.x.x.x.x.x.x.x.x.x.x.x.x.x.x.x.x.b.x.x.x.x.x.x.x.x.x.x.x.x.x.x.x.x.x.x.x.x.x.x.x.b.x.x.x.x.x.x.b.x.x.x.x.x.x.z.z.l.x.x.x.l.l.l.l.l.l.l.l.l.l.l.l.x.l.l.l.l.l.l.l.x.l.l.l.l.l.l.l.l.l.l.l.l.l.l.l.l.l.x.x.l.l.l.x.z.z.z.x.x.x.x.x.x.x.x.x.x.x.z.z.x.x.x.x.x.x.x.x.x.x.x.x.z.z.z.x.x.b.b.x.x.z.x.x.x.z.z.z.z.z.z.z.l.l.l.l.l.l.l.l.l.l.l.l.l.l.l.l.x.x.l.l.l.l.l.l.x.x.x.x.x.x.l.l.x.x.b.b.x.x.x.x.x.x.z.z.x.z.x.x.x.x.x.x.x.x.x.x.x.x.x.x.x.x.x.x.x.x.x.x.x.x.x.x.x.x.x.x.x.x.x.x.x.x.x.x.x.x.x.x.x.x.x.x.x.x.x.x.l.l.x.x.x.l.l.l.l.l.l.l.l.l.l.l.l.l.l.l.l.l.l.h.l.l.l.l.l.l.l.l.l.l.l.l.l.l.l.l.l.l.l.x.x.l.l.l.l.l.l.l.l.l.l.l.l.l.l.l.l.l.l.l.l.l.l.l.l.l.l.l.l.l.l.l.l.l.l.l.l.l.l.l.l.l.l.l.l.l.l.l.l.l.l.l.h.k.l.l.l.l.l.l.l.l.l.l.l.l.l.l.l.l.l.l.l.l.l.l.l.l.x.x.x.x.x.l.l.l.l.l.l.l.l.l.l.l.l.x.x.l.l.l.x.x.x.l.l.l.l.l.l.l.l.l.l.l.l.l.l.l.x.x.x.x.x.x.x.x.x.x.l.l.z.z.x.x.l.l.l.l.l.l.l.l.l.l.l.l.l.l.x.x.x.x.x.x.x.x.x.z.l.l.x.x.z.z.x.x.x.x.x.x.x.x.x.x.x.x.l.l.l.l.l.l.l.l.l.l.l.l.l.l.l.l.l.l.l.l.l.l.l.l.l.l.x.x.x.x.x.x.x.x.x.x.x.x.x.x.x.x.x.x.x.x.x.x.x.x.C.B.F.F.k k . . O O $ $ y y h h h k X.} $.X.X.X.Q Q k h e y 2 6 1 1 $ = . . . . H.                                    ^.",
"                                                        . . $ $ , = = = U A A A y y 2 2 o $ . o . . O O O O O O O O $ $ $ $ $ $ , , l k A A 6.6.r.p.r.r.7.7.n U $ $ $ $ $ O O O O $ $ $ $ O . . . . O . . . . O $ $ 2 2 2 3 2 2 $ $ . . . . . .                     3 3 . . . . y y U U y y y y l h l k l A l v y e 6 6 1 1 O O . . . . 6 6 A.A.x.x.x.x.C.C.N.C.x.x.x.x.x.x.x.x.x.x.x.x.x.x.x.x.x.x.x.x.x.x.x.x.x.x.x.x.x.x.x.x.x.x.x.x.x.x.x.x.l.l.l.l.l.l.l.l.x.x.x.x.x.x.x.l.l.l.l.l.l.l.x.x.x.l.l.l.x.x.l.l.l.l.l.x.x.l.l.l.l.l.l.l.l.l.l.l.l.l.l.l.l.x.x.x.l.x.x.l.l.l.l.l.l.l.l.l.l.x.x.x.x.x.x.x.x.x.x.x.x.x.x.x.x.x.x.x.x.x.x.x.x.x.x.x.x.x.x.x.x.x.x.x.l.x.x.x.l.l.l.l.l.l.l.l.l.l.l.l.l.l.l.l.l.l.l.l.l.l.l.l.l.l.l.l.l.l.l.l.l.l.l.l.l.l.l.l.l.l.l.l.x.x.l.l.z.x.x.x.x.x.x.x.x.x.x.z.x.x.x.x.x.x.x.x.x.x.x.x.x.x.x.x.x.x.x.x.x.x.x.x.x.x.x.x.x.x.x.x.x.x.x.l.x.x.x.x.x.x.x.x.x.x.x.x.x.x.x.x.x.x.x.x.x.x.x.x.x.x.x.x.x.x.x.x.x.x.x.x.x.x.x.x.x.x.x.x.x.x.x.x.x.x.x.x.x.x.x.x.x.x.x.x.x.x.x.x.x.x.x.x.x.x.x.x.x.x.x.x.x.x.x.x.x.x.x.x.l.x.x.x.l.l.l.x.x.x.l.l.x.x.x.l.x.x.x.l.l.l.l.l.l.l.l.l.l.l.l.l.l.l.l.l.l.l.l.l.l.l.l.l.l.l.l.l.l.l.l.l.l.l.l.l.l.l.l.l.l.l.l.l.l.l.l.l.l.l.l.l.l.l.l.l.l.l.l.l.l.l.l.l.l.l.l.l.l.l.l.l.l.l.l.x.l.l.l.l.l.l.l.l.l.l.l.l.l.l.l.l.l.l.x.x.l.l.x.x.l.x.x.x.x.x.x.x.l.l.l.l.l.l.x.x.l.x.x.x.x.l.x.x.l.l.x.x.l.l.x.x.x.x.x.x.x.x.x.x.l.x.x.x.x.x.x.x.x.x.x.x.x.x.x.x.b.x.x.x.x.x.x.x.x.x.x.x.x.x.x.x.x.x.x.x.x.x.x.x.x.x.x.x.x.x.x.x.x.x.x.x.x.x.x.x.x.x.x.x.x.x.x.x.x.x.x.x.x.x.x.x.l.l.x.l.l.l.l.l.l.l.l.l.l.l.l.l.l.l.l.l.l.l.l.l.l.l.l.l.l.l.l.l.l.l.l.l.l.l.l.l.l.l.l.l.l.l.l.l.z.z.z.x.x.x.x.x.x.x.x.x.x.x.z.z.x.x.x.x.x.x.x.x.x.x.x.x.z.z.z.x.x.x.b.x.x.x.x.x.z.z.z.z.z.z.z.z.l.l.l.l.l.l.l.l.l.l.l.l.l.l.l.l.x.x.x.x.l.l.l.l.x.x.x.x.x.l.l.l.x.x.b.b.x.x.x.x.x.x.z.x.x.x.x.x.x.x.x.x.x.x.x.x.x.x.x.x.x.x.x.x.x.x.x.x.x.x.x.x.x.x.x.x.x.x.x.x.b.x.x.x.x.x.x.b.x.x.x.x.x.x.x.x.l.l.x.x.x.l.l.l.l.l.l.l.l.l.l.l.l.l.l.l.l.l.l.l.l.l.l.l.l.l.l.l.l.l.l.l.l.l.l.l.l.l.l.x.x.l.l.l.l.l.l.l.l.l.l.l.l.l.l.l.l.l.l.l.l.l.l.l.l.l.l.l.l.l.l.l.l.l.l.l.l.l.l.l.l.l.l.l.l.l.l.l.l.l.l.l.l.l.l.l.l.l.l.l.l.l.l.l.l.l.l.l.l.l.l.l.l.l.l.l.l.l.l.x.x.x.x.x.l.l.l.l.l.l.l.x.l.l.x.l.x.x.l.l.x.x.l.l.l.l.l.l.l.l.l.l.l.l.l.l.l.l.l.x.x.x.x.x.x.z.x.x.x.x.z.x.x.l.l.l.l.l.l.l.l.l.l.l.l.l.l.l.z.x.x.x.x.x.x.x.x.z.l.l.z.x.z.z.x.x.x.x.x.x.x.x.x.x.x.x.l.l.l.l.l.l.x.l.l.l.l.l.l.l.l.l.l.l.l.l.l.l.l.l.l.l.l.l.x.x.x.x.x.x.x.x.x.x.x.x.x.x.x.x.x.x.x.x.x.C.C.C.F.F.k k . . O O O $ y h h h h h X.] X.X.X.X.Q Y k h e e 2 2 1 2 = = . O . . H.                                    ^.",
"                                                        . . $ $ $ * $ $ y y y e h y 2 2 O $ o O o O O O O O $ $ $ O O O $ $ $ O = , h k D D 6.6.s.f.z.s.s.s.( { = * $ $ O O O O O O O $ O . . . . . . . . . O O . . $ . O . = $ $ $ . . . . . .                     3 3 . . . . y y A A y y y y l k v k l n l v y y e y 2 1 O O . . . . 6 6 A.A.x.x.C.C.C.C.C.C.x.x.x.x.x.x.x.x.x.x.x.x.x.x.x.x.x.x.x.x.x.x.x.x.x.x.x.x.x.x.x.x.x.x.x.x.x.x.l.l.l.l.l.l.l.x.x.x.x.x.l.l.x.x.l.l.x.x.l.l.l.l.l.l.x.x.l.l.l.l.l.l.l.l.l.l.l.l.l.l.l.l.l.l.l.l.l.l.l.l.l.l.l.l.l.l.l.l.l.l.l.l.l.l.l.l.l.l.l.l.x.x.z.z.x.x.x.x.x.b.x.x.x.x.x.x.x.x.x.x.x.x.x.x.x.x.x.x.x.x.x.x.x.x.l.l.x.l.l.l.x.x.l.l.l.l.l.l.l.l.l.l.l.l.l.l.l.l.l.l.l.l.l.l.l.l.l.l.l.l.l.l.l.l.l.l.l.l.l.l.l.l.x.l.l.l.z.x.x.k.x.x.x.x.x.x.z.z.x.x.x.x.x.x.x.x.x.x.x.x.x.x.x.x.x.x.x.x.x.x.x.x.x.x.x.x.x.x.x.x.x.x.x.l.x.x.x.x.x.x.x.x.x.x.x.x.x.x.x.x.x.x.x.x.x.x.x.x.x.x.x.x.x.x.x.x.x.x.x.x.x.x.x.x.x.x.x.x.x.x.x.x.x.x.x.x.x.x.x.x.x.x.x.x.x.x.x.x.x.x.x.x.x.x.x.x.x.x.x.x.x.x.x.x.x.z.x.x.x.x.x.x.l.l.l.x.x.x.l.l.x.x.x.l.x.x.l.l.l.l.l.l.l.l.l.l.l.l.l.l.l.l.l.l.l.l.l.l.l.l.l.l.l.l.l.l.l.l.l.l.l.x.x.x.l.l.l.l.l.l.l.l.l.l.l.l.l.l.l.l.l.l.l.l.l.l.l.l.l.l.l.l.l.l.l.l.l.l.l.l.l.l.l.x.l.l.l.l.l.l.l.l.l.l.l.l.l.l.l.l.l.x.x.x.x.x.x.x.l.x.x.x.x.l.l.l.l.l.l.l.l.l.x.x.l.x.x.x.x.l.l.x.l.l.x.x.l.l.x.x.x.x.x.x.l.l.x.x.x.x.x.x.x.x.x.x.x.x.x.x.x.x.z.x.x.x.x.x.x.x.x.x.x.x.x.x.x.x.x.x.x.x.x.x.x.x.x.x.x.x.x.x.x.x.x.x.x.x.x.x.x.x.x.x.x.x.x.x.x.x.x.x.x.x.x.x.x.x.x.x.l.l.l.l.l.l.l.l.l.l.l.l.l.l.l.l.l.l.l.l.l.l.l.l.l.l.x.x.l.l.l.l.l.l.l.l.l.l.l.l.l.l.l.l.l.l.l.l.z.z.x.x.x.x.x.x.x.x.x.x.x.x.z.z.x.x.x.x.x.x.x.x.z.z.x.x.z.x.x.x.x.x.x.x.x.x.x.x.x.x.z.z.z.z.z.z.l.l.l.l.l.l.l.l.l.l.l.l.l.l.l.l.x.x.x.x.x.x.x.x.x.x.x.x.l.x.l.l.x.x.x.x.x.x.x.x.z.z.x.x.x.x.x.x.b.x.x.x.b.b.x.x.x.x.x.x.x.x.x.x.x.x.x.x.x.x.x.x.x.x.x.x.x.x.x.x.b.x.x.x.x.x.x.b.x.x.x.x.x.x.x.x.l.l.l.l.l.l.l.l.h.l.l.l.l.l.l.l.l.l.l.l.l.l.l.l.l.l.l.l.l.l.l.l.x.x.l.l.l.l.l.l.l.l.l.l.l.l.l.l.l.l.l.l.l.l.l.l.l.l.l.l.l.l.l.l.l.l.l.l.l.l.l.l.l.l.l.l.l.l.l.l.l.l.l.l.l.l.l.l.l.l.l.l.l.l.l.l.l.l.l.l.l.z.z.z.z.l.l.l.z.z.x.x.l.l.l.l.l.l.l.l.l.l.l.x.x.x.x.x.l.l.l.l.x.x.x.x.x.l.l.l.l.l.l.l.l.l.l.l.l.l.l.x.l.l.l.l.l.l.l.l.x.l.l.l.x.x.x.l.z.z.z.x.x.x.x.x.x.l.l.l.l.l.l.l.l.l.l.l.l.l.l.l.z.x.x.x.x.x.x.x.x.z.z.z.z.x.z.z.x.x.x.x.x.x.x.x.x.x.x.x.x.x.x.x.l.l.x.l.l.l.l.l.l.l.l.l.l.l.l.l.x.l.l.l.l.l.x.x.x.x.x.x.x.x.x.x.x.x.x.x.x.x.x.x.x.x.x.x.x.M.C.C.F.F.C k . . . . . o y h h h h h X.( X.X.+.*.} Q h h e e 1 2 1 2 = = O O . . H.                                    ^.",
"                                                        . . $ $ , = , = y e y e 6 6 2 2 $ $ o o O O O $ $ $ $ $ $ $ O O $ $ $ O = = h k D D 6.6.s.s.f.s.s.s.Q ) , * $ O O O O O o O O O . . . . . . . . . . . . $ . $ . O O , , $ $ . . . . . .                     3 3 . . . . y y U U y y y y k h v l l v k l y e e y 2 2 $ O . . . . 6 6 A.A.x.x.C.C.C.C.C.C.x.x.x.x.x.x.x.x.x.x.x.x.x.x.x.x.x.x.x.x.x.x.x.x.x.x.x.x.x.x.x.x.x.x.x.x.x.l.l.l.l.l.l.l.x.x.x.x.x.l.l.l.l.l.l.l.x.x.x.l.l.l.l.l.x.l.l.l.l.l.l.l.x.x.l.l.l.l.l.x.l.l.l.l.l.l.l.l.l.l.l.l.l.l.l.l.l.l.l.l.l.l.l.l.l.l.l.l.l.l.l.l.l.l.z.x.x.x.x.x.x.x.x.x.x.x.x.x.x.x.x.x.x.x.x.x.x.x.x.x.x.x.x.x.l.l.l.l.l.l.x.x.l.l.l.l.l.l.l.l.l.l.l.l.l.l.l.l.l.l.l.l.l.l.l.l.l.l.l.l.l.l.l.l.l.l.l.x.x.x.l.l.l.l.l.l.z.z.k.k.x.x.x.x.x.z.z.z.l.l.l.x.x.x.x.x.x.x.x.x.x.x.x.x.x.x.x.x.x.x.x.x.x.x.x.x.x.x.x.x.x.x.x.x.x.x.x.x.x.x.x.x.x.x.x.x.x.x.x.x.x.x.x.x.x.x.x.x.x.x.x.x.x.x.x.x.x.x.x.x.x.x.x.x.l.x.x.x.x.x.x.x.x.x.x.x.x.x.x.x.x.x.x.x.x.x.x.x.x.x.x.x.x.x.x.x.x.x.x.x.x.x.x.x.z.x.x.x.l.x.x.x.l.l.l.x.x.x.l.l.x.x.x.l.x.l.l.l.l.l.l.l.l.l.l.l.l.l.l.l.l.l.l.l.l.l.l.l.l.l.l.l.l.l.l.l.l.l.l.l.x.x.x.x.l.l.l.l.l.l.l.l.l.l.l.l.l.l.l.l.l.l.l.l.l.l.l.l.l.l.l.l.l.l.l.l.l.l.l.l.l.l.l.x.l.l.l.l.l.l.l.l.l.l.l.l.l.l.l.l.l.l.x.x.x.l.l.x.l.x.x.x.x.l.l.l.l.l.x.x.l.l.x.x.l.x.x.x.x.x.x.x.l.x.x.x.x.l.x.x.x.x.x.x.l.l.x.x.x.x.x.x.x.x.x.x.x.x.x.x.x.l.l.z.x.x.x.x.x.x.x.x.x.x.x.x.x.x.x.x.x.x.x.x.x.x.x.x.x.x.x.x.x.x.x.x.x.x.x.x.x.x.x.x.x.x.x.x.x.x.x.x.b.x.x.x.x.x.x.x.l.l.l.l.l.l.l.l.l.l.l.l.l.l.l.l.l.l.l.l.l.l.l.l.l.l.x.x.x.l.l.l.l.l.l.l.l.l.l.l.l.l.l.l.l.l.l.l.x.x.x.x.x.x.x.x.x.x.x.x.x.x.x.x.x.x.x.x.x.x.x.x.x.x.x.x.x.x.x.x.x.x.x.x.x.x.x.x.z.z.z.z.z.z.z.z.l.l.l.l.l.l.l.l.l.l.l.l.l.l.l.l.l.l.l.l.x.x.x.x.x.x.l.l.l.x.x.l.x.x.x.x.x.x.x.x.z.z.x.x.x.x.x.x.x.x.x.x.x.x.x.x.x.x.x.x.x.x.x.x.x.x.x.x.x.x.x.x.x.x.x.x.x.x.x.x.b.x.x.x.x.x.x.x.x.x.x.x.x.x.x.x.l.l.l.l.l.l.l.l.l.l.l.l.l.l.l.l.l.l.l.l.l.l.l.l.l.l.l.l.l.l.l.l.x.l.l.l.l.l.l.l.l.l.l.l.l.l.l.l.l.l.l.l.l.l.l.l.l.l.l.l.l.l.l.l.l.l.l.l.l.l.l.l.l.l.l.l.l.l.l.l.l.l.l.l.l.l.l.l.l.l.l.l.l.l.l.l.z.l.l.l.l.z.z.z.x.z.l.l.l.z.x.x.l.l.l.l.l.l.l.l.l.l.l.l.l.l.l.l.l.l.l.l.l.l.l.l.x.x.l.l.l.l.l.l.l.l.l.l.l.l.l.l.l.l.l.l.l.l.l.l.x.l.l.l.x.x.x.l.z.z.z.x.x.x.x.x.l.l.l.l.l.l.l.l.l.l.l.l.l.l.x.x.z.x.x.x.x.x.x.x.x.x.x.x.x.x.x.z.x.x.x.x.x.l.l.l.l.l.l.l.x.x.x.x.l.l.x.l.l.l.l.l.l.l.l.l.l.l.l.l.x.x.x.l.l.l.x.x.x.x.x.x.x.x.x.x.x.x.x.x.x.x.x.x.x.x.x.x.x.x.x.C.F.F.C C . . . . . O y h h h h h X.Y X.X.+.*.{ } y h e y 1 2 2 6 = = . . . . H.                                    ^.",
"                                                        . . $ $ $ $ = $ = * = = $ $ $ * o O o o $ $ O O $ $ $ $ $ $ O O $ $ $ O , , k l Q Q 6.6.s.s.s.s.s.p.W ( , * $ O O O O O o o . . . . . . . . . . . . . . . . . . . . $ = O O . . . . . .                     3 3 . . . . y y Q A y y e y y h v l l l y h 6 6 e y 2 2 $ O . . . . 6 6 A.A.x.x.x.C.C.C.C.x.x.x.x.x.x.x.x.x.x.x.x.x.x.x.x.x.x.x.x.x.x.x.x.x.x.x.x.x.x.x.x.x.x.x.x.x.x.l.l.l.x.x.x.x.x.x.x.l.x.l.l.l.l.l.l.l.x.x.x.l.l.l.l.l.l.l.l.l.l.l.l.x.x.x.x.l.l.l.l.l.l.l.l.l.l.l.l.l.l.l.l.l.l.l.l.l.l.l.l.l.l.l.l.l.l.l.l.l.l.l.l.l.z.z.z.x.x.x.x.x.x.x.x.x.x.x.x.x.x.x.x.x.x.x.x.x.x.x.x.b.x.x.z.z.l.l.l.l.l.l.x.x.l.l.l.x.l.l.l.l.l.l.l.l.l.l.l.l.l.l.l.l.l.l.l.l.l.l.l.l.l.l.l.x.l.l.l.l.x.x.l.l.l.l.x.z.x.z.k.x.x.x.x.x.x.l.l.l.l.l.l.l.x.x.x.x.x.x.x.x.x.x.x.x.x.x.x.x.x.x.x.x.x.x.x.x.x.x.x.x.x.x.x.x.x.x.x.x.x.x.x.x.x.x.x.x.x.x.x.x.x.x.x.x.x.x.x.x.x.x.x.x.x.x.x.x.x.x.x.x.x.x.x.x.x.x.x.x.x.x.x.x.x.x.x.x.x.x.x.x.x.x.x.x.x.x.x.x.x.x.x.x.x.x.x.x.x.x.x.x.x.x.x.x.z.z.x.x.l.x.x.x.l.l.l.x.l.l.x.x.l.l.l.x.l.l.l.l.l.l.l.l.l.l.l.l.l.l.l.x.l.l.l.l.l.l.l.l.l.l.l.l.l.l.l.l.l.l.l.l.l.l.x.x.l.l.l.l.l.l.l.l.l.l.l.l.l.l.l.l.l.l.l.l.l.l.l.l.l.l.l.l.l.l.l.h.l.l.l.l.l.l.l.x.l.l.l.l.l.l.l.l.l.l.x.x.x.x.x.l.l.l.l.x.l.l.l.l.l.l.x.x.x.l.l.x.l.l.x.x.l.l.x.x.l.x.x.x.x.x.x.x.x.x.x.x.l.l.l.x.x.x.x.x.l.l.x.x.l.x.x.x.l.l.l.x.x.x.x.x.l.l.l.z.k.z.x.x.x.x.x.x.x.x.x.x.x.x.x.x.x.x.x.x.x.x.x.x.x.x.x.x.x.x.x.x.x.x.x.x.x.x.x.x.z.x.x.x.x.x.x.x.b.x.x.x.z.x.x.x.x.x.x.l.l.l.l.l.l.l.l.l.x.l.l.l.l.l.l.l.l.l.l.l.l.l.x.x.l.l.l.l.l.l.l.l.l.l.l.l.l.l.x.x.l.l.x.x.x.x.x.x.x.x.x.x.x.x.x.x.x.x.x.x.b.x.x.x.x.x.x.b.x.x.x.x.x.x.x.x.x.x.x.x.x.x.x.x.z.z.z.z.z.z.z.z.l.l.l.l.l.l.l.l.l.l.l.l.l.l.l.l.l.l.l.l.l.l.l.l.l.l.l.l.l.l.l.l.x.x.x.x.x.x.x.x.x.x.x.x.x.x.x.x.x.x.x.x.x.x.x.z.x.x.x.x.x.x.x.x.x.x.x.x.x.x.x.x.x.x.x.x.x.x.x.x.x.x.x.x.x.x.x.x.x.x.x.x.x.x.x.x.l.l.l.l.l.l.l.l.l.l.l.l.l.l.h.h.l.l.l.l.l.l.l.l.l.l.l.l.l.l.l.l.l.l.l.l.l.l.l.l.l.l.l.l.l.l.l.l.l.l.l.l.l.l.l.l.l.l.l.l.l.l.l.l.l.l.l.l.l.l.l.l.l.l.l.l.l.l.l.l.l.l.l.l.l.l.l.l.x.x.x.x.x.l.l.l.l.l.l.l.x.z.x.x.x.z.l.l.l.l.z.z.l.l.l.l.l.l.l.l.l.l.l.l.l.l.l.l.l.l.l.l.l.l.l.l.x.x.l.l.l.l.l.l.l.l.l.l.l.l.l.l.l.l.l.l.l.l.l.l.x.l.l.l.x.x.x.l.x.x.x.z.z.z.z.z.l.l.l.l.l.l.l.l.l.l.l.l.l.l.x.x.z.x.x.x.x.x.x.x.x.x.x.x.x.x.x.x.x.x.x.x.l.l.l.l.l.l.l.l.x.x.x.x.l.x.x.x.l.l.l.l.x.x.x.x.x.x.x.x.x.x.x.l.x.x.x.x.x.x.x.x.x.x.x.x.x.x.x.x.x.x.x.x.x.x.x.x.x.x.x.x.F.F.C C . . . . O $ y y h h h h k v Y Y U Q l v y y y y 2 6 2 6 = = . . . . H.                                    ~.",
"                                                        . . $ $ = = = = * $ = = o o $ $ o O $ O $ $ $ $ O $ $ $ $ $ $ O O $ $ O 3 , k k A D 6.6.s.f.f.s.s.s.U U * $ $ $ $ O O O O o . . . . . . . . . . . . . . . . O . O . = , O O . . . . . .                     3 3 . . . . y y Q A y 6 6 e y y l l l l y y 2 6 e y 2 2 O O . . . . 6 6 A.A.x.x.x.C.C.C.x.x.x.x.x.x.x.x.x.x.x.x.x.x.x.x.x.x.x.x.x.x.x.x.x.x.x.x.x.x.x.x.x.x.x.x.x.x.x.x.l.l.x.x.x.x.x.x.x.x.x.l.l.l.l.l.l.l.x.x.x.x.l.l.l.l.l.l.l.l.l.l.x.x.x.x.x.x.x.l.l.l.l.l.l.l.l.l.l.l.l.l.l.l.l.l.l.l.l.l.l.l.l.l.l.l.l.l.l.l.l.l.l.l.z.z.z.x.x.x.x.x.x.x.x.x.x.x.x.x.z.x.x.x.x.z.x.x.x.x.x.x.x.x.z.l.l.l.l.l.l.l.l.x.l.l.l.l.l.l.l.l.l.l.l.l.l.l.l.l.l.l.l.l.l.l.l.l.l.l.l.l.l.l.l.x.l.l.l.l.l.l.l.l.l.l.x.x.x.z.x.x.x.x.x.x.l.l.l.l.l.l.l.l.l.x.x.x.x.x.x.x.x.x.l.l.x.x.x.x.x.x.x.x.x.x.x.x.x.x.x.x.x.x.x.x.l.x.x.x.x.x.x.x.x.x.x.x.x.x.x.x.x.x.x.x.x.x.x.x.x.x.x.x.x.x.x.x.x.x.x.x.x.x.x.x.l.x.x.x.x.x.x.x.x.x.x.x.x.x.x.x.x.x.x.x.x.x.x.x.x.x.x.x.x.x.x.x.x.x.x.x.x.x.x.x.z.z.x.x.l.x.x.x.l.l.l.x.l.l.x.x.l.l.l.x.l.l.l.l.l.l.l.l.l.l.l.l.l.l.l.l.l.l.l.l.l.l.l.l.l.l.l.l.l.l.l.l.l.l.l.l.l.l.l.x.l.l.l.l.l.l.l.l.l.l.l.l.l.l.l.l.l.l.l.l.l.l.l.l.l.l.l.x.l.l.l.l.l.l.l.l.l.l.l.x.l.l.l.l.l.l.l.l.l.l.x.x.x.x.x.x.l.l.l.l.l.l.l.l.l.l.x.x.l.l.l.x.l.x.x.x.x.l.x.x.l.l.x.x.x.x.x.x.x.x.x.x.l.l.l.l.x.x.x.x.l.l.x.x.x.x.x.l.l.l.l.x.x.x.x.x.z.l.x.z.k.z.x.x.x.x.x.x.x.x.x.x.x.x.x.x.x.x.x.x.x.x.x.x.x.x.x.x.x.x.z.x.x.x.x.x.x.x.x.x.x.x.x.x.x.x.x.x.x.x.x.x.x.x.x.x.l.x.x.x.l.l.l.l.l.l.l.l.l.l.l.l.l.l.l.l.l.l.l.l.l.l.l.l.l.l.l.l.l.l.l.l.l.l.l.l.l.l.x.x.x.x.x.x.x.x.x.x.x.x.x.x.x.x.x.x.x.x.x.x.b.x.x.x.x.x.x.b.x.x.x.x.x.x.x.x.x.x.x.x.x.x.x.x.z.z.z.z.z.z.z.z.l.l.l.l.l.l.l.l.l.l.l.l.l.l.l.l.l.l.l.l.l.l.l.l.l.l.l.l.l.l.l.l.x.x.x.x.x.x.x.x.x.x.x.x.x.x.x.x.x.x.x.x.x.x.z.z.x.x.x.x.x.x.x.x.x.x.x.x.x.x.x.x.x.x.x.x.x.x.x.x.x.x.x.b.x.x.x.x.z.z.x.x.x.x.x.x.l.l.l.l.l.l.l.l.l.l.l.l.l.h.h.l.l.l.l.l.l.l.l.l.l.l.l.l.l.l.l.l.l.l.l.l.l.l.l.l.l.l.l.l.l.l.l.l.l.l.l.l.l.x.l.l.l.l.l.l.l.l.l.l.l.l.l.l.l.l.l.l.l.l.l.l.l.l.l.l.l.l.l.l.l.l.l.l.l.l.x.x.x.x.l.l.l.l.z.z.z.x.x.x.x.x.l.l.l.l.l.l.l.l.l.l.l.l.l.l.l.l.l.l.l.l.l.l.l.l.l.l.l.l.l.l.l.l.l.l.l.l.l.l.l.l.l.l.l.l.l.l.l.l.l.l.l.l.l.l.l.l.l.l.l.x.l.l.x.x.x.x.z.z.l.l.l.l.l.l.l.l.l.l.l.l.l.l.l.l.l.l.z.x.x.x.x.x.x.x.x.x.x.x.x.x.x.x.x.x.x.l.l.l.l.l.l.l.l.l.x.x.x.x.l.x.x.x.l.l.l.l.x.x.x.x.x.x.x.x.x.x.x.x.x.x.x.x.x.x.x.x.x.x.x.x.x.x.x.x.x.x.x.x.x.x.x.x.x.x.x.x.F.F.C C . . . . $ $ y y h h h h n U } ( Q Q n A e y y h 6 6 2 2 = = . . . . H.                                    ^.",
"                                                        . . $ $ , = = = * = = = $ $ * * $ $ $ $ $ $ $ O O O $ $ $ $ $ O O O O $ 3 , h y k l 3.6.p.p.p.r.r.r.x k $ $ $ $ $ $ O O O O O o . . . . . . . . . . . . . . . . . . $ , O $ . . . . . .                     3 3 . . . . 2 6 n n y 2 2 2 y y k l l l y y 6 6 y y 2 2 O o . . . . 6 6 A.A.x.x.x.x.C.C.x.x.x.x.x.x.x.x.x.x.x.x.x.x.x.x.x.x.x.x.x.x.x.x.x.x.x.x.x.x.x.x.x.x.x.x.x.x.x.x.x.x.x.x.x.x.x.x.x.x.x.x.l.l.x.x.l.l.l.l.x.x.x.l.l.l.l.l.x.x.l.l.l.x.x.x.x.x.x.x.l.l.l.l.l.l.l.l.l.l.x.x.l.l.l.l.l.l.l.l.l.l.l.l.l.l.l.l.l.l.l.l.l.l.l.l.l.x.x.x.z.z.x.x.x.x.x.x.x.x.z.x.x.x.x.x.x.x.x.x.x.x.x.x.z.z.l.l.x.l.l.l.l.l.x.l.l.l.l.l.l.l.l.l.l.l.l.l.l.l.l.l.l.l.l.l.l.l.l.l.l.l.l.l.l.x.l.l.l.l.l.l.l.l.l.l.x.x.x.x.x.x.x.x.x.x.l.l.l.l.l.l.l.l.l.x.x.x.x.x.x.x.x.l.l.l.x.x.x.x.x.x.x.x.x.x.x.x.x.x.x.x.x.x.x.x.l.x.x.x.x.x.x.x.x.x.x.x.x.x.x.x.x.x.x.x.x.x.x.x.x.x.x.x.x.x.x.x.x.x.x.x.x.x.x.x.x.x.x.x.x.x.x.x.x.x.x.x.x.x.x.x.x.x.x.x.x.x.x.x.x.x.x.x.x.x.x.x.x.x.x.x.x.x.x.x.z.x.x.x.l.x.x.x.l.l.l.x.l.l.x.x.l.l.l.x.l.l.l.l.l.l.l.l.x.l.l.l.l.l.l.l.l.l.l.l.l.l.x.x.l.l.l.l.l.l.l.l.l.l.l.l.l.l.x.x.l.l.l.l.l.l.l.l.l.l.l.l.l.l.l.l.l.l.l.l.l.l.l.l.l.l.l.l.l.l.l.l.l.x.x.x.l.l.l.l.l.l.l.l.l.l.l.l.l.l.l.l.l.x.x.x.l.l.l.l.l.l.l.x.l.l.x.x.l.l.l.x.l.x.x.x.x.l.l.x.l.l.x.x.x.x.x.x.l.x.x.l.l.l.l.l.l.x.x.x.l.l.x.x.x.x.x.x.l.l.x.x.z.z.z.z.z.z.x.x.l.z.x.x.x.x.x.x.x.x.x.x.x.x.x.x.x.x.x.x.x.x.x.x.x.x.x.x.x.x.z.z.x.x.x.x.x.x.x.x.x.x.x.z.x.x.x.x.x.x.x.x.x.x.x.x.l.l.x.x.l.l.l.l.l.l.l.l.l.l.l.x.l.l.l.l.l.l.l.l.l.l.l.l.l.l.l.l.l.l.l.l.l.l.l.l.l.l.x.x.l.l.x.x.z.z.x.x.x.x.z.x.x.x.x.x.x.x.x.x.b.x.x.x.x.x.x.b.x.x.x.x.x.x.x.x.x.x.x.x.x.x.x.x.z.z.z.z.z.z.z.z.l.l.l.l.l.l.l.l.l.l.l.l.l.l.l.l.l.l.l.l.l.l.l.l.l.l.l.l.x.x.x.x.z.x.x.x.x.z.x.x.x.x.x.x.x.x.x.x.x.x.x.x.x.x.x.z.x.x.x.x.x.x.x.x.x.x.x.x.x.x.x.x.x.x.x.x.x.x.x.x.x.x.x.x.x.x.x.x.x.x.x.x.x.x.x.x.l.l.l.l.l.l.l.l.l.l.l.l.l.l.l.l.l.l.l.l.l.l.l.l.l.l.l.l.l.l.l.l.l.l.l.l.l.l.l.l.l.l.l.l.l.l.l.l.x.l.l.l.l.x.l.l.l.l.l.l.l.l.l.l.l.l.l.l.l.l.l.l.l.l.l.l.l.l.l.l.l.l.l.l.l.l.l.l.l.l.l.l.l.l.l.l.l.x.x.x.x.x.z.z.z.z.l.l.l.l.l.l.l.l.l.l.l.l.l.l.l.l.l.l.l.l.l.l.l.l.l.l.l.l.l.l.l.l.l.l.l.l.l.l.l.l.l.l.l.l.l.l.l.l.l.l.l.l.l.l.l.l.l.l.l.l.l.l.x.x.z.x.x.z.z.l.l.l.l.l.l.l.l.l.l.l.l.l.l.l.l.l.z.x.x.x.x.x.x.x.x.x.z.z.x.x.x.x.x.x.x.l.l.l.l.l.l.l.l.l.x.x.x.x.l.x.x.x.l.l.l.x.l.l.l.l.l.l.l.l.x.x.x.x.x.x.x.x.x.x.x.x.x.x.x.x.x.x.x.x.x.x.x.x.x.x.x.x.N.x.C.x.F.F.C C . . . . $ $ y 6 y y y h x k A v l x y y q y y h 6 6 2 1 = = . O . . H.                                    ^.",
"                                                        . . $ $ , = $ = * = = $ $ $ $ $ O O $ $ $ $ O O O O $ $ $ $ $ O . O O $ 2 3 h y h k *.6.s.s.s.s.s.r.x h O $ $ $ $ $ $ $ O O O O o . . . . . . . . . . . . . $ . . . $ , O $ . . . . . .                     3 3 . . . . 2 2 l l y 2 2 1 y y k x l l y q 6 q y y 2 2 O o . . . . 6 6 A.A.x.x.x.x.C.x.x.x.C.C.x.x.x.x.x.x.x.x.x.x.x.x.x.x.x.x.x.x.x.x.x.x.x.x.x.x.x.x.x.x.x.x.x.x.x.x.x.x.l.l.l.x.x.x.x.x.x.x.l.l.x.x.l.l.l.l.l.x.x.l.l.l.l.x.x.x.l.l.l.l.x.x.x.x.x.x.l.l.l.l.l.l.l.l.l.l.x.x.x.l.l.l.l.l.l.l.l.l.l.l.l.l.l.l.l.l.l.l.l.l.l.l.l.x.x.z.x.x.x.x.x.x.x.x.x.x.x.x.x.x.x.x.x.x.x.x.x.x.l.z.x.x.l.l.x.x.l.l.l.l.x.x.l.l.l.l.l.l.l.l.l.l.l.l.l.l.l.l.l.l.l.l.l.l.l.l.l.l.l.l.l.x.l.l.l.l.l.l.l.l.l.l.x.x.x.x.x.x.x.x.x.x.l.l.l.l.l.l.l.l.l.x.x.x.x.x.x.x.l.l.l.l.x.x.x.x.x.x.x.x.x.x.x.x.x.x.x.x.x.x.x.x.l.l.x.x.l.x.x.x.x.x.x.x.x.x.x.x.x.x.x.x.x.x.x.x.x.x.x.x.x.x.x.x.x.x.x.x.x.x.x.x.x.x.x.l.x.x.x.x.x.x.x.x.l.x.x.x.x.x.x.x.x.x.x.x.x.x.x.x.x.x.x.x.x.x.x.x.x.x.x.x.z.x.x.x.l.x.x.x.l.l.l.x.l.l.x.x.l.l.l.x.l.l.l.l.l.l.l.l.x.x.l.l.l.l.l.l.l.l.l.l.l.x.x.x.l.l.l.l.l.l.l.l.x.l.l.l.l.l.x.x.l.l.h.l.l.l.l.l.l.l.l.l.l.l.l.l.l.l.l.l.l.l.l.l.l.l.l.l.l.l.l.l.x.x.x.x.l.l.l.l.l.l.l.l.l.l.l.l.l.l.l.l.l.l.x.x.l.l.l.l.l.l.x.x.l.x.x.x.l.l.l.l.x.x.x.x.x.x.l.l.x.x.x.x.x.x.x.x.l.l.x.l.l.l.l.x.l.x.x.l.l.l.x.x.x.x.x.x.l.l.x.x.l.z.z.z.x.x.x.x.x.x.b.x.x.z.x.x.x.x.x.x.x.x.x.x.x.x.x.x.z.z.z.x.x.x.x.x.x.x.z.z.x.x.x.x.x.x.x.x.x.x.x.x.x.x.x.x.x.x.x.x.x.x.x.x.l.l.x.x.l.l.l.l.l.l.l.l.l.l.x.x.l.l.l.l.l.l.l.l.l.l.l.l.l.l.l.x.l.l.l.l.l.l.l.l.l.l.l.l.l.l.x.x.z.x.x.x.z.z.z.x.x.x.x.x.x.x.x.x.x.x.x.x.x.x.x.x.x.x.x.x.x.x.x.x.b.x.x.x.x.x.x.x.z.z.z.z.z.z.z.z.l.l.l.l.l.l.l.l.l.l.l.l.l.l.l.l.x.x.x.l.l.l.l.l.l.l.l.x.x.x.x.x.z.x.x.x.x.z.x.x.x.x.x.x.x.x.x.x.x.x.x.x.x.x.x.x.x.x.x.x.x.x.x.x.x.x.x.x.x.x.x.x.x.x.x.x.x.x.x.x.b.x.x.x.x.x.x.x.x.x.x.x.x.z.x.z.l.l.l.x.x.l.l.l.h.s.l.l.l.l.l.l.l.l.l.l.l.l.l.l.l.l.l.l.l.l.l.l.x.x.l.l.l.l.l.l.x.x.l.l.l.l.l.l.x.l.l.l.l.x.l.l.l.l.l.l.l.l.l.l.l.l.l.l.l.l.l.l.l.l.l.l.l.l.l.l.l.l.l.l.l.l.l.l.l.l.l.l.l.l.l.l.z.z.x.x.x.x.z.l.l.l.l.z.l.z.l.l.l.l.l.l.l.l.l.l.l.l.l.l.l.l.x.x.l.l.l.l.l.l.l.l.l.l.l.x.x.x.l.l.x.x.x.l.l.l.l.l.l.l.l.l.l.l.l.l.l.l.l.l.l.l.l.l.l.l.z.x.x.x.z.z.l.l.l.l.l.l.l.l.l.l.l.l.l.l.l.l.z.z.x.x.x.x.x.x.x.x.x.x.x.x.x.x.x.x.x.l.l.l.l.l.x.x.x.x.l.l.l.l.l.x.x.x.l.l.l.x.l.l.l.l.l.l.l.l.x.x.x.x.x.x.x.x.x.x.x.x.x.x.x.x.x.x.x.x.x.x.x.x.x.x.x.C.C.C.C.C.F.F.C C . . . . $ $ y 6 y y 6 y A n A A v x y y u y u u q 9 1 , & = . $ . . H.                                    ^.",
"                                                        . . $ $ = , = = 2 6 $ , , , $ O $ O = = $ $ $ $ $ $ $ = = $ $ $ $ $ O O , , k h A D 6.6.i.l.p.z.6.r.l l . . $ $ , $ , = $ $ $ $ O O O O . . O O O O . . . . $ $ $ $ = , $ . . . . . . .                     3 3 . . . . q w v j w q 2 2 q 2 y y u u 9 u y y j h 2 2 O o @ . . . 2 2 Z.A.x.x.x.x.x.x.x.x.x.x.x.x.x.x.x.x.x.x.x.x.x.x.x.x.x.x.x.x.x.x.x.x.x.x.x.x.x.x.l.l.x.x.x.x.x.x.x.x.x.x.x.x.x.x.x.x.l.l.l.x.x.x.x.x.x.x.x.x.l.l.l.l.l.l.l.l.l.l.l.l.l.l.l.l.x.l.l.l.l.l.l.l.l.l.l.l.l.l.l.l.l.l.l.l.l.l.l.l.l.l.l.l.l.l.l.l.l.l.l.l.l.x.x.x.l.l.l.l.x.x.l.l.l.l.z.z.z.x.x.x.x.x.x.z.z.x.x.x.l.l.l.l.l.l.l.l.l.l.l.l.l.l.l.l.l.l.l.l.l.l.l.l.l.l.l.l.l.l.l.l.l.l.l.l.l.l.l.l.l.l.l.l.l.l.l.l.l.l.l.l.z.x.x.x.x.x.x.x.x.x.x.z.l.l.l.x.x.x.x.x.x.x.x.x.x.x.x.x.x.x.x.x.x.x.x.x.x.x.x.x.x.x.x.x.x.x.x.x.x.x.l.l.l.l.x.x.x.x.x.x.x.x.x.x.x.x.x.x.x.x.x.x.x.x.x.x.x.x.x.x.x.x.x.x.x.x.x.x.x.x.x.x.x.x.x.x.x.x.x.x.x.x.x.x.l.l.l.l.x.x.x.x.x.x.x.x.x.x.x.x.x.x.x.x.x.x.x.x.x.x.x.x.x.x.x.x.l.z.x.z.k.k.l.x.l.x.x.x.l.l.l.x.x.x.l.l.l.l.x.x.l.l.l.l.l.l.l.l.l.l.l.l.l.l.l.l.l.l.l.l.l.l.l.l.l.l.l.l.l.l.l.l.l.l.l.l.l.l.l.l.l.l.x.l.l.l.l.l.l.l.h.h.l.l.l.l.l.l.l.l.l.l.l.l.l.l.l.l.l.l.l.l.l.l.l.l.l.l.l.l.l.x.x.x.l.l.l.x.l.x.l.l.l.l.l.x.l.x.x.x.l.l.x.x.l.l.x.x.x.x.x.x.z.x.x.x.x.z.x.x.l.l.x.x.l.l.l.l.l.l.x.l.l.l.l.l.l.l.x.x.x.x.l.l.l.l.l.l.l.l.z.x.x.x.z.z.z.x.x.x.x.x.x.x.x.x.z.z.x.x.x.x.x.x.x.x.x.x.x.x.l.l.l.l.x.x.x.x.x.x.x.x.x.x.x.x.x.x.x.x.x.x.x.x.x.x.x.x.l.l.l.l.l.l.l.l.l.l.l.l.l.l.l.l.l.l.l.l.l.l.l.l.l.l.l.l.l.l.l.l.l.l.l.l.l.l.l.l.x.x.x.x.x.x.x.x.x.x.x.x.x.x.x.x.x.x.z.z.x.x.x.x.x.x.x.x.x.x.x.x.x.x.x.x.x.x.x.x.x.x.x.x.x.x.z.z.x.x.x.x.x.x.x.x.l.l.l.l.l.l.l.l.l.l.l.l.l.l.l.l.l.l.l.l.l.l.l.l.l.l.l.l.l.l.l.l.x.x.z.x.x.x.x.x.x.x.x.x.x.x.x.x.x.x.l.l.x.x.x.l.l.l.x.x.x.x.x.x.x.x.x.x.x.x.x.x.x.x.x.x.x.x.x.x.x.x.x.x.x.x.x.x.z.x.x.x.z.x.x.x.l.l.l.l.l.l.l.l.l.l.l.l.l.l.l.l.l.l.l.l.l.l.l.l.l.l.l.l.l.l.l.l.l.l.l.l.l.l.l.l.l.l.l.l.l.l.l.l.x.l.l.l.x.x.l.l.l.l.l.l.l.x.x.x.l.l.l.l.l.l.l.l.l.l.l.l.l.l.l.l.l.l.l.l.l.l.l.l.l.l.l.l.l.l.l.l.l.l.l.l.l.l.l.l.l.l.l.l.l.l.l.l.l.l.l.l.l.l.l.l.x.x.l.l.l.l.x.x.l.l.l.l.l.l.l.l.l.l.l.l.l.l.l.l.x.x.x.l.l.x.l.x.l.l.l.l.l.l.l.l.z.z.z.z.z.z.x.x.l.x.x.z.l.k.l.x.l.l.l.l.l.l.l.x.x.x.x.x.l.l.l.l.l.z.x.x.x.x.x.z.x.x.x.x.x.x.x.x.x.x.x.z.z.z.l.l.x.l.l.l.l.l.x.x.x.x.l.l.l.l.l.l.l.l.l.l.l.x.x.x.x.x.x.x.x.x.x.x.l.l.x.x.x.x.x.x.x.x.x.x.x.x.x.x.x.x.x.x.x.N.C.C.F.S.n n . . O . O O e y h y y q L L L L j p 9 9 w w q 9 9 9 u u = , O $ . . H.                                    ^.",
"                                                        . . $ $ = , , $ 6 6 = , 3 3 . O $ $ $ $ $ $ $ $ $ $ $ $ $ $ $ $ $ $ O . > * k h D Q e.e.e.r.s.b.r.s.l h O O = $ = $ = $ $ $ $ $ $ $ $ O O . $ $ O $ . . . . = $ $ = $ , $ . . . . . . .                     3 3 . . . . q q v j w w 9 9 9 9 u u u u 9 q u y y y 2 1 o . @ . . . 6 2 Z.A.x.x.x.x.x.x.x.x.x.x.x.x.x.x.x.x.x.x.x.x.x.x.x.x.x.x.x.x.x.x.x.x.x.x.x.x.x.x.x.x.x.x.x.x.x.x.x.x.x.x.x.x.x.x.x.x.x.x.x.x.x.x.x.x.x.x.x.x.l.l.l.l.l.l.l.l.l.l.l.l.l.l.l.l.l.l.l.l.l.l.l.l.l.l.l.l.l.l.l.l.l.l.l.l.l.l.l.l.l.l.l.l.l.l.l.l.l.l.l.l.l.l.x.x.l.l.l.x.x.x.l.l.l.l.z.z.x.x.x.x.x.x.x.x.z.x.x.x.l.l.l.l.x.x.l.l.l.l.l.l.l.l.l.l.l.l.l.l.l.l.l.l.l.l.l.l.l.l.l.l.l.l.l.l.l.l.l.l.l.l.l.l.l.l.l.l.l.l.l.l.x.x.x.x.x.x.x.x.x.x.x.z.l.l.l.x.x.x.x.x.x.x.x.x.x.x.x.x.x.x.x.x.x.x.x.x.x.x.x.x.x.x.x.x.x.x.x.x.x.x.l.l.l.l.x.x.x.x.x.x.x.x.x.x.x.x.x.x.x.x.x.x.x.x.x.x.x.x.x.x.x.x.x.x.x.x.x.x.x.x.x.x.x.x.x.x.x.x.x.x.x.x.x.x.l.l.l.x.x.x.x.x.x.x.x.x.x.x.x.x.x.x.x.x.x.x.x.x.x.x.x.x.x.x.x.x.l.z.x.z.k.k.l.x.l.l.x.l.l.l.l.l.x.l.l.l.l.l.x.x.l.l.l.l.l.l.l.l.l.l.l.l.l.l.l.l.l.l.l.l.l.l.l.l.l.l.l.l.l.l.l.l.l.l.l.l.l.l.l.l.l.l.l.l.l.l.l.l.l.l.h.h.l.l.l.l.l.l.l.l.l.l.l.l.l.l.l.l.l.l.l.l.l.l.l.l.l.l.l.l.l.x.x.x.l.l.l.l.l.l.l.l.l.l.l.x.l.x.x.x.l.l.x.x.l.l.x.x.x.x.x.x.x.x.x.x.z.z.x.x.l.l.x.x.l.l.l.x.l.x.x.x.l.l.l.l.l.l.l.l.l.l.l.l.l.l.x.x.l.l.x.x.x.x.z.z.z.x.x.x.x.x.x.x.x.x.x.x.x.x.x.x.x.x.x.x.x.x.x.z.l.l.l.l.x.x.x.x.x.x.x.x.x.x.x.x.x.x.x.x.x.x.x.x.x.x.x.x.x.x.l.l.l.l.l.l.l.l.l.l.l.l.l.l.l.l.l.l.l.l.l.l.l.l.l.l.l.l.l.l.l.l.l.l.l.l.l.l.x.x.l.l.l.l.x.x.x.x.x.x.x.x.x.x.x.x.x.x.x.x.x.x.x.x.x.x.x.x.x.x.x.x.x.x.x.x.x.x.x.x.x.x.x.z.z.x.x.x.x.x.x.x.x.x.l.l.l.l.l.l.l.l.l.l.l.l.l.l.l.l.l.l.l.l.l.l.l.l.l.l.x.l.l.l.l.l.x.x.x.x.x.x.z.x.x.x.x.x.x.x.x.x.x.x.l.l.x.x.x.l.x.x.x.x.x.x.x.l.x.x.x.x.x.x.x.l.x.x.x.x.x.x.x.x.x.x.x.x.x.x.x.x.x.x.x.x.z.z.x.x.l.l.l.l.l.l.l.l.l.l.l.l.l.l.l.l.l.l.l.l.l.l.l.l.l.l.l.l.l.l.l.l.l.l.l.l.l.l.l.l.l.l.l.l.l.l.l.l.x.l.l.l.x.x.l.l.l.l.l.l.l.l.l.l.l.l.l.l.l.l.l.l.l.l.l.l.l.l.l.l.l.l.l.l.l.l.l.l.l.l.l.l.l.l.l.l.l.l.l.l.l.l.l.x.l.l.l.l.l.l.l.l.l.l.l.l.l.l.l.l.l.l.l.l.l.l.l.x.l.l.l.l.l.l.l.l.l.l.l.l.l.l.l.l.l.l.l.l.l.l.l.x.l.l.l.l.l.l.l.l.z.z.z.z.z.z.x.x.l.x.z.l.l.l.l.z.l.l.l.l.l.l.l.x.l.l.l.l.l.l.l.l.z.x.x.x.x.x.x.z.x.x.x.x.x.x.x.z.x.x.x.z.x.z.l.l.l.l.l.l.l.l.x.x.x.x.l.l.l.l.l.l.l.l.l.l.l.x.x.x.x.x.x.x.x.x.x.x.x.x.x.x.x.x.x.x.x.x.x.x.x.x.x.x.x.x.x.x.x.x.C.C.S.S.C n . . o . $ $ y y y y y u J L L L p p 8 0 q q t t t t u y = , O $ . . K.                                    ^.",
"                                                        . . $ $ $ = 2 2 +.:.| +.| { 3 2 , , , = , , = = , , , , , , , , = = $ $ , , V k Q Q :.*.s.r.r.r.*.6.l l $ $ , , = $ , = $ $ $ $ $ $ $ $ O O $ $ $ O . . $ $ D Q +.| y y O . . . . . $ .                     3 3 . . . . q q j j w 0 9 9 9 9 u u u p t t u u j y < < o o . . . . 6 2 A.A.x.x.x.x.x.x.x.x.x.x.x.x.x.x.x.x.x.x.x.x.x.x.x.x.x.x.x.x.x.x.x.x.x.x.x.x.x.x.x.x.x.x.x.x.x.l.l.l.x.x.x.x.x.x.x.x.x.x.x.x.x.l.l.l.x.x.x.x.l.l.l.l.l.l.l.l.l.l.l.l.l.l.l.l.l.l.l.l.l.l.l.l.l.l.l.l.l.l.l.l.l.l.l.l.l.l.l.l.l.l.l.l.l.l.l.l.l.l.l.l.l.l.x.l.l.l.l.x.x.x.l.l.l.l.z.z.l.l.l.l.l.z.z.z.l.x.x.x.x.l.l.x.x.x.x.l.l.l.l.l.l.l.l.l.l.l.l.l.l.l.l.l.l.l.l.l.l.l.l.l.l.l.l.l.l.l.l.l.l.l.l.l.l.l.l.l.l.l.l.l.x.z.x.x.x.x.x.x.x.x.x.z.l.l.x.x.l.l.l.x.x.x.x.x.x.x.x.x.x.x.x.x.x.x.x.x.x.x.x.x.x.x.x.x.x.x.x.x.x.x.x.x.l.x.x.x.x.x.x.x.x.x.x.x.x.x.x.x.x.x.x.x.x.x.x.x.x.x.x.x.x.x.x.x.x.x.x.x.x.x.x.x.x.x.x.x.x.x.x.x.x.x.x.x.l.l.l.x.x.x.x.x.x.x.x.x.x.x.x.x.x.x.x.x.x.x.x.x.z.x.x.x.x.x.x.x.z.x.x.z.l.l.z.x.l.l.l.l.l.l.l.l.x.l.l.l.l.l.x.x.l.l.l.l.l.l.l.l.l.l.l.l.l.l.l.l.l.l.l.l.l.l.l.l.l.l.l.l.l.l.l.l.l.l.l.l.l.l.x.x.l.l.l.l.l.l.l.l.l.l.h.h.l.l.l.l.l.l.l.l.l.l.l.l.l.l.l.l.l.l.l.l.l.l.l.l.l.l.l.l.l.l.l.l.l.l.l.l.l.l.l.l.l.l.x.x.x.x.x.x.l.l.l.x.l.x.x.x.x.x.x.x.x.x.x.x.z.l.x.x.l.l.x.x.x.x.x.x.x.x.x.x.l.l.l.x.l.l.l.l.l.l.l.l.l.l.x.x.x.x.x.x.x.x.x.x.z.x.x.x.x.x.x.x.x.x.x.x.x.x.x.x.x.x.x.x.x.x.x.x.x.x.l.l.x.x.x.x.x.x.x.x.x.x.x.x.x.x.x.x.x.x.x.x.x.x.x.x.x.x.x.x.l.l.l.l.x.x.x.l.l.l.l.l.l.l.l.l.l.l.l.l.l.l.l.l.l.l.l.l.x.x.l.l.l.l.l.l.l.l.l.l.l.l.l.x.x.x.x.x.x.x.x.x.x.x.x.x.x.x.x.x.x.x.x.x.x.x.x.x.x.x.x.x.x.x.x.x.x.x.x.x.x.x.z.z.x.x.x.x.x.x.x.x.l.l.l.l.l.l.l.l.l.l.l.l.l.l.l.l.l.l.x.x.l.l.l.l.l.x.x.x.x.l.x.x.l.l.l.z.z.z.z.x.z.z.x.x.x.x.x.x.x.x.x.x.x.x.x.l.x.x.x.x.x.x.l.l.x.x.x.x.x.l.x.l.x.x.x.x.x.x.x.x.x.x.x.x.x.x.x.x.x.x.x.x.x.z.x.x.l.l.l.l.l.l.l.l.l.l.l.l.l.l.l.l.l.l.l.l.l.l.l.l.l.l.l.l.l.l.l.l.l.l.l.l.l.l.l.l.l.l.l.l.l.l.l.l.x.l.l.l.l.x.l.l.l.l.l.l.l.l.l.l.l.l.l.l.l.l.l.l.l.l.l.l.l.l.l.l.l.l.l.l.l.l.l.l.x.x.l.l.l.l.l.l.l.l.l.l.l.x.x.x.l.l.l.l.l.l.l.l.l.l.l.l.l.l.l.l.l.l.l.l.l.l.l.l.l.l.l.l.l.l.l.l.l.l.l.l.l.l.l.l.l.l.l.l.l.l.l.l.l.l.l.l.l.l.l.l.x.x.z.z.z.z.z.z.x.l.k.k.l.l.l.l.l.l.l.l.l.l.l.l.l.l.l.l.l.l.l.l.l.x.x.x.x.x.x.x.x.x.x.x.x.z.z.z.x.x.x.x.x.x.x.l.l.l.l.l.l.l.l.l.x.x.l.l.l.l.l.l.l.l.l.l.l.x.x.x.x.x.x.x.x.x.x.x.x.x.x.x.x.x.x.x.x.x.x.x.x.x.x.x.x.x.x.x.x.x.x.C.S.Z.l C . . o . $ $ y y y y u u j J J H u u 8 0 q 0 t t t t t y = , O $ . . H.                                    ^.",
"                                                        . . $ $ 3 , 2 , +.| { { +.| , 3 $ = , = , = $ = = , = $ , , , = = $ $ $ > , k C { | +.*.e.6.f.s.r.6.v h $ $ = , $ $ * $ * = = * $ $ * $ $ $ = $ $ $ . . $ O Q Q :.*.y h . . . . . . $ .                     3 3 . . . . q q v v u w 9 9 q 9 t t p p t t u y u y < < O o . . . . 6 6 F.A.x.x.x.x.x.x.x.x.x.x.x.x.x.x.C.C.x.x.x.x.x.x.x.x.x.x.x.x.x.x.x.x.x.x.x.x.x.x.x.x.x.x.x.x.l.l.l.l.x.x.x.x.x.x.x.x.x.x.x.x.l.l.l.l.x.x.x.x.l.l.l.l.x.l.l.l.l.l.l.l.l.l.l.l.l.l.l.l.l.l.l.l.l.l.l.l.l.l.l.l.l.l.l.l.l.l.l.l.l.l.l.l.l.l.l.l.l.l.l.l.l.l.l.l.l.l.x.x.x.l.l.l.l.l.l.z.l.l.l.l.l.z.z.z.x.x.x.x.x.l.x.x.l.l.l.l.l.l.l.l.l.l.l.l.l.l.l.l.l.l.l.l.l.l.l.l.l.l.l.l.l.l.l.l.l.l.l.l.l.l.l.l.l.l.l.l.l.l.l.l.x.x.x.x.x.x.x.x.x.x.x.x.l.l.x.x.l.l.l.x.x.x.x.x.x.x.x.x.x.x.x.x.x.x.x.x.x.x.x.x.x.x.x.x.x.x.x.x.x.x.x.x.l.x.x.x.x.x.x.x.x.x.x.x.x.x.x.x.x.x.x.x.x.x.x.x.x.x.x.x.x.x.x.x.x.x.x.x.x.x.x.x.l.x.x.x.x.x.x.x.x.x.x.x.l.x.x.x.x.x.x.x.x.x.x.x.x.x.x.x.x.x.x.x.x.x.x.x.z.z.x.x.x.x.x.x.x.x.x.x.z.x.z.x.l.l.x.l.l.l.l.l.l.l.l.l.l.l.x.x.l.l.l.l.l.l.l.l.l.l.l.l.l.l.l.l.l.l.l.l.l.l.l.l.l.l.l.l.l.l.l.l.l.l.l.l.l.x.x.x.l.l.l.l.l.l.l.l.l.l.l.l.l.l.l.l.l.l.l.l.l.l.l.l.l.l.l.l.l.l.l.x.l.l.l.l.l.l.x.l.x.l.l.l.l.x.l.l.l.l.l.l.l.l.l.l.x.x.x.l.l.l.l.x.x.x.x.x.l.x.x.x.x.x.x.z.l.l.x.x.l.x.x.x.x.x.x.x.x.x.x.x.x.l.x.x.x.l.l.l.l.l.l.x.l.x.x.x.x.x.x.x.x.x.x.x.x.x.x.x.x.x.x.x.x.x.x.x.x.x.x.x.x.x.x.x.x.x.x.x.x.x.x.x.x.x.x.x.x.x.x.x.x.x.x.x.x.x.x.x.x.x.x.x.x.x.x.x.x.x.x.x.l.l.l.l.l.l.l.l.l.l.l.l.l.l.l.l.l.l.l.l.l.l.l.l.l.l.l.l.l.l.l.l.l.l.l.l.l.l.l.l.l.l.x.x.x.x.x.x.x.x.x.x.x.x.x.x.x.x.x.x.x.x.x.x.x.x.x.x.x.x.x.x.x.x.x.x.x.x.x.x.x.x.x.z.z.x.x.x.x.x.x.x.l.l.l.l.l.l.l.l.l.l.l.l.l.l.l.l.l.l.x.x.l.l.l.l.l.x.x.x.x.l.x.x.l.z.z.z.z.z.z.x.x.x.x.x.x.x.x.x.x.x.x.x.x.x.x.l.x.x.x.x.x.x.l.l.x.x.x.x.x.l.l.l.x.x.x.x.x.x.x.x.x.x.x.x.x.x.x.x.x.x.x.x.x.x.x.x.l.l.l.l.l.l.l.l.l.l.l.l.l.l.l.l.l.l.l.l.l.l.l.l.l.l.l.l.l.l.l.l.l.l.l.l.l.l.l.l.l.l.l.l.l.l.l.l.l.l.l.l.l.x.l.l.l.l.l.l.l.l.l.l.l.l.l.l.l.l.l.l.l.l.l.l.l.l.l.l.l.l.l.l.l.l.l.l.x.x.l.l.l.l.l.l.l.l.l.l.l.l.x.x.l.l.l.l.l.l.l.l.l.l.l.l.l.l.l.l.l.l.l.l.l.l.l.l.l.l.l.l.l.l.l.l.l.l.l.l.l.l.l.l.l.l.l.l.l.l.l.l.l.l.l.l.l.l.l.l.x.z.z.z.z.z.z.z.x.l.k.k.l.z.l.l.l.l.l.l.l.l.l.l.l.l.l.l.l.l.x.x.l.x.x.x.x.x.x.x.x.x.x.x.x.z.z.z.x.x.x.x.x.x.x.x.l.l.l.l.l.l.l.l.x.l.l.l.l.l.l.l.l.l.l.l.l.x.x.x.x.x.x.x.x.x.x.x.x.x.x.x.x.x.x.x.x.x.x.x.x.x.x.x.C.C.x.x.x.x.x.x.Z.Z.l C . . O . O $ y y h y t u H H J J u a 8 0 0 0 u u p p p k < , $ $ . . H.                                    ^.",
"                                                        . . $ $ $ $ 2 , -.6.r.r.6.6.2 6 = , 2 3 6 2 2 2 2 2 2 3 2 6 6 2 2 3 , 3 h g [ Y [ D y y y 2 h y y l Q { +.| { [ 2 2 , = = = = = = = = = $ = , = , = . . $ $ +.| 6.r.h k . . . . . . . $                     3 3 . . . . q q J J u w 9 9 9 9 w w w u q q 9 q q w 1 < o o . . . . 6 6 F.F.x.x.x.x.x.x.x.x.x.x.x.x.x.x.x.x.x.x.x.x.x.x.x.x.x.x.x.x.x.x.x.x.x.x.x.x.x.x.x.x.x.x.x.x.l.l.l.l.x.x.l.l.x.x.x.x.l.l.l.l.x.x.x.x.x.x.x.x.l.l.l.l.x.x.l.l.l.l.l.l.l.l.l.l.l.l.l.l.l.l.l.l.l.l.l.l.l.l.l.l.l.l.l.l.l.l.l.l.l.l.l.l.l.l.l.l.l.l.l.l.l.l.l.l.l.l.x.x.l.l.l.l.l.l.l.l.z.x.x.x.x.x.x.x.x.x.x.x.l.l.l.l.l.l.l.l.l.l.l.l.l.l.l.l.l.l.l.l.l.l.l.l.l.l.l.l.l.l.l.l.l.l.l.l.l.l.l.l.l.l.l.l.l.l.l.l.l.l.l.l.x.x.x.x.x.x.x.x.x.x.x.x.x.x.x.x.l.x.x.x.x.x.x.x.x.x.x.x.x.x.x.x.x.x.x.x.x.x.x.x.x.x.x.x.x.x.x.x.x.x.x.x.x.x.x.x.x.x.x.x.x.x.x.x.x.x.x.x.x.x.x.x.x.x.x.x.x.x.x.x.l.x.x.x.x.x.x.x.l.l.l.l.x.x.x.x.x.x.x.x.x.x.x.x.x.x.x.x.x.x.x.x.x.x.x.x.x.x.x.x.x.x.x.x.x.x.x.x.z.z.x.x.x.x.x.x.x.x.x.x.z.z.z.x.l.x.x.x.l.l.l.x.l.l.l.l.l.l.l.x.l.l.l.l.l.l.l.l.l.l.l.l.l.l.l.l.l.l.l.l.l.l.l.l.l.l.l.l.l.l.l.l.l.l.l.l.l.l.l.l.l.l.l.l.l.l.l.l.l.l.l.l.l.l.l.l.l.l.l.l.l.l.l.l.l.l.l.l.l.l.l.l.l.l.l.l.l.l.x.x.x.l.l.l.l.x.x.l.l.l.l.l.l.l.l.l.x.x.x.x.l.l.l.x.x.x.x.x.l.l.x.x.x.x.x.z.l.l.l.x.x.x.x.x.x.l.l.x.x.x.x.x.x.l.x.x.x.x.x.l.l.x.x.x.l.x.x.x.x.x.x.x.x.x.x.x.x.x.x.x.z.z.z.x.x.x.x.x.x.x.x.x.x.x.x.x.x.x.x.x.x.x.x.x.x.x.x.x.x.x.x.x.x.x.x.x.x.x.x.x.x.x.x.x.x.x.x.x.x.x.x.x.l.l.l.l.l.l.l.l.l.l.l.l.l.l.l.l.l.l.l.l.l.l.l.l.l.l.l.l.l.l.l.l.l.l.l.l.l.l.x.x.x.x.x.x.x.x.x.x.x.x.x.x.x.x.x.x.x.x.x.x.x.x.x.x.x.x.x.x.x.x.x.x.x.x.x.x.x.x.x.x.x.x.x.x.z.z.x.x.x.x.x.x.l.l.l.l.l.l.l.l.l.l.l.l.l.l.l.l.l.l.x.x.l.l.l.l.l.l.x.x.l.l.l.x.z.z.x.z.z.z.x.x.x.x.x.x.x.x.x.x.x.x.x.x.x.x.x.x.l.l.x.x.x.x.x.x.x.x.x.x.x.x.x.x.x.x.x.x.x.x.x.x.x.x.x.x.x.x.x.x.x.x.x.x.x.x.x.x.l.l.l.l.l.l.l.l.l.l.l.l.l.l.l.l.l.l.l.l.l.l.l.l.l.l.l.l.l.l.l.l.l.l.l.l.l.l.l.l.x.x.l.l.l.l.l.l.l.l.l.l.l.l.l.l.l.l.l.l.l.l.l.l.l.l.l.l.l.l.l.l.l.l.l.l.l.l.l.l.l.l.l.l.l.l.l.l.l.l.l.l.l.l.l.l.l.l.l.l.l.l.l.l.l.l.l.l.l.l.l.l.l.l.l.l.l.l.l.l.l.l.l.l.l.l.l.l.l.l.l.l.l.l.l.l.l.l.l.l.l.l.l.l.l.l.l.l.l.l.l.l.l.l.l.l.l.l.l.l.l.l.l.l.l.l.l.l.l.l.l.l.l.l.l.l.l.l.l.l.l.l.l.l.l.l.l.l.x.x.x.x.l.l.l.z.z.z.x.x.z.z.x.x.x.x.x.x.x.x.x.x.z.z.l.l.l.l.l.l.l.l.l.l.x.l.l.l.l.l.l.l.l.l.l.l.l.x.x.x.x.x.x.x.x.x.x.x.x.x.x.x.x.x.x.x.x.x.x.x.x.x.x.x.C.C.x.x.x.x.x.x.S.Z.l C . . O . O $ y y k j u j K J J J a H 0 t u u a a H H J J 1 , $ $ . . H.                                    ^.",
"                                                        . . $ $ = $ 2 , *.*.-.-.e.e.6 2 = $ 3 3 6 6 2 2 2 2 2 3 2 2 2 2 3 3 3 3 6 6 D D { { 6 6 6 6 k h y y ..+.[ [ Q { , 3 , , = = , 1 = = = = $ = , = 3 , . O $ $ :.*.h.h.h h . . . . . . . .                     3 3 . . . . q q J J u y 9 9 0 9 w w w u q q 9 9 w w < < o o . . . . 6 6 F.F.x.x.x.x.x.x.x.x.x.x.x.x.x.x.x.x.x.x.x.x.x.x.x.x.x.x.x.x.x.x.x.x.x.x.x.x.x.x.x.x.l.l.l.l.l.l.l.l.x.x.l.l.l.x.x.x.l.l.l.l.l.x.x.x.x.x.x.x.l.l.l.l.x.x.x.l.l.l.l.l.x.x.l.l.l.l.l.l.l.l.l.l.l.l.l.l.l.l.l.l.l.l.l.l.x.l.l.l.l.l.l.l.l.l.l.l.l.l.l.l.l.l.l.l.l.x.x.x.l.l.l.l.l.l.l.l.z.x.x.x.x.x.x.x.x.x.x.x.l.l.l.l.l.l.l.l.l.l.l.l.l.l.l.l.l.l.l.l.l.l.l.l.l.l.l.l.l.l.l.l.l.l.l.l.l.l.l.l.l.l.l.l.l.l.l.l.l.l.l.l.x.x.x.x.x.x.x.x.x.x.x.x.x.x.x.x.x.x.x.x.x.x.x.x.x.x.x.x.x.x.x.x.x.x.x.x.x.x.x.x.x.x.x.x.x.x.x.x.x.x.x.x.x.x.x.x.x.x.x.x.x.x.x.x.x.x.x.x.x.x.x.x.x.x.x.x.x.x.x.x.x.x.x.x.x.x.x.x.l.l.l.l.x.x.x.x.x.x.x.x.x.x.x.x.x.x.x.x.x.x.x.x.x.x.x.x.x.x.x.x.x.x.x.x.x.x.x.x.z.z.x.x.x.x.x.x.x.x.x.x.z.z.z.z.x.x.x.x.l.l.l.x.l.l.l.l.l.l.l.l.l.l.l.l.l.l.l.l.l.l.l.l.l.l.l.l.l.l.l.l.l.l.l.l.l.l.l.l.l.l.l.l.l.l.l.l.l.l.l.l.l.l.l.l.l.l.l.l.l.l.l.l.l.l.l.l.l.l.l.l.l.l.l.l.l.l.l.l.l.l.l.l.l.l.l.l.l.l.l.x.x.l.l.l.l.l.x.x.x.l.l.l.l.l.l.l.x.x.x.x.l.l.l.x.x.x.x.x.x.l.x.x.x.x.x.z.l.l.l.x.x.x.x.x.x.l.l.l.x.x.x.x.l.l.l.x.x.x.x.x.x.x.x.x.l.x.x.x.x.l.x.x.x.x.x.x.x.x.x.x.z.z.z.x.x.x.x.x.x.x.x.x.x.x.x.x.l.l.x.x.x.x.x.x.x.x.l.l.x.x.x.x.x.x.x.x.x.x.x.x.x.x.x.x.x.x.x.x.x.x.x.l.l.l.l.l.l.l.l.l.l.l.l.l.l.l.l.l.l.l.l.l.l.l.l.l.l.l.l.l.l.l.l.l.l.l.l.l.l.l.x.x.x.x.x.x.x.x.x.x.x.x.x.x.x.x.x.x.x.x.x.x.x.x.x.x.x.x.x.x.x.x.x.x.x.x.x.x.z.z.x.x.x.x.x.x.z.z.x.x.x.x.x.x.x.x.x.x.x.x.x.x.l.l.l.l.l.l.x.x.l.l.x.x.l.l.l.l.l.l.l.l.l.l.l.l.z.x.x.x.l.l.x.x.x.x.x.x.x.x.x.x.x.x.x.x.l.l.l.x.l.l.x.x.x.x.x.x.x.x.x.x.x.x.x.x.x.x.x.x.x.x.x.x.x.x.x.x.x.x.z.z.x.x.x.x.x.z.x.x.l.l.l.l.l.l.l.l.l.l.l.l.l.l.l.l.h.h.l.l.l.l.l.l.l.l.l.l.l.l.l.l.l.l.l.l.l.l.l.l.x.x.x.l.l.l.l.l.l.l.l.l.l.l.l.l.l.l.l.l.l.l.l.l.l.l.l.l.l.l.l.l.l.l.l.l.l.l.l.l.l.l.l.l.l.l.l.l.l.l.l.l.l.l.l.l.l.l.l.l.l.l.l.l.l.l.l.l.l.l.l.l.l.l.l.l.l.l.l.l.l.l.l.l.l.l.l.l.l.l.l.l.l.l.l.l.l.l.l.l.l.l.l.l.l.l.l.l.l.l.l.l.l.l.l.l.l.l.l.l.l.l.l.l.l.l.l.l.l.l.l.l.l.l.l.l.l.l.l.l.l.l.l.l.l.l.l.x.x.x.x.x.l.l.l.l.z.z.z.z.z.z.z.x.x.x.x.x.x.x.x.x.x.z.l.l.l.l.l.l.l.l.l.l.x.l.l.l.l.x.l.l.l.l.l.l.l.x.x.x.x.x.x.x.x.x.x.x.x.x.x.x.x.x.x.x.x.x.x.x.x.x.x.x.x.x.x.x.x.x.x.C.S.S.l C . . O . O $ y h j j p H K K J J a J 0 0 u u u a H H L T , , O $ . . H.                                    ^.",
"                                                        . . $ $ , = 6 6 6.6.3.6.+.+.2 1 , = y y k h h h h y 6 6 6 6 6 6 6 6 6 6 e e D n [ [ , , . . . . $ = e.s.C.m.l.s.2 2 , = = = = , = = = = $ $ $ $ 2 3 . O , , | { *.*.h k . . . . . . . .                     , 3 . . . . q q v v u u 9 9 w w w w w w 0 w 9 9 q q < 1 O O . $ . . 6 6 F.F.x.x.x.x.x.x.x.x.x.x.x.x.x.x.x.x.x.x.x.x.x.x.x.x.x.x.x.x.x.x.x.x.x.x.x.x.x.l.l.l.l.l.l.l.l.x.x.x.x.l.l.l.l.x.x.x.l.l.l.l.l.l.l.l.x.x.x.x.l.l.l.l.x.x.x.l.l.l.l.l.x.x.l.l.l.l.l.x.l.l.l.l.l.l.l.l.l.l.l.l.l.l.l.l.x.x.x.l.l.l.l.l.l.l.l.l.l.l.l.l.x.x.l.l.x.x.l.l.l.l.l.l.l.l.l.l.l.l.z.x.x.x.x.x.x.x.x.l.l.l.l.x.l.l.l.l.l.l.l.l.l.l.l.l.l.l.l.l.l.l.l.l.l.l.l.l.l.l.l.l.l.l.l.l.l.l.l.l.l.l.l.l.l.l.l.l.l.l.l.l.x.x.x.x.x.x.x.x.x.x.x.x.x.x.x.x.x.x.x.x.x.x.l.l.x.x.x.x.x.x.x.x.x.x.x.x.x.x.x.x.x.x.x.x.x.x.x.x.x.x.x.x.x.x.x.x.x.x.x.x.x.x.x.x.x.x.x.x.x.x.x.x.x.x.x.x.x.x.x.x.x.x.x.x.x.x.x.x.x.x.x.x.x.x.x.x.x.x.x.x.x.x.x.x.x.x.x.x.x.x.x.x.x.x.x.x.x.x.x.x.x.x.x.x.x.x.x.x.x.l.x.x.x.x.x.x.x.x.l.l.l.l.l.l.l.x.x.x.l.l.l.l.l.l.l.l.l.l.l.l.l.l.l.l.l.l.l.l.l.l.l.l.l.l.l.l.l.l.l.l.l.l.l.l.l.l.l.l.l.l.l.l.l.l.l.l.l.l.l.l.l.l.l.l.l.l.l.l.l.l.l.l.l.l.l.l.l.l.l.l.l.l.l.l.l.l.l.l.l.l.l.l.l.x.x.x.l.l.l.l.l.l.x.l.l.l.x.x.x.l.l.l.l.l.l.l.x.x.x.x.l.l.l.l.l.x.x.x.x.l.l.l.x.x.x.x.l.l.l.l.l.l.x.x.l.l.l.l.l.x.x.x.l.l.l.l.x.x.x.x.x.x.x.x.l.l.x.x.l.l.z.z.z.z.x.x.x.x.z.x.x.x.x.x.x.x.x.x.x.x.x.x.x.x.x.x.l.l.l.l.l.x.x.x.x.x.l.l.l.l.x.x.x.x.x.x.x.x.x.x.x.x.x.x.x.x.x.x.l.l.l.l.l.l.l.l.l.l.l.l.l.l.l.l.l.l.l.l.l.l.l.l.l.l.l.l.l.l.l.l.l.l.l.l.l.l.l.l.l.l.l.x.x.x.x.l.x.x.x.x.x.x.x.x.x.x.x.x.x.x.x.x.x.x.x.x.x.x.x.x.x.x.x.x.x.x.x.x.l.z.x.x.x.x.x.x.l.x.x.x.x.x.x.x.x.x.x.x.x.x.x.x.l.l.l.l.l.x.x.x.l.l.x.x.l.l.l.x.l.l.l.l.l.l.l.l.l.x.x.l.l.l.x.x.x.x.x.x.x.x.x.x.x.x.x.x.l.l.l.x.l.x.x.x.x.x.x.x.x.x.x.x.x.x.x.x.x.x.x.x.x.x.x.x.x.x.x.x.x.l.l.l.x.x.x.x.z.x.x.x.l.l.h.l.l.l.l.l.l.l.l.l.l.l.l.l.h.h.l.l.l.l.l.l.l.l.l.l.l.l.l.l.l.l.l.l.l.l.l.l.x.x.x.x.l.l.l.l.l.l.l.l.l.l.l.l.l.l.l.l.x.x.x.x.l.l.l.l.l.l.l.l.l.l.l.l.l.l.l.l.l.l.l.l.l.l.l.l.l.l.l.l.l.l.l.l.l.l.l.l.l.l.l.l.l.l.l.l.l.l.l.l.l.l.l.l.l.l.l.l.l.l.l.l.l.l.l.x.l.l.l.l.l.l.l.l.l.l.l.l.l.l.l.l.x.l.l.l.l.l.l.l.l.l.l.l.l.l.l.l.l.l.l.l.l.l.l.l.l.l.l.l.l.l.l.x.l.l.l.l.l.x.x.l.l.l.l.l.l.l.l.l.l.l.l.l.l.l.l.x.l.l.x.x.x.x.x.l.x.x.x.x.x.x.x.l.x.x.l.l.l.l.l.l.x.l.l.l.l.x.l.l.l.l.l.l.l.x.x.x.x.x.x.x.x.x.x.x.x.x.x.x.x.x.x.x.x.x.x.x.x.x.x.x.x.x.x.x.x.x.C.C.S.Z.l C . . . . O $ y y j v j H K K K K a s 0 0 0 0 u u p H L ( , 3 $ $ . . L.                                    ^.",
"                                                        . . $ $ , = 6 e 3.6.*.*.*.+.2 , , $ y 2 k k h h h y 6 6 2 2 2 2 2 2 6 6 e 6 C C [ { , , . $ . O & $ i.i.x.m.l.l.2 2 , , * = = 1 , = = = $ $ $ $ 2 2 O O = , +.:.e.*.h 6 . . . . . . . .                     , 3 . . . . q q j j u w 9 q w w H w w w 0 w 9 9 q q 1 < . . . $ . . 6 2 F.A.x.x.x.x.x.x.x.x.x.x.x.x.x.x.x.x.x.x.x.x.x.x.x.x.x.x.x.x.x.x.x.x.x.x.x.x.x.l.l.l.l.l.l.l.l.x.x.x.x.l.l.l.l.x.x.x.x.x.x.l.l.l.l.l.x.x.x.x.l.l.l.l.x.x.x.l.l.l.l.l.x.x.l.l.l.l.l.x.l.l.l.l.l.l.l.l.l.l.l.l.l.l.l.l.x.x.x.x.l.l.l.l.l.l.l.l.l.l.l.l.x.x.l.l.x.x.l.l.l.l.l.l.l.l.l.l.z.z.x.x.x.x.l.x.l.l.l.l.l.l.l.x.l.l.l.l.l.l.l.l.l.l.l.l.l.l.l.l.l.l.l.l.l.l.l.l.h.l.l.l.l.l.l.l.l.l.l.l.l.l.l.l.l.l.l.l.l.l.l.l.x.x.x.x.z.z.x.x.x.x.x.x.x.x.x.x.x.x.l.l.l.l.l.l.x.x.x.x.x.x.x.x.x.x.x.x.x.x.x.x.x.x.x.x.x.x.x.x.x.x.x.x.x.x.x.x.x.x.x.x.x.x.x.x.x.x.x.x.x.x.x.x.x.x.x.x.x.x.x.x.x.x.x.x.x.x.l.l.x.x.x.x.x.x.x.x.x.x.x.x.x.x.x.x.x.x.x.x.x.x.x.x.x.x.x.x.x.x.x.x.x.x.x.x.x.x.x.x.x.x.x.x.x.x.x.x.x.l.l.l.l.l.l.l.l.l.l.l.l.l.l.l.l.l.l.l.l.l.l.l.l.l.l.l.l.l.l.l.l.l.l.l.l.l.l.l.l.l.l.l.l.l.l.l.l.l.l.l.l.l.l.l.l.l.l.l.l.l.l.l.l.l.l.l.l.l.l.l.l.l.l.l.l.l.l.l.l.l.h.l.l.l.l.l.l.l.l.l.l.l.l.l.l.x.x.x.l.l.l.l.l.l.x.l.l.l.x.x.x.l.l.l.l.x.x.x.x.x.l.l.l.x.x.l.x.x.x.x.x.l.l.l.x.x.x.x.l.l.l.l.l.l.l.x.l.l.l.x.l.l.x.l.l.l.l.l.l.l.x.x.x.x.l.l.l.l.x.x.l.l.z.z.z.z.z.x.x.x.z.z.x.x.x.x.z.x.x.x.x.x.x.x.x.x.x.x.l.l.l.l.l.l.l.l.x.l.l.l.l.x.x.x.x.x.x.x.x.x.x.x.x.x.x.x.x.x.x.x.l.l.l.l.l.l.l.l.l.l.l.l.l.l.l.l.l.l.l.l.l.l.l.l.l.l.l.l.l.l.l.l.l.l.l.l.l.l.l.l.l.l.l.l.x.l.l.l.x.x.x.x.x.x.x.x.x.x.x.x.x.x.x.x.x.x.x.x.x.x.x.x.x.x.x.x.x.x.x.x.l.x.x.x.x.z.x.x.l.x.x.x.x.x.x.x.x.x.x.x.x.x.x.x.l.l.l.l.x.x.x.x.l.l.x.x.x.l.l.x.l.l.x.l.l.l.l.x.l.l.x.l.l.l.l.x.x.x.x.x.x.x.x.x.l.x.x.x.l.l.l.x.x.x.x.x.x.x.l.l.l.l.l.x.x.x.x.x.x.x.x.x.x.x.x.x.x.x.x.x.l.l.l.l.x.x.x.x.z.x.x.x.l.l.h.h.l.l.l.l.l.l.l.l.l.l.l.l.h.l.l.l.l.l.l.h.l.l.l.l.l.l.l.l.l.l.l.l.l.l.l.l.x.x.x.x.l.l.l.l.l.l.l.l.l.l.l.l.l.l.l.x.x.x.x.x.l.l.l.l.l.l.l.l.l.l.l.l.l.l.l.l.l.l.l.l.l.l.l.l.l.l.l.l.l.l.l.l.l.l.l.l.l.l.l.l.x.l.l.l.l.l.l.l.l.l.l.l.l.l.l.l.x.x.l.l.l.l.x.x.l.l.l.l.l.l.l.l.l.l.l.l.l.l.l.l.x.x.l.l.l.l.l.l.l.l.l.l.l.l.l.l.l.l.l.l.l.l.l.l.l.x.x.x.l.l.l.x.l.l.l.l.x.x.x.l.l.l.l.l.l.l.l.l.z.l.l.l.l.l.x.x.x.x.x.x.x.l.l.l.x.x.x.x.x.x.x.x.x.x.l.l.l.l.l.x.l.l.l.l.l.x.l.l.l.l.l.l.l.x.x.x.x.x.x.x.x.x.x.x.x.x.x.x.x.x.x.x.x.x.x.x.x.x.x.x.x.x.x.x.x.C.C.C.Z.Z.l l . . . . $ $ y y j v p p J K K K a s 0 0 0 0 t u H J L ` 3 3 $ $ . . H.                                    ^.",
"                                                        . $ . $ , = e e ( { p.s.r.r.y h 2 e y k x x y y k h y y 6 6 y y 6 y 6 y h h $ $ , = $ $ . $ . . , $ O.{ | +.:.| h 6 6 y e y 2 2 y y 2 2 , 3 6 6 [ D h y h h [ { :.e.y h . . . . . . $ .                     , , . . . . 6 2 L v 2 9 q w 0 0 u j w 0 0 9 w w q 9 1 1 O . $ + . . 6 2 Z.A.x.x.x.C.C.C.C.C.x.x.x.x.x.x.x.x.x.x.x.x.x.x.x.x.x.x.x.x.x.x.x.x.x.x.x.x.x.x.x.x.l.l.l.l.l.l.x.x.x.l.l.l.x.x.l.l.l.l.l.l.l.x.x.x.l.l.l.l.l.x.x.x.x.x.x.x.x.x.x.l.x.x.l.l.l.l.l.x.l.l.l.l.l.l.l.l.l.l.l.l.l.l.l.l.x.x.x.l.l.l.l.x.l.l.l.l.l.l.x.x.x.x.x.x.l.l.l.l.l.l.l.l.l.l.l.l.x.x.l.l.l.l.x.x.l.l.l.l.l.l.l.l.h.l.l.l.l.l.l.l.l.l.l.l.l.l.l.l.l.l.l.l.l.l.l.l.l.l.l.l.l.l.l.l.l.l.l.l.l.l.l.l.l.l.x.l.l.x.x.x.x.x.x.x.x.x.x.x.x.x.l.l.l.x.x.x.l.l.x.x.l.l.l.x.l.x.x.x.x.l.l.l.x.x.x.x.x.x.x.x.x.x.x.x.x.x.l.l.x.x.x.x.x.x.x.x.x.x.x.x.x.x.x.x.x.x.x.x.x.x.x.x.x.x.x.x.x.x.x.z.x.x.x.x.x.x.x.x.x.x.x.x.x.x.x.x.x.x.x.x.x.x.l.l.x.x.x.x.x.x.x.l.x.x.x.x.x.x.x.x.x.x.x.x.z.x.x.x.x.x.x.x.x.x.x.x.l.l.l.l.x.x.l.l.l.l.l.l.l.l.l.l.l.l.l.l.l.l.l.l.l.l.l.l.l.l.l.l.x.x.x.x.x.x.x.x.l.l.x.x.l.l.l.l.x.l.l.l.l.l.l.l.l.l.l.l.l.l.l.l.l.l.l.l.l.l.l.l.l.l.l.l.l.l.l.l.l.l.l.l.l.l.l.l.x.x.l.l.l.l.l.x.l.l.l.l.l.l.l.l.x.l.l.l.l.l.l.l.l.l.x.l.l.l.l.l.l.l.l.l.l.l.l.l.l.l.l.l.l.x.x.x.x.x.x.z.l.l.l.l.l.l.l.l.l.l.l.l.x.x.x.x.x.l.l.l.l.l.x.x.x.x.x.x.l.l.l.l.l.l.x.x.x.x.x.x.x.x.x.x.x.x.x.x.x.x.x.x.z.z.z.x.x.x.x.x.l.x.x.x.x.x.x.l.l.l.l.l.l.x.x.x.l.l.x.x.x.x.x.x.x.x.x.x.x.x.x.x.l.x.x.x.l.l.l.l.l.l.l.l.l.l.l.l.l.l.l.l.l.l.l.l.l.l.l.x.l.l.l.l.l.l.l.l.l.l.l.l.l.l.l.l.l.l.l.x.x.x.x.x.x.z.z.x.z.x.x.x.x.x.b.b.x.x.x.x.x.x.x.x.x.x.l.l.x.x.x.x.x.x.x.x.x.x.z.z.x.x.x.x.x.x.b.b.l.l.l.l.l.l.l.l.l.l.l.l.l.l.l.l.l.l.x.x.l.l.l.l.l.l.l.x.x.x.x.x.l.l.l.l.l.x.x.x.x.x.x.x.x.x.x.x.l.l.x.x.x.x.x.x.x.x.x.l.l.x.x.x.l.l.l.l.x.z.x.l.x.x.x.x.x.x.x.x.l.l.x.x.x.x.l.l.x.x.x.x.x.x.l.l.l.l.l.l.l.l.h.h.l.l.l.h.h.h.l.l.l.l.l.l.l.l.l.l.l.l.l.l.l.l.l.l.l.l.l.l.l.l.l.l.x.x.l.l.l.l.l.l.l.l.l.l.l.l.x.x.x.x.x.x.x.x.x.x.l.l.l.l.l.l.l.l.l.l.l.l.l.l.l.l.l.l.l.l.l.l.l.l.x.x.x.l.l.l.l.l.l.l.l.l.l.l.l.l.l.l.l.l.l.l.l.l.l.l.l.l.l.l.l.l.x.l.l.l.l.l.l.l.l.l.l.l.l.l.l.l.l.l.l.l.l.l.l.l.l.l.l.l.l.l.l.l.l.l.l.l.l.l.l.l.l.l.l.l.l.l.l.l.l.x.x.l.l.l.l.l.x.l.l.l.l.l.x.l.l.l.l.l.l.l.l.x.l.l.l.x.x.x.l.l.x.x.x.l.l.l.l.l.x.x.l.l.l.l.x.x.z.z.z.x.x.x.x.x.l.l.x.x.l.x.x.l.x.l.l.l.l.l.l.l.z.z.x.x.x.x.x.x.x.x.x.x.x.x.x.x.x.x.x.x.x.x.x.x.x.x.C.C.x.x.x.x.S.Z.l l . . o . $ $ y y k k u p K K K K s J 0 0 w 0 u p R R ....2 2 $ $ . . R.                                    (.",
"                                                        . . . $ 2 1 1 2 Q Q s.s.6.6.k k e e h h v l y y x x y y 6 6 y y y y 6 e h k $ $ , = $ $ . $ O $ , = Q L :.| -.{ l h y h y y 2 6 y y 6 2 , , 6 6 D D h h y h [ | *.-.y h . . . . . . $ $                     , , . . . . 2 1 J v 2 q q q 9 0 u j w w 0 8 u w q q 1 1 o . . + . . 6 6 Z.A.x.x.x.x.C.C.C.C.x.x.x.x.x.x.x.x.x.x.x.x.x.x.x.x.x.x.x.x.x.x.x.x.x.x.x.x.x.x.x.x.l.l.l.l.l.l.l.l.x.l.l.l.x.x.x.l.l.l.l.l.l.x.x.x.l.l.l.l.l.l.l.l.x.x.x.x.x.x.l.l.x.l.l.l.l.l.l.l.h.l.l.l.l.l.l.l.l.l.l.l.l.l.l.l.x.x.l.l.l.l.l.l.l.l.l.l.l.l.l.x.l.l.x.x.x.l.l.l.l.l.l.l.l.l.l.l.x.x.l.l.l.l.l.x.l.l.l.l.l.l.l.l.h.l.l.l.l.l.l.l.l.l.l.l.l.l.l.l.l.l.l.l.l.l.l.l.l.l.l.l.l.l.l.l.l.l.l.l.l.l.l.l.l.l.x.x.l.l.x.x.x.x.x.x.x.x.x.x.x.x.l.l.x.x.x.x.l.l.x.x.l.l.l.x.x.x.x.x.x.x.l.l.x.x.x.x.x.x.x.x.x.x.x.x.x.x.l.l.x.x.x.x.x.x.x.x.x.x.x.x.x.x.x.x.x.x.x.x.x.x.x.x.x.x.x.x.x.x.x.x.x.x.x.x.x.x.x.x.x.x.x.x.x.x.x.x.x.x.x.x.x.x.l.l.x.x.x.x.x.x.l.l.x.x.x.x.x.x.x.x.x.x.x.x.z.z.z.z.x.l.l.l.l.x.x.x.l.l.l.l.l.l.l.l.l.l.l.l.l.l.l.l.l.l.l.l.l.l.l.l.l.l.l.l.l.l.l.l.l.l.l.l.l.l.l.l.l.l.l.l.l.l.l.l.l.l.l.l.l.l.l.l.l.l.l.l.l.l.l.l.l.l.l.l.l.l.l.l.l.l.l.l.l.l.l.l.l.l.l.l.l.l.l.l.l.l.l.l.l.l.l.l.l.l.l.l.l.l.l.l.l.l.l.l.l.l.l.l.l.l.l.l.l.l.l.l.l.l.l.l.l.l.l.l.l.x.l.l.l.l.l.l.x.x.z.z.l.l.l.l.l.l.l.l.l.l.l.l.x.x.x.x.x.l.l.l.l.l.l.x.x.x.l.l.l.l.l.l.l.l.x.x.x.x.x.x.x.x.x.x.x.x.x.x.x.z.x.x.z.z.l.l.x.x.x.x.l.l.l.x.x.x.l.l.l.l.l.l.l.x.x.x.l.l.x.x.x.x.x.x.x.x.x.x.x.x.x.x.l.x.x.x.l.l.l.x.l.l.l.l.l.l.l.l.l.l.l.l.l.l.l.l.l.l.l.l.l.l.l.l.l.l.l.l.l.l.l.l.l.l.l.l.l.l.l.x.x.x.x.z.x.l.z.x.x.x.x.x.x.x.x.x.x.x.x.x.x.x.x.x.x.x.l.l.x.x.x.x.z.x.x.x.x.x.x.x.x.x.x.x.x.x.x.x.l.l.l.l.l.l.l.l.l.l.l.l.l.l.l.l.l.l.l.l.l.l.l.l.x.x.x.x.x.x.x.x.l.l.l.l.l.l.x.x.l.x.x.x.x.l.x.x.l.l.l.l.x.x.x.x.x.x.l.l.l.l.x.x.x.l.l.l.l.x.l.l.x.x.l.x.l.l.l.l.l.l.l.x.x.l.l.l.x.x.x.x.l.l.l.l.l.l.l.l.l.l.l.l.l.l.l.h.h.l.l.l.l.l.l.l.l.l.l.l.l.l.l.l.l.l.l.l.l.l.l.l.l.l.l.l.x.l.l.l.l.l.l.l.l.l.l.l.l.l.l.l.x.x.x.x.x.x.x.x.l.l.l.l.l.l.l.l.l.l.l.l.l.l.l.l.l.l.l.l.l.l.l.l.l.l.l.l.l.l.l.l.l.l.l.l.l.l.l.l.l.l.l.l.l.l.l.l.l.l.l.l.l.l.l.l.l.l.l.l.l.l.l.l.l.l.l.l.l.l.l.l.l.l.l.l.l.l.l.l.l.l.l.l.l.l.l.l.l.l.l.l.l.l.l.l.l.l.l.l.l.l.l.l.l.l.l.l.l.l.l.l.l.l.l.l.l.l.l.l.l.l.l.l.l.l.l.l.l.l.l.x.x.x.l.l.l.l.l.l.l.l.l.l.x.x.x.x.x.x.x.x.x.z.z.x.x.x.x.x.x.x.x.l.l.l.l.l.l.l.l.l.l.l.l.x.x.x.x.x.x.x.x.x.x.x.x.x.x.x.x.x.x.x.x.x.x.x.x.x.x.x.x.x.x.x.x.x.S.Z.l l . . o . O $ y y u k u p K K K K H s 0 0 0 0 p p T R ....2 3 $ $ . . L.                                    (.",
"                                                        . . $ $ , , 2 e *.X.m.s.r.r.+.+.*.*.r.r.6.3.+.+.*.3.+.+.X.X.*.3.3.*.{ ( h h $ $ $ O o o O $ O $ O o , = . . C D *.*.+.+.+.+.X.+.6.3.X.( | { | { 6.-.[ [ l l h h h k 2 6 . O . . . . .                       , 3 . . . . 6 2 A A q y w u q q y y q q w 9 u u q w 1 , . . . . . . 6 6 Z.A.x.x.x.x.x.x.x.x.x.C.C.x.x.x.x.x.x.x.x.x.x.x.x.x.x.x.x.x.x.x.x.x.l.l.l.l.l.l.l.l.l.l.l.l.l.l.l.l.x.x.l.l.x.x.x.l.x.l.l.l.l.l.x.x.l.l.l.l.l.l.l.l.x.x.x.x.l.l.l.l.l.l.l.l.l.l.l.l.l.l.l.l.l.l.l.l.l.l.l.l.l.l.l.l.l.l.l.l.l.l.l.l.l.l.l.l.l.l.l.l.l.l.l.x.x.l.l.l.l.l.l.l.l.l.l.l.x.x.l.l.l.l.l.l.l.l.l.l.l.l.l.l.l.l.l.l.l.l.l.l.l.l.l.l.l.l.x.x.l.l.l.l.l.l.l.l.i.l.l.l.l.l.l.l.l.l.x.x.l.l.l.l.l.l.x.x.x.l.l.x.x.x.x.x.x.x.x.x.x.x.l.l.x.x.x.x.l.x.x.x.l.l.x.x.x.x.x.x.x.x.l.l.x.x.x.x.x.x.x.x.x.x.x.x.l.l.l.l.l.l.x.x.x.x.x.x.x.x.x.x.x.x.x.x.x.x.x.x.x.x.x.x.x.x.x.x.x.x.x.x.x.x.x.x.x.x.x.x.x.x.x.x.x.x.x.x.x.x.x.x.x.x.l.l.l.x.x.x.x.l.l.l.x.x.x.x.x.x.z.z.l.l.l.l.l.l.l.l.l.l.l.l.l.l.l.x.l.l.l.l.l.l.l.l.l.l.l.l.l.l.l.l.l.l.l.l.l.l.l.l.l.l.l.l.l.l.l.x.l.l.l.l.l.l.l.l.l.l.l.l.l.l.l.l.l.l.l.l.l.l.l.l.l.l.l.l.l.l.l.l.l.l.l.l.l.l.l.l.l.l.l.l.l.l.l.l.l.l.l.l.l.l.l.l.l.l.l.l.l.l.l.l.l.l.l.l.l.l.l.l.l.l.l.l.l.l.l.l.l.l.l.l.l.l.l.x.l.l.l.l.l.l.l.l.x.l.l.l.l.l.l.l.x.x.x.x.l.l.l.l.l.l.l.l.l.l.l.l.x.x.x.x.x.l.l.l.l.l.l.l.l.l.l.l.l.l.l.l.l.l.z.z.z.z.x.x.x.x.x.x.x.z.x.x.x.x.x.x.x.x.l.l.x.x.x.x.x.x.z.z.z.z.x.x.x.x.z.z.x.x.x.x.x.x.l.l.l.x.x.x.l.l.l.l.l.l.l.l.l.l.x.x.l.l.l.l.l.l.l.l.l.l.l.l.l.l.l.l.l.l.l.l.l.l.l.l.l.l.l.l.l.l.x.l.l.l.l.l.l.l.l.l.l.l.x.x.z.x.x.z.l.l.z.x.x.x.x.x.x.x.x.x.x.x.l.l.x.x.x.x.x.x.l.l.l.x.x.x.l.x.x.x.x.x.x.x.l.l.l.l.x.x.x.x.l.l.l.l.l.l.l.l.l.l.l.l.l.l.l.l.l.l.l.l.l.l.l.l.x.x.x.x.x.x.x.x.x.x.x.l.l.l.l.l.l.l.x.l.l.l.l.l.x.x.l.l.l.l.l.l.l.l.l.l.l.l.l.l.x.x.l.l.l.l.l.l.x.x.x.l.l.l.l.l.l.l.l.l.l.l.l.l.l.l.l.l.l.l.l.l.l.l.l.l.l.l.l.l.l.l.l.h.l.l.l.l.l.l.l.l.l.l.l.l.l.l.l.l.l.l.l.l.l.l.l.l.l.l.l.l.x.x.l.l.l.l.l.l.l.l.l.l.l.l.l.l.l.l.l.l.l.l.l.l.l.l.l.l.l.l.l.l.l.l.l.l.l.l.l.l.l.l.l.l.l.l.l.l.l.l.l.l.l.l.l.l.l.l.l.l.l.l.l.l.l.l.l.l.l.l.l.l.l.l.l.l.l.l.l.l.l.l.l.l.l.l.l.l.l.l.l.l.l.l.l.l.l.l.l.l.l.l.l.l.l.l.l.l.l.l.l.l.l.l.l.l.l.l.l.l.l.l.l.l.l.l.l.l.l.l.l.l.l.l.l.l.l.l.l.l.l.l.l.l.l.l.l.l.l.l.l.l.l.l.l.x.l.l.l.l.l.l.l.l.l.l.l.l.l.l.l.l.l.l.x.x.x.x.x.x.x.x.x.x.x.x.x.l.l.l.l.l.l.l.l.l.l.x.x.x.x.x.x.x.x.x.x.x.x.x.x.x.x.x.x.b.x.x.l.l.l.l.x.x.x.x.x.x.x.x.x.x.S.Z.l l . . . . . O y y u u t u L L K R J J 0 0 0 q p p T ( ..+.2 3 $ $ . . L.                                    (.",
"                                                        $ . $ O , = 1 = X.{ z.z.6.3.*.*.6.*.s.r.6.6.*.+.3.3.+.+.+.+.3.6.6.3.Q A h h $ $ O o O O $ O $ $ o $ O $ $ . D C -.-.:.:.*.*.+.+.3.3.X.{ [ Q Q Q *.*.{ { A D h h k h 2 2 . O . . . . .                       , , . . . . 6 6 L A y y q q 2 2 6 q q q y y u y y y 1 , . . . . . . 6 6 Z.A.x.x.x.x.x.x.x.x.x.C.C.x.x.x.x.x.x.x.x.x.x.x.x.x.x.x.x.x.x.x.x.x.x.x.x.x.l.l.l.l.x.x.x.l.l.l.l.l.x.x.l.l.x.x.x.l.l.l.l.l.l.x.x.x.l.l.l.l.l.l.l.l.x.x.l.l.l.l.l.l.l.l.l.l.l.l.l.l.l.l.l.l.l.l.l.l.l.l.l.l.l.l.l.l.l.l.l.l.l.l.l.l.l.l.l.l.l.l.l.l.l.l.l.l.l.l.l.l.l.l.l.l.l.l.l.l.x.x.l.l.l.l.l.l.l.l.l.l.l.l.l.l.l.l.l.l.l.l.l.l.l.l.l.l.l.l.l.l.l.l.l.l.l.l.l.l.l.l.l.l.l.l.l.l.l.l.l.l.l.l.l.l.l.l.x.x.x.l.l.l.z.x.x.x.x.x.x.x.x.x.l.l.x.x.x.x.x.x.x.x.x.x.x.x.x.x.x.x.x.x.x.l.x.x.x.x.x.x.x.x.x.x.x.x.l.l.l.l.l.l.l.x.x.x.x.l.l.l.x.x.x.x.l.l.x.x.x.x.x.x.x.x.x.x.x.x.x.x.x.x.x.x.x.x.x.x.x.x.x.x.x.x.x.x.x.x.x.x.x.x.x.l.l.l.x.x.x.x.x.l.l.l.x.x.x.l.l.l.z.z.l.l.l.l.l.l.l.l.l.l.l.l.l.l.l.l.l.l.l.l.l.l.l.l.l.l.l.l.l.l.l.l.l.l.l.l.l.l.l.l.l.l.l.l.l.x.x.x.l.l.l.l.l.l.l.l.l.l.l.l.l.l.l.l.l.l.l.l.l.l.l.l.l.l.l.l.l.l.l.l.l.l.l.l.l.l.l.l.l.l.l.l.l.l.l.l.l.l.l.l.l.l.l.l.l.l.l.l.l.l.l.l.l.l.l.l.l.l.l.l.l.l.l.l.l.l.l.l.l.l.l.l.l.l.x.x.l.l.l.l.l.l.l.l.l.l.l.l.l.l.l.l.x.x.x.x.l.l.l.l.l.l.l.l.l.l.l.l.l.l.x.x.l.l.l.l.l.l.l.l.l.l.l.l.l.l.l.l.l.l.z.z.x.x.x.x.x.x.x.x.x.x.x.x.x.x.x.x.x.x.x.x.x.x.x.x.x.x.z.z.z.z.x.x.x.x.x.x.x.x.x.x.x.x.l.l.l.l.x.x.l.l.l.l.l.l.l.l.l.l.x.x.l.l.l.l.l.l.l.l.l.l.l.l.l.l.l.l.l.l.l.l.l.l.l.l.l.l.l.l.l.l.x.l.l.l.l.l.l.l.l.l.l.l.x.x.z.z.x.x.l.l.z.x.x.x.x.x.x.x.x.x.l.l.l.l.l.l.x.x.x.x.l.l.l.x.l.l.l.l.x.x.x.x.x.x.l.l.l.l.l.l.z.x.l.l.l.l.l.l.l.l.l.l.l.l.l.l.l.l.l.l.l.l.l.l.l.l.x.x.x.x.x.l.l.l.x.x.x.x.l.l.l.l.l.l.l.l.l.l.l.l.x.x.l.l.l.l.l.l.l.l.l.l.l.l.l.l.l.l.l.l.l.l.l.l.x.x.l.l.l.l.l.l.l.l.l.l.l.l.l.l.l.l.l.l.l.l.l.l.h.l.l.l.l.l.l.l.l.l.l.l.l.l.l.l.l.l.l.l.l.l.l.l.l.l.l.l.l.l.l.l.l.l.l.l.l.l.l.l.l.l.l.l.l.l.l.l.l.l.l.l.l.l.l.l.l.l.l.l.l.l.l.l.l.l.l.l.l.l.l.l.l.l.l.l.l.l.l.l.l.l.l.l.l.l.l.l.l.l.l.l.l.l.l.l.l.l.l.l.l.l.l.l.l.l.l.l.l.l.l.l.l.l.l.l.l.l.l.l.l.l.l.l.l.l.l.l.l.l.l.l.l.l.l.l.l.l.l.l.l.l.l.l.h.l.l.l.l.l.l.l.l.l.l.l.l.l.l.l.l.l.l.l.l.l.l.l.l.l.l.l.l.l.l.l.l.l.l.l.x.l.l.l.l.l.l.l.l.l.l.l.l.l.l.l.l.l.l.l.l.l.l.l.l.l.l.l.l.l.l.l.l.l.l.x.x.x.x.x.x.x.x.x.x.x.x.l.l.l.l.l.l.l.l.l.x.x.x.x.x.x.x.x.x.x.x.x.x.x.x.x.x.x.x.b.x.x.l.l.l.l.l.x.x.x.x.x.x.x.x.x.Z.Z.l l . . . . . . y y y y u t H J L R H H q 0 0 r j j T ( ..+.2 3 $ $ . . L.                                    (.",
"                                                        . . . . $ $ 1 = ( ( +.*.6.6.s.s.z.s.C.z.s.z.s.s.s.s.r.p.r.r.s.z.z.s.*.{ e e O O . . $ $ = = , , $ , @ $ . . C l e.r.e.e.6.6.3.*.6.*.+.+.6.-.:.{ +.+.C C y h = , 2 2 , , . . . . . .                         3 , . . . . q 6 L A y y 1 1 3 , 3 2 2 y h h j h y y 2 1 . . . . . . 2 2 Z.A.x.x.x.x.x.x.x.x.x.x.x.x.x.x.x.x.x.x.x.x.x.x.x.x.x.x.x.x.x.x.x.l.x.x.x.x.x.l.l.l.x.x.x.x.x.x.x.x.x.l.l.l.x.x.x.l.l.l.l.l.l.x.x.x.l.l.l.l.l.l.l.l.l.l.l.l.l.l.l.l.x.l.l.l.l.l.l.l.l.l.l.l.h.h.l.l.l.l.l.l.l.l.l.l.l.l.l.l.l.l.l.l.k.l.l.l.l.l.l.l.l.l.s.s.l.l.l.l.l.l.l.l.l.l.l.l.l.l.l.l.l.l.x.x.l.l.l.j.j.j.l.l.l.l.l.l.l.l.l.l.l.l.l.l.l.l.l.l.l.l.l.l.l.l.l.l.l.l.l.l.l.l.l.l.l.l.l.l.l.l.l.l.l.l.x.x.l.l.l.l.x.x.x.x.x.x.z.z.x.x.l.x.z.l.x.l.x.x.x.x.x.x.x.x.x.x.x.x.x.x.l.l.l.l.l.l.l.l.l.l.x.x.l.l.l.l.l.x.l.l.l.x.x.x.x.x.l.l.l.x.x.z.l.l.x.x.x.x.x.x.x.x.x.x.x.x.x.x.x.x.x.x.x.x.x.x.x.x.x.x.x.x.x.x.l.l.x.x.x.x.l.l.l.l.x.l.x.x.x.x.l.l.l.l.l.l.l.l.l.l.l.l.l.l.x.l.l.l.l.l.l.x.x.l.l.l.l.l.l.l.l.l.l.l.l.l.l.l.l.l.l.l.l.l.l.l.l.l.l.l.l.l.l.l.l.x.x.x.l.l.l.l.l.l.l.l.l.l.l.l.l.l.l.l.l.l.l.h.h.l.l.l.l.l.l.l.l.l.l.l.l.l.l.l.l.l.l.l.l.l.l.l.l.l.l.l.l.l.l.l.l.l.l.l.l.l.l.l.l.l.l.l.l.l.l.l.l.l.l.l.l.l.l.l.l.l.l.x.l.l.x.x.x.x.x.x.l.l.l.l.l.l.l.l.l.l.l.l.l.x.x.x.z.z.z.x.l.l.l.l.x.x.x.l.l.l.l.x.l.l.l.l.l.l.l.l.l.l.l.l.l.l.l.l.l.l.l.l.l.l.z.z.x.x.x.x.x.x.x.x.x.x.x.x.x.x.z.z.x.x.x.x.x.x.x.x.x.x.x.x.z.z.x.x.x.x.x.x.x.x.x.x.x.x.l.l.l.l.x.x.l.l.l.l.l.l.l.l.l.l.l.l.l.l.l.l.l.l.l.l.l.l.l.l.l.l.l.l.l.l.l.l.l.l.l.l.l.l.l.l.l.l.l.l.l.l.l.l.l.l.l.l.l.l.l.l.l.x.x.z.l.l.z.z.x.x.x.x.x.x.x.x.l.l.l.l.l.l.l.l.x.x.l.l.l.l.l.l.l.l.l.x.x.l.x.x.l.l.l.l.l.l.l.l.l.l.l.l.x.x.x.x.l.l.l.l.l.l.l.l.l.l.l.l.l.l.l.l.x.x.x.x.l.l.l.l.l.l.l.l.l.l.l.l.l.x.x.x.l.l.l.l.l.l.l.l.l.l.l.l.l.l.l.l.l.l.l.l.l.l.l.l.l.l.l.l.l.l.l.l.l.l.l.l.l.l.l.l.l.l.l.l.l.l.l.l.l.l.l.l.l.l.l.l.l.l.l.l.l.l.l.l.l.l.l.l.l.l.l.l.l.l.l.l.l.l.l.l.l.l.l.l.l.l.l.l.l.l.l.l.l.l.l.l.l.l.l.l.l.l.l.l.l.l.l.l.l.l.l.l.x.l.l.l.l.l.l.l.l.l.l.l.l.l.l.l.l.l.l.l.l.l.l.l.l.l.l.l.l.l.l.l.l.l.l.l.l.l.l.l.l.l.l.l.l.l.l.l.l.l.l.l.l.l.l.l.l.l.l.l.l.l.l.l.l.l.l.l.l.l.l.l.l.l.l.l.l.l.l.l.l.l.l.l.l.l.l.l.l.l.l.l.l.l.l.l.l.l.l.l.l.l.l.l.j.j.j.l.l.j.l.l.l.l.l.l.l.l.l.x.l.l.l.l.l.l.l.l.l.l.l.l.l.l.l.l.l.l.l.l.l.l.l.l.l.l.l.l.l.l.l.x.x.x.x.x.x.x.x.x.x.x.x.x.x.x.l.l.l.l.x.x.l.l.l.l.l.x.x.x.z.x.x.x.x.x.x.x.x.x.x.x.x.x.x.x.x.x.x.x.x.x.l.l.x.x.x.x.l.l.x.x.A.A.l l . . . . o o e e y y r 9 k j J J u p 9 9 q t H J ( W ....2 1 $ $ . . L.                                    (.",
"                                                          . . . O $ * = Q { *.7.+.+.s.f.z.s.C.m.s.z.z.f.f.s.p.s.s.p.z.z.z.z.3.+.h y * $ . . $ $ , , , , o $ . o . . C A e.6.6.*.6.6.3.*.3.*.+.+.:.:.| { | :.C D l h , , 3 2 , , . . $ . . .                         3 , . . . . y y Q L h y , 1 , , 1 2 2 e x l h h h y 2 3 O . . . . . 2 2 Z.A.x.x.x.x.x.x.x.x.x.x.x.x.x.x.x.x.x.x.x.x.x.x.x.x.x.x.x.x.x.l.l.l.x.x.x.l.l.l.l.l.x.x.l.l.l.l.x.x.l.l.l.l.l.l.l.l.l.l.l.l.l.x.x.x.x.l.l.l.l.l.l.l.l.l.l.l.l.l.l.l.x.l.l.l.l.l.l.l.l.l.l.l.l.h.l.l.l.l.l.l.l.l.l.l.l.l.l.l.l.l.l.l.l.l.l.l.l.l.l.l.l.l.s.s.l.l.l.l.l.l.l.l.l.l.l.l.l.l.l.l.l.x.x.x.l.l.l.l.j.j.l.l.l.l.l.l.l.l.l.l.l.l.l.l.l.l.l.l.l.l.l.l.l.l.l.l.l.l.l.l.l.l.h.h.l.l.l.l.l.l.l.l.l.l.l.l.l.l.l.x.z.x.x.x.x.x.z.z.x.x.x.x.x.x.x.l.x.x.l.l.x.x.x.l.x.x.x.x.x.l.l.l.l.l.l.l.l.l.l.l.x.x.l.l.l.l.l.x.l.l.l.x.x.x.x.x.x.l.l.l.z.z.l.x.x.x.x.x.x.x.x.x.x.x.x.x.x.x.x.x.x.x.x.x.x.x.l.x.x.x.x.x.x.l.l.l.l.l.x.x.l.l.l.l.l.l.x.x.x.l.l.l.l.l.l.l.l.l.l.l.l.l.l.l.l.l.l.l.l.l.x.x.x.x.l.l.l.l.l.l.l.l.l.l.l.l.l.l.l.l.l.l.l.l.l.l.l.l.l.l.l.l.l.l.l.l.l.l.l.l.l.l.l.l.l.l.l.l.l.l.l.l.l.l.l.l.l.h.h.l.l.l.l.l.l.l.l.l.l.l.l.l.l.l.l.l.l.l.l.l.l.l.l.l.l.l.l.l.l.l.l.l.l.l.l.l.l.l.l.l.l.l.l.l.l.l.l.l.l.l.l.l.l.l.l.l.l.l.l.l.x.x.x.x.x.x.l.l.l.l.l.l.l.l.l.l.l.l.l.x.x.x.z.z.z.x.l.l.l.l.x.x.l.l.l.l.l.x.l.l.l.l.l.l.l.l.l.l.l.l.l.l.l.x.l.l.l.l.l.l.z.z.x.x.x.x.x.x.x.x.x.x.x.x.x.x.x.x.x.x.x.x.x.x.x.x.x.x.x.x.x.x.x.x.x.x.x.x.z.x.x.x.x.x.l.l.l.l.l.x.l.l.l.l.l.l.l.l.l.l.l.l.l.l.l.l.l.l.l.l.l.l.l.l.l.l.l.l.l.l.l.l.l.l.l.l.l.l.l.l.l.l.l.l.l.l.l.l.l.l.l.l.l.l.l.l.l.l.z.l.l.l.z.z.x.x.x.x.x.x.z.z.l.l.l.l.l.l.l.l.x.l.l.l.l.l.l.l.l.l.l.l.x.l.x.x.l.l.l.l.l.l.l.l.l.l.l.l.l.x.x.x.l.l.l.l.l.l.l.l.l.l.l.l.l.l.l.l.l.l.l.l.l.l.l.l.l.l.l.l.l.l.l.l.l.x.l.l.l.l.l.l.l.l.l.l.l.l.x.x.l.l.l.l.l.l.l.l.l.l.l.l.l.l.l.l.l.l.l.l.l.l.l.l.l.l.l.l.l.l.l.l.l.l.l.l.l.l.l.l.l.l.l.l.l.l.l.l.l.l.l.l.l.l.l.l.l.l.l.l.l.l.l.l.l.l.l.l.l.l.l.l.l.l.l.l.l.l.l.l.l.l.l.l.l.l.l.l.l.l.l.l.l.l.l.l.l.l.l.l.l.x.l.l.l.l.l.l.l.l.l.l.l.l.l.l.l.l.l.l.l.l.l.l.l.l.l.l.l.l.l.l.l.l.l.l.l.l.l.l.l.l.l.l.l.l.l.l.l.l.l.l.l.l.l.l.l.l.l.l.l.l.l.l.l.l.l.l.l.l.l.l.l.l.l.l.l.l.l.l.l.l.l.l.l.l.l.l.l.l.l.l.l.l.l.l.l.l.l.l.l.l.l.j.j.j.l.l.l.l.l.l.j.j.l.l.l.l.l.x.l.l.l.l.l.l.l.l.l.l.l.l.l.l.l.l.l.l.l.l.l.l.l.l.l.l.l.l.l.l.l.x.x.x.x.x.x.x.x.x.x.x.x.x.x.x.l.l.l.x.x.x.l.l.l.l.l.l.l.l.x.x.x.x.x.x.x.x.x.x.x.x.x.x.x.x.l.x.x.x.x.l.l.l.x.x.x.x.l.l.x.x.C.A.l l . . . . O O 6 e y y r 2 h l A L k u 9 w u u J J Q W ) { 1 1 $ $ . . L.                                    (.",
"                                                                s.6.= O 1 2 U ) +.+.s.s.3.*.7.8.p.s.p.r.r.r.6.r.3.*.6.6.6.6.+.{ X.} e 2 $ O = $ $ $ $ = $ $ , , 3 3 Q D *.:.e.6.*.3.+.+.*.+.+.+.-.-.+.{ [ [ y h h k 6 q y 6 $ $ $ $ [ |                             3 3 . . . . y h Q L x h 1 2 , 3 6 6 6 e x n y y h y 3 3 O O . . . . 6 2 A.A.x.x.x.x.x.x.x.x.x.x.x.x.x.x.x.x.x.x.x.x.x.x.x.x.x.x.x.x.x.l.l.l.l.l.l.l.l.l.l.l.l.l.l.l.l.l.l.l.l.l.l.l.l.l.l.l.x.x.l.l.l.l.l.x.x.l.l.l.l.l.l.l.l.l.l.l.l.l.l.l.l.l.l.l.l.l.l.l.l.l.l.l.l.l.l.l.l.l.l.l.l.l.l.l.l.l.l.l.l.l.l.l.l.l.l.l.l.l.l.l.l.l.l.s.s.s.l.l.l.l.l.l.l.l.l.l.l.l.l.l.l.l.l.l.l.l.l.l.j.j.j.j.l.l.l.l.l.l.l.l.l.l.l.l.l.l.l.l.l.l.l.l.l.l.l.l.l.l.l.l.l.l.l.h.l.l.l.l.l.l.l.l.l.l.l.l.l.l.x.x.l.z.x.x.x.x.x.x.x.x.x.x.x.x.l.l.x.l.l.l.x.x.l.l.l.l.l.l.l.l.l.l.l.l.l.l.l.l.l.l.x.l.l.l.l.l.l.x.l.l.l.x.x.x.x.x.x.l.l.l.l.l.z.x.x.x.x.x.x.x.x.x.x.x.z.z.z.z.x.x.x.x.x.x.x.l.l.l.x.x.l.l.l.l.l.l.l.l.x.x.l.l.l.l.l.l.l.l.l.l.l.l.l.l.l.l.l.l.l.l.l.l.l.l.l.l.l.l.l.l.x.x.x.l.l.l.l.l.l.l.l.l.l.l.l.l.l.l.l.l.l.l.l.l.l.l.l.l.l.l.l.l.l.l.l.l.l.l.l.l.l.l.l.l.l.l.l.l.l.l.l.l.l.l.l.l.l.l.l.l.l.l.l.l.l.l.l.l.l.l.l.l.l.l.l.l.l.l.l.l.l.l.l.l.l.l.l.l.l.l.l.l.l.l.l.l.l.l.l.l.l.l.l.l.l.l.l.l.l.l.l.l.l.l.l.l.l.l.l.l.x.l.l.l.l.x.x.x.l.l.l.l.l.l.l.l.l.l.l.l.x.x.z.z.z.z.l.l.l.l.x.l.l.l.l.l.l.l.l.l.l.l.l.l.l.l.l.l.l.l.l.l.l.l.l.l.l.l.l.l.z.z.x.x.x.x.x.x.x.x.x.x.x.x.x.x.x.x.x.x.x.x.x.x.x.x.x.x.x.x.x.z.z.z.x.x.z.x.z.z.x.x.x.x.l.l.l.l.l.l.l.l.l.l.l.l.l.l.l.l.l.l.l.l.l.l.l.l.l.l.l.l.l.l.l.l.l.l.l.l.l.l.l.l.l.l.l.l.l.l.l.l.l.l.l.l.l.l.l.l.l.l.l.l.l.l.l.l.l.l.l.l.z.z.x.x.x.x.z.z.z.z.l.l.x.x.x.l.l.l.l.l.l.x.l.x.l.l.l.l.l.l.l.l.l.l.l.l.l.l.l.l.l.l.l.l.l.l.l.l.l.l.l.l.l.l.l.l.l.l.l.l.l.l.l.l.l.l.l.l.l.l.l.l.l.l.l.l.l.l.l.l.l.l.l.l.l.l.l.l.l.l.l.l.l.l.l.l.l.l.l.l.l.l.l.l.l.l.l.l.l.l.l.l.l.l.l.l.l.l.l.l.l.l.l.l.l.l.l.l.l.l.l.l.l.l.l.l.l.l.l.l.l.l.l.l.l.l.l.l.l.l.l.l.l.l.l.l.l.l.l.l.l.l.l.l.l.l.l.l.l.l.l.l.l.l.l.l.l.l.l.l.l.l.l.l.l.l.l.l.l.l.l.l.l.l.l.l.l.l.l.l.x.x.l.l.l.l.l.l.l.l.l.l.l.l.l.l.l.l.l.l.l.l.l.l.l.l.l.l.l.l.l.l.l.l.l.l.l.l.l.l.l.l.l.l.l.l.l.l.l.l.l.l.l.l.l.l.l.l.l.l.l.l.l.l.l.l.l.l.l.l.l.l.l.l.l.l.l.l.l.l.l.l.l.l.l.l.l.l.l.l.l.l.l.l.l.l.l.l.l.l.l.j.j.j.j.l.l.l.l.j.j.j.l.l.l.l.l.l.l.l.l.l.l.l.l.l.l.l.l.l.l.l.l.l.l.l.l.l.l.l.l.l.l.l.l.l.l.l.l.l.l.l.l.l.x.x.x.x.x.x.x.x.x.x.x.x.x.x.x.x.x.l.l.l.l.l.l.l.l.z.x.x.x.x.z.x.z.z.x.x.x.x.x.x.x.x.l.l.l.l.l.l.x.x.x.x.l.l.l.x.C.A.l l . . . . o o e y y y r 6 l A Q Q k x q y u u j b W L ( Q , , $ $ . . L.                                    (.",
"                                                                s.s.O O 2 2 +.X.X...s.s.*.*.7.7.f.f.p.r.r.r.r.p.6.*.6.6.7.r.*.+.+.X.y 6 $ O = $ $ = $ = $ $ , & = 2 [ | -.+.6.*.*.*.+.+.*.*.+.+.*.*.| { [ [ y h h k y 6 6 6 $ = O $ :.                              3 3 . . . . y h Q L l h 1 2 , 1 e e 6 e k l y h h y 1 , . O . . . . 6 2 A.C.x.l.x.l.x.x.x.x.x.x.x.x.x.x.l.x.x.x.x.x.x.l.l.l.x.x.x.x.l.l.l.l.l.l.l.l.l.l.l.l.l.l.l.l.l.l.l.l.l.l.l.l.l.l.l.l.x.x.x.l.l.l.l.l.x.l.l.l.l.l.l.l.l.l.l.l.l.l.l.l.l.l.l.l.l.l.l.l.l.l.l.l.l.l.l.l.l.l.l.l.l.l.l.l.l.l.l.l.l.l.l.l.l.l.l.l.l.l.l.l.l.l.l.s.l.l.l.l.l.l.l.l.l.l.l.l.l.l.x.x.l.l.l.l.l.l.l.l.l.j.j.i.l.l.l.l.l.l.l.l.l.l.l.l.l.l.l.l.k.l.l.l.l.l.l.h.l.l.l.l.l.l.l.l.h.l.l.l.l.l.l.l.l.l.l.l.l.l.x.x.l.l.x.x.x.x.x.x.x.l.x.x.x.x.l.l.x.l.l.l.x.x.l.l.l.l.l.l.l.l.l.l.l.l.l.l.l.l.l.l.l.l.l.l.l.l.l.x.x.x.l.x.x.x.x.x.x.l.l.l.l.l.z.x.x.x.x.x.x.x.x.x.x.z.l.l.l.z.x.x.x.x.x.x.l.l.l.l.x.x.l.l.l.l.l.l.l.l.l.x.l.l.l.l.l.l.l.l.l.l.l.l.l.l.l.l.l.l.l.l.l.l.l.l.l.l.l.l.l.l.l.l.l.l.l.l.l.l.l.l.l.l.j.h.l.l.l.l.l.l.l.l.l.l.l.l.l.l.l.l.l.l.l.l.l.l.l.l.l.l.l.l.l.l.l.l.l.l.l.l.l.l.l.l.l.l.l.l.l.l.l.l.l.l.l.l.l.l.l.l.l.l.l.l.l.l.l.l.l.l.l.l.l.l.l.l.l.l.l.l.l.l.l.l.l.l.l.l.l.l.l.l.l.l.l.l.l.l.l.l.l.l.l.l.l.l.l.l.l.l.l.l.l.l.l.l.x.x.x.l.l.l.l.l.l.l.l.l.l.l.l.l.x.z.z.z.l.l.l.l.l.l.l.l.l.l.l.l.l.l.l.l.l.l.l.l.l.l.l.l.l.l.l.l.l.l.l.l.l.l.z.z.x.z.x.x.z.x.z.z.x.x.x.x.x.x.x.x.x.x.x.x.x.x.x.x.x.x.x.x.x.z.l.l.z.x.x.l.z.z.z.x.l.l.x.x.l.l.l.l.l.l.l.l.l.l.l.l.l.l.l.l.l.l.l.l.l.l.l.l.l.l.l.l.l.l.l.l.l.l.l.l.l.l.l.l.l.l.l.l.l.l.l.l.l.l.l.l.l.l.l.l.l.l.l.l.k.l.l.l.l.l.l.z.l.l.l.l.z.z.z.z.l.l.x.x.x.l.l.l.l.l.l.x.x.x.l.l.l.l.l.l.l.l.l.l.l.l.l.l.l.l.l.l.l.l.l.l.l.l.l.l.l.l.l.l.l.l.l.l.l.l.l.l.l.l.l.l.l.l.l.l.l.l.l.l.l.l.l.l.l.l.l.l.l.l.l.l.l.l.l.l.x.x.l.l.l.l.l.l.l.l.l.l.l.l.l.l.l.l.l.l.l.l.l.h.l.l.l.l.l.l.l.l.h.l.l.l.l.l.l.l.l.l.l.l.l.l.l.l.s.l.l.l.l.l.l.l.l.l.l.l.l.l.l.l.l.l.l.l.l.l.l.l.l.l.l.l.l.l.l.l.l.l.l.l.l.l.l.l.l.l.l.l.l.l.l.l.l.l.l.l.l.l.l.l.l.l.l.l.l.l.l.x.l.l.l.l.l.l.l.l.l.l.l.l.l.l.l.l.l.l.l.l.l.l.l.l.l.l.l.l.l.l.l.l.l.l.l.l.l.l.l.l.l.l.l.l.l.l.l.l.l.l.l.l.l.l.l.l.l.l.l.l.l.l.l.x.l.l.l.l.l.l.l.l.l.l.l.l.l.l.l.l.l.l.l.l.l.l.l.l.l.l.l.l.l.l.l.l.l.l.l.l.j.j.j.l.j.j.l.j.j.j.j.l.l.l.l.l.l.l.l.h.h.l.l.l.l.l.l.l.l.l.l.l.l.l.l.l.l.l.l.l.l.l.x.x.l.x.l.x.x.l.x.l.x.x.x.x.x.x.x.x.x.x.x.x.x.x.l.l.x.l.l.l.l.l.l.l.l.z.z.l.z.x.x.z.z.z.z.l.l.z.x.x.x.l.l.l.l.l.l.l.x.l.x.l.l.l.l.x.C.C.l l . . . . . o y y y y r y n U [ Q k k q y u u x l W A W W = , $ $ . . H.                                    (.",
"                                                                h.6.. . $ $ 6 2 3 2 C n k l C Q X.{ Q Q A W +.+.+.+.{ { { { | | 3.*.h h O $ . O . . O $ . . 2 3 6 h -.-.r.:.r.e.| | y e 2 2 y y Q ( k k x h , , 6 3 6 6 , 3 . . . .                                 4 1 . . . . e y A ( y y 2 1 6 e e y y 6 y y y y x y 1 1 O O . . . . h e B.V.x.x.x.l.l.l.x.x.l.l.l.s.s.s.l.l.l.l.l.l.i.h.l.l.h.s.i.l.l.l.l.l.i.h.l.l.l.l.k.l.s.i.s.s.l.l.s.s.s.s.s.s.s.l.s.l.l.l.l.l.l.l.l.l.l.l.l.l.l.l.l.l.l.j.j.l.l.l.l.l.l.l.l.l.l.l.l.l.l.l.l.l.l.l.k.k.l.z.x.x.l.l.z.x.z.z.x.x.x.l.l.l.l.l.l.k.k.k.l.z.l.l.l.l.l.l.l.l.l.l.l.l.l.l.l.l.l.l.l.l.l.l.l.l.l.l.l.l.l.l.l.l.l.l.l.l.l.l.z.z.l.l.l.l.l.l.l.l.k.k.k.l.l.l.l.l.j.k.j.l.l.l.l.l.l.l.l.l.l.l.j.j.l.l.l.l.l.l.l.l.j.j.l.l.l.l.l.l.l.l.l.l.l.l.l.l.l.s.j.s.f.l.l.l.f.s.j.j.j.j.l.l.l.l.l.l.l.l.l.l.l.l.l.l.l.l.l.l.l.l.l.l.l.l.l.l.l.l.s.s.s.l.s.s.l.l.l.l.l.l.l.l.l.l.l.l.l.l.l.l.l.l.l.l.l.l.l.l.l.k.l.k.k.k.l.x.l.l.l.l.l.l.l.l.l.l.l.l.l.l.l.l.j.j.l.l.l.l.l.l.l.l.l.l.l.l.l.j.l.l.l.l.l.l.l.l.l.l.l.l.l.l.x.x.l.l.l.l.l.l.l.l.z.z.z.l.l.l.s.s.l.l.l.l.l.l.l.l.l.l.l.l.l.l.l.l.l.l.l.l.l.l.l.l.l.l.l.l.l.l.l.l.l.l.l.l.l.l.l.l.l.l.l.l.l.l.l.l.l.l.l.l.l.l.l.l.l.l.l.l.l.l.l.l.l.l.l.l.l.l.l.l.l.l.l.l.l.l.l.l.l.l.l.l.l.l.l.l.l.l.l.l.l.l.l.l.l.l.l.l.l.x.x.l.x.l.l.l.l.l.l.l.l.l.l.l.l.l.l.h.l.l.l.l.l.l.l.l.l.l.l.l.l.l.l.l.l.l.l.l.l.l.l.l.l.l.l.l.l.l.l.l.l.l.l.l.l.l.l.l.l.l.l.l.l.l.l.l.x.x.x.x.l.l.l.l.l.l.l.l.l.l.l.l.x.x.l.l.l.l.x.x.x.x.l.l.l.l.l.l.l.l.l.l.l.l.l.l.l.l.l.l.l.l.l.l.l.l.l.l.l.l.l.l.l.l.l.l.l.l.l.l.l.l.l.l.l.l.l.l.l.l.l.l.l.l.l.l.h.l.l.l.l.l.l.h.l.f.l.s.s.l.l.l.l.l.l.s.l.l.l.l.l.l.l.l.l.l.l.l.l.l.l.l.l.l.l.l.l.l.l.l.l.l.l.l.l.l.x.l.l.l.l.l.x.l.l.l.l.l.l.l.l.l.s.s.s.l.l.l.l.l.l.l.l.l.l.l.l.l.l.l.l.l.l.l.l.l.l.l.l.l.l.l.l.l.l.l.l.l.l.l.l.l.l.l.j.j.l.l.l.l.l.l.l.l.l.l.l.l.l.l.l.l.l.l.l.l.l.l.l.l.l.l.l.l.l.l.l.l.l.l.l.l.l.l.l.l.h.h.l.l.l.l.l.l.l.h.l.l.l.l.l.l.l.l.l.l.l.l.l.l.l.l.l.l.l.l.l.l.l.l.k.l.l.l.l.l.l.l.l.l.l.l.l.l.l.l.l.l.l.l.l.l.l.l.l.l.l.l.l.l.l.l.h.l.l.l.l.l.l.l.l.l.l.l.l.l.l.l.l.l.l.l.l.l.l.l.l.l.l.l.l.l.l.l.l.l.l.l.l.l.l.l.l.l.z.l.l.l.l.l.l.l.l.l.z.z.x.x.x.z.z.z.x.z.x.l.l.l.l.l.l.l.l.l.l.l.l.l.l.l.l.l.j.j.l.l.l.l.l.l.z.l.l.l.l.l.l.l.l.l.l.l.l.l.l.l.l.l.l.l.l.l.l.l.l.l.l.l.l.l.l.l.l.l.l.l.l.l.l.l.l.l.l.l.l.l.l.l.l.l.i.i.l.l.l.l.l.l.l.l.l.l.l.l.l.l.l.l.k.k.k.k.l.l.l.z.z.l.l.l.k.k.k.k.l.k.l.k.l.l.l.l.l.l.l.l.l.l.l.l.l.l.l.s.l.l.s.s.l.i.l.l.h.h.h.h.l.l.l.l.A.A.k V . . . . . . 6 e y y y y A W A U y y y y 6 6 v j J J j l = = $ O . . H.                                      ",
"                                                                *.r.. $ $ $ 6 6 3 2 l l l l C D W ( Q { { Q +.{ | | [ { { { | { *.*.h h $ = $ $ . . O $ . . 2 3 k k -.%.-.:.e.e.| | e 6 2 2 y y U Q l l h y = , 2 2 y h 2 , . . . .                                 2 1 . . . . y h U W k y 2 1 e y y y y y y y y y x h 1 1 O O O # . . 6 2 C.V.l.l.l.l.l.l.l.l.l.s.i.i.s.s.l.s.l.j.j.j.h.h.l.l.h.h.i.h.k.k.l.l.l.l.l.l.l.l.l.l.s.i.i.s.s.l.l.s.s.s.s.s.s.l.l.l.l.l.l.l.l.l.l.l.l.l.l.l.l.l.l.l.l.l.l.l.l.l.l.l.l.l.l.l.l.l.l.l.l.l.z.z.z.l.l.k.l.l.z.z.l.l.z.z.z.z.x.x.x.x.l.l.l.l.z.l.k.k.l.l.l.l.l.l.l.l.l.l.l.l.l.l.l.l.l.l.l.l.l.l.l.l.l.l.l.l.l.l.l.l.l.l.s.l.l.l.l.l.l.l.s.s.l.l.s.s.s.s.k.k.k.k.l.l.l.l.l.l.l.l.l.l.l.l.l.l.l.l.l.j.j.j.l.l.l.l.l.l.l.l.l.l.l.l.l.l.l.l.l.l.l.l.l.l.l.l.l.f.j.j.l.l.l.l.l.l.j.j.j.j.l.l.l.l.l.l.l.l.l.l.l.l.l.l.l.l.l.l.l.l.s.s.l.l.l.l.l.l.s.s.s.l.l.l.l.l.l.l.l.l.l.l.l.l.l.l.l.l.l.l.l.l.l.l.l.l.l.l.l.k.j.k.k.k.k.l.l.l.l.l.l.l.l.l.l.l.l.l.l.l.l.l.j.j.j.j.l.l.j.j.l.l.l.l.l.l.l.l.l.l.l.l.l.l.l.l.l.l.l.j.l.l.l.l.s.s.s.i.s.s.s.s.s.s.s.s.s.i.i.i.l.l.l.j.l.l.l.l.h.l.h.h.l.s.l.s.l.l.l.l.l.l.l.l.l.l.l.l.l.l.l.l.x.l.l.l.l.l.l.l.l.l.l.l.l.l.l.l.l.l.l.l.l.l.l.l.l.l.l.l.l.l.l.l.l.l.l.l.l.l.l.l.l.l.l.l.l.l.l.l.l.l.l.l.l.l.l.l.l.l.l.l.l.l.l.h.s.h.l.s.l.l.l.l.x.l.l.l.l.l.l.l.l.l.l.l.l.l.l.l.h.h.l.l.l.l.l.l.l.l.l.l.l.l.l.l.l.l.l.l.l.l.l.l.l.l.l.l.l.l.l.l.l.l.l.l.l.l.l.l.l.l.l.l.l.l.l.l.l.x.x.l.l.l.l.l.z.z.l.l.l.l.l.l.l.l.l.l.l.l.l.l.l.l.l.l.l.j.l.l.l.l.l.l.l.l.l.l.l.l.l.l.l.l.l.x.l.l.l.l.l.l.l.l.l.l.l.l.l.l.l.l.l.l.l.l.l.l.l.l.l.l.l.l.l.l.l.l.l.l.l.l.l.l.l.s.l.f.s.s.s.s.l.l.l.l.s.s.l.l.l.l.l.l.l.l.l.l.l.l.l.l.l.l.l.l.l.l.l.l.l.l.l.l.l.l.l.l.l.l.h.h.l.l.l.l.l.l.l.l.l.l.l.l.s.s.s.l.l.l.l.l.l.l.l.l.l.l.l.l.l.l.l.l.l.l.l.l.l.l.l.l.l.l.l.l.l.l.l.l.l.l.l.l.l.l.l.j.l.l.l.l.l.l.x.x.l.l.l.l.l.l.l.l.l.l.l.l.l.l.l.l.l.l.l.l.l.l.l.l.l.l.l.l.l.l.l.l.l.l.l.l.l.l.l.l.l.l.l.l.l.l.l.l.l.l.l.l.l.l.l.l.l.l.l.l.l.l.l.l.l.l.l.l.l.l.l.l.l.l.l.l.l.l.l.l.l.l.l.l.l.l.l.l.l.l.l.l.l.l.l.l.l.l.l.l.l.l.l.l.l.l.l.l.l.l.l.l.h.h.j.l.l.l.l.l.l.l.l.l.l.l.l.l.l.l.l.l.l.l.l.l.l.l.h.s.l.l.l.l.l.l.h.k.k.k.k.k.k.k.z.l.l.l.x.z.z.l.l.l.l.l.l.l.l.l.l.l.l.l.l.l.l.l.j.j.l.l.l.l.l.l.l.l.k.k.k.l.l.l.k.k.k.k.k.k.h.l.l.l.l.l.l.l.l.l.l.l.l.l.l.l.l.l.l.l.l.l.k.k.k.k.l.l.j.j.j.j.j.j.l.l.l.l.l.l.l.l.s.s.s.s.l.l.s.l.l.l.z.z.z.z.z.z.l.l.l.l.l.l.l.l.z.z.l.z.z.z.l.l.l.l.l.l.l.l.l.l.l.l.l.l.l.l.l.l.l.l.l.l.l.l.l.l.h.h.h.h.l.l.l.l.V.V.V F . . . . . . 2 2 y u y u A U n A y y y y 6 6 v k J v j j & & $ O . . S.                                      ",
"                                                                  r.A h l y , , O . 2 6 k C Q Q W U e e 2 e X.+.:.+.:.+.:.:.:.:.D A $ = . . $ O = $ $ $ . . $ $ , , :.-.-.:.:.| [ Q 2 1 = = 2 2 k A l l y y 2 6 , , = , $ $ = , . .                                 2 2 . . o o y y n U k x e 6 2 2 y y y y y y y y x y 1 1 O O . o . o 6 2 A.C.l.l.l.l.l.l.j.j.h.h.h.h.h.h.h.h.l.l.l.h.j.j.k.l.h.h.h.h.h.h.h.h.s.h.h.h.h.h.h.h.j.j.l.l.l.l.l.l.l.l.l.l.l.l.l.l.l.l.l.l.k.k.l.l.l.l.l.l.l.l.l.l.l.l.l.l.l.l.l.l.l.l.l.l.l.l.l.l.x.x.l.l.z.z.z.l.l.l.k.l.l.l.l.l.z.z.z.x.z.l.l.l.l.z.l.l.l.k.k.k.l.l.l.l.l.l.l.l.l.l.l.l.l.l.l.l.l.l.l.l.l.l.l.l.l.l.l.l.l.l.l.l.l.l.l.l.l.l.l.l.l.l.l.l.l.x.x.z.k.k.z.l.l.l.l.l.l.l.l.l.k.k.k.l.l.l.l.l.l.l.l.j.l.l.l.l.l.l.l.l.l.l.l.l.l.l.l.l.l.l.l.l.l.l.l.l.s.s.s.s.l.l.l.s.l.l.l.l.l.l.l.l.l.l.l.l.l.l.l.l.l.l.l.l.l.l.l.l.l.l.l.l.l.l.l.l.l.l.l.l.l.l.l.l.l.l.l.l.l.l.l.l.l.l.l.l.l.l.l.l.l.l.l.l.l.l.l.l.k.l.k.k.j.k.k.k.l.s.j.l.l.l.l.l.l.l.l.l.l.l.l.l.x.x.l.l.x.x.x.x.l.l.l.l.l.l.l.l.l.l.l.l.l.j.j.l.l.l.l.l.l.l.l.l.x.l.l.l.l.l.l.l.x.x.x.l.l.l.l.l.l.l.l.l.l.l.l.l.l.l.l.l.l.l.l.l.l.l.l.l.l.l.l.l.l.l.l.l.l.l.l.l.l.l.l.l.l.l.l.l.l.l.l.l.l.l.l.l.l.l.l.l.l.l.l.l.l.l.l.l.l.l.l.l.l.l.l.l.l.l.l.l.l.l.l.l.l.l.l.l.l.l.l.l.l.l.l.l.x.x.l.l.l.x.l.l.x.x.z.z.x.x.x.x.l.l.h.l.l.l.l.l.l.l.l.l.l.l.l.l.l.l.l.l.l.l.l.l.l.l.l.l.l.l.l.l.l.l.l.l.l.l.l.l.l.l.l.l.l.l.l.l.l.l.l.l.l.l.l.l.l.l.l.l.l.l.l.l.l.l.l.l.l.l.l.l.l.l.l.l.l.l.l.l.l.l.l.l.l.l.l.l.x.x.x.x.x.x.x.x.l.l.l.l.l.l.l.l.h.h.l.l.l.l.l.l.l.l.l.l.l.l.l.l.l.l.l.l.l.l.l.l.l.l.l.l.l.l.l.l.l.l.l.l.l.l.l.l.l.l.l.l.l.l.l.l.s.s.l.l.s.s.l.l.l.s.l.l.l.l.l.l.l.l.l.l.l.l.l.l.l.l.l.l.x.l.z.l.x.x.x.x.x.x.l.l.l.l.l.l.l.l.l.x.l.l.l.l.l.l.l.l.l.s.s.s.s.s.s.s.l.l.l.l.l.l.l.l.l.l.l.l.l.l.l.l.l.l.l.l.l.l.l.l.l.l.l.l.l.h.h.h.j.l.l.l.j.l.l.l.l.l.l.l.l.l.l.l.l.l.l.l.l.l.l.l.l.l.l.l.l.l.l.l.l.l.l.l.l.l.l.l.l.l.l.l.l.l.l.l.l.l.l.l.l.h.l.l.l.l.l.l.l.l.l.l.l.l.l.l.l.l.l.l.l.l.l.l.l.l.l.l.z.l.l.l.k.k.l.l.l.l.l.l.l.l.l.l.x.l.l.l.l.l.l.l.l.l.l.l.l.l.l.l.l.l.l.l.l.l.l.l.x.x.x.x.x.x.l.x.l.l.x.x.x.x.x.x.l.l.l.l.l.l.l.l.z.z.l.l.l.l.l.l.l.l.x.x.l.x.x.x.l.l.l.z.z.z.x.x.z.l.l.l.x.z.x.l.l.l.l.l.l.l.l.l.l.l.l.l.l.l.l.l.l.l.l.l.l.l.l.l.l.l.k.k.k.k.l.l.x.x.l.l.l.l.l.l.l.l.l.l.l.l.l.l.l.l.l.l.l.l.l.l.x.x.x.x.x.x.x.z.x.l.l.l.l.l.l.l.i.j.l.l.l.l.l.h.l.l.l.l.l.l.l.l.k.k.k.k.k.k.k.k.s.s.l.l.l.l.l.l.k.k.k.k.k.k.j.j.h.h.h.l.s.i.h.h.h.h.h.h.h.h.h.h.h.h.h.h.h.h.h.h.h.h.h.h.s.s.s.k.C.V.h C . . . . . . 2 2 y u u y k k y y 2 2 6 6 y q l k J J j H $ $ O O . . F.                                      ",
"                                                                    k l l A = , O . 2 2 k k Q D n U e y y y X.{ { [ :.+.*.:.:.:.A A $ = O O $ $ = = $ $ . . O . 3 , -.-.+.:.*.:.Q D 1 , = = 1 2 l A l l y e 2 6 2 6 , , $ . , , .                                   2 2 . . O O y y n n y y e 6 2 2 y y y y y y y y x k 1 1 O O . o . O 1 , C.l.h.h.h.h.j.j.j.i.h.h.h.h.h.h.h.h.h.h.h.h.h.j.j.j.h.h.h.h.h.h.h.h.h.h.h.h.h.h.h.h.l.k.j.j.l.l.l.k.l.l.j.j.l.l.k.k.k.k.k.k.k.k.l.l.l.l.l.l.l.l.j.j.l.l.l.l.l.l.l.l.l.l.l.l.l.l.l.l.l.l.l.l.l.l.l.l.k.k.k.k.l.l.l.k.k.k.k.k.k.k.k.k.l.l.l.l.l.k.k.k.j.l.l.l.l.l.l.l.h.h.l.l.l.l.l.l.l.l.l.l.l.l.l.l.s.h.h.h.h.l.l.l.h.i.s.s.s.h.h.h.l.l.l.l.l.l.l.l.l.k.l.l.l.l.l.l.k.k.k.k.k.k.k.k.l.l.l.l.l.h.h.h.j.l.l.l.l.l.l.l.l.l.i.i.h.h.l.l.l.l.l.l.l.j.h.h.i.s.s.s.s.s.s.s.l.j.j.j.l.l.l.l.h.k.l.l.l.l.l.l.l.l.l.l.l.j.k.j.k.k.k.k.l.l.l.l.s.l.l.l.l.l.l.l.l.l.l.l.l.l.l.l.h.h.h.l.l.l.l.l.l.l.l.l.l.l.l.l.k.j.j.j.j.k.k.k.h.h.h.j.s.l.l.l.l.l.l.l.l.j.j.l.l.l.l.l.l.l.l.l.l.l.l.l.l.l.l.l.l.l.l.l.l.l.l.l.x.x.l.l.l.l.l.l.l.l.l.l.l.l.l.l.l.l.l.l.l.l.l.l.l.l.l.l.l.l.l.l.j.l.h.l.l.l.l.l.l.x.x.x.l.l.l.l.x.l.l.l.l.l.l.l.l.l.l.l.l.l.l.l.l.l.l.l.l.l.l.l.l.l.l.l.l.l.x.l.l.l.l.l.l.l.l.l.l.l.l.l.l.l.l.l.l.l.l.l.l.l.x.x.l.l.l.l.l.l.l.l.l.l.l.l.l.l.h.h.l.l.l.l.l.l.l.l.l.l.l.l.l.l.l.l.l.l.l.l.l.l.l.l.h.h.h.h.j.l.l.l.l.l.l.l.l.l.l.l.l.l.x.l.l.l.l.l.l.l.l.l.l.l.l.l.l.l.l.l.l.l.l.l.x.x.x.x.x.x.l.l.x.x.x.x.l.l.l.x.z.z.l.l.l.l.l.l.l.l.l.x.x.l.l.l.l.l.l.l.l.l.l.l.l.l.l.l.l.l.l.l.l.l.l.x.x.x.x.l.l.l.l.l.l.l.l.l.l.l.l.l.l.l.l.l.l.x.x.x.l.l.l.l.l.l.l.l.l.l.l.l.l.l.l.l.l.l.l.z.l.s.l.l.l.l.l.l.z.z.l.l.l.l.x.x.l.x.x.l.x.l.l.l.l.l.l.l.l.h.l.h.l.l.l.l.l.l.l.l.l.l.h.h.j.j.j.l.l.l.l.l.x.x.l.l.l.l.l.l.l.l.l.l.l.l.l.l.l.l.l.l.l.l.l.l.l.l.l.l.l.l.l.l.l.l.l.l.l.l.l.l.l.l.l.l.l.l.l.l.l.l.l.x.l.l.l.l.x.x.z.z.l.l.l.l.l.l.l.l.l.l.x.l.l.l.l.l.l.l.l.l.l.l.l.l.l.l.l.l.l.l.l.l.x.l.l.l.l.l.l.l.l.l.l.l.l.l.l.l.l.l.l.l.l.l.l.l.l.l.l.l.l.l.l.l.x.x.z.l.l.l.l.l.l.l.l.l.l.l.l.l.x.x.l.l.l.l.l.l.l.l.l.l.l.l.l.l.l.l.l.l.l.l.l.l.l.l.l.l.l.l.l.l.l.l.l.l.l.l.l.l.l.l.l.l.l.l.l.l.x.x.z.z.l.l.l.l.h.l.l.l.l.j.l.l.h.k.h.k.k.k.k.k.x.z.z.x.x.x.x.x.l.l.l.l.l.l.l.l.l.l.l.l.l.l.l.l.l.l.l.l.l.l.l.l.k.k.k.k.k.k.l.l.l.l.l.j.k.s.h.h.l.l.l.l.l.l.l.l.l.l.l.l.l.l.l.l.l.l.l.l.l.k.l.k.h.h.h.h.h.h.h.h.h.h.h.h.l.h.h.h.l.l.l.l.z.x.l.l.l.l.l.l.z.z.z.z.s.l.l.z.z.l.l.l.x.z.z.l.l.l.k.k.l.l.l.l.l.l.l.l.l.l.l.l.l.l.l.l.j.j.l.l.l.l.l.l.h.h.h.h.h.h.h.h.C.B.k C . . . . . . 6 2 y u r r y h y y 2 2 6 6 q 6 l k J v j j $ $ O O . . A.                                      ",
"                                                                            . . . . 2 3 y y C A y h y k y y U n D A *.+.6.-.*.*.D A . . . . . . , = $ O . . . . $ $ *.*.:.*.e.e.{ [ 2 2 1 1 6 6 2 2 1 2 = 1 3 2 . $ . . . . 6 6                                     6 2 . . O O x v U A e 6 1 2 2 2 h k x v h l h y v x 2 2 O O O o . . 3 2 F.F.x.x.x.l.l.x.x.x.x.x.x.x.l.l.l.l.l.x.x.x.x.x.x.x.x.x.x.x.x.x.x.z.x.x.x.x.x.x.x.b.x.x.x.x.x.x.x.x.x.x.M.M.x.x.x.x.x.x.x.x.x.x.x.x.B.B.M.C.x.x.x.x.b.x.b.b.B.B.B.x.B.B.B.B.b.b.B.B.C.N.N.N.N.N.N.N.B.x.x.x.C.C.C.M.M.M.M.M.x.x.x.x.M.M.N.C.C.C.x.x.M.M.M.M.x.x.x.x.x.x.x.x.x.x.x.x.x.x.x.x.x.x.x.x.x.x.x.x.x.x.x.x.x.x.x.x.z.x.x.x.x.l.l.l.x.x.x.x.b.b.x.x.x.x.x.x.x.x.x.x.x.x.b.B.M.M.M.x.x.x.x.x.x.x.x.x.x.x.x.x.x.b.x.x.x.x.x.x.B.B.B.B.b.b.b.b.z.x.x.x.x.x.x.x.M.x.M.M.N.N.N.N.x.x.x.x.x.M.C.C.C.C.C.x.x.x.x.x.x.x.b.b.C.C.C.x.x.x.x.x.v.N.N.N.x.b.b.b.b.b.b.x.x.x.x.b.B.B.B.B.x.x.x.M.x.x.N.C.x.x.x.x.x.B.B.B.x.x.N.M.C.C.C.C.x.x.x.x.M.M.M.M.x.x.M.M.M.M.x.x.x.x.x.x.x.x.x.x.x.M.x.x.x.x.x.x.x.x.x.x.x.x.x.x.x.x.x.x.x.x.x.x.M.x.x.x.x.x.x.v.x.x.x.x.N.M.C.x.x.x.x.x.x.x.x.x.x.x.x.x.x.x.x.x.x.x.x.x.x.x.x.x.z.x.x.x.x.x.x.x.x.x.x.x.l.l.x.x.l.l.l.l.l.x.x.x.x.x.x.x.x.x.x.x.x.x.x.x.x.x.x.x.l.l.l.l.x.x.x.x.x.x.x.x.l.x.x.x.C.C.C.C.N.N.C.C.x.x.N.C.C.C.x.x.x.x.x.x.x.x.x.x.x.x.x.x.x.x.x.x.x.x.x.v.C.C.C.C.x.x.x.x.x.x.x.x.x.x.x.x.x.x.x.x.l.x.x.x.x.x.x.x.x.x.x.x.x.x.x.x.x.x.x.x.x.x.x.x.x.x.x.x.x.x.x.x.x.x.x.x.x.x.x.x.M.x.x.x.x.x.x.x.x.x.x.x.x.x.C.v.x.x.x.x.l.l.l.x.l.l.x.x.x.x.x.l.l.l.l.l.l.x.l.l.x.x.x.x.l.l.l.l.x.x.x.x.x.l.x.x.x.x.x.x.x.x.x.x.l.l.x.x.x.x.x.x.l.l.z.z.x.x.x.x.x.x.x.x.x.x.x.M.x.x.x.x.x.x.x.x.N.C.C.C.C.C.x.x.C.N.N.M.x.C.C.C.x.x.x.x.x.x.x.x.x.x.x.x.x.x.x.x.z.z.z.z.z.z.z.z.x.x.x.x.x.x.x.N.x.x.x.x.x.x.x.x.x.x.x.x.x.x.x.x.x.x.x.x.x.x.l.z.x.x.x.x.x.x.x.C.x.x.x.x.x.x.x.x.x.x.l.l.l.l.l.l.l.l.x.x.x.x.x.x.l.l.l.l.l.l.l.l.x.x.x.x.l.x.x.x.x.x.x.x.x.x.x.l.l.l.l.l.l.l.l.l.x.x.x.x.l.l.l.l.x.x.x.x.x.x.x.x.x.x.z.l.l.l.l.l.l.l.l.l.l.l.l.l.x.x.l.l.l.l.l.l.x.l.x.x.x.x.x.x.l.l.x.x.l.x.x.x.x.x.x.x.C.C.C.C.x.x.x.x.x.x.x.x.x.x.x.x.x.x.x.x.x.z.z.z.z.z.x.x.x.x.x.x.x.x.x.x.x.x.x.x.x.x.b.b.x.x.x.x.x.x.x.z.l.l.l.x.l.l.l.l.l.l.l.l.x.x.x.l.l.l.l.l.l.l.l.l.x.x.x.x.x.b.B.b.C.x.x.x.x.x.x.x.l.l.l.l.l.l.z.z.l.l.x.x.x.l.z.x.x.x.x.x.b.b.b.b.B.x.x.x.x.x.x.x.x.x.M.C.C.C.x.x.l.l.l.x.x.x.x.z.l.l.z.z.z.z.x.x.l.l.l.l.l.l.l.l.x.l.l.l.l.l.l.k.l.l.l.l.x.x.x.l.l.l.l.l.l.l.l.l.l.l.l.l.l.l.l.l.x.l.l.l.z.x.x.x.F.A.F n . . . . . . y y u u 2 r y y y y 2 2 2 2 2 2 h y x x y y $ $ o o . . A.                                      ",
"                                                                            O O O O 2 2 y y C A y y y y y y A Q C C -.+.e.6.-.-.Q C . . . . O $ 3 3 $ . . . . . O $ +.*.-.-.e.e.{ { 2 2 1 1 6 6 1 1 , 2 = 2 6 6 $ $ . . . . 6                                       6 6 . . O $ y x U n 2 2 , 2 2 2 x x v U h l h y v x 2 2 O O . . . . 2 6 m.C.x.l.l.l.l.l.l.l.x.l.l.l.l.l.i.s.l.l.l.l.l.l.l.l.l.l.l.l.l.l.l.l.z.z.z.z.z.x.x.x.l.l.x.x.x.x.x.x.x.x.x.x.z.z.x.z.x.x.x.x.x.x.x.x.x.x.x.x.x.x.x.z.x.x.x.x.x.x.x.x.x.x.x.x.x.x.x.x.x.x.x.x.x.x.x.x.x.x.x.x.x.x.x.x.x.x.x.x.x.x.x.x.x.x.x.x.v.v.x.x.x.x.x.x.x.x.l.l.x.x.l.l.l.l.z.z.x.l.x.x.l.l.l.l.l.l.l.l.l.l.l.l.l.l.l.l.l.l.l.l.l.l.l.l.l.l.l.l.x.x.l.l.l.l.x.x.x.x.x.x.x.x.x.x.x.x.x.x.x.l.l.x.l.l.x.x.x.x.x.x.x.x.x.x.l.l.x.x.x.x.x.x.x.x.x.x.l.z.x.z.x.l.x.x.x.x.x.x.x.x.x.x.l.l.l.l.l.x.x.x.x.x.x.x.x.l.l.l.z.z.x.x.x.x.x.x.x.x.x.x.x.x.x.x.x.x.x.x.x.x.x.z.z.z.x.x.x.x.x.x.x.x.x.x.l.x.x.x.z.z.z.x.x.x.x.x.z.z.x.x.x.x.x.x.x.x.x.x.x.x.x.x.x.x.x.x.x.x.x.x.x.l.l.l.l.l.x.x.C.C.C.C.x.B.C.C.x.x.x.x.C.C.C.C.x.x.x.x.x.x.x.x.x.x.x.x.x.x.x.x.x.x.x.x.x.x.x.x.x.x.x.x.x.x.x.x.x.M.x.x.C.x.x.C.C.C.C.C.C.x.x.x.x.x.x.m.x.x.x.x.C.C.M.M.M.M.M.M.x.x.x.x.x.M.C.C.x.x.x.C.C.C.C.x.x.x.x.x.M.M.M.M.x.x.x.x.C.C.C.C.M.M.N.M.x.x.x.x.x.x.M.x.x.x.x.C.x.x.x.x.x.x.x.x.C.C.C.C.C.C.C.C.C.C.C.C.C.C.C.C.x.x.x.x.x.x.x.N.C.C.C.C.C.C.C.C.M.x.N.N.M.C.M.x.x.x.x.x.M.M.C.C.x.x.x.C.C.x.M.x.x.x.x.x.N.N.M.x.x.C.C.C.x.x.N.C.M.M.C.C.C.C.C.C.C.C.M.M.M.M.C.C.x.x.x.x.x.x.x.x.C.C.M.M.x.x.x.x.x.x.x.x.x.x.x.x.x.x.x.x.C.C.x.x.M.M.M.M.x.x.x.x.M.C.C.M.x.x.C.C.x.x.x.x.M.C.N.C.x.x.x.C.C.C.C.x.x.x.x.v.M.C.C.C.C.C.x.x.M.C.C.C.C.C.C.C.C.x.N.x.x.x.x.N.x.x.x.x.x.x.x.x.x.x.x.x.x.x.x.x.x.x.x.x.C.x.x.x.C.C.C.C.m.m.m.x.x.x.x.x.C.C.C.C.C.C.C.C.x.x.x.x.M.N.C.C.x.x.x.x.M.M.N.C.x.x.M.M.x.x.x.x.N.N.x.x.x.x.C.C.x.x.x.x.M.M.B.b.M.M.x.x.x.x.l.l.x.x.M.M.x.x.C.C.x.x.x.x.x.x.x.x.x.x.x.x.x.x.C.C.M.N.C.C.C.x.x.x.x.x.x.x.x.x.x.x.x.x.x.x.x.x.x.x.M.N.N.N.C.x.x.x.x.x.x.x.x.x.x.x.x.x.x.x.x.x.x.x.C.x.x.x.x.x.x.x.x.x.x.x.x.x.N.N.x.x.M.M.x.x.x.x.x.x.x.x.x.x.x.x.x.x.x.x.x.x.x.x.C.C.C.C.C.x.N.N.m.m.x.x.x.x.x.x.x.x.x.x.x.x.x.x.x.x.x.x.x.x.x.x.C.C.B.B.B.B.B.x.x.x.x.x.x.x.x.x.l.x.x.x.x.x.x.x.x.x.x.x.x.x.x.x.x.x.x.z.z.z.z.x.x.x.x.x.x.x.x.x.C.x.x.x.x.x.x.b.x.x.x.x.M.x.x.b.x.x.x.x.x.x.x.x.x.x.x.x.x.x.x.x.x.x.x.x.x.x.x.x.x.x.x.x.m.m.B.b.x.x.x.x.x.x.x.x.x.x.x.x.x.x.x.x.x.x.x.l.x.l.l.l.l.l.l.x.x.x.x.x.l.l.x.x.x.x.x.x.l.l.l.l.l.l.l.l.l.l.l.l.l.l.l.l.C.C.Y n . . . . . O y y y y r r i x k i 1 1 1 1 2 1 y y k y y h $ $ o o . . C.                                      ",
"                                                                            l k . . = $ $ $ $ $ $ $ 2 2 2 6 6 y h h +.[ -.*.:.*.{ +.h l A C h y C A h h h y h h C k :.| +.+.e.e.{ [ 2 2 , , 2 2 1 , , 3 O $ O . $ $ , 2 h h                                         e 6 . o $ $ y y l l 2 2 1 2 2 2 l l A Q h k y y l k 2 2 $ O O o . . , , l l h h h h h h h h h h h h h h y y 6 6 d h f d d d d d d g g g d d d d d g h h g g h h h h h h h h h h h h h h h h h g g g h h h h h h h h k k h h h h h h k k k k h h k k k k h h k k k k h k h k k k k k k k k k k k k k k k k k k k k k k k k h k k k k h h h h k h h h h h y y h h h h h h y y h h h h h h y y h h h h h h h h h h h h h h h h h h h h h h h h k k k h h h h h N h h h h h h h h h h h h h h h h h h h h h h h h h h h h h h h h h h h h h h h h h h h h h h h h h h h h h h h h h h h h h h h h h h h h h h h h h h h h h h h h h h h h h h h h h h h h h h h k k h h h h h h h h h h h h h h h h h h h h h h h h h h h h h h g g h h g g g d h h g g g h h h 6 6 6 6 6 6 6 d 6 6 6 6 d d d d e e g h h h g g h h g g g g h h h h h h h h h h d d h h h h h h 6 6 6 6 6 6 6 6 6 6 6 6 6 6 6 6 6 6 6 6 6 6 6 2 6 6 6 6 6 6 6 6 6 6 2 2 6 6 6 6 6 6 6 6 6 6 6 6 6 6 6 6 6 6 6 6 6 6 6 6 6 6 6 6 6 6 6 6 6 6 6 6 6 6 6 6 6 6 h h 6 6 6 6 h f f 6 6 6 6 6 6 6 6 6 6 6 6 6 6 6 6 6 6 6 6 6 6 h h h 6 6 6 6 6 6 6 2 6 6 6 6 6 6 6 6 2 6 6 6 6 6 6 6 6 6 6 6 6 6 6 6 6 6 6 6 6 6 6 6 6 6 6 6 6 6 6 6 6 6 6 6 6 6 6 d d d d d d d d d h h h h d f h h 6 6 6 6 6 6 6 6 h h h f d d 6 6 6 6 6 6 6 6 6 6 6 6 6 6 6 6 6 6 6 6 6 6 6 6 6 6 6 6 6 6 6 6 6 6 6 6 6 6 6 6 6 6 6 6 6 6 6 6 6 h 6 6 6 6 d d d f 6 6 6 6 6 6 6 6 6 6 d d 6 6 6 6 h h h 6 6 6 h h h h 6 6 h h h h 6 6 6 6 6 6 d 6 6 6 6 6 6 6 6 6 6 2 6 6 6 6 6 6 6 6 6 6 6 6 6 6 2 2 2 2 6 6 6 6 6 6 6 6 2 2 2 2 6 6 2 2 2 2 6 6 2 2 2 2 6 6 6 2 6 6 2 2 2 2 2 2 6 6 6 6 6 6 6 6 2 2 6 6 6 6 6 6 6 6 6 6 6 6 6 6 6 6 6 6 6 6 6 6 6 2 6 6 6 6 6 6 6 6 6 6 6 6 6 6 6 6 6 6 6 6 6 6 6 6 6 6 6 6 6 6 6 6 6 6 6 6 6 6 6 6 6 2 6 6 2 2 6 6 6 6 6 6 6 6 6 6 6 6 6 6 6 6 h h h h h h h h h h h h 6 6 6 6 6 6 6 6 6 6 6 6 6 6 6 6 6 6 6 6 h 6 6 6 h h f f 6 6 g d d h h h 6 6 6 6 6 6 6 6 6 6 6 6 6 6 2 2 2 2 2 2 6 6 6 6 6 6 6 6 6 6 6 6 h h h h g g g g h h 6 6 6 6 h h 6 6 6 6 6 6 6 6 6 6 6 6 6 6 6 6 g e g g e e g g y e e e e e e e y y e e y h h h 6 6 6 6 6 6 e 6 e g g g e e e e 6 6 6 6 6 6 6 6 h 6 d d d d d d d d d d d d h d d 6 6 d d d d d d 6 6 6 6 d d d d d d d h h h h h k , , . . . . O O y y x z u u W W U n 2 2 2 2 1 1 y e y y y k $ $ . . . . C.                                      ",
"                                                                            D k $ O $ $ $ $ $ $ $ O 2 2 1 y 2 y k h :.[ -.*.:.-.| | k h A D k C A A h h h h h h l k { [ *.+.e.-.+.{ 2 2 , 3 2 2 = = , 2 $ $ $ $ $ $ , 3 h                                           y 6 o o $ $ y y x x 2 2 , 1 2 2 v v A ( h l y q x h 2 2 $ $ X . . . , 3 h h y h h h h h 6 6 d 6 6 6 6 6 6 6 6 6 6 d d d 6 6 6 6 6 6 d d d d 6 6 d d g g g d g h h h h h h h h h h h h h h g h g g g h h h h h h h h h h h h h h h h h k k k h h k k k k h h k k h h h h h h h h k k h h k k k k k k k k k k k k h h h h h h k k k h h h h h h h h y y y y y y y y y y y y y y y y h y y q 6 6 d h h h h h h h h h h h f h h h g h h h h h h h h h h h h g g h h h h h h h h h h h h h h h h h h h g d g h h g g h h h h h h h h h h h h h h h h h h f h h h h h g g g d g g d d g h h h h h g g h h h h h h h h h h h h f h h h y y y e e e y y y y e e y y h h h h f 6 6 6 g g h h g g g g h h h h d 6 6 6 6 6 d h h h h h g h h h g g g d g d d d d d g d d d d d d d d g 6 6 d d d d d d e e g g g e e g g g g e e g h h 6 6 6 6 6 6 f d f d h h h h h h f 6 6 f h h 6 6 6 6 6 6 f f d d 6 6 y y 6 6 6 6 6 6 6 6 6 6 6 6 6 6 6 6 6 6 6 f 6 6 6 6 f d d h 6 6 6 6 6 6 6 6 6 6 6 6 6 6 6 6 6 6 6 6 6 6 6 6 6 6 h h 6 6 h h 6 6 6 6 h h d d h h h h 6 6 6 6 6 6 6 d d f 6 6 h h 6 6 6 h h h 6 6 6 6 6 6 6 6 6 6 6 6 6 6 6 6 6 6 6 6 6 6 6 6 6 6 6 6 6 6 6 6 6 6 6 6 6 6 f h 6 6 6 6 6 6 6 6 6 6 6 6 h h h h d d h h f f d d h h h h d f h h 6 6 h h 6 6 6 6 h h d f 6 6 6 d 6 6 6 6 f f f f 6 6 h h 6 6 6 6 6 6 6 6 6 6 6 h 6 6 6 6 6 6 6 6 h 6 6 6 6 6 6 6 6 6 6 6 6 6 h h 6 6 d d d d d h 6 6 6 6 d d f f 6 6 h h h h h h h h h 6 6 6 d d h h 6 6 h h h h 6 6 6 6 f h h h 6 6 q q 6 6 6 6 6 6 6 6 6 6 6 6 6 6 6 6 6 6 6 6 6 6 6 6 6 6 6 6 6 6 6 6 6 6 6 2 6 6 6 6 2 6 6 6 6 6 6 6 6 6 6 6 6 6 6 6 6 6 6 6 6 6 6 6 6 6 6 6 6 6 6 6 6 6 6 6 6 6 f f 6 6 6 6 d 6 6 6 6 6 6 d 6 6 6 6 6 6 6 6 6 6 6 6 6 6 6 6 6 6 6 6 6 6 6 6 6 6 6 6 6 6 6 6 6 6 6 6 6 6 6 6 6 6 6 6 6 6 6 6 6 6 6 6 6 6 6 6 6 6 h h h h 6 6 6 6 6 h h h d d h h h h d 6 6 6 h f 6 d 6 6 6 6 q y y 6 y y y y 6 6 6 6 h h h f 6 6 g g g d 6 6 h d d d h h 6 6 6 6 6 6 6 6 6 6 6 6 6 6 6 6 d f 6 6 6 6 6 d h h h h 6 6 6 6 6 6 6 6 6 6 6 6 h h h h g g g g g g g g g e e e g 6 e e g g e e g g h h y e e e y y e 6 6 e e y y y h h 6 6 d h g g g g g g e e e e 6 6 6 6 d g h 6 h h d d d h d d d d d h h h d d 6 6 d d d d d d d 6 6 6 6 d 6 d 6 6 6 d d h h h e h 1 1 . . . . O O y y n n p i / ! U n 2 2 2 2 , = 6 2 y y y k $ $ . . . . C.                                      ",
"                                                                              2 . . O . . . . . . . $ O 6 6 l A h k Q Q Q A ) Q :.:.r.h.r.e.*.:.:.+.+.| r.e.e.6.*.*.Y [ l A | | l A 2 , , = = , . . $ O . . . . . . C h                                             e g O O $ $ y y k h 2 y , , 2 2 y y l A k l k k v j q q & - = 2 = $ $ O . . . . . . . . . . . . . . . . . . . . . . . . . . . . . . . . . . . . . . . . . . . . . . . . . . . . . . . . . . . . . . . . . . . . . . . . . . . . . . . . . . . . # . . . . . . . . . . . . . . . . . . . . . . . . . . . . . . . . . . . . . . . . . . . . . . . . . . . . . . . . . . . . . . . . . . . . . . . . . . . . . . . . . . . . . . . . . . . . . . . . . . . . . . . . . . . . . . . . . o . . . . . . . . . . . . . . . . . . . . . . . . . . . . . . . . . . . . . . . . . . . . . . . . . . . o . . . . . . . . . . . . . . . . . . . . . . . . . . . . . . . . . . . . . . . . . . . . . . . . . . . . . . . . . . . . . . . . . . . . . . . . . . . . . . . . . . . . . . . . . . . . . . . . . . . . . . . . . . . . . . . . . . . . . . . . . . . . . . . . . . . . . . . . . $ $ . . . . . . . . . . . . . . . . . . . . . . . . . . . . . . . . . + . . . . . . . . . . . . . . . . . . + . . . . . . . . . . . . . . . . . . . . . . . . . . . . . . . . . . . . . . . . . . . . . . . . . . . . . . . . . . . . . . . . . . . . . . . . . . . . . . . . . . . . . . . . . . . . . . . . . . . . . . . . . . . . . . . . . . . . . . . . . . . . . . . . . . . . . . . . . . . . . . . . . . . . . . . . . . . . . . . . . . . . . . . . . . . . . . . + + + + + + . . . . . . . . . . . . . . . . . . . . . . . . . . . . . . . . . . . . . . . . . . . . . . . . . . . . . . . . . . . . . . . . . . . . . . . . . . . . . . . . . . . . . . . . . . # . . . . . . . + + + . . . . . . . . . . o . . . . . . . . . . . . . . . . . . . . . . . . . . . . . . . . . . . . . . . . . . @ . . . . . . . . . . . . . . . . . . . . . . . . . . . . . . . . . . . . $ . . . . . . . . . . . . . . . . . . . . . . . . . . . . . . . . . . . . . . . . . . . . . . . . . . . . . . . . . . . . . . . . . . . . . . . + . . . . . . . . . . . . . . . . . . . . . . . . . . . . . . . . . . . . . . . . . . . . . . . . . . . . . . . . . . . . . . . . . . . . . . . . . . . . . . . . . . . . . . . . . . . . . . . . . . . . . . . . . . . . . . . . . . . . . . . . . . . . . . . . . . . . . . . . . . . . . . . . . . . . . . . . . . , 2 v W p j p p ..) / / 2 y , , = = 2 2 h k y h $ $ . . . . C.                                      ",
"                                                                                . . . . . . . . . . O . 6 6 h k h k Q Q Q A { ) :.:.e.r.r.r.*.:.:.+.:.| 6.-.6.-.:.:.A D l A [ { C C , , , , $ $ O . . . . . . . . . h                                               g g O O $ $ y y x x 2 y , 2 2 2 y y l v h h l l v j q q & = 1 , & = $ $ . . . . . . . . . . . . . . . . . . . . . . . . . . . . . . . . . . . . . . . . . . . . . . . . . . . . . . . . . . . . . . . . . . . . . . . . . . . . . . . . . . . . . . . . . . . . . . . . . . . . . . . . . . . . . . . . . . . . . . . . . . . . . . . . . . . . . . . . . . . . . . . . . . . . . . . . . . . . . . . . . . . . . . . . . . . . . . . . . . . . . . . . . . . . . . . . . . . . . . . . . . . . . . . . . . . . . . . . . . . . . . . . . . . . . . . . . . . . . . . . . . . . . . . . . . . . . . . . . . . . . . . . . . . . . . . . . . . . . . . . . . . . . . . . . . . . . . . . . . . . . . . . . . . . O O . . . o . . . . . . . . . . . . . . . . . . . . . . . . . . . . . . . . . . . . . . . . . . . . . . . . . . $ . . . . . . . . . . . . . . . . . . . . . . . . . . . . . . . . . . . . . . . . . . . . . . . . . . . . . @ . . . . . . . . . . . . . . . . . . . . . . . . . . . . . . . . . . . . . . . . . . . . . . . . . . . . . . . . . . . . . . . . . . . . . . . . . . . . . . . . . . . . . . . . . . . . . . . . . . . . . . . . . . . . . . . . . . . . . . . . . . . . . . . + + + + . . + + . . . . . . . . . . . . . . . . . . . . . . . . . . . . . . . . . . . . . . . . . . . . . . . . . . . . . . . . . . . . . . . . . . . . . . . . . . . . . . . . . . . . . . . . . . . . . . . . . . . . . . . . . . . . . . . . . . . . . . . . . . . . . . . . . . . . . . . . . . . . . . . . . . . . . . . . . . . . . . . . . . . . . . . . . . . . . . . . . . . . . . . . . . . . . . . . . . . . . . . . . . . . . . . . . . . . . . . . . . . . . . . . . . . . . . . . . . . . . . . . . . . . . . . . . . . . . . . . . . . . . . . . . . . . . . . . . . . . . . . . . . . . . . . . . . . . . . . . . . . . . . . . . . . . . . . . . . . . . . . . . . . . . . . . . . . . . $ + . . . . . . . . . . . . . . . . . . . . . . . . . . . . . . . . . . . . . . . . . . . . . . . . . . . . . . . . . . . . . . . . . . . . . . . . . . . . . . . . . . . . . . . . . . . . . . . . . . . . . . . . . . . . . . . . . . . . . . . . . . . . . . . . . . . . . . . . . . . . . . . . . . . . . . . . . 1 2 n W j p i u ) ) / / 2 y 1 2 = = 2 2 h h y h $ $ . . . . C.                                      ",
"                                                                                            :.[ . . O O q 6 h k 6 e l x x k A A *.:.-.-.6.e.:.+.{ { | | *.*.6.e.*.*.l l C D A Q C l , , 3 , $ O . . . O 6 6 6 6 :.-.                                                h g O O $ O y y v l q u 2 q 2 6 y y x x y y y u j u 9 2 - 1 1 = 2 2 X O O . X . . . . . . . . . . . . . . . . . . . . . . . . . . . . . . . . . . . . . . . . . . . . . . . . . . . . . . . . . . . . . o O . . o o O O O O O O . . o O O O O $ $ $ O O O $ $ O $ O O O O O o o o O O O O O o o O o O o O O O O $ $ O O O o @ . . . . . o . o o o o o o o O . . . . o o O O O O O o o o o o . . . . . . . . . . . . . . . . . . . . o o o o . . . . . o . . $ $ . . . . $ $ $ $ $ $ $ $ $ . $ $ $ $ $ $ $ $ # # # . . . $ $ . . . . o o . o o . . . . . o . . . . . . . . . . . . . . . . . o . . . . . . . O O O O O O o o O O o o O . . . . . . . o o o . $ $ . $ $ $ $ $ # # # # o o . . . . . . . . . . . . . . . . . . $ $ . . . . . $ . . . . . . . . . . . . . + . . + + $ # O O . . . . O . o o O O . . . . . . . . O . $ . . O . O O O O O O . . . O O O O . . O $ O O O O O O O O O O O O O O . . O O $ O . . . . $ $ $ . @ $ $ $ $ $ . . $ $ $ . . . . . . . $ $ $ $ . . . . . . O O o o . . . . O O O O . . . . O O O O o o . . O O . O $ $ $ $ O O O O O O O O O O $ O O . . . @ @ + @ . . + + $ $ $ $ $ $ $ $ $ $ $ $ $ $ $ $ . . $ $ $ $ $ + @ + . + $ $ $ $ $ $ $ $ $ $ $ $ O O O O . . $ $ $ $ $ $ + + + $ O $ . + + + $ $ $ $ $ $ $ $ $ $ . + . . $ $ $ $ + + $ $ $ $ $ $ $ $ $ . . . . $ . . $ $ $ . . . # o o . o o . . . . . . . . o o + + . . . . . . . . . . . . . . $ $ $ . . . . . $ $ + @ . . $ $ @ @ . . . . . + . . . + @ $ $ $ o o # # # # # # o o o o o o o o . + . . $ $ $ . $ $ + + + + . $ o # # $ # # # # . # # # o o o o # # . . . . . . . . + + @ $ @ @ . . O . . . . . O O O O O . O O $ $ . + . . $ $ $ $ @ + . @ . $ + + . . $ $ $ . $ + . + . $ $ $ O o o . . . . . . O O O . . . O o # # # # # # o + + . . $ $ $ $ . . . . . @ $ $ + $ $ $ $ + $ $ $ @ @ . . . . . $ $ $ $ $ $ $ $ + + $ $ $ $ $ $ $ $ + . . + $ O O O O O O O O . . . . . . . . . . . . . . . $ $ $ $ $ @ $ $ $ $ $ . . + . $ + . . + $ $ + . . . o # # . o o . # $ $ $ @ $ $ $ $ O O o o . o . . O o o o . . . . o o . . . . O O O o o . O O O O O o o o . O O O O O O O O O O $ O O O O O O X X X o o . . . . . o o . . . . o o . . . . . . . . . . . . . . . . . . . . . . . . . . . . . . . . . . . . . . . . . . . . . . . o 2 6 W ) b p u t R R J J 1 1 & = = = 2 2 h h y y $ $ . . . . C.                                      ",
"                                                                                            | | . . . . 6 6 y y y y l l v x Q A :.:.6.2.6.-.+.+.| { +.| { { :.*.+.+.k h C A k C k h , , 3 3 O . . O . $ 2 y h                                                       h g O O $ $ y y L L y k 9 q q 6 y y h x y y v v v k 9 < = - 1 1 1 1 X X X X $ O . . . . . . . . . . . . . . . . . . . . . . . . . . . . . . . . . . . . . . . . . . . . . . . . . . . . . . . . . . . . o o . . . . X O O O O . . . . . . . o O O O o o O O $ O O O o o o o O O O O $ $ $ O o o $ $ O O O O o o O O O O o o @ @ . . . . . . . . . . . . . . . . o o o O O O . . . . . . . . . . . . . . . . . . . . . . . . . . . . o o . . O o o O O O . o . . . . . . . . . . . $ . . $ $ . + $ $ @ $ $ $ . . . . . . . . o o o o o O . . O O @ @ @ @ @ @ o . . . . . . . . . . . $ . . . o o . o . . . . . . . . . . . . . . . . O O . . . . . . O O o o . . . . $ $ . . $ # # # o o o o . . . . . . . O . . O O O . . . . . . . . . . o . . . . . . . . . . . . . . . . . . . . . . . . . . . . . . . . . o o o . . o O O . $ O . O . O O O O O O . . . O O O O . O O $ $ O O . O O O O . o O O O . . . O O O O . . . . $ + + . . $ $ $ $ $ . . . . . . . . . . . . . . + . . . . . . . O O . . . . . . O O O . . . . . O O O O O O . . O . . . O $ $ $ O O . . . . O O O O $ O O O . . + + + + . . . . . . $ $ $ $ $ $ + @ + + $ $ + + . . . . $ $ $ @ @ @ . . $ $ + $ $ $ $ $ . $ $ $ O O $ O . . . $ . $ $ $ + + + $ $ $ + . . + . . $ $ $ $ $ $ $ $ . . . . $ $ $ $ . . . $ $ $ $ $ $ $ $ . . . $ $ . $ $ $ $ . . . o o o o o # . . . . . . . o o o + + . . . . . . . . . . . . . . $ $ $ . . . . . $ $ . . . + . + $ $ $ $ $ . . . . . . + @ $ . . . . o o o o . . o o o o o o o o . . . . . . . . $ . $ $ $ @ . . o # # # # # o . . . . . . . o o . . . . . . . . $ $ . . . @ @ @ . . O O . . . O O O O O . . O O $ $ $ . . . $ $ $ $ + + + @ @ . + . . . . @ @ . $ $ . . . + $ $ O . o . . . . . . O O O . . . O # # # # # # o o . . . . $ @ . . . . + . . + $ $ . $ $ $ + . $ $ $ + @ . . . . . $ $ + $ $ $ $ $ $ $ $ $ $ $ $ $ $ $ + . + $ $ O O O O O O O O . . O O $ O O $ . $ $ $ $ $ $ $ $ $ $ $ $ $ $ $ $ $ $ $ $ $ $ $ $ $ $ $ $ $ $ $ $ $ $ $ # # # $ $ $ $ $ $ $ $ $ $ O O o o . . . . O o o o . . o o o o . . . O O O . . . o O o . . . . . . . . . . o . . . . . . . X X X . . . . . . X X o . . . . . . . . . . . . . . O O O O O $ . . . . $ + . . . . . . . . . . . . . . . . . . . . . . . . . . . . . . . . . . 2 q W / p p t r R R J J 2 9 & = , , 6 2 h y y y O $ . . . . C.                                      ",
"                                                                                            R.R.. . . . 2 3 2 , = = 2 2 2 2 y e :.*.r.r.6.-.+.+.[ [ | | D [ +.:.Q Q y y k l 6 h 6 6 = = , 3 . . . . . .                                                             h h O O $ $ k k ( ( j j 9 q 2 2 2 2 y y r u 9 u u u u u j j J J 9 9 2 q = = $ O X X O X . . O O X . X X O O . . X X X O O o $ O O $ $ $ $ $ $ $ $ $ $ $ $ $ $ $ $ & $ $ $ $ & & & & & & = = = = = * $ $ $ $ = = = = = = = = , , , , , = = , = = = = = = = = - = = = = = = = & & & & = = = & & & & = = = & & & & & = = & & & & $ $ $ $ $ $ $ O $ $ $ & & & & $ $ $ $ $ $ $ $ $ $ $ $ $ $ $ $ * * * * * = = = = = = = = = = = = = = = = & $ $ = = = = = = = = = = & = , = = $ , * , , $ $ = $ $ $ & & & & , , & & = = = = = $ $ $ $ $ $ $ $ $ $ $ $ $ % $ % $ $ $ $ $ $ $ $ $ $ $ $ $ $ $ $ $ $ $ $ $ $ $ $ $ $ $ $ $ = = = = = = & & = = & & = $ $ $ $ & & $ $ $ $ $ = = $ $ * * * $ $ $ * * $ , , , = = = = $ = = = = * * * = , , , = = = , $ $ $ $ = = $ $ = = = $ $ $ $ = $ $ = = = $ $ $ $ $ & $ & $ $ $ $ $ $ $ $ $ & & $ $ , $ $ = $ $ $ $ $ $ $ $ $ $ $ $ $ $ $ $ $ $ $ $ $ $ $ $ $ $ $ $ $ $ $ $ O O $ $ $ $ $ $ $ $ $ $ $ $ $ $ $ $ $ $ $ $ $ $ $ $ $ $ $ $ $ $ $ $ $ $ $ $ $ $ $ $ $ $ $ $ $ $ $ $ $ $ $ $ $ $ $ $ $ $ $ $ $ $ $ $ $ $ $ $ $ $ $ $ $ $ $ $ $ $ $ $ = = = = $ $ $ $ $ $ $ $ $ $ $ $ $ $ $ $ $ $ : : $ $ $ $ $ $ $ $ $ $ $ $ $ $ $ $ $ $ $ $ $ $ $ $ $ $ $ $ $ $ $ $ $ $ $ $ $ $ $ $ $ $ $ = $ $ $ $ $ $ $ $ $ $ $ $ $ $ $ $ $ $ $ $ $ $ $ $ $ $ $ $ $ $ $ $ $ $ $ $ $ $ $ $ $ $ $ $ $ $ : : $ $ $ $ $ $ $ $ $ $ $ $ $ * * * > > > > $ $ $ $ $ $ $ $ = = = = = = = $ $ $ $ $ $ $ $ $ $ $ $ $ $ $ $ $ $ $ $ $ $ $ $ $ $ $ $ $ $ $ $ $ $ $ $ $ $ $ $ $ $ $ * * $ $ $ $ $ $ $ $ $ $ $ $ $ $ $ $ $ $ $ $ $ * * * $ $ $ $ $ $ $ $ $ $ $ $ $ $ $ * $ $ $ $ $ $ $ $ $ $ $ $ $ $ $ $ $ $ $ $ $ $ $ $ $ $ $ $ $ $ $ $ $ $ $ $ $ $ $ $ : $ $ $ $ $ $ $ $ $ $ $ $ $ $ $ $ $ : : $ $ $ $ $ $ $ $ $ $ $ $ $ $ $ $ $ $ $ $ $ $ $ $ $ $ $ $ $ $ $ $ $ $ $ $ $ : , , $ , , , : $ $ , : : $ $ $ $ $ $ , : $ $ $ $ $ $ $ $ $ $ $ $ $ $ $ $ $ $ $ $ , = $ $ $ $ $ $ $ $ $ $ $ $ $ $ $ $ $ $ $ $ $ $ $ $ $ $ $ $ $ $ $ $ $ $ $ $ $ $ $ $ $ $ $ $ $ $ $ : > > > $ * $ > > $ $ $ $ $ $ $ $ $ $ $ $ $ $ $ $ $ $ $ $ $ $ $ $ $ $ $ $ $ $ $ $ & & = = = & & $ $ $ $ $ $ $ $ $ $ $ $ $ $ $ $ $ & % % % % $ $ $ % $ $ & $ $ $ $ $ $ $ $ $ $ $ $ $ $ $ $ $ $ $ $ O O $ $ $ $ = = $ = = = $ $ $ $ $ $ $ & = = $ $ $ $ $ $ $ $ $ $ . O $ $ $ , 1 2 2 2 v J u u r r J J j J u u < < 1 1 q 2 h y y y O O . . . . C.                                      ",
"                                                                                            R.Y.. . . . 2 3 3 , , = 2 2 2 2 y 6 | :.r.e.6.*.| +.[ [ { +.C Q | :.A A h h k l 2 6 2 2 , , 3 3 . . . . . .                                                             h h O O $ $ u k ` ` j J 9 9 9 2 r 2 u i u u u u u u j u J j L T u 9 2 2 = , O O O O O O O O O X X . X X X X O O O O O O O O o o O $ $ $ $ O $ $ $ $ $ $ $ $ & & & $ $ $ $ $ & & & $ $ $ = = = * = = = = = & = = = = = = = & = = = = = = = = = = = = = = = = = = = = = = - < & & & & = = = & & & & & = = & & & & = = = = = = $ $ $ $ $ $ $ $ $ $ $ $ $ $ O O & & & & & & $ $ $ $ $ $ $ $ $ $ = $ $ $ $ $ $ $ $ $ * = = = = = = * = = = = $ $ = - = = = = = = $ $ $ $ $ $ $ $ , * = = $ $ = $ = = = = $ $ $ & & & & & = = = = * * * $ $ $ $ $ $ $ % % % % % % O $ $ $ $ $ $ $ $ $ $ $ $ $ $ $ * $ $ $ $ $ $ $ * $ $ $ $ $ $ & , & & $ & & & $ = $ $ $ $ $ $ $ $ $ $ $ $ $ $ $ * * $ $ $ $ * * $ $ $ , = $ $ $ = = = = = = = = = * $ $ $ $ $ $ $ = , , , = * $ = = $ $ $ $ $ = = = , = $ $ $ $ $ & & = & $ $ $ $ & $ $ $ $ & & O $ = = = = $ $ $ $ $ $ $ $ $ $ $ $ $ $ $ $ $ $ $ $ = = $ $ $ $ $ $ $ $ $ $ O O $ $ $ $ $ $ $ $ $ $ $ $ $ $ $ $ $ $ $ $ $ $ $ $ $ $ $ $ $ $ $ $ $ $ $ $ $ $ $ $ $ $ $ $ $ $ $ $ $ $ $ $ $ $ $ $ $ $ $ $ $ $ $ $ $ $ $ $ $ $ $ $ $ $ $ $ $ $ $ $ $ $ $ $ $ $ $ $ $ $ $ $ $ $ $ $ $ $ $ $ $ $ $ $ $ $ $ $ $ $ $ $ $ $ $ $ $ $ $ $ $ $ $ $ $ $ $ $ $ $ $ $ $ $ $ $ $ $ $ $ $ $ $ O $ $ $ $ $ $ $ $ $ $ $ $ $ $ $ $ $ $ $ $ $ $ $ $ $ $ $ $ $ $ $ $ $ $ $ $ $ $ $ $ $ $ $ $ $ $ $ $ $ $ $ $ $ $ $ $ $ $ $ $ $ $ $ $ $ $ $ $ * $ $ $ $ $ $ $ $ $ $ $ $ $ $ = $ $ $ $ $ $ $ $ $ $ $ $ $ $ $ $ $ $ $ $ $ $ $ $ $ $ $ $ $ $ $ $ $ $ $ $ $ $ $ $ $ $ $ $ $ $ $ * $ $ $ $ $ $ $ $ $ $ $ : $ $ $ $ $ $ $ $ $ $ $ > > > $ $ $ $ $ * $ $ $ $ $ $ $ > $ $ $ $ $ $ $ $ $ $ $ $ $ $ $ $ $ $ $ $ $ $ $ $ $ $ $ $ $ $ $ $ $ $ $ $ $ $ $ $ $ $ $ $ $ $ $ $ $ $ $ $ , $ $ $ $ $ $ , $ $ $ $ $ $ $ $ $ $ $ $ $ $ $ $ $ $ $ $ * $ $ $ $ $ $ $ $ $ $ $ , $ $ $ : : , , $ , , , $ $ $ : : , > $ $ $ $ $ , , : $ $ $ $ $ $ $ $ $ $ $ $ $ $ $ $ $ $ $ $ $ $ $ $ $ $ * $ $ $ $ $ $ $ $ $ $ $ $ $ $ $ $ $ $ $ $ $ $ $ $ $ $ $ $ = , : : $ $ $ $ $ & , , , , > * $ $ > > > $ , : $ $ $ $ $ $ = = $ $ $ $ $ $ * * * * * * * * $ $ $ $ = , & $ $ & & & & & & & & $ $ $ $ $ $ $ $ $ $ $ $ $ $ $ & % % % % % % % $ % $ $ $ $ $ $ $ $ $ $ $ $ $ $ $ $ $ $ $ $ $ $ $ $ $ $ $ $ $ $ $ $ $ $ $ $ $ $ $ $ $ $ $ $ $ $ $ $ $ $ $ $ $ $ O $ $ $ = , 2 2 6 2 j j u u t t J L j L j j = - 1 1 q q h h y y o O . . . . C.                                      ",
"                                                                                            l.C.. . . . 6 2 2 3 1 1 6 2 y 6 y y [ { -.-.*.:.{ { e.-.-.*.k l A C n v n A l A 6 6 2 2 , , 3 2 . . . . . .                                                             h h O o $ $ u k T ` j J 0 9 9 2 y y x x u u u u 9 u j j ` L ` ..L j 2 1 = 2 6 y y h k h x x v b x x j j x x k y y y h h y y j J ( ..` ( ( ( ................( L L J v v v v L L L v v v L Q A A W Q { { { { ....` ......( L J v J J J J J v ( ( ( ( ( ` ` ( T T T ( ` ` ....<.<.+.+.1.1.1.<.................` ` ............| | O.O.O.O.O.| O.{ [ A l k h h h h h h h y q 6 L L Q Q Q Q L L A A v l x x x x h v U Q Q W A A v v U ! ) ) W L u k k u y y y y A A v l l l l A h k h l { +.*.*.......( L L L L ( ( L L L ( ..{ *.*.*.+.+.....{ j k j j j j v J A A Q { ....{ { { { { ....{ { ( { } ( ( ( { { { { ( Q n l l l l j j N v L ..+.1...O.O.O...O...[ D D Q [ [ [ [ [ | X.X.X.X.X.X.X.| | | | +.| [ D l l x k h h x x A A A v l l l l +.*.2.2.*.+.+.+.+...{ Q Q Q ( { { { { Q Q A A A ( ( ` ` ( L v v v v j k k j k k D Q :.*.:.:.| +.+.+.+.:.:.:.*.*.:.:.+.+.:.:.:.+.:.*.*.*.:.+.+.+.+.+.+.+.+.+.| | | +.X.+.:.:.| | | | | | | | [ [ [ | | [ [ [ [ | | | [ | | :.| | [ | | | | | | | | { | | | | | | { { { { { { | | | | | | | { { { +.| | | | | | | | | | | | | | | | | | | | | | | | | | | | :.:.:.@.| | | | | | @.@.@.:.:.:.#.| | :.| | | :.:.| | | | | | | [ [ [ @.| | | | | :.:.:.X.{ { X.X.{ { { [ [ [ [ { { { [ [ [ | | | | | | | @.@.@.| | | :.| | | | :.:.:.@.| @.@.| | | | | | :.:.:.| | [ [ [ [ [ [ [ | |  . . . .| | |  . .| | | |  . . .| | | | | | | | [ { { X.{ { ( Q [ [ [ | | | [ [ | | | @.:.:.:.#.@.@.| | | :.:.:.| | | | | | | | $.$.$.$.X.X.X.X.X.X.X.X.X.X.X.X.:.:.:.:.:.:.:.:.:.:.:.:.:.:.:.:.:.:.:.%.%.%.%.:.$.$.*.:.:.$.:.:.:.:.:.:.:.:.:.:.:.:.:.:.:.:.:.:.:.:.+.:.+.+.+.+.:.+.:.+.+.+.+.+.:.:.:.:.:.:.:.:.@.@.:.:.:.:.:.:.:.:.:.:.:.:.:.@.:.:.:.:.:.:.:.:.:.:.:.:.+.+.+.+.+.| { | | | | { | $.$.:.%.*.:.:.:.:.:.%.:.:.%.%.:.:.| | :.:.:.:.:.:.:.:.:.:.:.:.:.:.:.:.:.:.:.@.:.-.-.-.-.:.:.:.:.:.:.:.:.:.:.:.:.-.-.-.:.| | { X.X.+.+.+.*.*.*.6.6.e.r.e.r.r.r.e.e.e.e.e.e.h.h.e.e.e.e.e.e.e.e.e.r.h.h.h.h.h.h.e.e.u.h.u.h.h.j.u.e.q.e.e.e.q.-.:.:.:.:.:.:.:.:.-.-.*.:.:.:.*.*.*.*.-.-.4.*.$.*.-.*.:.*.-.-.-.*.L L L L L L L ( [ [ Q Q Q Q Q Q [ [ Q Q L L L L L L L L L T ( ( ` ` ` ` ....` T / W W T J n v j k u k x l l h h l x k h y y y y x l v A n n v l A A A A n v v v l l l v v v l l A l h y 6 2 2 1 y q j j u u p p ` <.R ` L J < < , < q q j k y y o O . . . . C.                                      ",
"                                                                                            x.x.. . . . 6 2 2 , , = 2 2 e 6 y e Q [ :.:.:.:.{ { e.-.*.*.k C D D l x U Q v A 6 6 2 3 , , 3 2 . . . . . .                                                             k h o . $ $ u u L ( j J 9 9 2 9 u u j b u t t u q q H j ` L ..` T L 2 < 1 = 2 6 y k l l v v j b j x j j j x v k u y j y y q k A ( ....( ( ( ......+.+...........( J v j j j ( L L v k v L ( A A Q ) { { { { ........+...( L j j v J J J v j ( ( ( ( ` ` ` ` L L T T ` ` ....+.+.+.+.1.1.1.+...............` ` ..............{ { O.O.+.+.O.O.:.O.[ A k y h h N N N k h y q 6 L L L Q Q L L A A A l x k h h h y k U ( ( Q A l v n U ( ) ) L J j j j k y y y y A A v k h h l A l l h l ..*.+.+.+.O...( L v v v ..( L L L ( ..+.*.*.*.*.+...{ { j k j y j j J L k l Q { +.+.{ { { { +.+...{ Q Q { Q U U ( { { { { ( U v l k k k N k j j J ( O.+.O...O.O...O.[ L D D Q [ [ { { { } { X.+.X.X.| | { { | | +.| Q C l l x k h h k l A A v l k h h h +.*.7.2.1.+.:.2.+...( L L Q ( Q +...{ Q L A Z A ........( L v j J J v j k j j k Z D :.*.*.*.+.+.+.+.:.:.:.*.*.*.:.:.+.+.:.:.:.+.:.*.-.*.:.:.:.:.+.+.+.+.+.+.+.+.+.+.+.:.:.| | | | { | | | | | [ [ [ [ [ [ [ [ [ [ [ [ [ | :.:.| [ | | | | | | [ { { { | | | { { [ [ [ { { { { | | | | { { { [ [ +.| | | | | | { { { | | | | { { | { { { { | | { | | | | | :.:.:.| | | | | | | | @.@.:.:.:.@.#.| :.@.| | :.:.| | | | | [ [ [ [ [ @.| | | | | :.+.+.{ { { { X.{ ( | [ L D Q [ [ [ D D [ | | | | | | | | | @.X.| | | | | | | :.:.:.:.| | | | | | | | | | :.:.| [ D [ [ [ [ [ [ [ | [ [ [  . . . .}  .| | | |  . .[ | | | | | | | | [ { { X.{ { Q Q [ Q [ [ [ [  .[ | { | +.:.:.:.:.| | | | | | @.#.| | | | @.@.| | $.$.$.$.$.$.$.$.X.X.X.+.+.+.+.:.:.:.:.:.:.:.-.-.:.:.:.:.:.:.:.:.:.:.:.:.%.%.%.:.%.%.%.%.*.*.*.:.%.%.%.%.%.%.%.%.:.:.:.%.:.:.:.:.*.:.+.+.+.+.+.| :.:.:.+.+.+.+.+.:.:.:.:.:.:.:.:.:.:.:.:.:.:.:.:.:.:.:.:.:.:.:.:.:.:.:.:.:.:.:.:.:.:.:.:.:.+.+.| | | { | +.+.| [  .| $.*.%.%.%.%.:.%.%.-.-.-.-.-.:.:.| | :.:.:.| :.:.:.:.:.:.:.@.:.-.-.-.-.:.:.:.:.-.e.e.-.%.:.:.| | :.%.:.:.:.@.:.:.-.-.:.| [ [ { X...+.+.*.3.6.6.6.6.e.r.r.h.h.e.e.e.e.e.h.h.h.e.e.e.e.e.e.e.e.e.r.h.h.h.h.h.h.e.u.u.h.h.h.h.h.h.r.e.e.e.e.-.*.:.:.:.| :.:.:.:.6.2.-.*.*.*.*.-.-.3.6.6.3.-.*.*.6.2.*.*.-.2.2.-.L L J Z Z J L ..[ [ [ Q Q Q Q Q { Q [ ( L L L L J L P P P R ` ` ` T T R ` ` ` T ` / T W L n j j u u j j v j k y l x k h y y y y h x l A A A A l A U A n n v v v x x l v v v v v n l h y e 6 2 2 y u v j t u p p ` ,.` ` J J < 1 & , q q j j y y O $ . . . . V.                                      ",
"                                                                                              H.. . . . , , , , = , 6 6 y y 2 6 6 y 6 2 3 , 2 2 +.+.+.| 3 3 $ = = = y y y y e e h h 3 , , , . . . . $ $                                                             k k O o % $ u u L P t u 8 7 9 q H p a H w u u u w u H J ' ,...` J v 2 2 < 9 y k L ` T ( ....` ` ` ` ' ` R L ` ( L J j u u k Q { O.+.+.+.+.:.+.*.2.2.2.1.1.2.5.5.T ( j j H H L J J j u u k j v D +.*.:.*.+.*.1.+.1.2.2.2...` J L j j j k L ` ..............+.J R J J ` L 0.9.9.9.5.5.1.5.5.5.5.1.1.<.....<.+.......+...+.2.2.2.*.*.*.2.6.2.*.2.r.*.2.A L h j L H H j q u k j ....( L L ( Q Q Q n { ( { { y y y y A v L L ..+.` ` L L ` ..( ( v j q w q y j j A A v v v l k h h y y 6 +.+.*.*.+.6.2.2...L k k L L J J J L +.*.8.*.*.*.1.1.1...u y u u j H J J j j ( ( ) ( ....+...) ) ) ) { { ( ) X...............n J y y u k y w q q ( L 2.2.2.+.....+.+...` l A D D [ Q *.*.:.X.| X.X.$.X.X.X.} X.X.+.+.Q Q h h h k j l j k v J J j y w y j 1.1.7.7.1.1.2.7.7.2.....` ..........( L A L Q { ( Q ........v H j j j j H j w q D A 6.6.*.-.r.e.e.e.6.6.-.-.6.6.-.*.*.*.-.-.*.*.*.-.-.-.-.-.*.:.-.*.*.*.-.-.*.:.:.:.*.*.*.:.:.:.*.*.:.+.*.*.+.| Q { Q [ [ [ :.:.+.+.+.+.+.+.:.:.:.:.:.+.+.+.+.| :.:.:.| :.:.:.:.| | | | | | :.:.+.X.| | | | | | | | +.O.O.| | | :.:.| | | | | | :.:.:.:.:.$.$.$.+.+.+.+.+.+.:.+.+.+.:.:.:.:.+.+.:.:.-.-.-.-.-.-.-.;.e.e.e.;.-.e.6.6.:.+.{ Q | | *.*.*.*.*.*.*.:.2.*.:.:.:.:.*.*.-.:.O.{ [ Q L D [ [ | :.| :.%.*.%.*.%.%.%.%.%.%.%.%.%.%.-.-.%.-.*.*.%.%.%.%.%.%.6.6.*.:.*.*.| | [ [ [ [ { | | { X.X.X.X.$.$.$.$.:.:.*.:.X.| X.X.X.+.:.:.:.:.:.*.*.+.| { [ [ [ Q [ { { X.| { [ Q { X.:.+.:.+.:.:.-.-.:.:.:.%.-.-.:.-.%.%.:.:.:.-.:.*.*.%.%.%.%.:.:.:.:.:.:.:.:.:.:.:.:.-.-.-.-.-.-.-.-.-.-.-.-.-.*.*.*.-.-.-.-.*.-.-.-.-.-.*.*.:.*.*.*.*.*.-.-.-.*.*.-.*.:.:.:.*.*.*.*.*.:.*.*.-.:.:.:.*.*.*.:.+.:.:.:.:.:.:.*.*.:.:.:.:.:.:.:.:.*.*.*.*.*.*.*.*.:.:.:.*.-.-.-.-.*.*.*.*.*.*.-.-.6.*.+.| | | { { $.:.-.q.e.e.u.u.r.r.e.u.u.r.e.q.-.e.:.-.-.:.-.%.-.-.-.-.-.-.-.-.2.2.6.6.6.6.-.-.6.-.-.-.-.-.:.| O.:.-.-.-.*.*.-.-.e.3.6.+.X.[ [ X.+.*.*.*.*.+.3.6.3.z.z.m.m.m.z.C.m.z.z.z.x.z.l.z.l.l.l.s.s.s.s.l.l.l.l.l.l.l.z.s.l.l.z.z.z.z.x.x.z.s.h.s.s.h.r.:.*.| | +.+.e.r.6.6.*.6.6.6.s.s.z.s.s.p.p.s.s.s.s.s.r.7.7.7.r.i...( l A Q { +.+.O.{ { { ........( T L L ( T ( P J K R ` >.>.>.>.<.,.' ' ' ` ` ` ` ` ....` R H j j k j v j j H j L Z l h y q q 2 y y L L J J J L Q L A D L L A Z l l C Z D L D A W / i n y k < < 2 9 u u q q t u ` ,.` ` H p w w q w q j N N j h $ $ . O . . C.                                      ",
"                                                                                              F.. . . . , , , $ , , 6 6 y y 6 6 6 y 6 2 3 , 2 6 { { | { 2 2 = = , = y y y y e y y 6 , , , , . . . . $ $                                                             k h o O & % u u P P w u 7 ; q 9 p p a H w w a H u a J K ,.<.` ` J j 9 q 2 q u k L ` ` ` <...` ` ` ` ' ` R L ` ( L J j j j j L { +.+.+.+.+.+.+.+.*.*.1.+.+.1.1.2.L L H H J L L L J H u u x v A Q +.+.+.*...1.+...2.2.2.2...` J J j j j j L ` ................T R J J ` R 9.9.9.9.5.2.1.1.1.1.1.1.<.<.............+.+.O.+.2.-.2.2.*.2.2.2.*.*.*.6.+.*.A A h j L L L H w w j k ..` L L L L W L L v { { { { y y y h v v L L ..+.` ` T T ....( ` j k q q q q j j A A n n A A l N h h h y +...*.*.+.*.2.2...L H j L P J J L L *.8.8.*.+.+.+.1.+...j u u u j H J j J v ( ( ) ( +...+...{ ) ) ) ) { ( ) X.....X.........J J y u k j u y q q ( L 2.1.2.+...........( A L L A [ D +.+.:.X.X.X.X.X.X.X.} ( X.X.X.X.U A y h k j j j j j v J J j h q y u +.<.2.9.2.2.9.2.2.1.<...( ( ........( L A A Q [ [ Q ........H j j H H H H j w q A C 6.e.-.-.e.6.6.6.6.6.2.-.-.-.-.*.*.*.-.-.*.*.-.-.-.-.-.*.:.:.*.*.*.*.*.*.*.:.*.-.-.-.-.-.-.*.+.+.+.+.+.+.+.| { { D Q [ [ :.:.+.+.+.+.+.+.+.+.+.+.+.+.X.X.+.+.#.@.| | :.:.:.:.:.:.| | | | :.:.X.X.| | | | | | { | O.O.O.| | O.| | | | :.:.:.:.:.@.:.:.:.:.:.:.+.+.+.+.+.+.+.+.+.+.+.:.+.+.+.+.%.-.-.-.-.-.-.-.-.e.e.e.e.e.e.e.*.-.:.:.{ [ | | *.*.*.*.-.-.-.-.*.*.:.:.:.:.:.*.*.+.| [ [ Q Q L D [ | :.:.:.%.*.%.%.-.-.%.%.4.%.%.%.*.*.*.%.%.-.-.-.-.-.%.-.-.3.6.6.-.*.-.*.| | Q Q Q { | | | { | | | X.X.$.$.X.$.:.:.:.X.| | X.X.+.:.:.+.+.:.:.+.| | [ [ [ [ Q Q } { { { { ( Q ( { +.+.+.+.+.*.:.:.:.:.:.:.:.%.:.:.:.:.:.:.:.-.*.*.*.*.%.%.%.%.:.:.:.:.:.:.:.:.%.%.%.-.-.-.-.-.-.-.-.-.-.-.-.-.*.*.*.*.-.-.-.-.-.6.6.6.6.-.-.-.-.-.-.-.-.-.-.-.*.-.-.-.*.*.*.-.-.-.-.-.-.-.-.6.*.*.*.-.-.*.*.:.*.*.:.*.*.*.*.*.*.*.*.*.*.:.:.:.+.+.*.*.*.*.*.:.-.-.-.-.-.-.-.-.*.*.-.-.-.*.*.-.-.:.| { { { { } $.*.3.r.r.u.u.u.u.u.u.u.u.u.r.r.e.e.:.:.:.:.-.-.e.e.e.e.;.;.;.;.-.-.6.6.6.-.-.-.2.6.6.6.6.-.:.| O.:.*.*.*.*.-.-.*.6.3.6.X.| Y Y X.+.*.*.*.*.+.+.6.6.z.z.m.b.m.b.x.z.z.l.l.l.l.z.z.l.l.l.s.s.i.i.s.l.l.l.l.l.l.l.l.l.z.z.x.x.x.x.x.z.l.s.s.s.s.h.*.*.{ | +.:.6.6.2.6.+.*.2.6.f.f.z.s.s.r.i.s.s.s.s.i.i.r.7.7.7.9...{ v A Q { +.+.+.| { { ..........` T L P ` ` R K K ` >.>.>.>.,.,.>.` ` ` ` ` ` ' ` ..' ` R j p j j H J H H H H L C N h y q q 2 y y L L J L L L L Q L Q Q Q D Z l C Z Z D L D A J T y b y k < 2 < q w w q q 0 u ` ,.` ` H H w w 2 q q j N N j h $ $ . O . . A.                                      ",
"                                                                                              x.. . . . O O , 3 , , 2 2 2 2 , , , , = = $ $ 3 2 Q D D A , , $ $ = = 2 1 , 1 2 6 y h 3 3 3 , . . . . . .                                                             k h o o & & u u R R u u 8 8 8 9 q 0 w u 0 w w w 9 0 0 0 p p j j u w 2 2 2 9 q w u j j J J J u u u p p p u t p u y w 9 9 w q k l L Q Q A n A v L L L L L L L L L u u w w u H J H j w 9 9 q u k k L L L L J L L J ` ( ` ` H j w w 8 8 9 9 j j J J J J v v v J u u 9 u j J ..` ` ` ` ` T L L T R K L L L L v j j v L ( Q ( +.+...O...........( ..+.( ..v v j j J H J H w w w u k u u y y y u y l k ( Q L A 6 6 1 1 q 9 y j L ( v L J L L L J J j u q 9 q q k k n v x v n v v l q q q 2 n n W ( W ( ( ` J j u w j j w u u j ( ..*.+...' ......` u t q q t u t u w q k u j v ` ` { { ) Q W W Q ( X...+.+.*.*.....2.*.n x 2 2 2 2 q 2 2 2 L L 2.+.+.+.........L L h h k l [ { e.e.-.*.*.-.4.*.$.X.X.X.*.*.*.*.( Q y y h h k k k j j j k y q q q q L L ..+...+.1...<.<...P J J L ..( ( L A v Z A Q Q L ` ` ..` H j w j j j w 0 0 q Z C 6.e.6.6.e.6.-.-.6.e.e.6.2.-.-.-.-.-.-.-.-.6.6.e.6.6.3.-.-.*.-.-.-.6.6.6.-.-.:.:.*.*.*.*.*.*.3.6.6.6.6.6.6.6.D D l C D [ :.:.:.:.:.+.X.+.+.X.X.X.+.+.+.+.+.:.:.:.@.| :.:.:.:.:.:.:.:.:.:.:.:.+.+.:.:.:.:.+.+.+.+.+.+.:.:.:.:.:.:.%.%.:.:.-.-.-.%.%.%.-.-.-.-.*.*.*.*.:.:.:.:.*.*.*.*.*.:.:.:.:.:.:.-.-.-.-.-.:.-.-.-.%.%.-.;.6.-.{ D C C [ { +.+.+.+.:.:.:.:.:.:.:.:.+.+.:.-.*.:.| [ Q L D Z C D | :.:.-.e.q.%.%.%.%.%.%.%.%.q.3.-.-.-.q.q.q.%.-.%.%.%.%.-.-.-.2.*.*.-.:.{ [ Q D Q [ | +.| [ { | | X.$.$.$.$.$.:.:.:.X.X.X.X.X.+.:.:.X.X.:.*.:.+.{ [ Q D A A [ Q [ [ [ [ [ Q [ { | +.+.:.*.-.-.-.-.-.-.-.-.-.:.-.-.-.-.-.-.-.3.-.-.-.-.-.q.q.-.-.-.-.-.-.%.%.%.-.%.:.-.-.-.-.-.-.-.-.-.-.-.-.-.6.3.3.2.2.6.6.-.-.-.-.-.-.-.-.*.*.*.*.*.*.*.*.:.*.*.-.*.*.*.-.*.*.*.*.:.:.*.-.*.*.*.*.*.*.:.:.:.:.:.*.-.*.:.:.*.*.*.*.*.*.:.:.3.3.3.3.-.-.-.-.*.*.*.*.%.%.%.:.:.*.*.*.*.:.:.:.-.*.+.| { [ Q D  .X.%.q.e.e.e.e.e.e.e.e.q.q.q.3.e.e.:.:.:.#.-.-.e.e.e.;.-.-.-.-.6.e.e.e.e.6.6.-.-.-.6.6.6.-.:.| O.+.*.*.*.-.6.6.6.r.e.e.| } n A { X.*.*.+.+.Q ( { +.z.m.C.m.b.f.z.m.m.m.z.z.x.m.x.z.z.z.z.l.s.s.l.z.z.z.z.z.z.z.s.l.l.z.z.z.z.x.l.s.s.s.h.h.h.h.*.:.[ { +.:.3.*.2.2...+.2.7.f.z.v.f.f.s.s.s.s.f.r.i.s.s.s.i.7.7...) A L Q { +.+.*.+.+.+.+.+.....` L v j j j p p u a H J K K P P P P P L L T T T ` T ` T T J u t q 9 w w w w u u k y w q 2 2 < 1 y y L L J L J J L L Q Q ( Q L A l l l v v Z A A W / x b u u < 2 2 q w u t w t t a a u p 0 q 8 < q w j k k k y y $ $ O O . . S.                                      ",
"                                                                                              x.. . . . O O , , , , 2 2 6 6 3 3 , , = = = = 3 2 C l C l , , $ $ = = 1 , = = 2 6 6 y , , , = . . . . . O                                                             k h . . & & u u R R u u 8 9 9 9 9 q 0 u w w H H t u w q u t u u q 9 9 9 9 9 y y k j j j J j u u u u u u t t u u y u u y y u l l A A A v l l v v J L J J J J j j k k u j H H H H u w 9 9 9 q v j L J L P L L L J P P P P H H u w 9 0 w w j u J J J J v v j j u u w u H J ` R L T R T L J J J J J L L L L j j v v L ( Q { +.+.......+.+...........L ( v J k j J J L J j u u u u u y y y y u u k l Q Q L v y q 2 < q 9 u k L ( J L L L T L J J u u 2 2 q q y y v v n n A A n v y y y y n l A L L W L L J H j j H j w y k v ) { ....' ) ` ` ` ` p t q q t t t q y q u u j J ....) ) ) Q W W Q ) X...+.+.........+...x x 6 2 y y q q 2 q L L +.+.......O...( L J l N N l [ [ -.-.*.*.*.*.*.$.X.} X.} +.X.+.+.Q Q h h k N j j j v v j k j y y q q L L ..+.....1.1.<.<...P L L L ` ( ( Q A Z A L L Q L ( ..` ( H j j j j j j w w q L D 6.6.e.6.e.6.-.6.6.e.e.e.2.2.-.3.3.-.-.-.6.e.e.e.e.6.6.3.3.3.2.2.6.6.6.6.6.-.-.-.-.6.6.6.-.-.*.*.*.*.*.*.-.-.A A h l D [ | | +.+.X.| | | | | | | | | | | X.X.| | | | | | | | :.:.:.#.:.| @.@.X.X.+.+.:.:.+.+.| +.+.+.+.+.:.:.:.:.:.:.:.:.:.:.:.:.:.:.-.-.-.-.:.:.:.:.:.:.:.:.:.:.:.:.:.+.+.+.-.-.-.-.-.-.-.-.-.-.-.-.-.-.e.e.6.*.Q A N l Q [ :.:.:.*.*.*.*.-.O.+.:.+.O.O.:.:.:.+.{ [ Q L D Z C D [ :.:.-.e.q.q.q.q.q.q.q.q.q.q.q.q.q.q.q.q.e.q.q.q.-.-.q.e.e.6.e.6.-.6.*.| | Q D D Q { | { [ { } | | | X.X.| X.$.$.$.X.| } } X.X.X.X.X.X.X.X.| { [ Q D A C C Q D Q Q Q [ Q Q [ [ { | | +.*.-.-.-.-.-.-.-.-.-.%.-.-.-.-.-.-.-.q.q.3.3.q.q.q.q.3.q.q.3.q.3.3.3.q.;.;.-.e.e.e.e.q.q.q.q.e.e.e.;.6.6.3.6.6.2.6.2.6.6.6.e.6.e.e.e.-.-.-.-.-.-.-.-.-.-.6.6.6.6.6.6.-.-.-.-.-.-.6.6.2.6.-.6.6.-.-.*.-.-.-.-.-.-.-.-.6.6.6.6.6.6.6.2.6.6.6.3.-.-.-.-.-.-.-.-.-.-.-.-.*.-.6.6.6.-.-.-.*.:.+.| { Q D A $.*.3.e.r.r.e.e.u.u.u.u.r.e.q.q.e.;.@.| | | %.-.e.e.e.e.e.e.e.u.e.e.r.r.r.e.6.-.6.6.e.e.e.6.-.:.+.+.:.:.:.*.-.6.-.e.6.6.{ [ n n { { *.+.+.{ U U { +.b.m.C.m.b.z.l.z.m.v.z.l.z.v.z.z.z.z.x.z.l.s.l.l.z.z.z.z.z.l.l.l.z.z.z.z.x.x.l.z.z.z.s.s.s.s.:.+.Q { +.+.*.+.*.*...+.2.7.f.f.v.c.f.f.f.f.s.s.7.i.s.s.s.i.7.7.....Q Q { { +.+.+.+.+.........` ..` J j j j p p a H H K K P P P K K L L L L L L T T ` T T J u t 9 9 w w w w u u u y q q q 2 2 2 k k T ( L L J J L Q Q { { ( Q A v A A A A A L W n T y i y y 2 2 q q w w t w t q a a u u u u w 9 q u j k k j y q & $ O O . . S.                                      ",
"                                                                                                L.F.O . O O = = O O = = , 3 , 3 6 2 , , , = , = 6 6 h 6 , , $ , = = = , = = 2 2 3 2 . $ $ $ $ $ . . $ $                                                             k h . . $ & y u R R w w - - ; 2 9 9 8 8 0 u 9 q 8 9 9 8 q 9 u q 9 2 9 2 9 9 2 2 9 9 2 2 9 9 2 2 2 2 2 2 2 2 2 2 2 2 2 2 2 2 1 2 2 2 2 1 2 2 2 2 2 2 2 2 2 2 2 2 9 9 q q 8 8 w 0 q q q w u u 0 9 w w w w 0 w w w w w w w 9 9 0 0 < 8 8 8 9 8 q w 9 9 q q q q u u q u u u t t q u t u q q q q 0 0 q t w q 9 9 w w u u y y k y q 9 q q q q 9 2 u u 9 q 9 q 9 9 9 9 9 9 9 8 8 - 2 < < 2 2 2 2 2 1 2 y y 9 2 ; ; 1 - 1 = 2 1 9 q 2 9 9 9 9 9 < < 9 9 < < 2 < q 2 2 9 q u u q 9 9 9 9 9 2 9 2 q u q 9 q 9 q 9 9 9 9 9 < < 2 9 u y u u u u u u t u q 9 9 9 9 9 9 9 9 < 9 2 9 2 u y u y y y y y y k k l l l l l l l l l 6 6 = = = = = , = , 2 2 y y q y y y y 6 6 2 6 2 1 1 6 6 l h h k k k k k g e e 6 y y y y 2 6 2 2 2 2 2 2 2 q 6 6 2 2 2 < < 1 1 < q q 2 q j j k j j y q q q q y y y y y q y y q q h y q q 2 q 8 8 8 8 2 2 < < 2 2 k h k k k k h h h h h h h h h h h h h h h k y y e e e e y y e e h h y y e e y y h h h h h h h h k k h h h k h 6 2 2 6 6 h 6 e e e e e e e e 6 e e e e e e e h h 6 6 d d d d h h h h h d d d 6 6 6 e e e e e 6 6 6 y y y y y g g g g h h h h 6 g g g h g h h e e e e e e e e y y y y e e 6 6 6 6 h h h h d 6 d h h h d h h h y h 6 y y 6 y y 6 6 6 6 6 6 6 y 6 y h y y 6 h h y 6 6 6 6 6 6 6 6 6 h h h h k h h h g g g g h g g g g h h g g g g g g 6 6 g h h y y 6 6 6 6 2 2 6 6 6 6 6 h y 6 e e e e g e e e g h g g e 6 6 6 e e e e e e y y 6 6 6 2 6 6 6 6 6 6 6 6 6 6 6 6 6 6 6 d 6 h h k g e e e e e e g 6 6 g g e e 6 6 6 e g g h g g e g g g g e e e e g g g g h h h g g g g g g g g e e e e e e e e e e e e e e e e h e y e e y y y y e e y y h e e e h y y y h h h h y y y y y y 6 6 g g e e e e g g g g e e e e e e y y y y y y y 6 y y h h h h h h 6 6 e h e e e e e e e e e 6 6 6 6 g h k k h h h h k k k h h h h k N h f 6 6 h h h h h h h h h k y h h h h h 6 6 y y y h h y y 6 h h h h h h k k h k k l y y 6 6 y y h y y y 2 6 y y n x l x n A k l l C l l l l l C C A A A C l l C A A A C C C l C C C C C C Z l v v v x x k x k k y y y y x k h k y y x l W W n n v v x x x x x x b b x x x k y k y y h h l k l l x k x x x x u u w q q q 9 q 0 0 w w w t u u w 0 q q q u u u t u u t u u 9 9 9 9 w w 0 0 w w y q q 2 q q q q 9 2 y y q u 9 q q y y y y q 6 6 q y y y q q y y y u 2 y w y q q q q q 9 9 q 0 0 0 8 9 9 9 9 9 9 8 9 q u u j j y , = $ O . . F.                                      ",
"                                                                                                  Y.. . $ O $ $ $ $ , , , 3 3 2 6 2 , = $ $ , = 2 2 6 2 , , $ = = = = , = = 2 2 , 2 . . $ $ $ $ . . $ ,                                                             l h X . $ $ u y T T w t ; ; ; 2 ; 8 7 7 0 w 0 w 8 9 9 2 q 9 9 2 9 < 2 2 2 2 2 2 9 9 < < 2 2 2 2 2 2 2 2 2 9 2 2 2 9 9 9 2 2 2 1 1 1 1 1 < < 2 2 2 2 2 2 2 < ; ; w 9 u q 9 9 8 8 9 q 9 q 9 9 9 9 w w w w w w w w w w w w 9 q w w 8 9 9 9 9 8 q q 9 9 q q w u u u t u q u q u 9 q w q 9 9 9 q 0 0 q q q w 9 9 w w y u y y y q q u u u u u u y q q q q q q q q 0 9 9 w 9 9 9 8 2 2 < 2 2 2 9 2 2 6 y y 9 9 2 2 2 1 2 ; 2 < 9 2 9 9 ; ; 9 9 < < 9 9 < < 2 < 2 < q q u y u q 9 9 q q q 9 2 2 q q 9 2 q 9 q 9 w 9 9 9 8 2 9 2 u q u u u u u u u q 2 2 8 ; < < 8 8 9 < 9 2 9 2 u u u u y y y y y k k x l l x x h x x l 6 6 , , = = , 2 2 2 6 2 q y 6 6 6 q q 6 6 2 2 2 1 1 6 6 k h h h h k k h g e e 6 y e e y 6 y 6 6 6 6 6 6 q q q 6 6 2 q q q 2 q q q q q q k j j y y y u y q w q y y h y y y y 6 6 h y q q 2 q w 0 8 9 q q q 2 y q l h l k k l k k k k k k k k k k k k h k k k h h h h h h h h h h h k h h h h y h h h h h h h h h h h h h h h y y 6 6 6 6 6 6 6 6 6 6 6 6 6 6 6 6 6 6 6 6 6 6 6 6 6 6 6 6 6 6 6 6 6 6 6 6 6 6 6 6 6 6 6 6 6 6 6 6 6 6 6 6 6 6 6 6 e 6 6 6 6 e 6 6 6 6 6 6 6 6 6 6 6 6 6 6 6 6 6 6 e e 6 6 6 6 h h h h h h h d h h h h h h h h 6 y 6 y h 6 y 6 6 y h y y y y h 6 6 6 6 6 6 6 y 6 6 6 6 6 6 6 6 h 6 h h 6 6 h g h h h g h h h h h h h k k h h h g g h g g h h h q h 6 6 y 6 6 6 6 6 6 6 6 6 6 6 6 6 6 6 6 6 6 6 6 6 6 6 6 6 6 6 6 6 6 6 6 6 6 6 6 6 2 2 6 6 6 6 6 6 6 6 6 6 6 2 6 6 6 6 6 6 6 g h h h h h h h h h h h h h h h g h h h h h h h h h h h h h h h h g g h h h h h h g g h h h g g g y h h h h h h h h h e e e e h h e y e e y h h h y y h h h h h e h h h y h h h h y y y y h h h y h h g g g g h h g g g g g g g g h h h h h h h h y y h h h h h h 6 e y h h y y y 6 6 6 e 6 6 6 6 g h k k k k h h h k k k h h h h h h 6 f 6 6 h h h h h h h h k k h h k k k h h h h h h h h h h h h h y y y y h h 6 h y h 6 h 6 e y e y y y y 6 e h y v h k k l n l l C C C C l l C C A A D D A C C A A A A A Z Z l l l l l l l C l l v l x k x l h x y h y y k k y k y h h h v v n n n n v l v v j b b b n n x x y k y y h h l k v l x x x x j j u u w w q q 9 9 q w w w w w t u u t 0 w u u u u u u t u u u q q 9 9 0 0 8 8 0 9 w q 2 2 q q q 9 u q u u w y w w y y y y y q 6 6 y y y y y y y y 2 r 2 2 w q q w y w q q 9 9 q 0 0 q q 8 q q t t 9 9 q w y j k k , = $ O . . F.                                      ",
"                                                                                                  H.. . . . $ = $ $ = $ $ $ $ , 6 6 , = = = 2 2 h h h h y 6 , = 2 2 2 2 3 3 6 6 3 2 . $ $ $ $ $ . . 3 3                                                             l h O o $ $ q q L T u u 9 9 9 q 9 q q q p p t u q q q 2 q 9 9 9 u 9 u 9 u q 9 2 9 9 2 2 9 2 2 2 2 2 2 2 2 9 2 2 9 9 9 9 2 2 2 2 2 2 2 9 9 9 9 9 9 9 9 9 9 9 9 ; t 9 t t 0 0 w w t t t u u q w w w w w w 0 w w 0 w w w w 0 w w w 9 9 9 9 w 9 u w w q u u u y u t u u 9 t q t u w w q 9 q q q q q q w u u u w w w y k y y y q 2 9 9 9 9 2 2 2 2 2 9 9 9 9 9 9 8 8 9 w 9 9 9 < 9 9 9 9 2 9 9 9 2 9 9 9 9 2 2 2 9 < 2 1 9 2 q 9 q w q 9 9 9 2 9 9 w 2 9 2 2 q 2 q q q q q 9 9 9 u q u u 9 9 y q q 9 u 9 y q w w w w 9 w 9 9 u q q q y u q q q q 9 9 w w 9 9 w w q 2 q 2 q q y y y q q q q q y y q q 6 6 6 2 6 6 1 2 = 2 , 2 1 1 , 2 3 2 6 2 6 q 2 2 2 2 6 6 6 2 6 6 2 2 6 2 y 6 6 6 6 6 6 6 2 2 2 1 6 2 2 6 2 6 6 6 2 2 6 2 2 2 6 2 2 2 2 2 2 2 2 < < 2 1 2 q 2 q q q q q q q q 6 6 q y y q 6 6 6 2 6 6 2 q < q q 2 < < < 2 2 2 1 3 6 3 6 6 2 6 2 2 6 6 6 6 6 6 6 6 5 6 5 6 6 e e 6 6 5 5 5 e e 6 6 6 6 6 6 6 6 6 6 6 6 e e 6 6 6 6 6 y 6 6 6 6 6 6 2 6 6 2 6 6 6 6 6 6 6 6 6 6 6 6 6 6 6 6 6 6 6 6 6 6 6 6 6 6 6 6 6 6 6 6 6 2 6 6 6 6 6 6 6 6 6 6 6 6 6 6 6 6 e g e 6 6 6 e 6 6 6 6 6 6 6 6 6 e e e e 6 6 6 6 e g g g g g e 6 6 6 6 6 6 6 6 6 6 6 6 6 6 6 6 6 h h 6 6 6 6 6 6 6 6 6 6 6 2 6 6 6 6 6 6 6 d q q h 6 6 6 6 6 6 6 6 6 e e 6 e h h 6 6 6 6 6 e g g 6 6 6 6 6 6 6 6 e e 6 6 6 6 6 e 6 6 6 2 6 6 2 6 6 6 6 6 6 6 6 6 6 6 6 6 6 6 6 6 6 6 6 6 6 6 6 6 6 6 6 6 6 6 6 6 6 6 6 6 6 6 2 2 6 6 6 6 6 6 2 2 6 6 6 6 6 6 6 6 6 5 3 3 3 3 5 5 5 5 5 5 5 5 5 5 6 6 6 6 6 6 6 6 6 6 6 6 6 6 6 6 6 6 6 6 e e 6 6 6 6 6 e g 6 6 6 2 2 6 6 6 6 6 6 6 6 6 6 6 6 6 6 6 6 6 6 6 6 6 6 6 6 6 e g g e 6 6 6 6 6 6 6 6 6 6 6 6 6 6 d d 6 6 6 6 6 6 6 6 6 6 6 6 6 6 6 6 6 2 2 2 6 6 6 6 6 6 6 6 6 6 6 6 6 6 6 6 6 6 6 6 6 6 e e e 6 6 6 6 6 6 g g g g e g e g h h g g g h h k h h 6 6 d d h h h h d d h h 6 6 6 6 6 6 6 2 6 6 h h h h h h h y q y y y y y y h 6 h 6 h 6 e y 6 y 6 e h 6 y 6 2 k h h h h h h h h h h h h h h h h h h h h h h h h h h h h h h k h h h h h h h h h y y y h h h x h h y y k h y j u k u y k j y u u u y u u u y y u u y y y y y k y y h y k k y y y y y y y y u u u u y y q 9 w w w u w w w u w w w w w u u u q 9 q 9 9 u 9 q w w u u 9 9 w w u q q q q y y q q 9 u u 9 w w w q q q q q q q q q q q q q q q q r y q 2 y 6 q q j h q q w q w q 0 q t 9 t q t t w w u u u u k k , = O O . . H.                                      ",
"                                                                                                  A.. . . . $ $ $ $ , $ $ $ $ , 6 6 , = $ $ 2 6 h y h y h y , $ 2 6 2 6 2 , 6 2 , 2 . $ $ $ $ $ . . 3 2                                                             l h O o $ $ q q J L u t 9 9 9 q ; 9 9 q t q t t q q q 9 r 9 2 2 q 2 u 2 u q q 2 2 9 2 9 9 2 2 9 2 2 2 2 2 9 2 9 9 q 9 9 9 9 2 2 2 2 2 9 9 9 9 2 9 9 9 9 9 9 9 2 t 9 w w q t 0 q q w u u u q w w w w w w 0 w 9 9 w w w w 9 w w w 9 9 9 9 w w u w w w q u y u p u t u 9 t 9 u t u q 9 9 9 q w t q q q w w u w u w y u u u q 2 9 9 9 9 2 2 2 9 2 9 q 9 9 2 9 9 < 8 9 w 9 9 9 9 9 9 9 9 9 9 9 9 2 9 9 9 9 2 9 9 9 2 2 1 9 2 9 2 9 q q 9 9 2 < 9 w w < 9 2 2 q q y y y q q 9 q q u q q u 2 q u y q 9 y 9 u 9 w w w u w w 9 9 u q q q q 9 9 9 9 9 2 9 w q 9 9 9 w y q w 2 q 2 y q y y q q q q q q q q 6 6 6 2 2 2 2 e 1 2 1 2 1 1 2 6 3 2 6 2 6 6 6 2 2 2 2 6 2 2 2 2 2 2 6 3 6 6 6 6 6 6 6 2 2 2 1 1 6 2 2 6 2 6 6 6 2 2 6 6 6 2 6 6 2 2 2 2 2 2 q 2 2 q q q q 2 q q q q q q q q 2 6 6 q q q q q 6 2 6 2 2 q < 2 q q q < 2 2 2 6 2 2 6 2 y 6 6 y 2 2 6 6 6 6 6 6 e e e e e e e 6 e e e 6 6 e e e 6 6 e e e 6 6 e 6 6 6 e e e e 6 6 6 6 y y y 6 6 d h 6 6 6 2 6 6 6 6 6 6 6 6 2 2 6 6 6 6 6 6 6 6 2 2 2 2 2 6 6 6 2 2 2 6 6 6 6 2 6 6 2 2 2 2 6 6 6 6 6 6 6 6 6 6 6 6 6 5 5 5 5 5 5 6 6 6 5 5 5 5 6 6 6 6 6 6 6 6 6 6 6 e e 6 6 6 6 6 6 6 d 6 6 6 6 6 6 6 6 6 6 6 6 6 6 h h d h 6 6 6 h 6 6 6 6 6 6 6 6 6 6 6 6 6 6 6 6 6 6 6 6 6 6 6 6 e 6 6 g e 6 6 6 6 6 e e e 6 6 6 6 6 6 6 6 e e e 6 6 6 6 6 6 6 6 6 6 6 6 6 6 6 6 6 6 2 6 6 6 6 6 6 6 6 6 6 6 6 2 6 6 6 6 6 6 6 6 6 2 2 6 6 6 6 6 6 6 6 6 6 6 6 6 6 6 6 2 2 2 6 6 6 6 2 2 3 6 5 5 5 5 5 5 6 6 6 6 5 6 6 6 6 6 6 6 6 6 6 6 6 6 6 6 6 6 6 6 6 6 5 5 5 5 6 6 6 5 6 6 e g 6 6 6 6 6 6 6 e g g g 6 6 6 6 6 6 6 6 6 6 6 6 6 6 6 6 6 6 6 g g g e 6 6 6 6 6 6 6 6 6 6 6 6 6 6 d d 6 6 6 6 6 6 6 6 6 6 6 6 6 6 6 6 6 6 6 6 6 6 6 6 6 6 6 6 6 d 6 6 6 6 6 6 6 6 6 6 6 6 6 6 6 6 6 6 6 6 6 g g g g g g g g h h h g h h h k h h 6 2 6 6 h h h h d d h h 6 6 6 6 6 6 6 6 6 h h h h h d d y q 6 6 6 6 6 6 6 6 6 y 6 h y h y 6 y y y h e h h 6 h 6 y y h h h h h h h h h h h h h k k k k h h h h h h h h h h h h h h h h h y y y y y y h h k l h k h y k h y k u u y q u u u u u u y y y y y y y y y y y y y y y y h y k h y y y y y y y y u u q q y y y u q w u u t w w w u u w w u u u u w 9 q 9 q u w u w w w w 9 9 w w q q q q q q q w w 9 y u q y w w q q q q q q q q q q q q q q q q 2 2 6 2 y 6 q q h y w q 9 9 w q q q t q t q t t w w w u u j j k = = O O . . H.                                      ",
"                                                                                                h y . . . . . o . . $ $ $ . = = +.:.h h , 3 D Q C A , , h h k h Q [ 6 6 $ . = $ $ , . $ . $ . . . . 2 2                                                             h k . . & = 2 6 y y u q 9 9 9 2 9 2 9 q w u w w w q q q q 6 2 y y y q 2 y y y 6 2 2 2 2 2 2 2 2 2 2 2 2 2 2 6 6 6 q q q y y y y 6 2 2 2 9 9 q q q q q q w w u u u q w w u u w w w w u u q q w w w q w w w w w q q w w w q q 9 9 9 w w w w q y u y q q u y y u u u u y u u u u q 9 9 9 y u u w w w q q q q 9 u u y y y y q w q q q q q q q q q q q q q q q q q q q q q w w q q q q q q q q q q q q q 9 2 2 < < 2 2 2 2 2 q 9 9 9 9 9 9 9 9 9 < 2 2 q q q q q q q q q q q q q q q q q q q q q q q q q q q q q q q w w q q q q q q 9 9 q q q q 9 9 9 9 9 9 9 9 q q q q q w q q q q q q q q q q 6 6 6 2 6 6 6 6 6 2 2 3 1 2 2 2 2 2 2 2 6 2 2 2 6 6 6 6 6 6 6 6 6 6 6 6 6 6 6 6 6 6 e e e e e 6 6 6 6 e 6 6 6 6 2 6 6 6 6 6 6 6 6 6 6 6 6 6 6 6 6 6 q q q q q q q q q 6 6 6 6 6 2 6 6 q 6 6 y 6 6 6 6 6 6 6 q q q q 2 2 < 2 2 6 6 6 6 6 6 6 6 6 6 6 6 6 6 6 6 6 6 e e e e e e e e e e e e e 6 6 6 6 6 6 6 6 6 6 6 e e 6 6 6 e e 6 6 d h h 6 6 6 6 6 6 6 6 6 6 h 6 6 6 6 6 6 6 2 6 6 6 6 6 6 6 6 2 6 6 6 6 6 6 2 2 6 6 2 6 6 2 2 3 3 3 2 2 2 2 2 2 2 6 6 6 6 2 3 3 3 3 3 3 3 5 5 3 3 3 5 5 6 6 6 6 6 6 6 6 6 6 6 6 6 6 6 6 6 6 6 6 6 6 6 6 6 6 6 6 6 6 6 6 6 6 6 6 6 6 6 6 6 6 6 6 6 6 6 6 6 6 6 6 6 6 6 6 6 6 6 2 6 6 2 2 2 6 6 6 6 6 6 6 6 6 2 6 6 6 6 6 6 6 6 6 6 6 6 6 6 6 6 6 6 6 6 6 6 6 6 6 6 6 6 6 6 6 6 6 6 6 6 6 2 2 6 6 6 6 6 6 6 6 6 6 6 6 6 6 6 6 6 2 2 2 2 2 2 2 2 2 2 2 2 2 6 6 6 6 6 6 6 2 6 6 6 6 6 6 6 6 6 6 6 2 3 3 3 3 3 3 3 3 3 5 5 5 6 6 5 6 6 6 6 6 6 6 6 6 6 6 6 6 6 6 6 5 5 6 6 6 6 6 5 5 5 5 5 6 6 6 6 6 6 6 6 6 6 6 6 6 6 6 6 6 6 e e g g g 6 6 6 6 6 6 6 6 6 6 6 6 6 6 6 6 6 6 6 6 6 2 6 6 6 6 6 6 6 6 6 6 6 6 6 6 6 6 6 6 6 6 6 6 6 6 6 6 6 6 6 6 6 6 6 6 6 6 6 6 6 6 6 6 6 6 6 6 6 e 6 6 6 6 6 e e e e g g h h h h g g g g h h h h h h h h h h h h h h h h h h h h h h 6 6 6 h h h d 6 6 6 6 6 f f y 6 6 e y h y y y y y y y y y y y y y y y y y y y h h h h k k k h h k h h h h h h k k k k k k h k k k h k k h h k k h h h h h h y h h k x k k k y h k x h h y y l k h h h h h h h h h h h h h y y y y y y y y y q y y y y y y y y y y y y y q q q q q 6 6 6 6 6 q q q q q q q w q q w q q 6 6 q 9 q q u u q w 9 9 9 q q w w w w q 6 6 6 q q q q q q q q w w w q q 6 6 6 6 6 6 6 6 q q q q 6 6 6 y y 6 6 6 6 6 6 6 6 9 9 q 9 9 9 9 9 9 9 9 9 9 9 9 9 q q q q q 9 , $ $ . . .                                         ",
"                                                                                                C h . . . . $ . O O $ O . . $ $ { | y h 3 2 D Q l C , 3 h h l l [ { 6 6 O . $ $ $ , $ $ $ . . . . $ 3                                                               k k . . $ $ 2 6 y y q q 9 2 q 2 9 9 q q w u w w q q 9 2 2 2 2 6 q q 2 2 y y 2 2 2 2 2 2 2 2 2 2 2 2 2 2 2 2 2 6 6 6 6 q 6 6 y q 6 2 2 2 9 9 9 9 9 q q q 9 9 q q q q q w w u 9 9 w q u q q q w w w y w y q q q q q q q q q q q 9 9 9 q q q q u y q 9 9 q u u y y u u u u y y u q 9 9 q u u u w w w 9 9 9 q q w u q q w q q q q q 2 2 q q q q q q q q q q 9 9 q q q q q q q q q q q q q q q q q q q q q 9 9 2 2 2 q 2 2 2 9 q q 9 9 9 9 9 9 9 2 2 q q q q q q q q q q q q q q q q q q q q q q q q q q q q q q q q q q q q q q q q q 9 q q q q q 9 q 9 q 9 q q q q q q q q q q q q 6 6 6 6 q q 6 6 6 6 6 6 6 6 6 6 2 2 2 2 2 2 2 2 2 6 6 6 6 2 6 6 6 6 6 6 6 6 2 6 6 6 6 6 6 6 6 6 e e e e 6 6 6 6 e e 6 6 6 6 6 6 6 6 6 6 6 6 6 6 6 6 6 6 6 6 6 6 6 6 6 6 q 6 q 6 6 6 6 6 6 6 6 6 q 6 6 6 6 6 6 6 6 6 6 6 q q q q 2 2 2 2 6 6 6 6 6 6 6 6 6 6 6 6 6 6 6 6 6 6 6 e e e e e e e e e e e e e e 6 e e e e e e e e 6 e 6 6 6 6 e 6 d d d d 6 6 6 6 6 6 6 6 6 6 6 6 6 6 6 6 6 6 6 6 6 6 6 6 6 6 6 6 6 6 6 6 6 6 6 6 6 6 6 6 6 6 2 2 2 2 6 6 6 6 2 2 2 2 6 6 6 6 6 3 5 6 5 5 5 5 5 5 3 3 5 5 5 6 6 6 6 6 6 6 6 6 6 6 6 6 6 6 6 6 6 6 6 6 6 6 6 6 6 6 6 6 6 6 6 6 6 6 6 6 6 6 6 6 6 6 6 6 6 6 6 6 6 6 6 6 6 6 6 6 6 6 2 6 6 2 2 2 6 6 6 6 6 6 6 6 6 6 6 6 6 6 6 6 6 6 6 6 6 6 6 6 6 6 6 6 6 6 6 6 6 6 6 6 6 6 6 6 6 6 6 6 6 6 6 6 6 6 6 6 6 6 6 6 6 6 6 6 6 6 6 6 6 6 6 6 6 6 2 2 2 2 2 2 6 6 6 6 6 6 6 6 6 6 6 6 6 6 6 6 6 6 6 6 6 6 6 5 5 3 3 3 3 3 5 5 5 5 6 6 6 5 6 6 6 6 6 6 6 6 6 6 6 6 6 6 6 6 6 5 6 6 6 6 6 6 5 5 5 5 6 6 6 6 e e 6 6 6 6 e e 6 6 6 6 6 6 6 6 g g g 6 6 6 6 6 6 6 6 6 6 6 6 6 6 6 6 6 6 6 6 6 6 6 6 6 6 6 6 6 6 6 6 6 6 6 6 6 6 6 6 6 6 6 6 6 6 6 6 6 6 6 6 6 6 6 6 6 6 6 6 6 6 6 6 6 6 6 6 6 6 6 6 6 6 6 6 e e e e g g g g g g g g g g h h g h h h h h h h h h h f d h h h h h 6 6 6 6 d h h 6 6 6 6 6 6 d 6 y 6 6 6 y y y y 6 6 6 6 6 6 6 6 y y y y e y y h y y y y h h h h h h h h h h h h h h h h h h h h h h h h h h h h h h h h h h h h h h k h h h h h y y h h h h y y k h h h y y y y h h y y y y y y y y y y y y y y y y y y y y y y y y y y y q q q q q q 6 6 6 6 6 q q q q q q w w q q q q 6 q 6 6 q q q q q q q q 9 q q q q q w q y q 6 6 q q q q q q q q q 9 w 9 6 6 6 6 6 6 6 6 6 6 q q 6 6 6 6 6 2 6 6 6 6 6 6 6 6 q q q q q q w w q q 9 9 9 9 9 9 q q q q q 6 = $ $ O . .                                         ",
"                                                                                                $ $ . . . . . $ . . $ $ $ $ 2 6 x.l.D k 3 3 k C C D 2 6 C C [ [ :.:.h h $ $ $ , , $ $ . $ $ , $ . . h                                                               k k . . $ $ $ $ $ $ $ $ $ $ $ $ $ O $ $ % % % % $ $ O O O O O O O O O O O O O O O O O O O O O O O O O O O O O O O O O $ O $ $ $ $ $ $ O $ $ $ $ O $ $ $ $ $ $ $ O O $ $ $ & $ $ $ $ $ $ $ $ $ $ % $ $ $ $ $ $ $ $ $ $ $ $ $ $ $ $ $ $ $ $ $ $ $ $ O $ $ $ $ $ $ $ $ $ $ $ $ & $ $ $ $ $ $ $ % % % % % $ % $ $ $ $ $ $ $ O O $ $ $ $ $ $ $ $ $ $ $ $ $ $ $ O $ $ $ $ $ $ $ $ $ $ $ $ $ $ $ $ $ $ $ $ $ $ $ O O $ $ $ O O $ $ % $ $ $ % % $ $ % $ $ $ $ $ $ $ $ $ $ $ $ $ $ $ $ $ $ $ $ $ $ $ $ $ $ $ $ $ $ $ $ $ $ $ % $ $ $ $ $ $ $ $ $ $ $ $ $ $ $ $ $ $ $ % % % % $ $ $ $ $ $ $ $ $ $ $ $ $ $ $ $ $ $ $ $ $ $ $ $ O $ $ $ $ $ $ $ $ $ $ $ $ $ $ $ $ $ $ $ $ $ $ $ $ $ $ $ $ $ $ $ $ $ $ $ $ $ $ $ $ $ $ $ $ $ $ $ $ $ $ $ $ $ $ $ $ $ $ $ $ $ $ $ $ $ $ $ $ $ $ $ $ $ $ $ $ $ $ $ $ $ $ $ $ $ $ $ $ $ $ $ $ $ $ $ $ $ $ $ $ $ $ $ $ $ $ $ $ $ $ $ $ $ $ $ $ $ $ $ $ $ $ $ $ $ $ $ $ $ $ $ $ $ $ $ $ $ $ $ $ $ $ $ $ $ $ $ $ $ $ $ $ $ $ $ $ $ $ $ $ $ $ $ $ $ $ $ $ $ $ $ $ $ $ $ $ $ $ $ $ $ $ $ $ $ $ $ $ $ $ $ $ $ $ $ $ $ $ $ $ $ $ $ $ $ $ $ $ $ $ # $ $ $ $ $ $ $ $ $ $ $ $ $ $ $ $ $ $ $ $ $ $ $ $ # # $ $ $ $ $ $ $ $ $ $ $ $ $ $ $ $ $ $ $ $ $ $ $ $ $ $ $ $ $ $ $ $ $ $ $ $ $ $ $ $ $ $ $ $ $ $ $ $ $ $ $ $ $ $ $ $ $ $ $ $ $ $ $ $ $ $ $ $ $ $ $ $ $ $ $ $ $ $ $ $ $ $ $ $ $ $ $ $ $ $ $ $ $ $ $ $ $ $ $ $ $ $ $ $ $ $ $ $ $ $ $ $ $ $ $ $ $ $ $ $ $ $ $ $ $ $ $ $ $ $ $ $ $ $ $ $ $ $ $ $ $ $ $ $ $ $ $ $ $ $ $ $ $ $ # $ $ $ $ $ $ $ $ $ $ $ $ $ $ $ $ $ $ $ $ $ $ $ $ $ $ $ $ $ $ $ $ $ $ $ $ $ $ $ $ $ $ $ $ $ $ $ $ $ $ $ $ $ $ $ $ $ $ $ $ $ $ $ $ $ $ $ $ $ $ $ $ $ $ $ $ $ $ $ $ $ $ $ $ $ $ $ $ $ $ $ $ $ $ $ $ $ $ $ $ $ $ $ $ $ $ $ $ $ $ $ $ $ $ $ $ $ $ $ $ $ $ $ $ $ $ $ $ $ $ $ $ $ $ $ $ $ $ $ $ $ $ $ $ $ $ $ $ $ $ $ $ $ $ $ $ $ $ $ $ $ $ $ $ $ $ $ $ $ $ $ $ $ $ $ $ $ $ $ $ $ $ $ $ $ $ $ $ $ $ $ $ $ $ $ $ $ $ $ $ $ $ $ $ $ $ $ $ $ $ $ $ $ $ $ $ $ $ $ $ $ $ $ $ $ , , $ $ $ $ $ : , , : : $ $ : $ $ $ , , , $ $ , , = $ = $ $ $ $ = * $ $ = = $ $ $ $ & & & & & & & $ = & $ $ & & & = * * = * * $ $ $ $ $ $ $ $ $ $ $ $ $ $ $ $ $ $ $ $ $ $ $ $ $ $ $ $ $ $ $ $ $ $ $ $ % $ $ $ $ $ $ $ $ $ $ $ $ $ $ % $ % % $ $ % % $ $ $ $ $ $ $ $ $ $ $ $ $ $ $ $ $ $ $ $ $ $ $ $ $ $ $ $ $ $ $ $ O O $ $ $ $ $ $ $ $ $ $ $ $ O O $ $ % $ $ O $ O $ $ $ $ $ $ $ $ $ $ $ . . .                                         ",
"                                                                                                $ 6 . . . . . $ . . $ $ $ $ 3 2 l.h.C k 3 2 C D k C 6 h C C D [ *.*.l k $ $ $ $ , $ , , $ 3 $ $ .                                                                   k C . . $ $ $ $ $ $ $ $ $ $ $ $ $ $ $ $ $ $ % % O O O O O o O O O O O O O O X X X O O O o . O O O X O X O O o . . . O O O O $ $ O O O O O O O O O O $ $ $ O O O O O O O O O $ O O O $ $ $ O $ $ $ $ O O $ $ $ $ $ $ $ $ $ $ $ $ $ $ $ $ $ $ $ O O O O $ $ $ $ $ $ O $ $ $ $ $ $ $ $ $ $ $ O $ $ $ $ $ $ $ $ O O $ O O O O O $ $ $ $ $ $ $ $ O $ $ $ $ $ O O O O $ $ $ $ O O $ $ $ $ O O O O $ $ $ $ $ $ $ $ $ $ $ $ O O $ $ $ % $ $ $ % $ O $ $ $ $ $ $ $ $ $ $ $ $ $ $ $ $ $ $ $ $ $ O O O O $ $ $ $ $ $ O $ $ $ $ $ $ $ $ $ $ $ $ $ $ $ $ $ $ $ $ $ $ $ $ $ $ $ $ $ O $ $ $ $ $ $ $ $ $ $ $ $ $ $ $ $ $ $ $ $ $ $ $ $ $ $ $ $ $ $ $ $ $ $ $ $ $ $ $ $ $ $ $ $ $ $ $ $ $ $ $ $ $ $ $ $ $ $ $ $ $ $ $ $ $ $ $ $ $ $ $ $ $ $ $ $ $ $ $ $ $ $ $ $ $ $ $ $ $ $ $ $ $ $ $ $ $ $ $ $ $ $ $ $ $ $ $ $ $ $ $ $ $ $ $ $ $ $ $ $ $ $ $ $ $ $ $ $ $ $ $ $ $ $ $ $ $ $ $ $ $ $ $ $ $ $ $ $ $ $ $ $ $ $ $ $ $ $ $ $ $ $ $ $ $ $ $ $ $ $ $ $ $ $ $ $ $ $ $ $ $ $ $ $ $ $ $ $ $ $ $ $ $ $ $ $ $ $ $ $ $ $ $ $ $ $ $ $ $ $ $ $ $ $ $ $ $ $ $ $ $ $ $ $ $ $ $ $ $ $ $ $ $ $ $ $ $ $ $ $ $ $ $ $ $ $ $ $ $ $ $ $ $ $ $ $ $ $ $ $ $ $ $ $ # # $ $ $ $ $ $ $ $ $ $ $ $ $ $ $ $ $ $ $ $ $ $ $ $ $ $ $ $ $ $ $ $ $ $ $ $ $ $ $ $ $ $ $ $ $ $ $ $ $ $ $ $ $ $ $ $ $ $ $ $ $ $ $ $ $ $ $ $ $ $ $ $ $ $ $ $ $ $ $ $ $ $ $ $ $ $ $ $ $ $ $ $ $ $ $ $ $ $ $ $ $ $ $ $ $ $ $ $ $ $ $ $ $ $ $ $ $ $ $ $ $ $ $ $ $ $ $ $ $ $ $ $ $ $ $ $ $ $ $ $ $ $ $ $ $ $ $ $ $ $ $ $ $ $ $ $ $ $ $ $ $ $ $ $ $ $ $ $ $ $ $ $ $ $ $ $ $ $ $ $ $ $ $ $ $ $ $ $ $ $ $ $ $ $ $ $ $ $ $ $ $ $ $ $ $ $ $ $ $ $ $ $ $ $ $ $ $ $ $ $ $ $ $ $ $ $ $ $ $ $ $ $ $ $ $ $ $ $ $ $ $ $ $ $ $ $ $ $ $ $ $ $ $ $ $ $ $ $ $ $ $ $ $ $ $ $ $ $ $ $ $ $ $ $ $ $ $ $ $ $ $ $ $ $ $ $ $ $ $ $ $ $ $ $ # # $ $ $ $ $ $ $ $ $ $ $ $ $ $ $ $ $ $ $ $ $ $ $ $ $ $ $ $ $ $ $ $ $ $ $ $ $ $ $ $ $ $ $ $ $ $ $ $ $ $ $ $ $ $ $ $ $ $ $ $ $ $ $ $ $ $ $ $ $ $ $ $ $ $ $ $ $ $ $ $ $ $ $ $ $ $ $ $ $ $ $ $ $ $ $ $ $ $ $ $ $ $ $ $ $ $ $ $ $ $ $ $ $ $ $ $ $ $ $ $ $ $ $ $ $ $ $ $ $ $ $ $ $ $ & & $ $ $ $ $ $ O O $ $ $ $ $ $ $ $ $ O O O O O $ $ $ $ O O O $ $ $ O $ $ $ $ $ $ $ $ $ $ $ $ $ $ $ $ $ $ $ O $ $ $ $ $ $ $ $ $ $ $ $ $ $ $ $ $ $ $ $ $ $ $ $ $ $ O $ $ $ $ O O O $ $ $ $ O O O O $ O O O $ $ $ $ $ $ $ $ $ $ $ O O $ $ % $ $ $ $ $ $ $ $ $ $ $ $ $ $ $ $ O . .                                         ",
"                                                                                                            h 3 . . $ $ $ $ , 3 k k 2 6 3 2 h h 6 6 6 6 h h k k l l 6 6 $ $ , 3 $ , . . :.                                                                            C . . $ $ # $ $ O $ O O O O $ O O O o o o . . . . . . . . o . . . . . . . . . . . . . . . . . . . . . . . . . . . . . . . . . . . . . . . . . . . . . . . O O O o . . . . . . . . . . . . . . O O o o O O # # . # . . . . . . . O O O O O . . . . . . . . O . . . . . . O O O O O O . . . . . o . . . . . . . . . . . . . . . . . . . . . . . . . . . . . . . . . . . . . . . . . . . . . . . . . . o . . . . . . . . . . o o o . . . . . . . . $ @ . . . $ $ . + . . . . $ $ $ . . . . . @ o $ $ @ . o . . . . . . . . . . . . . . . . . . . . . . . . . . . . o . . . . . . . . . . o o . . . o . . . . . . . . $ $ $ . . . . o # o o . o o o o o o o o $ $ $ $ . . $ $ $ . . . . . . + . . . . . . o o o o # # o . . . . . . . . . . . . . . + @ o o o + + . . . . $ + . . . . . . . . . . @ $ $ $ @ o . . . . . . . . $ $ . . $ + . . + + . . $ $ $ $ $ + . . . . + + $ $ $ $ $ $ $ $ $ $ $ $ $ $ $ $ $ + . . + + + + $ $ $ $ $ $ + + . . . . + $ O O $ . . . . . . . . . . . . . . . . . . + $ $ $ $ $ @ . + @ . . . @ @ @ @ . o $ $ $ . . . # # # # . . $ $ $ $ $ . . o o o . . . . + + . . . . # # $ $ $ $ + + . . . . + + . . $ $ $ $ $ $ $ $ $ $ $ $ $ $ $ $ $ $ . + + + $ $ $ $ . # $ $ $ o o . o o o . o o o # # # # # o o . # . . . . . . . . $ + . . . . + + $ $ $ $ $ $ $ $ . o # # o o o # o o . . . . . o o o o o . . . o o o o o o o o o $ $ $ $ $ $ $ $ # # o o o . . . . . # # # # # o # # # # o o o # $ $ . . . . $ $ $ $ # # + + $ $ . . + $ $ . . . . . $ $ $ $ . . + # . $ $ . . . $ $ # + . . . . $ $ $ $ $ $ $ $ . + $ $ $ $ + + $ $ $ $ # $ $ $ $ $ $ $ $ $ $ $ $ $ $ $ $ $ $ $ $ + . + . . . . # # $ $ + + + + + + + + # # # $ . . . . . . + + . + + + + + . + . . . . o . . . . . . . . . . # # # # # # o . o o . . . o o o . $ $ $ . + . . . . . . . . . . . . . . . . . . . . . . . . . . . o # # # . . . . . . . . . . . . . . . . . . $ $ . . . . . . . . . . . . . . o . # # o o . . o o @ + . . . . . . $ $ $ $ $ $ $ $ + $ $ $ $ $ $ $ $ $ $ $ $ # . $ . . $ $ $ $ $ $ . o $ $ $ $ $ O . . O O . . . . $ $ $ $ $ $ $ . O O O O . O $ $ $ $ $ $ $ $ $ $ o o o o o O O O o . . . . . . . . . o . . . o O . . + . . . . + + + + o . . + + . . . . . . . . . . . . . . . . . . . . . . . . . . . . . . O O O O O $ $ $ O O $ O O O $ $ $ $ $ $ O O $ $ $ $ $ $ $ $ . .                                         ",
"                                                                                                            3 6 . . $ $ $ $ , , k k 6 h 6 d h h 6 6 6 6 6 d h h A C h y = = $ , , $ . . [                                                                             C . . $ . $ $ $ $ $ $ O O O O O O O o o o . . . . . . . . o o . . . . . . . . . . . . . . . . . . . . . . . . . . . . . . . . . . . . . . . . . . . . . . . O o o . . . . . . . . . . . . . . . . . . . . # # . . . . . . . . . . O O o o . . . . . . . . . . . . . . . . . . . . . . . . . . . . . . . . . . . . . . . . . . . . . . . . . . . . . . . . . . . . . . . . . . . . . . . . . . . . . . . . . . . . . . . . . . . . . . . . . . . + . . . . . . + + . . . . . . . . . . . . o . . . . . . . . . . . . . . . . . . . . . . . . . . . . . . . . . . . . . . . . . . . . . o o . . . . . . . . . . . . . . . . . . . . . . . . . . . . . . . . $ $ $ # . . . . . . . . . . . . . . . . . . . . . . o o . . . . . . . . . . . . + . . . . . . . . . . . . . . . . . . . . . . . . . @ @ $ . o . . . . . . . . . . . . . . . . . . . . . . . $ $ . . . . . . . . # # # # $ $ $ . . . . . $ $ $ $ . . . . . . . . + + $ $ $ $ . . . . . . . + . O . . . . . . . . . . . . . . . . . . + + $ $ $ $ . . . . . . . . @ + @ @ . $ . + + . . . o # o o . . . . + . . . . . . o . . . . + . . . . . . # $ $ . . . . . . . . . . . . . . $ $ $ . $ $ $ $ . . . $ $ $ $ $ . . . . . $ $ $ . . # # o . . . . o . . . . . o # # o o . . . o . . . . . . . . . + . . . . . . . . . $ $ $ . . . . o o . . . o . . . . . . . . . o o . . . . . o o o . . . . . $ $ + $ . + $ + # # . . . . . . . . . . o . . . # # # o o . . . $ o . . . . $ $ o o . . . . . . . . . . . . . . . . . . . . . . . . . . . . . . $ $ . . . . + $ $ $ . . . . $ $ . + $ $ . . . . . . . + . $ + $ $ $ $ # + + . + . . . . $ $ $ $ . . . . . . . . + + + + + + + + + + + + + # # # . . . . . . . . . . + + . . . + . . . . . . . . . . . . . . . . o o # o o . . . . . . . . . . . $ $ . . . . . . . . . . . . . . . . . . . . . . . . . . . . . . . . . . . . . . . . . . . . o o . . . . . . . . . . . . . . . . . . . . . . . . o o . . . . . . . . . . . . . . . . . . . . . . . . . . . + $ $ $ $ $ $ . . . . . . . . o o . . . . # # $ O . . . . . . . . . . . . + $ $ . . . O O . . . . O O . . . . $ $ . . . . . . o o o o o o . . . . . . . . . o . . . . . . . . . . + + . + + + . . + + . . . . . . . . . . . . . . . . . . . . . . . . . . . . . . O O . O O O O O . . $ $ O O $ O $ $ $ $ O O $ $ $ $ O O $ O . .                                         ",
"                                                                                                            6 3 . . . . . . . . . . . . . . . . . . . . . . . . . . . . . . $ $ . $ $ $ 6 2                                                                           N . . + . . . . . . . . . . . . . . . . . . . . . . . . . . . . . . . . . . . . . . . . . . . . . . . . . . . . . . . . . . . . . . . . . . . . . . . . . . . . . . . . . . . . . . . . . . . . . . . . . . . . . . . . . . . . . . . . . . . . . . . . . . . . . . . . . . . . . . . . . . . . . . . . . . . . . . . . . . . . . . . . . . . . . . . . . . . . . . . . . . . . . . . . . . . . . . . . . . . . . . . . . . . . . . . . . . . . . . . . . . . . . . . . . . . . . . . . . . . . . . . . . . . . . . . . . . . . . . . . . . . . . . . . . . . . . . . . . . . . . . . . . . . . . . . . . . . . . . . . . . . . . . . . . . . . . . . . . . . . . . . . . . . . . . . . . . . . . . . . . . . . . . . . . . . . . . . . . . . . . . . . . . . . . . . . . . . . . . . . . . . . . . . . . . . . . . . . . . . . . . . . . . . . . . . . . . . . . . . . . . . . . . . . . . . . . . . . . . . . . . . . . . . . . . . . . . . . . . . . . . . . . . . . . . . . . . . . . . . . . . . . . . . . . . . . . . . . . . . . . . . . . . . . . . . . . . . . . . . . . . . . . . . . . . . . . . . . . . . . . . . . . . . . . . . . . . . . . . . . . . . . . . . . . . . . . . . . . . . . . . . . . . . . . . . . . . . . . . . . . . . . . . . . . . . . . . . . . . . . . . . . . . . . . . . . . . . . . . . . . . . . . . . . . . . . . . . . . . . . . . . . . . . . . . . . . . . . . . . . . . . . . . . . . . . . . . . . . . . . . . . . . . . . . . . . . . . . . . . . . . . . . . . . . . . . . . . . . . . . . . . . . . . . . . . . . . . . . . . . . . . . . . . . . . . . . . . . . . . . . . . . . . . . . . . . . . . . . . . . . . . . . . . . . . . . . . . . . . . . . . . . . . . . . . . . . . . . . . . . . . . . . . . . . . . . . . . . . . . . . . . . . . . . . . . . . . . . . . . . . . . . . . . . . . . . . . . . . . . . . . . . . . . . . . . . . . . . . . . . . . . . . . . . . . . . . . . . . . . . . . . . . . . . . . . . . . . . . . . . . . . . . . . . . . . . . . . . . . . . . . . . . . . . . . . . . . . . . . . . . . . . . . . . . . . . . . . . . . . . . . . . . . . . . . . . . . . . . . . . . . . . . . . . . . . . . . . . . . . . . . . . . . . . . . . . . . . . . . . . . . . . . . . . . . . . . . . . . . . . . . . . . . .                                         ",
"                                                                                                            2 6 . . . . . . . . . . . . . . . . . . . . . . . . . . O . . . $ $ $ $ . . 6 3                                                                             . . + . . . . . . . . . . . . . . . . . . . . . . . . . . . . . . . . . . . . . . . . . . . . . . . . . . . . . . . . . . . . . . . . . . . . . . . . . . . . . . . . . . . . . . . . . . . . . . . . . . . . . . . . . . . . . . . . . . . . . . . . . . . . . . . . . . . . . . . . . . . . . . . . . . . . . . . . . . . . . . . . . . . . . . . . . . . . . . . . . . . . . . . . . . . . . . . . . . . . . . . . . . . . . . . . . . . . . . . . . . . . . . . . . . . . . . . . . . . . . . . . . . . . . . . . . . . . . . . . . . . . . . . . . . . . . . . . . . . . . . . . . . . . . . . . . . . . . . . . . . . . . . . . . . . . . . . . . . . . . . . . . . . . . . . . . . . . . . . . . . . . . . . . . . . . . . . . . . . . . . . . . . . . . . . . . . . . . . . . . . . . . . . . . . . . . . . . . . . . . . . . . . . . . . . . . . . . . . . . . . . . . . . . . . . . . . . . . . . . . . . . . . . . . . . . . . . . . . . . . . . . . . . . . . . . . . . . . . . . . . . . . . . . . . . . . . . . . . . . . . . . . . . . . . . . . . . . . . . . . . . . . . . . . . . . . . . . . . . . . . . . . . . . . . . . . . . . . . . . . . . . . . . . . . . . . . . . . . . . . . . . . . . . . . . . . . . . . . . . . . . . . . . . . . . . . . . . . . . . . . . . . . . . . . . . . . . . . . . . . . . . . . . . . . . . . . . . . . . . . . . . . . . . . . . . . . . . . . . . . . . . . . . . . . . . . . . . . . . . . . . . . . . . . . . . . . . . . . . . . . . . . . . . . . . . . . . . . . . . . . . . . . . . . . . . . . . . . . . . . . . . . . . . . . . . . . . . . . . . . . . . . . . . . . . . . . . . . . . . . . . . . . . . . . . . . . . . . . . . . . . . . . . . . . . . . . . . . . . . . . . . . . . . . . . . . . . . . . . . . . . . . . . . . . . . . . . . . . . . . . . . . . . . . . . . . . . . . . . . . . . . . . . . . . . . . . . . . . . . . . . . . . . . . . . . . . . . . . . . . . . . . . . . . . . . . . . . . . . . . . . . . . . . . . . . . . . . . . . . . . . . . . . . . . . . . . . . . . . . . . . . . . . . . . . . . . . . . . . . . . . . . . . . . . . . . . . . . . . . . . . . . . . . . . . . . . . . . . . . . . . . . . . . . . . . . . . . . . . . . . . . . . . . . . . . . . . . . . . . . . . . . . .                                         ",
"                                                                                                            2 , . . . . . . . . . . . . . . . . . . . . . . . . . . . . . . . . . . . . $ $                                                                                                                                                                                                                                                                                                                                                                                                                                                                                                                                                                                                                                                                                                                                                                                                                                                                                                                                                                                                                                                                                                                                                                                                                                                                                                                                                                                                                                                                                                                                                                                                                                                                                                                                                                                                                                                                                                                                                                                                                                                                                                                                                                                                                                                                                                                                                                                                                         ",
"                                                                                                              2 . . . . . . . . . . . . . . . . . . . . . . . . . . . . . . . . . . . . $                                                                                                                                                                                                                                                                                                                                                                                                                                                                                                                                                                                                                                                                                                                                                                                                                                                                                                                                                                                                                                                                                                                                                                                                                                                                                                                                                                                                                                                                                                                                                                                                                                                                                                                                                                                                                                                                                                                                                                                                                                                                                                                                                                                                                                                                                                                                                                                                                           ",
"                                                                                                                                                                                                                                                                                                                                                                                                                                                                                                                                                                                                                                                                                                                                                                                                                                                                                                                                                                                                                                                                                                                                                                                                                                                                                                                                                                                                                                                                                                                                                                                                                                                                                                                                                                                                                                                                                                                                                                                                                                                                                                                                                                                                                                                                                                                                                                                                                                                                                                                                                                                                                    ",
"                                                                                                                                                                                                                                                                                                                                                                                                                                                                                                                                                                                                                                                                                                                                                                                                                                                                                                                                                                                                                                                                                                                                                                                                                                                                                                                                                                                                                                                                                                                                                                                                                                                                                                                                                                                                                                                                                                                                                                                                                                                                                                                                                                                                                                                                                                                                                                                                                                                                                                                                                                                                                    ",
"                                                                                                                                                                                                                                                                                                                                                                                                                                                                                                                                                                                                                                                                                                                                                                                                                                                                                                                                                                                                                                                                                                                                                                                                                                                                                                                                                                                                                                                                                                                                                                                                                                                                                                                                                                                                                                                                                                                                                                                                                                                                                                                                                                                                                                                                                                                                                                                                                                                                                                                                                                                                                    ",
"                                                                                                                                                                                                                                                                                                                                                                                                                                                                                                                                                                                                                                                                                                                                                                                                                                                                                                                                                                                                                                                                                                                                                                                                                                                                                                                                                                                                                                                                                                                                                                                                                                                                                                                                                                                                                                                                                                                                                                                                                                                                                                                                                                                                                                                                                                                                                                                                                                                                                                                                                                                                                    ",
"                                                                                                                                                                                                                                                                                                                                                                                                                                                                                                                                                                                                                                                                                                                                                                                                                                                                                                                                                                                                                                                                                                                                                                                                                                                                                                                                                                                                                                                                                                                                                                                                                                                                                                                                                                                                                                                                                                                                                                                                                                                                                                                                                                                                                                                                                                                                                                                                                                                                                                                                                                                                                    ",
"                                                                                                                                                                                                                                                                                                                                                                                                                                                                                                                                                                                                                                                                                                                                                                                                                                                                                                                                                                                                                                                                                                                                                                                                                                                                                                                                                                                                                                                                                                                                                                                                                                                                                                                                                                                                                                                                                                                                                                                                                                                                                                                                                                                                                                                                                                                                                                                                                                                                                                                                                                                                                    ",
"                                                                                                                                                                                                                                                                                                                                                                                                                                                                                                                                                                                                                                                                                                                                                                                                                                                                                                                                                                                                                                                                                                                                                                                                                                                                                                                                                                                                                                                                                                                                                                                                                                                                                                                                                                                                                                                                                                                                                                                                                                                                                                                                                                                                                                                                                                                                                                                                                                                                                                                                                                                                                    ",
"                                                                                                                                                                                                                                                                                                                                                                                                                                                                                                                                                                                                                                                                                                                                                                                                                                                                                                                                                                                                                                                                                                                                                                                                                                                                                                                                                                                                                                                                                                                                                                                                                                                                                                                                                                                                                                                                                                                                                                                                                                                                                                                                                                                                                                                                                                                                                                                                                                                                                                                                                                                                                    ",
"                                                                                                                                                                                                                                                                                                                                                                                                                                                                                                                                                                                                                                                                                                                                                                                                                                                                                                                                                                                                                                                                                                                                                                                                                                                                                                                                                                                                                                                                                                                                                                                                                                                                                                                                                                                                                                                                                                                                                                                                                                                                                                                                                                                                                                                                                                                                                                                                                                                                                                                                                                                                                    ",
"                                                                                                                                                                                                                                                                                                                                                                                                                                                                                                                                                                                                                                                                                                                                                                                                                                                                                                                                                                                                                                                                                                                                                                                                                                                                                                                                                                                                                                                                                                                                                                                                                                                                                                                                                                                                                                                                                                                                                                                                                                                                                                                                                                                                                                                                                                                                                                                                                                                                                                                                                                                                                    ",
"                                                                                                                                                                                                                                                                                                                                                                                                                                                                                                                                                                                                                                                                                                                                                                                                                                                                                                                                                                                                                                                                                                                                                                                                                                                                                                                                                                                                                                                                                                                                                                                                                                                                                                                                                                                                                                                                                                                                                                                                                                                                                                                                                                                                                                                                                                                                                                                                                                                                                                                                                                                                                    ",
"                                                                                                                                                                                                                                                                                                                                                                                                                                                                                                                                                                                                                                                                                                                                                                                                                                                                                                                                                                                                                                                                                                                                                                                                                                                                                                                                                                                                                                                                                                                                                                                                                                                                                                                                                                                                                                                                                                                                                                                                                                                                                                                                                                                                                                                                                                                                                                                                                                                                                                                                                                                                                    ",
"                                                                                                                                                                                                                                                                                                                                                                                                                                                                                                                                                                                                                                                                                                                                                                                                                                                                                                                                                                                                                                                                                                                                                                                                                                                                                                                                                                                                                                                                                                                                                                                                                                                                                                                                                                                                                                                                                                                                                                                                                                                                                                                                                                                                                                                                                                                                                                                                                                                                                                                                                                                                                    ",
"                                                                                                                                                                                                                                                                                                                                                                                                                                                                                                                                                                                                                                                                                                                                                                                                                                                                                                                                                                                                                                                                                                                                                                                                                                                                                                                                                                                                                                                                                                                                                                                                                                                                                                                                                                                                                                                                                                                                                                                                                                                                                                                                                                                                                                                                                                                                                                                                                                                                                                                                                                                                                    ",
"                                                                                                                                                                                                                                                                                                                                                                                                                                                                                                                                                                                                                                                                                                                                                                                                                                                                                                                                                                                                                                                                                                                                                                                                                                                                                                                                                                                                                                                                                                                                                                                                                                                                                                                                                                                                                                                                                                                                                                                                                                                                                                                                                                                                                                                                                                                                                                                                                                                                                                                                                                                                                    ",
"                                                                                                                                                                                                                                                                                                                                                                                                                                                                                                                                                                                                                                                                                                                                                                                                                                                                                                                                                                                                                                                                                                                                                                                                                                                                                                                                                                                                                                                                                                                                                                                                                                                                                                                                                                                                                                                                                                                                                                                                                                                                                                                                                                                                                                                                                                                                                                                                                                                                                                                                                                                                                    ",
"                                                                                                                                                                                                                                                                                                                                                                                                                                                                                                                                                                                                                                                                                                                                                                                                                                                                                                                                                                                                                                                                                                                                                                                                                                                                                                                                                                                                                                                                                                                                                                                                                                                                                                                                                                                                                                                                                                                                                                                                                                                                                                                                                                                                                                                                                                                                                                                                                                                                                                                                                                                                                    ",
"                                                                                                                                                                                                                                                                                                                                                                                                                                                                                                                                                                                                                                                                                                                                                                                                                                                                                                                                                                                                                                                                                                                                                                                                                                                                                                                                                                                                                                                                                                                                                                                                                                                                                                                                                                                                                                                                                                                                                                                                                                                                                                                                                                                                                                                                                                                                                                                                                                                                                                                                                                                                                    ",
"                                                                                                                                                                                                                                                                                                                                                                                                                                                                                                                                                                                                                                                                                                                                                                                                                                                                                                                                                                                                                                                                                                                                                                                                                                                                                                                                                                                                                                                                                                                                                                                                                                                                                                                                                                                                                                                                                                                                                                                                                                                                                                                                                                                                                                                                                                                                                                                                                                                                                                                                                                                                                    ",
"                                                                                                                                                                                                                                                                                                                                                                                                                                                                                                                                                                                                                                                                                                                                                                                                                                                                                                                                                                                                                                                                                                                                                                                                                                                                                                                                                                                                                                                                                                                                                                                                                                                                                                                                                                                                                                                                                                                                                                                                                                                                                                                                                                                                                                                                                                                                                                                                                                                                                                                                                                                                                    ",
"                                                                                                                                                                                                                                                                                                                                                                                                                                                                                                                                                                                                                                                                                                                                                                                                                                                                                                                                                                                                                                                                                                                                                                                                                                                                                                                                                                                                                                                                                                                                                                                                                                                                                                                                                                                                                                                                                                                                                                                                                                                                                                                                                                                                                                                                                                                                                                                                                                                                                                                                                                                                                    ",
"                                                                                                                                                                                                                                                                                                                                                                                                                                                                                                                                                                                                                                                                                                                                                                                                                                                                                                                                                                                                                                                                                                                                                                                                                                                                                                                                                                                                                                                                                                                                                                                                                                                                                                                                                                                                                                                                                                                                                                                                                                                                                                                                                                                                                                                                                                                                                                                                                                                                                                                                                                                                                    "
};
