/* XPM */
static char *_13c872b9e60406ed958afa34ad5026bdelpBWWmdXDzzcR1[] = {
/* columns rows colors chars-per-pixel */
"1258 152 255 2 ",
"   c None",
".  c #030302",
"X  c #0B0302",
"o  c #060805",
"O  c #090906",
"+  c #070908",
"@  c #0B0B0A",
"#  c #080608",
"$  c #140101",
"%  c #1B0101",
"&  c #130C0B",
"*  c #150709",
"=  c #0E100B",
"-  c #0F1007",
";  c #12120D",
":  c #121106",
">  c #141413",
",  c #161914",
"<  c #1B1A16",
"1  c #1D1D1A",
"2  c #171717",
"3  c #0F1111",
"4  c #230100",
"5  c #2B0101",
"6  c #2B0B0B",
"7  c #330101",
"8  c #3A0000",
"9  c #330908",
"0  c #211C16",
"q  c #221E1A",
"w  c #291D1A",
"e  c #381313",
"r  c #1E211C",
"t  c #1D2117",
"y  c #23221D",
"u  c #2B241D",
"i  c #29251A",
"p  c #33251D",
"a  c #35291D",
"s  c #1F2422",
"d  c #242523",
"f  c #2A2623",
"g  c #262823",
"h  c #2B2A25",
"j  c #2D2D2B",
"k  c #2B2929",
"l  c #322623",
"z  c #332C25",
"x  c #3A2D24",
"c  c #322E2B",
"v  c #392C2A",
"b  c #2E302B",
"n  c #2D3027",
"m  c #3B3126",
"M  c #33322E",
"N  c #3B342C",
"B  c #3C392E",
"V  c #343328",
"C  c #322F30",
"Z  c #353431",
"A  c #3A3632",
"S  c #363933",
"D  c #3B3A35",
"F  c #3C3C39",
"G  c #373B39",
"H  c #2F3130",
"J  c #1E1E20",
"K  c #430000",
"L  c #490908",
"P  c #590A0B",
"I  c #570D11",
"U  c #5A1313",
"Y  c #521311",
"T  c #660003",
"R  c #6B0103",
"E  c #65090A",
"W  c #710103",
"Q  c #7B0D0C",
"!  c #760A09",
"~  c #7C110E",
"^  c #6C1514",
"/  c #671716",
"(  c #741513",
")  c #6F100F",
"_  c #43352B",
"`  c #43392E",
"'  c #47372A",
"]  c #433C34",
"[  c #4A3D33",
"{  c #423E39",
"}  c #473C38",
"|  c #4E342C",
" . c #682926",
".. c #733530",
"X. c #5F251F",
"o. c #3E413B",
"O. c #3E4037",
"+. c #434136",
"@. c #4B4136",
"#. c #43423C",
"$. c #4B443C",
"%. c #4A493E",
"&. c #52453C",
"*. c #56473B",
"=. c #51402F",
"-. c #68433C",
";. c #464644",
":. c #4A4642",
">. c #464946",
",. c #494946",
"<. c #464749",
"1. c #494748",
"2. c #474949",
"3. c #494A4A",
"4. c #534B44",
"5. c #5A4C44",
"6. c #524E4A",
"7. c #584945",
"8. c #4E504D",
"9. c #4E5046",
"0. c #53534D",
"q. c #5B544C",
"w. c #5B594E",
"e. c #575247",
"r. c #4A4E50",
"t. c #4F5150",
"y. c #545452",
"u. c #5A5652",
"i. c #565952",
"p. c #5B5B55",
"a. c #5D5D59",
"s. c #565658",
"d. c #514F50",
"f. c #664743",
"g. c #62554C",
"h. c #65574A",
"j. c #625C54",
"k. c #615E5A",
"l. c #685C54",
"z. c #715E54",
"x. c #5E615A",
"c. c #5D6156",
"v. c #63625D",
"b. c #6B635B",
"n. c #68655A",
"m. c #72655A",
"M. c #656662",
"N. c #696762",
"B. c #676962",
"V. c #6B6B65",
"C. c #6D6D69",
"Z. c #666C68",
"A. c #726C63",
"S. c #706F6B",
"D. c #746962",
"F. c #6E7165",
"G. c #6F706B",
"H. c #727266",
"J. c #72726C",
"K. c #7A7A6D",
"L. c #79766C",
"P. c #757571",
"I. c #767873",
"U. c #7A7B74",
"Y. c #7B7B77",
"T. c #6F7571",
"R. c #5F6160",
"E. c #3E4341",
"W. c #850304",
"Q. c #8D0302",
"!. c #880909",
"~. c #940201",
"^. c #9B0101",
"/. c #950907",
"(. c #84110D",
"). c #9B1A1C",
"_. c #981818",
"`. c #901311",
"'. c #A30101",
"]. c #AB0202",
"[. c #AC0A04",
"{. c #AC0D0B",
"}. c #A60909",
"|. c #B40301",
" X c #BC0202",
".X c #B30A04",
"XX c #BB0A05",
"oX c #B40C0C",
"OX c #BB0C0B",
"+X c #B50609",
"@X c #A8120B",
"#X c #B8130B",
"$X c #A60D13",
"%X c #A71716",
"&X c #B31515",
"*X c #B81815",
"=X c #B60E10",
"-X c #B0221C",
";X c #9A1C21",
":X c #8F2B26",
">X c #AB2B26",
",X c #98231E",
"<X c #C30203",
"1X c #CB0101",
"2X c #C40509",
"3X c #C20C0A",
"4X c #C80A06",
"5X c #D40201",
"6X c #DB0201",
"7X c #DB0B03",
"8X c #D70B07",
"9X c #C7120A",
"0X c #DB120B",
"qX c #D81409",
"wX c #DB1B13",
"eX c #C71011",
"rX c #E20402",
"tX c #E40B05",
"yX c #ED1404",
"uX c #EC1905",
"iX c #EB140B",
"pX c #EC1B0B",
"aX c #E5160A",
"sX c #F31504",
"dX c #F31A05",
"fX c #F31B0B",
"gX c #F8190A",
"hX c #E41B12",
"jX c #EC1C13",
"kX c #EA1915",
"lX c #F31C13",
"zX c #F01F19",
"xX c #F71B12",
"cX c #F20C01",
"vX c #D72319",
"bX c #CC251B",
"nX c #EB2214",
"mX c #EA2319",
"MX c #F42213",
"NX c #F2231B",
"BX c #F82418",
"VX c #F1210C",
"CX c #CD2B23",
"ZX c #F12821",
"AX c #827B70",
"SX c #7E8178",
"DX c #83847B",
"FX c #86877A",
"GX c #8B8C83",
"HX c #868782",
"JX c #929288",
"KX c #B8BAB1",
"LX c #C3C5BB",
"PX c #D2D3CC",
"IX c #BEC2BA",
/* pixels */
"                                                                                                                                                                                                                                                                                                                                                                                                                                                                                                                                                                                                                                                                                                                                                                                                                                                                                                                                                                                                                                                                                                                                                                                                                                                                                                                                                                                                                                                                                                                                                                                                                                                                                                                                                                                                                                                                                                                                                                                                                                                                                                                                                                                                                                                                                                                                                                                                                                                                                                                                                                                                                    ",
"                                                                                                                                                                                                                                                                                                                                                                                                                                                                                                                                                                                                                                                                                                                                                                                                                                                                                                                                                                                                                                                                                                                                                                                                                                                                                                                                                                                                                                                                                                                                                                                                                                                                                                                                                                                                                                                                                                                                                                                                                                                                                                                                                                                                                                                                                                                                                                                                                                                                                                                                                                                                                    ",
"                                                                                                                                                                                                                                                                                                                                                                                                                                                                                                                                                                                                                                                                                                                                                                                                                                                                                                                                                                                                                                                                                                                                                                                                                                                                                                                                                                                                                                                                                                                                                                                                                                                                                                                                                                                                                                                                                                                                                                                                                                                                                                                                                                                                                                                                                                                                                                                                                                                                                                                                                                                                                    ",
"                                                                                                                                                                                                                                                                                                                                                                                                                                                                                                                                                                                                                                                                                                                                                                                                                                                                                                                                                                                                                                                                                                                                                                                                                                                                                                                                                                                                                                                                                                                                                                                                                                                                                                                                                                                                                                                                                                                                                                                                                                                                                                                                                                                                                                                                                                                                                                                                                                                                                                                                                                                                                    ",
"                                                                                                                                                                                                                                                                                                                                                                                                                                                                                                                                                                                                                                                                                                                                                                                                                                                                                                                                                                                                                                                                                                                                                                                                                                                                                                                                                                                                                                                                                                                                                                                                                                                                                                                                                                                                                                                                                                                                                                                                                                                                                                                                                                                                                                                                                                                                                                                                                                                                                                                                                                                                                    ",
"                                                                                                                                                                                                                                                                                                                                                                                                                                                                                                                                                                                                                                                                                                                                                                                                                                                                                                                                                                                                                                                                                                                                                                                                                                                                                                                                                                                                                                                                                                                                                                                                                                                                                                                                                                                                                                                                                                                                                                                                                                                                                                                                                                                                                                                                                                                                                                                                                                                                                                                                                                                                                    ",
"                                                                                                                                                                                                                                                                                                                                                                                                                                                                                                                                                                                                                                                                                                                                                                                                                                                                                                                                                                                                                                                                                                                                                                                                                                                                                                                                                                                                                                                                                                                                                                                                                                                                                                                                                                                                                                                                                                                                                                                                                                                                                                                                                                                                                                                                                                                                                                                                                                                                                                                                                                                                                    ",
"                                                                                                                                                                                                                                                                                                                                                                                                                                                                                                                                                                                                                                                                                                                                                                                                                                                                                                                                                                                                                                                                                                                                                                                                                                                                                                                                                                                                                                                                                                                                                                                                                                                                                                                                                                                                                                                                                                                                                                                                                                                                                                                                                                                                                                                                                                                                                                                                                                                                                                                                                                                                                    ",
"                                                                                                                                                                                                                                                                                                                                                                                                                                                                                                                                                                                                                                                                                                                                                                                                                                                                                                                                                                                                                                                                                                                                                                                                                                                                                                                                                                                                                                                                                                                                                                                                                                                                                                                                                                                                                                                                                                                                                                                                                                                                                                                                                                                                                                                                                                                                                                                                                                                                                                                                                                                                                    ",
"                                                                                                                                                                                                                                                                                                                                                                                                                                                                                                                                                                                                                                                                                                                                                                                                                                                                                                                                                                                                                                                                                                                                                                                                                                                                                                                                                                                                                                                                                                                                                                                                                                                                                                                                                                                                                                                                                                                                                                                                                                                                                                                                                                                                                                                                                                                                                                                                                                                                                                                                                                                                                    ",
"                                                                                                                                                                                                                                                                                                                                                                                                                                                                                                                                                                                                                                                                                                                                                                                                                                                                                                                                                                                                                                                                                                                                                                                                                                                                                                                                                                                                                                                                                                                                                                                                                                                                                                                                                                                                                                                                                                                                                                                                                                                                                                                                                                                                                                                                                                                                                                                                                                                                                                                                                                                                                    ",
"                                                                                                                                                                                                                                                                                                                                                                                                                                                                                                                                                                                                                                                                                                                                                                                                                                                                                                                                                                                                                                                                                                                                                                                                                                                                                                                                                                                                                                                                                                                                                                                                                                                                                                                                                                                                                                                                                                                                                                                                                                                                                                                                                                                                                                                                                                                                                                                                                                                                                                                                                                                                                    ",
"                                                                                                                                                                                                                                                                                                                                                                                                                                                                                                                                                                                                                                                                                                                                                                                                                                                                                                                                                                                                                                                                                                                                                                                                                                                                                                                                                                                                                                                                                                                                                                                                                                                                                                                                                                                                                                                                                                                                                                                                                                                                                                                                                                                                                                                                                                                                                                                                                                                                                                                                                                                                                    ",
"                                                                                                                                                                                                                                                                                                                                                                                                                                                                                                                                                                                                                                                                                                                                                                                                                                                                                                                                                                                                                                                                                                                                                                                                                                                                                                                                                                                                                                                                                                                                                                                                                                                                                                                                                                                                                                                                                                                                                                                                                                                                                                                                                                                                                                                                                                                                                                                                                                                                                                                                                                                                                    ",
"                                                                                                                                                                                                                                                                                                                                                                                                                                                                                                                                                                                                                                                                                                                                                                                                                                                                                                                                                                                                                                                                                                                                                                                                                                                                                                                                                                                                                                                                                                                                                                                                                                                                                                                                                                                                                                                                                                                                                                                                                                                                                                                                                                                                                                                                                                                                                                                                                                                                                                                                                                                                                    ",
"                                                                                                                                                                                                                                                                                                                                                                                                                                                                                                                                                                                                                                                                                                                                                                                                                                                                                                                                                                                                                                                                                                                                                                                                                                                                                                                                                                                                                                                                                                                                                                                                                                                                                                                                                                                                                                                                                                                                                                                                                                                                                                                                                                                                                                                                                                                                                                                                                                                                                                                                                                                                                    ",
"                                                                                                              o @ @ @ @ # @ @ # @ @ @ @ @ @ @ @ @ @ @ # @ @ o o . . . . . . . . . .                                                                                                                                                                                                                                                                                                                                                                                                                                                                                                                                                                                                                                                                                                                                                                                                                                                                                                                                                                                                                                                                                                                                                                                                                                                                                                                                                                                                                                                                                                                                                                                                                                                                                                                                                                                                                                                                                                                                                                                                                                                                                                                                                                                                                                                                                                                                                                                                                                 ",
"                                                                                                            o . @ o @ @ # @ @ # @ @ @ @ # # @ @ @ @ o o o o o o o o . . . . . . o . o                                                                                                                                                                                                                                                                                                                                                                                                                                                                                                                                                                                                                                                                                                                                                                                                                                                                                                                                                                                                                                                                                                                                                                                                                                                                                                                                                                                                                                                                                                                                                                                                                                                                                                                                                                                                                                                                                                                                                                                                                                                                                                                                                                                                                                                                                                                                                                                                                               ",
"                                                                                                          s.@ @ @ o o # o @ @ o @ @ @ @ o o o @ @ o o o o o o o . . . . . . . . . . o .                                                                                                                                                                                                                                                                                                                                                                                                                                                                                                                                                                                                                                                                                                                                                                                                                                                                                                                                                                                                                                                                                                                                                                                                                                                                                                                                                                                                                                                                                                                                                                                                                                                                                                                                                                                                                                                                                                                                                                                                                                                                                                                                                                                                                                                                                                                                                                                                                             ",
"                                                                                                          a.@ o o . o o o o @ o o o @ # o o o o o o . . o o o . . . . . . . . . o o . .                                                                                                                                                                                                                                                                                                                                                                                                                                                                                                                                                                                                                                                                                                                                                                                                                                                                                                                                                                                                                                                                                                                                                                                                                                                                                                                                                                                                                                                                                                                                                                                                                                                                                                                                                                                                                                                                                                                                                                                                                                                                                                                                                                                                                                                                                                                                                                                                                             ",
"                                                                                                        a.p.. . > > > > > 2 1 1 < < 1 1 1 1 < < < > 2 < < < > > > > > > > > @ @ @ > . o                                                                                                                                                                                                                                                                                                                                                                                                                                                                                                                                                                                                                                                                                                                                                                                                                                                                                                                                                                                                                                                                                                                                                                                                                                                                                                                                                                                                                                                                                                                                                                                                                                                                                                                                                                                                                                                                                                                                                                                                                                                                                                                                                                                                                                                                                                                                                                                                                             ",
"                                                                                                        M.v.. . ; ; > > > > 1 1 < < 1 1 1 < < 1 1 < < 2 > > > > > > > @ > > > > > @ o o                                                                                                                                                                                                                                                                                                                                                                                                                                                                                                                                                                                                                                                                                                                                                                                                                                                                                                                                                                                                                                                                                                                                                                                                                                                                                                                                                                                                                                                                                                                                                                                                                                                                                                                                                                                                                                                                                                                                                                                                                                                                                                                                                                                                                                                                                                                                                                                                                             ",
"                                                                                        . . 1 < 1 @ h 1 1 < g d #.;.3.3.,.>.3.3.3.3.3.3.3.3.3.0.0.6.3.3.3.3.;.;.#.#.{ ;.;.;.>.,.k Z @ > @ @ r g g d                                                                   . . . . . . . . . . . . . . . . . . . . . . . . . . . . . . . . . . . . . . . . . . . . . . . . . . . . . . . . . . . . . . . . . . . . . . . . . . . . . . . . . . . . . . . . . . . . . . . . . . . . . . . . . . . . . . . . . . . . o . . . . . . . . . . . . . . . . . . . . . . . . . . . . . . . . . . . . . . . . . . . o . . . . . . . . . . . . . . . . . . . . . . . . . . . . . . . . . . . . . . . . . . . . . . . . . . . . . . . . . . . . . . . . . . . . . . . . . . . . . . . . . . . . . . . . . . . . . . o o o o . . o o o o o o o o . . o o . . . . . . o o o . . . o o o o o o o o o o o o o o o o o . . . . . . . o o . . . . . . . . . . . . . . . . . . . . . . . . . . . . . . . . . . . . . o . . . . o o o o . . . o . . . . . . . . . . . . . . . . . . . . . . . . . . . o o o o . . . . . o o o o . . . o o o o o . . . . . . . . . . . o . . . . . . . . . o o o . . o o . . . . . . . . . . . . . . . . . . . . . . . . . . . . . . . . . . . . . . . . . . . . . . . . . . . . . . . . . . . . . . . . . . . . . . . . . . . . . . . . . . . . . . . . . . . . . . . . . . . . . . . . . . . . . . o o o o o o o o o o o o o o o o o o o o o o . . . o . . . . . . . . . . . . . . . . . . . . . . . . . . . . . . . . . . . . . . . . . . . . . . . . . . . . . . . . . . . . . . . . . . . . . . . . . . . . . . . . . . . . . . . . . . . . . . . . . . . . . . . . . . . . . . . . . . . . . . . . . . . . . . . . . . . . . . . . . . . . . . . . . . . . . . . . . . . . . . . . . . . . . . . . . . . . . . . . . . . . . o . o . . . . . . . . . . . . . . . . . . . . . . . . . . . . . . . . . . . . . . . . . . . . . . . . . . . . . . . . . . . . . . . o . . . . . . . . . . . . . . . . o . . . . . . o . . o o o o o o O O o o o o o o . . . . . . . . . . . . . . . . . . . . . . . . o o o o . . . . . . . . . . . . . . . . . . . . . . . . . . . . . . . . . . . . . . . . . . . . . . . . . . . . . . . . . . . . . . . . . . . . . . . . . . . . . . . . . . . . . . . . . . . . . . o o o o . . . . . . . . . . . . . . . . . . . . . . . . o o o o o o o o o . o o o o . . . . o o o o . . o o o o O O o o O O o o . . . . . . o o o o o o o o o o o o o o . . o o o o o o o # o o o o o o o o # o # o o o o o o . . . . . . . @ .                                                 ",
"                                                                                        . o 1 1 , < 1 g 1 r g d F ;.3.3.,.>.3.3.0.0.3.3.3.3.3.0.y.y.6.3.3.;.;.#.#.F F #.;.;.,.,.j d 1 > @ @ g g d d 3.3.F                                                         1 . . o . . . . . . . . . . . . . . . . . . . . . . . . . . . . . . . . . . . . . . . . . . . . . . . . . . . . . . . . . . . . . . . . . . . . . . . . . . . . . . . . . . . . . . . . . . . . . . . . . . . . . . . . . . . . . . . . . o o . . . . . . . . . . . . . . . . . . . . . . . . . . . . . . . . . . . . . . . . . . . . . . . . . . . . . . . . . . . . . . . . . . . . . . . . . . . . . . . . . . . . . . . . . . . . . . . . . . . . . . . . . . . . . . . . . . . . . . . . . . . . . . . . . . . . . . . . . . o o o . . . o o o . o o o o o o o o . . . . . . . . . . . . o o o o o o o o o o o o o o . . . . . . . . . . . . . . . . . . . . . . . . . . . . . . . . . . . . . . . . . . . . . . . . . . . . . . . . . . . . . . . . . . . . . . . . . . . . . . . . . . . . . . . . o o o o . . . . . . o o . . . . . . o o . . . . . . . . . . . . . o . . . . . . . . . . o . . . . o . . . . . . . . . . . . . . . . . . . . . . . . . . . . . . . . . . . . . . . . . . . . . . . . . . . . . . . . . . . . . . . . . . . . . . . . . . . . . . . . . . . . . . . . . . . . . . . . . . . . . . . . . . . . . o o o o o o o o o o o o o o o o o o o o o o o . . . o . . . . . . . . . . . . . . . . . . . . . . . . . . . . . . . . . . . . . . . . . . . . . . . . . . . . . . . . . . . . . . . . . . . . . . . . . . . . . . . . . . . . . . . . . . . . . . . . . . . . . . . . . . . . . . . . . . . . . . . . . . . . . . . . . . . . . . . . . . . . . . . . . . . . . . . . . . . . . . . . . . . . . . . . . . . . . . . . . . . . . . . . . . . . . . . . . . . . . . . . . . . . . . . . . . . . . . . . . . . . . . . . . . . . . . . . . . . . . . . . . . . . . . . . . . . . . . . . . . . . . . . . . . . . . . . . . . . . o o o o o o o o o . . . . . . . . . . . . . . . . . . . . . . . . . . . o o o . . . . . . . . . . . . . . . . . . . . . . . . . . . . . . . . . . . . . . . . . . . . . . . . . . . . . . . . . . . . . . . . . . . . . . . . . . . . . . . . . . . . . . . . . . . . . . . . . . . . . . . . . . . . . . . . . . . . . . . . . . . . . o . . . o . o . . . . . . . . . o o o . . . . . o o o o o o o o o o . . . . . . . . o o . o o o o o . . . . . . o o o o . . o o o o o o o o o o o o o o o o # @ . . . . . . . . . o .                                               ",
"                                                                                      D @ . @ @ O @ . O ; ; g y #.#.;.;.,.3.3.3.0.3.,.,.;.,.;.;.3.,.3.0.;.,.#.#.F F S D F F #.F j k @ ; . . o . o o o o . .                                                       1 . o . . . . . . . o . . . . . . . . . . . . . . . . . . . . . . . . . . . . . . . . . . . . . . . . . . . . . . . . . . . . . . . . . . . . . . . . . . . . . . . . . . . . . . . o o . . . . . . . . . . . . . . . . . . . . . . . . . . . . O . O O . X . . . . . . o O O o . . . . . o o . . . o o . . . . X . . o o # . o . . . . . . . . . . . . . . . . . . . . . . . . . . . . . . . . . . . . . . . . . . . . . . . . . . . . . . . . . . . . . . . . . . . . . . . . . . . . . . . . . . . . . . o . . . . o # # # . . . . . . . . . . . . . . . . o o . o . o o . . . . . o o o o o o o o o o o o o o o o o o # @ o . o o o o o o O . @ . # o # # o o . . . . . . . . . . . . . . . . . . . . . . . . . . . . . . . . . . . . . . . . . . . . . . . . . . . . . . . . . . . . . . . . . . . . . . . . . . . . . . . . . . . . . . . . . . . . o o o . . . . . o o o . . . o O O o o o . o . O . . . . . . . . . . . . . . . . . . . . . . . . . . . . . . . . . . . . . . . . . . . . . . . o . . . . . . . . . . . . . . . . o o . . . . o o . . . . . . . . . . o o . o o . o . . . . . . . . . o o . . . . . o o o . . . . . . . . . . o o . . . o o o . o . o . . . . # . # . . . . . . . . . . . . . . . . . . . . . o o o . . . . . . o o o # . . . . . . . o . . . . . . o o . . . o o o . o . o . o o . . . . . . . . . . . . . . . . . . . . . . . . . . . . . . . . . . . . . . . . . . . . . . . . . . . . . . o . . . . . . . . . o o . . . . . . . o . . . . . . . . . . . . . . . o . . . . . . . . . . . . . . o @ . . . . o o o o . . o o o o o o . . . . o o o o . . . . . . . . . . . . . . . . . . . . . . . . . . . . . . . . . . . . . . . . . . o . o . o o . . . . . . . . . . o o . . . . . . . . . . . . . . o . O . O o . . . . . . . . . . . . o o o o o . . . . . . o o . . . . o o . . . . . o o o o o o . o o . @ . . . . . . . . . . . . . . . . . . . . . . . . . . . . . . . . . . . . . . . . . . . . . . . . . . . . . . . . . . . . . . . . . . . . . . . . . . . . . . . . . . . . . . . O # . . . . o # o o . . . . . . . . O . O . X . X X X X . . X . . X . . . . . . X . . . . . o . . . . . . . . # X # X X # . . . . o . . . . . . . . . . . . . . . # . . . . . . . . o . . . . . . o . o o o o o # O . . . . # O O o o o . . . . o . @ @ @ @                                             ",
"                                                                                    F F . O @ O . @ O O ; - y g #.;.;.,.3.,.,.,.3.9.3.3.;.,.;.:.3.,.3.0.;.,.o.o.F F S S D F #.#.k k > > . . . . . o o @ . . >                                                     1 . . . . . . . . . o . . . . . . . . . . . . . . . . . . . . . . . . . . . . . . . . . . . . . . . . . . . . . . . . . . . . . . . . . . . . . . . . . . . . . . . . . . . . . . . . . . . . . . . . . . . . X . X . X . X X X . X . . . X . X O X . X . X . . . . . . . . . . . . . . . . . . . . . X X X . X . . . . . o o . . . . . . . . . . . . . . . . . . . . . . . . . . . . . . . . . . . . . . . . . . . . . . . . . . . . . . . . . . . . . . . . . . . . . . . . . . . . . . . . . . . . . . . o # # o o o o # # . . . . . . . . . . . . . . . o . o o o o o # # # o o o o @ o o o o o o o o o o o o o o o o o o . . o o o o o o @ o @ . # . o o . . . . . . . . . . . . . . . . . . . . . . . . . . . . . o # o . . . . . . . . . . . . . . . . . . . . . . . . . . . . . . . . . . . . . . . . . . . . . . . . . . . . o o o o . . . . . . o o o o . . . . . o . . . . . # o . . o . o . . . . . . . . . . . . . . . . . . . . . . . . . . . . . . . . . . . . . . . . . . . . . . . . . . . . . . . . . . . . . . . . . . . . . . . . . . . . o o . . . . . . . o o # # o o . . . . . . . . . . . . . . o o o . o . . o o o o . . . . . . . . o o o o o o o o o . . . o . o . . . . . . . . . . . . . . . . . . . . . . . . . . . . . . . . . o . . . . . . . . . o . . . . . . . . . . . . . . . . . . o . . . . . . . . . . . . . . . . . . . . . . . . . . . . . . . . . . . . . . . . . . . . . . . . . . . . . . . . . . . . . . . . . . . . . . . . . . . . . . . . . . . . . . . . . . . . . . . . . . . . o . . . o o . o o o o o o o . . o o o o o . . . . . . . o o . o . . . . o . . . . . . . . . . . . . . . . . . . . . . . . . . . . . . . . . . . . . . . o o . . . . . . . . . . . . . . . . . . . . . . . . . . . . o . o o . . . . . . . . . . . . . . . . . . . . . . o o . . . . . . o o . . . . o o o o o # o @ o . # . . . . . . . . . . . . . . . . . . . . . . . . . . . . . . . . . . . . . . . . . . . . . . . . . . . . . . . . . . . . . . . . . . . . . . . . . . . . . . . . . . . . . . . . . . . . . o o o . . . . . . . . . . . O X X X X X X X X . X X X X X . X . X X X . . . . . . . . . o . X . . X . X . . X X X . . . . . . . . . . . X # X . X . . . . . . . . . . . # o o . o o # O . . . . . . # O O o . . . o O O . o . o . . . . @ @ @ >                                             ",
"                                                                            ; 1 g j < d ; ; D S D D h b #.#.,.;.,.,.F #.;.3.a.x.B.C.B.B.a.a.s.p.B.B.B.M.a.a.0.y.y.i.a.a.s.y.3.,.S F S D M b D F g d > @ . . d k                                                   1 . o # @ > @ > > ; 2 & > > > & & & ; ; ; ; ; @ ; ; ; ; @ @ @ > > > > ; ; @ @ > > > > > > > < 1 < < , , , , , 1 1 1 1 < < < , > < 1 1 > > > 2 < < < < 0 0 < < < < 1 < < < < < q 1 q 1 q q q q q 0 q q q u q y q u u u u u u u f u u f u f f f f f q u f u f u u i y g g g y y g g g g g g h h k k k h f u f u f f f g d d d d q q q q 1 1 1 1 1 1 1 1 1 < < < 1 1 1 1 1 1 1 1 1 1 1 1 1 1 1 1 2 > 2 , < < < < < < 1 1 < < < < q 1 1 < 0 q q q u q u y q q 1 1 1 q q 1 1 1 1 1 d d g u q 1 1 y u y g g y y u g f f g g g y y g k f f g g g g g g f h h y y y y g g k g d y u u u u y y y y y y y y d d d d d y g g g g g d d d y y y y y y d d d d g d g g g g g g g g 1 q 1 1 d g g g g d y y y y y y 1 1 1 1 d d d d d d J 1 1 1 y 1 1 1 1 1 d 1 1 1 1 1 y y 1 1 1 1 1 q y d g d y y d d d d u y y y y y y y g g g y y y d g f f g g g g g g g g g g g g g g g g g g d d d g f f k k k k k k k k h k g g y g h h g g y y g g g g g g y y y y r y y y y y y y y y y y y y y y y y y y y y y y y q q q y y d y g g g d r r r y y y y y y y y d d d g d y q q y d y y y y d d g g d d y y d d g y y y d g g g d g g g g d d d d g g g d g y 1 y f g g g g g k k k g g g g k g g g d g d k k k k k k k k k k k k k k k k k k k g k j j j k k k k j j k k g g g g f g g g d d d d y d d d d d y y d d d d d y d d g g g d d d y q d y y y y y y y y y y y d u u y y y y y y y y r y y y y y y y y g g g u y q y y g g g d u y y y g d d d d d g g g g g d d d d d d y g y y y y y g g g y y y y y y y y y y y y y y y y y y y y y d d d d y y y y y y d d d d y y y d d d d d d y d d d d y d d d d d d y y y y d d d d y y 1 1 1 y y y y y y d d k k g g d d d g d d y d d d y 1 d d g g k g k k k f g d d d g g k k k f g d d d k g y y g g g y g g k g k g h g k h g y y y g g h h h h g g g h h h h h g g g g k h h k g g g g j k k k k k k k k k k k f d g d g y y y y y y y 1 r r r r r y y u g d q q q q q g g y y r r r r d s s r r r r s g g g d y y y y y y y y y y r r u u y y y y y y y y y y q 1 1 1 y q y y 1 r r 1 y u y u y y y y f f g g u u y u y y y y y y u u y y f u h u l u u y w q w 0 y y y y i y u i y y u y f u u y u u f u f u u f u f u u u y q q < , q q 1 1 q 0 q q 0 0 0 0 q q < < 1 1 1 < < < < < < < < < < < 1 1 r 1 < < < < < < 0 < < , > , < < 1 1 < > > > ; < o @ > >                                             ",
"                                                                          S 1 < 1 1 1 y @ ; S S S D b h #.#.;.;.3.3.#.;.,.3.a.s.B.B.M.B.a.x.a.a.M.M.M.v.a.p.0.y.0.0.a.s.y.0.3.0.S D F F M j S S d d @ @ . o g k                                                   1 . . . . > > 2 1 > 2 & ; > ; ; ; ; ; ; ; ; ; @ ; ; > > ; > ; > > > > > > > > > > > < < < < < 1 < < < < < < < < < < < , , , > > 1 1 1 > > < < < < < < < < < 0 0 0 0 0 < < 0 0 0 0 0 0 q 0 0 0 q 0 q q q y w q u u f f f u f u f i u u u u l u f u u u f u l f y y y y y y y y g g g g g g h h h h h f f f u u u u f f d g d d y y y q q q q q 1 1 1 1 1 1 < < 1 1 1 1 1 1 1 1 1 1 1 1 1 1 1 1 < < < < < < < 1 < < < < 2 2 < < y q 1 1 q q q q u u f u q y 1 1 1 1 1 1 1 1 1 q d d y u y y y y u u y u y y u g f f f f g g g g g g u y y y y y g f h h y y y y d g f g y y q u f f y g d g g g 1 1 q d d d d y d d g g d d d d y y y y y y d d g g g d d 1 d J d g g g d d d g d g y r g d 1 y g g d y y y y y g g d d J J 1 1 1 1 y 1 y 1 y y 1 1 1 1 1 1 1 1 1 1 1 1 1 1 1 1 d d y d d y d y y y y y y y y y g y g g y g g g k k f f g g g g k k g g g g g g g g g d d d d g d d g g g g f k g g g g y y g g h h h g g g g g g g g g y y y y y y y y y y y y y y y y r r y y r r y y y y r r q q 1 1 q q 1 1 g d d d r 1 1 r y y y y r y y y d d d 1 1 1 1 1 d d d d d d d g f g g d d g d g y d d d d d g g g g g d d d d d d g g d k g g k g g g g g g g k f k g f k g k g g g f g g g g g g g g g g k k k k k k k j k k k k k k k k k k k j j k g g d g g g g g d d d d d d y d d d d d d d d y y y y y y g g d d d y 1 1 r r y y y y y y y y y y u u y y y y y r y y y r y y y y y y y y g g g u y y q q d d d u y y y y d d d y y d g g d d d d d d d d y y y y y y y y g y y y y y y y y y y y y y y y y y y y y y y y d d y y y y y y q y y y y y y y d y y y d d d d d d d y y y d d d d y 1 1 y y d g g d d y y y y y y y y y y d d k k k k g g g g d d d g d g d d d g g g g g g k g d d y y d d g f f g g g d d d y y y y y y y y h g g g h g g y k h g g g g g g g h k h g g g g h h g g g g g g h k k h g g g g k k g d g g g g k j k k k g f f y y y y y y y y r y y y r y y y g f d u u u q u u u u y r 1 1 r r r r r r s s d g g g g g y u u g g g y y y y y u u u y u u y y y y y 0 0 0 0 q y y q y r y y y y y g y y y q y f f g y y y y y y y y y y y u u i u u u l u u i w w i i u i u i u u u i u i i y i u u u u u u u u u u f w f w w w w w q q q y 1 y q q 1 q q 0 q 0 q w 0 q q 0 0 q q 0 < < , < < < < < 1 1 1 1 1 1 < < < < < < , 0 < < < , , , < 1 1 < > < , - ; @ @ > 1 HX                                          ",
"                                                                        1 g O ; @ @ ; < y g 3.;.a.x.0.i.J.J.J.J.v.v.s.a.v.v.J.G.Y.Y.I.I.G.C.V.B.V.V.C.V.C.C.v.V.x.v.B.M.v.v.a.v.0.y.s.y.9.,.9.3.k k 1 1 o . @ @ o . o .                                         J 1 . . . @ S F y.q.6.6.{ { #.$.$.#.#.$.$.$.#.#.#.:.#.,.,.3.y.y.0.0.0.0.y.y.y.y.0.0.0.0.0.0.y.y.0.0.0.0.0.p.p.s.p.s.p.p.p.p.p.i.q.0.0.6.0.q.u.u.6.6.6.6.6.6.q.u.4.4.4.:.:.:.4.5.e.e.q.e.q.e.q.4.6.4.q.e.q.e.5.e.q.e.q.q.q.q.e.5.q.e.q.q.q.q.q.q.e.e.e.e.5.4.e.e.w.0.0.0.0.w.w.p.y.u.p.p.p.p.p.p.0.q.q.q.q.q.q.q.e.6.u.u.p.k.a.a.s.p.p.u.u.u.u.u.q.q.q.q.q.u.u.u.p.u.p.u.u.u.u.p.u.u.p.p.j.p.u.u.p.u.u.q.q.0.6.6.6.6.4.4.4.6.0.q.u.u.u.q.u.p.j.j.j.q.p.u.q.u.6.q.y.y.0.0.y.y.s.u.y.0.0.y.s.p.s.s.u.y.y.u.s.s.s.s.s.p.a.a.a.a.a.p.j.j.j.k.v.v.v.M.a.a.v.v.v.v.v.v.a.a.k.v.v.v.v.v.j.j.a.a.a.a.a.a.a.a.x.v.v.v.v.v.v.v.v.v.v.v.v.v.v.v.v.v.x.x.a.a.s.p.y.s.s.y.s.u.u.u.p.s.p.p.a.v.a.a.p.p.M.M.M.M.p.s.s.s.p.a.a.v.p.s.s.s.s.p.p.p.s.y.p.s.v.v.M.v.a.a.v.v.v.v.a.a.v.v.M.M.M.M.M.M.a.k.a.k.a.u.a.a.j.j.p.a.a.k.v.v.v.v.B.C.V.C.G.J.B.B.B.C.C.G.J.J.C.C.C.C.C.C.C.C.C.C.B.C.C.C.C.C.N.B.B.B.B.B.B.C.B.V.N.V.C.C.G.C.C.G.G.J.G.G.G.V.B.V.C.C.C.C.V.V.V.B.B.B.B.B.B.B.M.M.M.M.M.M.M.M.M.M.M.M.M.M.v.v.M.M.v.M.M.M.M.M.v.v.M.M.M.M.B.B.M.v.v.v.v.v.M.M.M.v.v.M.M.M.M.M.M.M.M.M.v.v.v.v.a.a.v.v.v.x.a.a.C.C.C.N.M.M.C.C.B.B.B.C.C.C.C.C.M.M.B.M.G.C.G.J.C.J.J.J.J.G.C.C.C.S.C.C.C.C.P.P.Y.Y.HXY.P.P.C.S.C.C.B.B.B.C.C.J.C.C.C.C.J.J.C.C.B.B.B.B.C.C.C.C.C.C.C.N.M.M.M.N.B.B.B.B.N.N.B.B.B.B.B.B.B.B.V.C.B.B.M.B.B.B.M.M.v.v.M.M.V.B.B.B.v.v.M.M.M.M.M.M.M.M.M.M.M.M.M.N.M.M.M.v.M.M.M.M.v.M.M.M.B.B.B.B.M.v.v.M.B.B.B.N.M.M.M.M.M.M.M.N.M.M.M.M.M.M.M.B.B.M.M.M.M.M.B.B.M.M.B.B.B.B.B.M.B.M.M.M.B.B.C.C.B.B.B.B.B.B.B.B.B.B.B.B.B.B.B.B.V.B.B.B.B.B.B.B.C.B.B.B.B.C.C.C.B.B.B.B.B.B.V.V.B.B.B.B.B.V.C.V.B.B.B.B.B.B.C.C.V.B.B.V.C.C.S.G.C.V.V.B.B.B.C.C.a.M.M.M.M.v.v.v.C.C.G.G.G.G.T.P.C.C.C.C.B.C.C.C.v.M.M.M.N.B.B.V.N.N.B.B.C.C.S.S.V.G.P.P.P.I.U.Y.J.J.C.G.J.J.J.C.B.B.B.V.S.J.J.J.S.J.J.J.J.J.S.S.C.C.C.G.G.J.J.P.C.C.C.J.J.P.I.U.G.G.J.J.P.J.J.J.V.C.N.M.B.B.V.C.C.J.J.J.J.J.G.G.J.J.J.J.C.V.V.V.v.v.k.j.b.N.N.N.N.V.B.C.C.C.G.G.V.G.T.P.I.Y.Y.Y.J.J.P.P.P.J.P.P.C.C.C.C.G.J.J.J.C.S.J.J.J.J.I.K.L.L.L.A.A.A.A.J.A.V.V.V.C.C.H.H.B.C.V.n.V.V.N.V.V.V.V.V.V.V.C.C.C.V.V.V.A.A.A.A.n.n.j.j.j.g.g.q.g.g.h.l.l.l.l.l.b.b.b.b.b.n.l.j.j.j.j.k.n.n.n.n.n.n.l.l.g.g.5.e.5.5.4.4.4.4.q.q.v.a.j.j.j.j.j.j.l.l.l.g.j.j.g.j.j.j.j.u.u.q.q.q.4.4.4.6.0.9.9.9.0.0.0.u.u.u.u.u.4.4.4.4.4.4.4.4.:.:.,.,.y.0.S b o o @ . s.                                          ",
"                                                                        g k O @ . . , ; g 1 3.3.v.p.0.i.J.I.J.J.v.v.s.p.x.M.J.J.SXSXI.I.J.C.v.v.v.v.V.v.J.C.M.V.a.v.B.M.v.v.a.a.y.y.y.y.,.,.3.3.g d 1 1 # @ @ @ . . . o                                         d d o . . o S F u.u.6.6.} } #.#.:.:.$.#.$.$.#.#.,.3.;.,.,.,.s.s.y.y.y.y.y.y.y.y.0.0.0.0.0.0.y.y.0.0.0.0.y.p.s.s.p.p.i.i.i.y.0.0.0.3.3.3.0.y.u.u.q.q.0.4.4.4.e.e.4.4.:.:.4.4.5.e.4.5.e.q.q.e.7.4.e.4.q.q.e.e.4.4.j.g.q.q.q.q.5.4.5.5.q.q.5.5.q.q.e.q.e.5.4.&.5.e.0.0.0.0.0.p.u.u.y.p.s.s.s.s.p.p.u.q.q.q.q.q.q.q.4.4.g.u.j.v.a.v.j.j.k.j.p.u.u.u.0.0.q.q.u.p.p.p.p.p.p.p.p.p.j.j.p.p.p.p.p.p.u.u.u.u.u.q.q.0.0.6.6.4.4.,.4.0.q.u.u.u.u.u.j.j.j.l.j.j.j.j.p.p.u.q.y.0.6.y.y.u.s.s.y.0.0.y.p.a.p.s.y.q.q.y.s.p.p.s.s.s.a.a.a.a.p.s.u.p.j.k.v.v.v.M.a.a.k.v.v.v.v.v.a.a.s.p.a.k.k.j.k.k.k.k.a.a.a.a.a.a.a.a.a.a.x.v.a.a.a.a.x.v.v.v.a.a.a.x.x.a.a.a.p.a.y.s.0.6.u.s.p.u.p.s.p.a.M.M.a.a.p.p.a.v.v.M.a.a.p.s.p.a.v.v.p.p.p.p.s.s.s.s.0.0.p.s.B.M.B.M.a.a.v.v.v.v.a.a.x.v.M.M.M.M.v.v.a.M.a.a.p.y.a.a.p.j.a.a.k.v.v.v.a.x.B.G.V.C.G.G.B.B.V.C.C.C.G.J.C.C.C.C.C.C.B.B.N.M.M.M.C.C.C.C.N.B.C.B.B.M.N.M.M.v.v.v.C.J.J.J.V.C.C.J.G.G.G.V.B.B.V.C.C.C.C.C.C.C.B.B.B.B.B.C.M.M.M.M.M.M.M.M.M.M.M.M.M.M.v.v.M.v.v.v.M.M.M.M.M.v.M.M.M.B.B.B.v.v.v.v.v.v.M.M.M.v.v.M.M.M.M.M.v.M.M.M.v.v.v.x.v.M.a.v.a.s.v.v.C.C.C.C.N.B.C.C.B.B.B.B.B.B.B.C.M.M.B.M.J.C.J.J.C.J.P.P.J.C.C.V.C.P.C.C.B.M.P.I.Y.Y.HXAXP.P.M.C.M.M.B.B.B.C.C.C.M.N.C.C.P.P.J.J.N.M.M.N.C.S.P.J.C.N.M.M.M.N.N.B.B.B.B.N.N.N.B.B.B.B.B.B.B.B.C.C.B.B.M.B.B.B.B.M.v.v.v.M.B.V.B.M.x.v.v.M.M.M.B.B.M.M.M.M.M.M.M.M.v.v.v.v.v.M.M.M.v.v.M.M.B.B.B.B.v.k.k.v.B.V.B.M.v.v.M.M.v.M.N.V.v.M.M.M.M.M.M.M.M.M.M.M.M.M.B.B.M.M.M.B.B.B.B.B.M.v.v.v.M.B.B.B.M.M.M.M.B.B.B.B.M.M.B.B.B.B.B.B.B.B.B.B.B.B.C.C.C.B.B.B.B.B.C.C.B.B.B.B.B.V.C.V.B.B.B.B.V.V.C.B.B.B.B.B.B.B.C.C.B.B.B.V.C.C.S.J.V.V.B.B.B.B.C.C.M.M.M.M.M.M.M.M.C.G.P.P.G.G.P.I.I.P.C.C.M.B.M.B.k.v.M.B.B.V.V.V.M.M.M.B.V.C.S.S.B.J.I.U.I.P.U.Y.Y.I.J.J.C.J.C.C.M.M.B.V.C.J.J.J.J.J.J.P.P.P.J.C.C.C.C.G.G.J.J.P.C.C.C.J.P.U.Y.U.V.C.G.J.P.P.J.J.B.C.v.v.C.C.S.J.C.J.J.J.J.J.J.J.J.J.J.J.C.B.B.v.j.j.j.j.b.V.N.V.v.b.N.C.J.J.J.G.B.Z.T.I.I.Y.Y.Y.I.I.U.I.P.P.P.P.C.C.G.G.J.J.J.J.J.J.J.J.J.I.I.U.AXL.L.A.A.H.L.L.A.A.A.C.H.H.J.J.V.V.n.v.V.V.n.V.V.V.V.V.C.C.C.C.C.C.F.C.A.V.A.A.A.D.g.h.h.g.h.f.g.h.h.b.m.b.b.z.m.m.b.b.b.n.l.j.l.j.j.v.b.V.b.b.n.b.b.b.g.g.4.4.g.g.7.7.4.4.u.u.j.a.j.n.k.j.j.j.l.l.g.g.j.j.l.n.j.j.j.j.u.q.q.q.4.4.6.0.0.0.0.0.0.0.y.p.u.u.u.q.4.4.4.4.4.4.4.4.:.#.;.,.s.y.S k o . o o p.                                          ",
"                                                                        g k . . S F #.,.D F #.#.a.v.V.V.J.J.I.SXI.I.I.I.I.P.J.J.I.Y.Y.DXY.Y.P.J.C.C.J.J.DXY.C.C.v.v.a.a.x.v.C.J.G.V.v.a.;.#.D D j j Z S 1 J > 3 . o > >                                         2 2 o o o o S D ,.6.:.:.] ] } } 4.4.:.$.$.$.$.$.$.:.F { F F 3.3.3.9.y.s.v.v.M.M.p.s.i.i.p.p.a.a.a.a.a.a.x.v.x.x.v.v.M.B.v.v.x.a.0.0.q.q.p.k.k.j.j.j.q.6.4.:.:.4.&.&.$.&.4.7.7.7.7.5.q.g.g.q.5.5.q.g.l.l.g.q.7.7.q.q.5.7.4.&.$.[ q.g.h.h.g.g.g.h.4.5.&.$.[ [ $.&.4.,.4.e.q.u.u.u.j.n.v.v.v.v.v.v.u.q.5.4.&.&.&.&.e.e.l.k.N.B.v.M.k.v.b.v.k.u.u.q.q.q.q.u.a.k.k.j.j.j.p.p.p.j.j.k.k.p.u.u.u.u.q.q.j.j.j.j.j.j.j.j.0.6.6.6.q.u.p.j.u.u.p.k.l.n.n.n.b.n.b.b.N.N.j.p.y.y.y.u.s.a.a.a.a.p.s.a.v.v.a.s.y.y.u.p.a.v.v.v.k.k.k.a.a.a.a.a.v.b.V.A.J.J.S.C.J.J.J.J.J.J.J.J.J.C.V.V.C.C.A.V.V.V.C.V.V.v.v.v.B.B.C.C.C.C.C.C.C.C.C.C.C.G.J.J.C.C.G.J.J.J.G.C.C.P.a.p.3.,.3.3.y.3.y.y.M.M.J.P.C.C.C.C.M.M.M.M.v.v.x.a.a.a.a.x.a.a.a.a.a.s.y.y.9.0.a.a.C.B.C.B.C.V.B.M.M.M.M.B.M.M.M.B.B.C.C.B.a.a.6.6.6.3.s.u.u.u.y.u.s.s.s.s.M.B.P.U.G.G.P.G.J.P.J.J.J.J.J.J.J.J.J.J.J.J.C.B.M.N.C.C.C.S.J.J.C.C.C.C.C.M.M.v.p.s.v.v.S.S.J.J.J.J.J.J.H.J.G.G.G.G.J.J.P.P.J.J.J.J.J.G.C.C.C.C.C.C.C.C.C.C.C.C.C.C.C.C.C.V.B.B.B.V.V.B.V.V.C.C.G.C.C.C.F.V.V.V.V.C.C.C.C.C.C.C.C.C.C.C.C.C.C.B.G.J.J.J.J.J.J.J.C.C.s.s.y.y.B.B.I.I.P.P.P.P.P.P.C.C.J.C.C.C.B.M.B.B.J.J.HXHXGXGXHXGXGXGXGXHXHXHXY.Y.C.C.C.C.Y.AXHXHXJXJXHXHXP.I.M.M.C.C.C.B.B.B.C.C.P.I.Y.Y.Y.Y.N.M.M.C.S.P.P.P.C.N.M.M.N.C.C.C.C.C.J.J.J.S.S.S.J.J.G.G.G.J.J.J.C.C.G.J.J.J.C.C.B.B.B.B.C.C.B.B.M.B.B.V.C.C.C.C.C.C.C.V.B.B.B.B.V.B.B.B.B.V.V.B.B.B.V.V.C.C.C.C.N.M.M.N.V.C.C.C.B.B.B.B.B.C.C.C.C.C.C.C.C.C.C.C.C.C.C.C.C.C.C.C.B.B.V.C.G.G.G.C.B.M.M.M.B.B.B.B.B.B.B.B.V.C.C.C.B.C.C.C.C.G.C.C.C.C.C.G.J.J.J.G.J.G.C.C.C.C.C.J.C.C.C.C.J.J.J.C.C.C.G.J.J.G.C.C.V.V.V.C.C.C.S.S.S.S.S.J.J.J.J.J.G.G.G.G.G.J.J.J.M.M.M.a.a.a.k.M.P.I.I.I.I.I.I.Y.Y.Y.P.J.M.M.v.M.k.v.N.V.C.V.V.V.M.M.M.M.N.B.B.B.U.SXHXHXHXDXDXHXHXDXP.J.B.B.M.B.V.C.C.J.P.P.P.J.J.J.J.P.I.P.S.V.B.B.C.C.C.V.C.C.C.C.C.J.P.I.P.P.J.P.U.SXDXDXDXDXv.v.p.p.N.V.V.J.V.V.C.C.C.V.V.V.C.F.H.H.C.V.V.V.q.q.e.q.j.j.j.j.k.k.v.V.C.J.C.B.T.I.SXSXSXSXHXHXU.U.U.P.J.S.C.C.J.J.J.J.J.J.J.J.J.J.J.J.J.J.L.L.L.A.m.m.m.m.m.A.A.H.J.J.J.L.J.K.V.V.v.v.C.H.V.J.J.H.H.H.J.J.C.C.H.H.J.J.A.A.A.A.D.D.g.h.7.*.f.5.h.h.l.m.m.m.m.m.m.m.m.m.m.m.l.h.q.w.j.j.n.b.l.l.j.l.l.z.q.q.&.&.[ &.[ } $.%.j.j.w.j.j.n.n.l.j.j.g.g.q.q.l.b.n.n.j.j.j.j.u.q.0.0.:.:.4.:.,.,.,.:.0.0.w.q.q.0.e.e.$.$.@.@.@.+.@.$.$.} F F 0.3.j k . # @ o s.                                          ",
"                                                                        g g o . D S 3.:.S S #.#.p.a.V.V.L.I.Y.Y.I.J.P.J.J.J.J.J.L.Y.DXDXY.Y.J.J.V.V.J.J.DXY.G.C.M.M.a.v.v.v.V.V.G.V.v.a.#.#.S D g k S F J d 3 > o . > > JX                                      J J o . . . S S 6.6.:.%.] ` [ [ 5.4.4.%.$.$.$.$.:.,.{ #.{ F 3.3.,.6.y.a.v.v.v.v.a.s.i.i.s.p.x.x.a.a.a.a.x.v.v.x.v.v.M.B.M.v.a.i.6.0.q.u.a.j.j.u.j.j.q.e.4.%.&.&.$.$.$.&.4.5.5.5.4.7.5.q.q.q.5.5.5.g.l.l.g.5.&.&.g.g.q.7.&.[ [ $.q.g.h.h.e.e.g.g.5.5.&.@.[ [ $.$.%.%.4.0.w.j.j.j.j.n.v.v.v.v.v.v.j.q.5.4.&.&.&.&.5.5.l.k.N.S.v.M.k.v.N.b.v.u.q.0.q.q.u.p.k.v.k.j.j.j.j.j.k.k.v.v.v.j.u.q.q.q.q.q.p.p.p.j.j.j.j.j.6.6.4.6.q.p.j.j.u.u.j.k.b.b.n.n.b.b.N.V.A.V.j.u.6.y.u.s.p.p.p.p.a.p.a.k.k.k.k.p.y.u.s.a.a.k.v.v.v.v.a.a.p.p.p.p.k.v.V.J.J.J.J.C.J.J.J.J.J.C.G.J.C.C.B.V.V.C.A.A.V.A.C.V.V.v.v.v.B.B.C.C.C.C.B.B.V.C.C.C.C.C.C.C.C.C.G.J.J.J.G.C.J.P.p.p.3.,.0.3.y.3.y.y.v.M.J.P.C.C.P.P.M.a.M.v.x.x.x.x.a.a.a.a.a.a.a.v.a.p.y.0.3.0.x.v.G.B.G.V.C.C.V.B.B.M.M.M.B.B.M.B.B.B.C.B.M.k.3.,.3.3.a.s.u.u.u.s.s.s.i.y.v.M.P.Y.G.G.P.P.P.P.P.J.J.J.J.J.J.J.J.J.P.J.C.M.M.M.C.C.C.C.S.S.S.J.J.J.C.M.k.s.y.p.v.v.J.S.J.J.J.J.J.G.G.G.J.J.J.J.J.J.P.P.J.J.J.J.J.J.G.C.C.C.C.C.C.C.C.C.C.C.C.C.C.C.C.C.B.B.V.V.V.B.V.V.C.C.G.C.C.G.G.G.G.F.V.C.G.G.G.C.C.C.C.C.C.C.C.C.C.C.G.J.J.J.C.C.G.J.G.J.s.s.y.0.C.C.I.I.P.I.Y.Y.I.J.C.C.J.P.C.C.B.M.M.M.C.J.GXHXGXHXHXGXGXGXGXHXHXHXDXY.C.M.M.C.Y.HXHXHXJXJXHXHXC.P.a.M.C.J.C.B.M.M.B.C.S.I.Y.Y.Y.Y.M.M.M.C.S.P.I.I.N.M.M.M.N.C.C.C.B.C.J.J.J.J.S.S.J.J.J.J.J.J.J.G.V.C.J.P.P.J.G.G.M.M.B.B.C.C.B.B.M.B.B.V.C.C.C.C.C.C.C.V.B.B.N.M.M.M.B.B.B.B.B.B.V.V.B.B.B.C.C.C.v.v.v.M.B.C.S.J.B.B.B.B.B.V.C.C.C.C.C.V.C.C.C.C.C.C.C.C.C.C.V.B.B.B.B.C.G.G.C.C.M.v.v.v.M.B.B.B.B.B.B.B.B.V.C.C.B.C.C.C.G.J.G.G.C.C.J.J.J.J.J.C.J.J.J.J.G.C.C.C.C.C.C.G.J.J.G.C.C.J.J.J.J.C.V.V.V.V.C.C.C.C.S.J.C.C.C.S.J.J.J.J.C.C.G.G.J.J.J.J.M.M.M.p.u.p.k.M.I.I.I.Y.Y.Y.Y.I.Y.Y.P.P.M.M.a.v.v.v.B.C.C.V.V.V.M.v.v.M.M.B.B.B.Y.Y.DXHXHXHXHXHXHXHXU.P.M.M.M.B.B.B.C.S.J.P.P.P.J.J.J.P.U.P.S.B.M.B.C.C.C.C.C.C.C.C.G.J.I.U.I.P.J.J.I.SXDXDXDXDXa.v.u.p.V.V.C.J.V.C.H.C.V.V.C.C.F.H.J.H.C.V.n.v.e.e.e.q.j.j.j.k.j.j.v.V.J.J.C.B.T.I.SXSXSXSXHXHXY.U.U.P.J.J.S.S.J.J.J.J.J.J.J.J.J.J.J.J.J.J.I.U.L.A.m.m.m.A.A.m.A.H.L.L.L.L.K.K.n.n.a.j.V.A.V.H.J.H.A.H.L.J.H.V.J.J.J.J.A.A.A.A.D.A.h.h.*.*.f.f.h.h.z.m.m.m.m.m.m.m.m.m.m.m.l.h.q.j.j.n.b.b.b.l.l.b.z.m.q.g.$.&.[ &.[ $.&.%.j.j.w.u.j.n.b.n.l.j.g.g.e.g.b.D.b.n.j.j.j.j.u.q.q.q.4.4.4.4.:.3.3.3.0.0.p.q.e.6.e.q.$.&.&.@.[ ] @.$.D D #.o.0.3.j k o o . o p.                                          ",
"                                                                      a.d d > > ,.3.v.n.3.3.i.i.H.J.K.K.FXFXFXGXGXGXGXFXFXFXDXFXU.U.SXU.L.U.B.V.p.i.p.p.B.M.M.v.V.V.J.F.J.J.U.SXK.K.V.G.0.y.;.;.F #.y.s.;.>.;.;.< 1 1 1 > > 1                                   J J o o O O Z M :.$.S N u w x x [ [ _ ` x V V V S M j c S F F F N N $.%.u.u.6.6.6.6.3.3.9.0.0.0.0.0.0.0.3.3.3.0.y.0.y.0.y.0.3.;.S D { $.:.4.4.4.e.5.4.4.&.$.$.[ _ ' [ [ $.$.$.@.&.&.&.@.[ @.$.$.q.5.q.q.q.7.[ N [ [ _ _ } [ } } &.5.e.e.5.5.&.&.*.&.&.[ ' ' [ [ [ N $.$.q.q.w.0.0.0.0.0.j.u.q.q.j.j.4.&.[ } $.$.[ $.:.q.u.u.u.u.,.:.>.:.:.#.} { D S { { 6.6.q.6.:.:.#.:.:.,.:.:.6.,.#.F F F F #.;.;.:.:.:.3.,.:.:.:.$.$.$.%.:.4.4.,.:.%.:.:.4.4.0.4.:.4.q.0.3.;.{ { { #.>.3.3.3.3.>.:.:.:.,.4.,.:.:.:.:.,.3.,.,.3.3.3.,.:.:.$.$.0.0.0.w.p.u.p.0.0.0.0.0.0.0.w.w.0.0.0.0.0.0.q.0.q.0.6.3.,.,.,.,.9.3.3.3.3.3.9.0.,.,.,.3.3.9.9.9.9.9.3.3.9.8.0.0.i.y.,.#.S D S F D D F D 0.0.a.x.v.M.B.B.a.y.3.,.;.;.,.3.3.9.9.9.3.,.,.,.,.,.;.;.#.;.,.6.y.y.y.y.s.s.y.6.3.3.0.q.y.0.0.0.0.0.0.0.0.0.#.#.#.#.6.6.3.0.0.6.,.;.;.;.6.y.p.v.M.v.a.s.p.p.p.p.p.p.p.p.a.p.p.p.a.a.s.u.y.y.y.u.s.s.s.u.s.s.s.p.a.s.y.3.;.,.6.y.a.k.v.v.a.a.a.a.s.p.s.s.k.k.k.k.a.p.p.s.a.a.a.a.a.a.a.a.s.s.s.s.s.s.s.s.a.s.s.p.i.i.i.y.i.i.p.p.p.p.p.p.p.p.p.p.p.p.p.p.p.p.s.p.s.s.s.s.a.p.p.p.p.p.s.p.p.s.i.s.s.p.s.i.p.i.y.3.;.,.0.s.B.M.v.v.v.M.M.v.x.a.s.s.s.s.i.0.0.0.i.p.G.J.J.J.C.C.B.B.C.C.B.B.B.B.i.y.0.0.v.v.G.C.C.B.v.a.a.a.y.i.s.a.a.a.a.p.y.y.y.p.v.v.v.v.p.u.u.u.p.k.k.v.u.u.y.q.y.u.s.a.a.a.a.a.a.a.a.a.a.a.a.a.a.x.a.a.a.a.a.a.a.a.a.a.s.s.s.s.s.s.s.s.i.s.s.a.a.a.a.a.a.p.s.a.a.a.a.p.s.s.s.s.p.a.a.a.s.p.p.p.s.s.s.p.y.0.0.0.p.a.a.a.s.p.y.p.p.a.x.x.a.a.p.p.a.a.a.p.a.a.p.a.a.a.a.a.s.s.s.p.a.k.v.v.y.0.3.0.s.k.a.p.a.p.p.a.a.x.x.x.a.a.a.a.x.v.v.x.v.v.k.k.v.v.a.a.a.a.a.k.v.v.k.k.a.a.a.a.a.a.a.a.a.a.a.a.a.a.a.a.p.s.s.s.p.a.a.a.s.s.p.a.a.a.k.v.p.p.a.a.a.a.v.v.a.a.s.y.0.y.s.p.R.R.M.M.M.M.M.v.M.v.a.s.p.a.v.v.s.s.s.a.k.v.v.k.v.a.s.u.y.s.a.k.C.V.C.C.S.S.C.C.S.C.M.k.s.y.s.p.u.s.a.k.v.v.v.k.v.v.v.v.v.a.a.p.s.s.s.a.v.M.M.M.a.p.p.a.v.M.M.M.a.a.a.v.M.C.C.C.y.0.9.9.y.s.a.a.v.v.j.p.p.p.w.w.p.p.p.p.w.w.w.q.w.q.e.e.e.e.q.q.q.0.q.0.p.v.B.B.x.x.M.V.G.G.J.J.J.V.B.M.N.B.V.V.v.v.v.v.M.M.B.B.M.M.v.a.a.a.k.v.b.j.q.e.q.j.n.n.j.u.u.j.v.n.n.v.n.j.w.q.q.w.j.j.m.m.b.n.n.j.j.p.v.v.v.v.n.v.j.j.g.q.7.*.*.*.-.*.h.h.h.h.h.h.h.f.h.h.h.h.h.g.e.5.&.5.q.g.g.g.g.g.j.j.g.g.5.&.$.[ [ [ ' ` [ $.4.q.q.0.5.6.e.q.q.e.$.} $.$.g.g.j.j.g.q.6.4.,.:.:.:.%.@.} } { { #.#.0.3.u.q.6.e.&.&._ _ ' _ p x z N #.#.o.#.,.;.k g o o . o a.                                          ",
"                                                                  a.a.s.d 1 > > 3.3.v.v.9.,.0.0.H.H.K.K.FXFXFXGXFXFXGXFXFXFXDXDXU.K.U.SXL.K.F.H.i.i.p.p.B.v.v.a.V.V.H.J.H.H.K.K.L.K.C.C.0.0.;.;.F #.3.y.>.,.;.;.2 1 < 1 > < q q                                 J J o o O @ M M :.:.N N w w p p [ ' ' ` x N V V M M c V S F D D N A :.%.q.q.6.y.6.3.,.3.3.9.9.0.0.0.0.6.3.3.3.6.0.0.0.0.0.6.3.,.F F $.$.:.4.4.4.5.4.4.%.$.@.@.$.` ` [ [ @.$.$.$.&.&.&.$.@.@.$.%.e.5.g.q.5.4.[ [ [ _ N _ [ [ [ } 4.5.e.e.5.4.4.&.@.@.@.[ [ ` ' [ [ ] $.$.0.5.q.0.q.q.0.q.w.w.q.q.q.g.&.&.[ [ [ [ [ [ :.e.u.u.u.u.:.:.:.:.$.#.{ { F D { { 6.6.6.4.:.:.:.:.,.,.,.:.6.,.:.#.{ { #.#.:.:.:.:.:.4.4.:.:.%.:.$.%.%.4.4.4.:.:.:.%.:.:.4.6.4.3.4.0.6.,.:.{ #.{ #.;.3.3.2.;.;.;.:.:.:.,.,.,.:.:.,.,.3.3.,.3.3.3.,.,.:.:.:.0.0.0.0.p.p.q.0.0.0.0.0.q.q.0.0.0.0.0.0.q.0.0.0.0.6.3.,.,.>.>.,.0.9.3.3.3.9.9.9.3.3.3.3.3.9.0.0.8.8.9.9.9.8.0.0.y.0.;.#.D D D D D D o.F 0.0.a.x.v.M.v.x.a.y.0.9.;.:.,.3.3.3.3.3.3.,.,.,.,.,.,.:.;.;.,.3.0.0.y.0.y.y.0.6.3.3.6.y.q.q.0.0.0.0.0.0.,.3.#.#.#.#.,.,.3.3.0.3.,.:.:.:.y.u.a.v.v.k.a.a.a.a.a.a.a.p.a.a.a.a.a.a.a.a.p.s.y.y.y.u.s.s.s.u.a.p.s.p.a.p.s.y.,.3.0.y.s.a.a.a.a.a.a.a.a.p.p.p.k.k.k.k.a.a.p.p.a.a.a.a.a.a.a.a.p.p.p.p.p.p.p.p.a.a.p.s.s.s.s.s.s.s.p.s.p.p.p.p.s.s.s.s.s.s.p.p.a.a.p.p.p.p.p.p.a.p.s.p.a.a.a.p.a.p.s.s.p.a.p.s.y.0.0.0.,.3.y.i.M.v.v.v.v.v.v.v.a.a.s.s.s.s.p.y.0.0.s.a.C.C.G.G.C.C.B.B.C.C.B.B.M.B.s.s.i.y.v.a.C.C.V.B.v.a.a.a.s.s.s.a.a.a.a.a.s.s.s.a.v.v.v.k.j.p.u.u.j.k.v.v.u.u.u.y.y.s.s.p.a.a.a.a.a.a.a.a.a.a.a.a.x.x.x.x.a.a.a.a.a.a.a.a.p.p.s.s.p.p.p.s.s.p.a.a.k.k.k.k.a.a.a.a.k.k.a.a.a.p.p.a.a.a.a.a.a.a.a.a.p.p.a.a.s.p.i.p.p.a.a.a.s.p.p.s.a.x.a.a.a.a.a.a.a.a.a.a.a.a.a.a.a.x.a.a.s.s.p.a.a.k.v.v.s.y.y.y.p.a.k.a.a.a.a.a.x.v.v.x.a.a.a.a.x.v.v.v.v.v.v.v.v.v.a.a.k.k.k.v.v.v.v.k.a.a.a.a.a.k.a.a.a.a.a.a.a.a.a.a.p.p.p.p.p.a.a.a.p.p.a.a.a.a.k.k.p.p.a.a.a.a.v.v.p.p.u.y.y.y.y.s.M.R.R.M.M.M.M.a.v.x.a.a.a.v.v.v.a.a.a.a.v.v.v.k.k.a.p.s.s.p.a.k.C.C.C.C.C.C.C.V.J.C.B.v.s.u.u.s.p.p.a.k.v.v.k.a.v.v.v.v.v.k.a.a.p.p.p.a.v.M.v.k.a.a.a.a.v.M.M.M.M.v.k.M.M.C.C.C.s.y.0.0.y.s.a.a.j.j.u.u.p.p.p.w.p.a.j.j.j.j.j.j.q.q.e.e.e.e.q.q.0.0.q.u.a.v.B.B.M.M.M.V.G.G.J.J.C.V.B.B.V.C.C.C.M.M.v.v.M.M.M.B.M.M.v.v.k.k.v.b.k.j.q.q.q.j.j.j.j.j.j.j.v.v.n.n.j.w.w.q.q.g.j.h.m.m.m.b.n.j.j.j.v.v.v.v.n.n.j.j.j.g.e.*.5.*.*.*.h.h.h.h.h.h.h.h.h.h.h.g.g.h.g.e.5.5.q.q.g.g.g.g.g.j.j.g.5.&.&.&.[ [ ` ` } $.:.4.0.e.6.6.e.e.q.e.$.$.%.:.g.g.j.j.g.q.6.4.:.:.4.4.$.@.$.@.{ #.#.#.q.0.p.q.e.5.&.&.' ' _ _ a x x N #.#.o.o.>.;.k k o o . o a.                                          ",
"                                                                @ . @ @ > d g g #.#.a.c.w.w.n.n.H.L.K.K.FXFXGXJXGXGXJXJXFXFXFXFXK.K.SXSXV.n.c.p.i.i.p.i.v.p.y.0.V.V.J.J.K.L.SXU.SXSXJ.L.a.x.i.s.0.y.s.s.y.y.,.3.d d 1 1 @ O @ #                                 J J o o @ @ S S { { z c p p x x _ _ _ _ x f u u M M S S F S c h u y h h M M j M j j j j V V V V V V c c c c c c c c c c c c c c k k k j c M Z M A N V c c c V N l l l l l v v v v v v v z z v v N N _ N x x p l x x p p x N N N N N B B N N V V N N ` ` N N N N x x N x ` N ] ] ] ] N N ] ] N ` ` ` x _ x _ _ _ x x x _ _ N v z z z z l l f l l u w f l v z v v v c c c c c c c c c c f f f f h l z l l z z z z x x z x x z x x z x z z z x x z z V N N N z z h k k k k j j j j j k k h j b V V b b j b M M M b M M M M M M M V M N S S F F D S M S S D D S S S S S M M S S M M S S S M M M M M M M M M M M M M M M b b M M M M M M M b M M M M S S b b h j k h h k h g S M S S o.D S S S S M j h h j j V V b b c c j j j j c c j j j c M Z Z M M M M Z M M Z Z M Z S S S S S S M S M M M c Z M M M M M M M c c M M M S S S S M M M Z M M M M M S M M M Z Z M c M M M Z Z Z Z M M c j j c c j k j j j M M S S M V M M M M M M Z S Z S S Z M Z Z M M M M M M M M M M M M M M M M M M V V b M b b b b b b b b V V j b b V V b b b V V b b j j j j b b b b V V V V b b b b b b b V M M M M M M S S M M M M S S M M S Z M M M M M V M M M M D S S S S S S S D S Z S S D M M M h M M M M M M M b b M M M M M M M M M M M M M S S S S A M M M M A A S M M M M M M S S S S S M M M M M M M M M M M M M M M M M M M M M M M M M M M M M c c M M M M M M M M M M M M M M M M M M M M M M M M M M c c M M M M j j M M M M j j M M M M M M M M M M M M M c M M M M M M M M j j c c M M M M j j j j c M M M M M M M M M M M M M M S S S S S S S M M M M M M M M M M M M M M M M M M M M M M M M M M M M M M M M M M M M M M M M M M M M M S M M Z Z Z Z S S Z S S S Z Z Z S Z Z Z Z Z S Z Z Z M M M M S S S S S S S D S S S S S S M M Z S S S S S D S S S S S S S M M M S D M M M S S S M M Z Z S S M M Z Z Z Z Z Z Z S Z Z Z M c M Z S S S Z Z c M Z S S S S M M M M S S S N N M M M V V V V V N V V V N N ] B N N N ] D D A S S S D D D D b S S S D F F F S S S D F F F D F F D D D D D D S S D S S S S A ] ] ] ] ] ] ] ] D N D D S D F D D D D B ` ` ] ] ] ] } } ] N N N D F F D D B B ` m N m _ [ [ [ [ [ [ [ [ ' ' ' ' ' ' ' ` ` ` ] ] [ ] ] } } } } ] ] } } ] N N N N ` _ v m N N D D V M N N A A A A v v v v ] } } } #.} ] S S S F F A N A D S M S S #.#.:.$.@.} ] ] _ ' _ _ p a x V #.#.o.o.;.;.g g o o o o p.                                          ",
"                                                                o . @ @ 1 y y g F F p.p.p.w.n.n.H.H.K.K.FXFXGXGXGXGXJXJXGXFXFXFXK.K.SXSXV.V.n.v.y.i.p.i.a.y.0.0.C.C.J.L.L.L.K.L.K.SXJ.J.x.v.p.a.y.y.0.0.y.y.;.3.y y 1 1 o # @ @                                 1 J o o @ @ S S { { z z w u a p _ _ _ N x u f u M M S S F S V z h h k h h h k h k k h h j c c c c c c c z z c c z c c z l l c c j k k j c Z Z Z N M c c c M A S z v l l l l v v v v N N v v v v N N _ N x x x x l l p l x N N N B B B B N N V V V N N N N N V V x x N x N N D B B B N N B B N ` _ _ _ ' _ _ _ _ x x x x v v v z z z z l l l l z l l l l l z z z v C C C c c c C k c c c c k k c l z l l l l x z x x x x z x x x x z z z z z z z z z V z z l z l j h h h j j j j j k h j n b b b M M b b M M M M M M M M M M S S N M M S S S S S M M S S S S S M S S M M M M M M M M M M M M M M M M M M M M M M M M M b M M M M M M b b b b M M M M b M b M b b j h j k M M M M D S M M M S S M j j j j j b b b j c j j j j c M c c j c c c c j j j M M Z M M M M M M M M M M S M M M S S M M M M M M M M M M M S S S S S S S S S S S S S S M M S S M S S S S Z M M M M M Z M c Z M M c M M M c c c c M M M M c M M M M Z S S S S S S S S S S S M M Z S S S S Z M M M M M M M M M M M M M M M M M M V M V V V V V V M M M M V V M M M M M M M b M M M M M M M M M M M M M M M M M b M M M M S M M M M M S S M M M M M M b b M M M S M M S S M S M S S S S S M Z M S M S S M S M M M M M M M S S M M M M Z Z Z S S S S S S S S S S S S S A A S S S S Z Z S S S S S S S S M M M M M M M M M M M M M M M M M M M M S S S M S M M M M M S S S S S S S M M M S S S M S S M M M S M M S S M M M M M S S S M M M M M M M M M S S S M M M M M M M M M M M M M M M M M M M M M M M M M M M M M M M M M M S M M M M S M M M S S S S S S S S S S M M M M M S M M M S S S M M M M M M M M M M M M M M M M M M S S S M M M S S M M M S S S S Z Z Z Z Z S S S c Z Z Z Z Z Z Z Z Z Z Z Z Z Z Z Z M S S S S S S F D D D D D D D D D D D S S S S S S S S S S S S Z S S S S S S D S S S S S S S M M M S Z S S S S S S S S S S S Z Z Z Z Z Z S S S S Z Z Z Z Z S S M M M M M M M M V V V M M M V V S V N N N N N B B B N N N ] A A A S S S D D D S S S S S D S D D S S D D F F F F o.F F D D D D D D D D D D D F { D ] ] ] N N N A A N N D S S S S A B D D ` N N ` } } } { ] ] D D S F S B N N D ] N N ` ` [ [ [ [ [ @.[ [ [ ' ' ' ' ` ` ` ` ` ] @.} } } } ] ] ] ] ] ] ] ] N N N ] ` ` N N N N N M M M N A A S A ] A N N N ] ] ] } { ] D S S S F F A N D D M M S S ;.;.:.:.$.@.@.@._ ' _ ' p x x V #.o.#.o.>.>.g g o @ o o p.                                          ",
"                                                                . . q y >.,.#.#.3.3.v.n.n.n.H.n.H.H.K.K.FXFXGXGXFXFXFXFXFXFXDXDXF.V.V.V.p.c.B.V.c.c.x.x.V.V.V.C.Y.Y.Y.SXK.L.L.H.K.K.J.J.a.a.y.i.a.a.0.3.0.0.F #.;.;.F S @ O @ O                                 1 1 o # @ @ S M :.:.N N u p p p a p x x a u z z c h h f S S #.$.h h g f h j j b h h k j c c c z V V V V c c c V V V V V z V V N M M M M A S D F c c c c M M S S A A Z c c c c c Z A S A Z M M M N N N N N N N N N N N N D ] D { D D D S B B B B ] ] ] ] ] ] ] { N N N N D D F F D D B N S D D ] ` ` ` ` x x x x _ x x x z V V z l z z l f f h l h h f f f f h c c c c c c c c M k c c c c c c c z z z z z z z V z z z z x x x z z z z z z z l l z z z z z z z z j j j h j j j j b j j n n n b b M M M M M M M M M M S M M M S S M S M M S S S Z S S S S S S S S S S S M S S S S S S S M Z S S S S S S S S S S S D S S S S S S S S S S S S S M S M M M M c j j c M b M M M M M V D D S S S S S S M M c c M M M M c Z Z Z C C Z Z Z M M M M M M c c M M Z Z Z Z M c M Z Z Z Z Z S S Z S Z Z Z Z Z Z M c M Z Z Z Z M M c j j j j j Z Z Z Z M M c c Z Z M c M M M M Z Z Z Z Z Z Z M M c c M M Z M M Z Z Z Z Z Z Z Z M M j M M Z Z Z Z S Z Z Z Z Z Z M M M Z Z Z Z Z M M M M M M M M M M M M M M M M M M M M M M M M M M M M M M M M M M M M M M j j Z Z Z Z M M M Z M M M M M M M M S S S S S S S M M M M M M M M M S S S S S S S D M S M M M M b M b M M M S M M M M M M M M c M c M M M M M M M M M M M M M M M M M M M M M M M M M A A M M c c M M M M M M M M M M M M M M M M M M M M M M M M M M M M M M M M M M M M M M M M M M M M S S M M M M M M M M M M M M M M M M M M M M M M M M M M S S Z Z Z M M Z Z Z Z Z Z M M M M M M M M M M M M M M M M M M M M M M M S M M M M M M M M M M M M M M M M M M M M M M M M b b M M M M M M M M M M M M M M M M M M M M M M Z Z Z M M M M M M M M M M M M M M M M M M M M M M M M M M M M M M M M Z Z Z S S Z Z Z S Z Z Z Z Z Z Z Z Z Z S S S S S S S S M M M M S S S S Z Z M M M c M M M M M M M M Z S S S S M M M S S M M M M M M S M M M M M M M S S S Z Z Z Z Z Z Z Z Z Z Z Z Z Z Z Z Z Z Z S S S S S S S M M M M M M M S M M M M M V V V V N N A A N A A A A A F F F F F F F F S S S S S S S S S S S S D D D S D D D S S S S S D D D D D F { { { } } ] F A F ] { F F F F F F D D ] { ] F A A A D D A N N N A A { { D S S D { { N B ] ] [ [ [ [ [ @.[ @.@.@.@.@.` ] ] ] ] } +.$.] ] ] F A A D F D F F A S N D ] A ] ] ] F F F F S S F D D D F ] A A N N S D A F D D D S S S D S } { $.{ D D F F #.{ { F N V N N _ ' ' [ x x x N #.#.;.;.8.3.g d @ @ o o p.                                          ",
"                                                                # . 1 q 6.3.F S 3.3.v.n.n.n.H.V.F.H.J.K.FXFXGXGXFXFXFXFXFXFXDXDXH.H.n.n.p.c.B.V.i.i.p.i.B.V.C.G.Y.Y.U.Y.H.H.F.V.U.K.H.J.v.v.p.p.v.v.0.3.3.3.D D ;.;.F D O o O O                                 2 2 o o @ @ S M $.:.N ` i i p p p p p u p u V V h h h y S F :.4.c c u f k j h h h h k c c c z c z h j h j z c z c n c z j h V M M M M M S S D F c V c M N N S S S S A A N N M M S S S S S M M M M M M M S N D N N N M V S S S S F D D S A B D D { ] ] D F ] { { D A A D F F F F S S S S F F D { ] [ [ [ m N x N _ N N v z z z l l z c z h f h l h l f h f h f k j j j j V V V M k j c c c j j j c z z z z z z z z z z z z z z z z z z z c z z z c z z z c c V V c j j j j j j j b b b b b b b b M M M M M M M M M M S S M M M M M M M M M M M M M M M M M M S S S M M M M M M M S S S S S S S S S S S S Z S S S S S M M M M M M Z M M M M M M M M M S M M j M M S M S M b j b h S S S S M M S S M M M c M M Z Z c Z Z Z Z Z Z Z M M M M M M c j c M M Z Z Z M M M M Z Z Z Z Z Z S S S S Z S Z S Z Z M M Z Z Z Z Z Z Z M M M c c Z Z Z Z Z Z M M Z Z Z Z Z M M M M M c c c c j j M M M Z Z Z Z Z Z M M M M M M j Z Z Z Z Z Z Z Z Z Z S S Z Z Z Z M Z Z S S Z Z Z S M M M M M M M M M S S M M M S M M M M M M M M M M M M S S M M Z Z Z Z Z Z Z Z Z Z Z Z M Z Z Z M M S S M M M S S M S S M M S M S S M M M M S S M M M M M M M S S D S S M M j M b M M M M M M M S S S M M M M Z M M M M M M M M M S S S S Z M M Z Z Z M M M M Z A A A M M M M M S S S Z M M S S M M M M M M M M M M M M M M M M M M S M M M M M M M M M M M M M M S S S S S M M M M M M M M S S M M M M M S S S M S S S S M S S S S S Z Z Z Z Z Z Z Z Z M Z Z Z Z M M M M M M M M M M M M M M M S S S S S S M M M M M M M M M M M M M M M M M M M M M M M M M M M M M M M M M M M M M M M Z S S S M M M S S S Z S S S S M M M M M M S Z M M M M Z M M M M M M M Z Z Z Z Z Z Z Z Z S Z Z Z Z Z Z Z Z Z Z Z Z Z Z S S S S S S S S S S S Z M S S S S S S S S Z M M M M M M M M M M M M M S S S S S S S S S S S Z Z S S S S S M M M S S S S S S S Z S S S S S S S S Z Z Z Z Z Z Z S M M S M M M M M M M M M M M M M M M M M V N N N A A A A A A A A { { F D S S S Z S S S Z S S S S S S S S S S A S F D D D D D D D D F D D F F { { { } { ] ] A F ] D D D D D S S S ] ] { ] F A A A D D A A A A F ] D D S S S F ] D N N A A } [ [ [ [ [ $.$.$.@.@.@.] ] +.+.} } } } D F ] F A A D F F F A S A D D F S A D F D S D F D D F D F F ] { D F N N A S Z S S S D D F D D D { D { ] S D F o.#.{ F D V V ` N _ ' [ [ x x z c #.o.,.>.8.8.d y # @ o o p.                                          ",
"                                                              C.. . f u ,.,.:.0.j.j.V.b.b.A.V.V.n.F.J.K.FXFXGXGXFXFXJXJXGXGXFXDXn.V.v.V.n.n.F.F.v.x.c.c.F.J.I.P.DXHXFXGXSXSXU.U.K.J.F.C.v.v.v.a.v.v.s.s.a.v.3.0.;.;.#.#.; @ ; @ a.                              2 2 . o @ @ S M u.j.&.4.x a a a x p x p x z N N h h h h { F $.$.z z w f f f f g k k f k k l l l f h k h k h f f k h k h k h h z h h l l z z z z h f l l z z z z c c j h h h h j M M M M M M M M M M M M S V S M S S M M S S S S D S S S A A A A D A A N S S S S M M M N S S S S S S S S D D S D N N N N z N z z z z z c c c c V j j k h h k h h h h f h g h f h h h h h n V n h h h h h h h h h h h h h h h h k h z c z z z z z z z z z c c l h c z c c c c c c c c c c c c c c c j j j b M Z M M M M M V M M M M M S S M M M M M M M M M M M Z j j c c j M M b M V M M M c c c j j j j j j j j j j M j j j j j j j j j j j j j j j j j j j j j h k j k j k c c j k j M j c Z M S S S S Z Z Z Z M c c j j j C C C C C C C C C C j c j j j j j j j j j j c M c j C c j j H Z H H Z j Z j j Z j C Z Z Z Z C C C C H H c C c c c c c j C C C C j j c c c c j j j j M c c c c c j j k k k j j j j j H j H H H Z j j M j j j H H j j c c c c j j j j j j j j c c c c j j j j j j j j j j c j j j j j j j j j j j j j j j j j j j j j j j j j j j j j j j j j j j j j j j j j j j j j V j M M j j M j j j j j j j j j M M j j M M Z Z j M j M j Z j Z M M M M Z Z M Z Z Z Z M M M M M M M M M M M Z Z M M M M M c c c M c j j j c c c M c j j c M c j j j k k j j k k j j j j j j j j j j j j j j j j j j j j j j j j M j j j j c j j j j j j j j j j j j j j j j j j j j j j j j j j j j c c c j j j j j j j j j j j j j j j j j j j j j j j j k j j j j j j k k j j j j j j k k k k k j j j j j j j j j j j j j j j j j j j j j j k j j j k k k k k j j j j j j j j j j j j j j j j j j j j j j j j c j c c M M j j c c j j c c c c c c j j j c M c M Z c c c c c c c c c C C C c c j c j j j j j M c M c c M M M M Z Z Z Z Z M M M M Z Z Z M M M Z M c c c j c j j Z M M M M M j j j j j M j j j j C C C C C C C C C C C Z C C C Z Z Z Z Z Z Z Z Z S Z M M M M M M Z Z Z Z Z M M M M M M V V V V M N A A A S S S S S D D F F F F F S S Z Z S S S Z S Z Z Z S D S S S S S S S S S S A S S S S S S D D D D A D S S S F D D D F F D D ] F D D D S S A S S S S S A D F F D S D F F D S D F F D ] ] ] ] } @.$.@.} } ] ] +.+.{ { } { { { D F { F ] D D F D S S S D D D D F F F D D D D D D D D D D D F F S D N S A S Z S Z Z Z S S S Z Z F D F F D F #.;.#.#.#.#.D D $.%.` ' ' ' x x z f #.o.,.>.8.8.r r @ @ o o a.                                          ",
"                                                            C.S.X . u q ,.6.:.:.v.v.b.A.b.A.V.F.n.n.H.K.FXFXFXGXFXFXJXJXGXGXDXDXV.F.n.n.v.n.V.V.x.p.i.i.C.H.I.J.SXDXFXGXU.U.K.L.U.L.J.F.v.v.v.a.v.v.a.a.a.a.3.,.;.;.F ;.; ; @ @ s.p.M.a.                        > 2 . o @ @ M M q.j.&.4.a p p a x p a p z V N M h y h h #.#.:.:.l z w f f f f k k k f k k k l k f f h h f f f f h h f f f h h h l l c c z z l z z f h z z z z z c z z z z z c V V V V M N M N M M S M A M c A M N S N N S S S A A A S S A A A A D D A A D A S A M A A D A D S S S D S S F D S S A N N N c A z c v v N M M c c c c k h k f h l h h h f h f h f f h h h h n V n h h h h h h f h h c j k c c c c h h h c c c c c c c c c c c c c c c c c c c c c c c c c c c c c c c c c c c M Z Z M M M M M M M S M M M M M M M M M M M M M M M M j j j c M M j j c c c c j j j j j j j j j c c c j j M M j j j j j j j j j j j j h j h j j j j j c j c k M h c c M j M Z k j M j S S S S Z Z Z Z Z Z M c c j C C Z C C C C C C C C c j j j j j j j j j j c c M c Z c j j H H H j j j Z Z Z Z j C c C Z Z C j j C j H c C C C C C j j C C C C j j c C C c j j j j j j j j j j j k j j j j j j j c j j j j j j j j M j j j H H j j j j j j j j c c j j j j j j j j j j j j j j j j j c M c j j j j j j j j j j j j j j j j j j j j j j j j j j j j j j j j j j j C j j j j j j j j j j M M j j M c j j j j j j j j j j j j M M M M Z S M S M Z j c M Z c c S Z M Z Z Z S Z Z Z M M Z Z M M c c c c Z Z M M M M M M M c j j j c c c M c j j M M c j j j j j j j j j j j j j j j j j j j j j j j j j j j c j j j j c c j j j j c j j j j j j j j j j j j j j j j j M j j j j j j j j j j c M M c j j j C c j j j j j j j j j j j j j j j j j k k j j j j j j j k j j j j j j k k k k k j j j j j j M j j j j j j j j j j j j j j j k j j j j j k k j j j j j j j j j j j j j j j j j j j j j j j j j c j j c M M c j c c c c c c c c M c M c c M M M Z Z M M c c c c C C C c C C Z Z j c c c j j V M c c c c c c c c M M c M M M Z Z M Z Z M M c c Z M c c c c c c M Z Z Z Z Z M j j j M M M M b b j j j C C C C C C Z Z Z Z Z Z Z Z Z Z Z Z Z Z Z Z Z Z M M M M M M Z Z Z Z Z Z M M M M M M M M M M M M M N A S S D S F F F G G S Z S S Z Z S S S Z S Z M Z S S S S D S S S S S S S A S D F D D S S D D D D D D S A D D D D D F D D ] F A A D A S A S S S S A A D D F D F F F D D S D F D S F F ] } } } $.@.$.$.} ] $.$.+.+.{ { { F D D D F F F S S D S S S D D D S D S S S D D D D S D D F F F F F A S M S S F Z Z S S S S S S S S D M S F D { ;.;.F #.#.#.D N $.%.[ ` _ ' x x l u #.o.,.>.8.8.y r @ @ o o a.                                          ",
"                                                      . . . . . ; & f f :.:.4.:.b.b.A.A.b.b.A.F.V.V.H.L.SXDXDXDXDXDXFXFXDXDXL.H.H.L.K.L.v.v.c.v.V.B.SXSXDXDXSXU.Y.DXDXFXY.K.U.K.H.H.H.J.V.V.F.H.C.F.V.C.C.C.p.p.,.>.#.#.> > @ @ . o o . o                       > ; o . O . :.:.u.j.&.4.x a p p a a x x x z N M h h y 1 { F :.:.2 & X X . # . o . o o . . . . X X X X X X X X X X X X X X X # # # X X . X X X X O X . X O O o X $ $ $ $ * * * * * * * * * * * * * * * * * * * * * * * * * * & & & & & & & & & & & & & & & & & & * * * * * * * * * * * * * * * * & * * * * * * * $ $ $ * * X X X @ X X X X X X # # # # # X # X X X X X X X X X X X X X X X X X X X X X X X X X X X # X X X X X X X X X X X X X X X X X * * * * X @ @ O O O O X @ X * & @ @ @ @ @ @ O O O O O @ @ O O O O O O O O @ @ @ @ @ @ @ @ @ @ @ @ @ @ @ o O O O O O O O O o o o O O O O O O O O @ @ O @ @ O O @ @ @ O O O O O @ @ O O O @ O O @ @ @ @ @ @ O @ @ @ @ @ O O @ @ @ @ O O @ @ @ @ @ @ @ @ @ @ @ @ @ @ & & & & @ @ @ @ @ @ @ @ O @ @ @ @ @ @ @ @ @ @ @ @ @ @ @ @ @ @ @ @ @ @ @ @ @ @ @ @ @ @ @ @ @ @ @ @ @ @ @ @ @ @ @ @ @ @ @ @ @ @ @ @ @ @ @ @ @ O O @ @ @ @ @ @ O O O @ @ @ @ @ @ @ @ @ @ @ @ @ @ @ @ @ @ @ # # @ @ # # # # @ @ @ @ # # @ @ O O O O O O O @ o O O O @ @ @ O # # # @ # # # @ # # @ @ @ @ @ @ @ @ @ @ @ @ @ @ @ @ @ @ @ @ @ @ O O @ @ @ @ @ @ @ @ @ @ @ O O O @ @ @ @ @ @ @ @ @ @ @ @ @ @ @ @ @ @ @ @ @ @ @ @ @ @ @ @ @ @ @ @ @ @ @ @ @ @ @ @ # O O O O O @ @ @ O O @ @ @ @ @ O O @ @ @ @ @ @ # O @ O O O O O @ O O @ O O @ @ @ @ O O O O @ @ @ @ @ O O O O O O @ @ O O O O O @ @ @ O O O @ @ @ @ @ @ @ @ @ @ @ @ @ @ @ @ @ @ @ @ @ @ @ @ O O @ @ @ @ @ @ @ @ @ @ @ @ @ @ @ @ @ @ @ @ @ @ @ @ O @ @ @ @ O O O O @ @ O O O # # O @ @ @ O O o O @ @ O O O @ @ @ @ @ @ @ O O O @ O @ @ @ @ O O O @ @ @ @ @ @ O O O O O O @ @ @ @ @ @ @ @ @ @ O O O O O @ @ @ @ @ @ @ @ @ @ @ @ @ @ @ @ @ @ @ @ @ @ @ @ @ @ @ @ @ @ @ @ @ @ @ @ @ & & & & @ @ @ @ @ @ @ @ @ @ @ @ @ @ @ @ @ @ @ @ @ @ @ @ @ @ @ @ @ @ @ @ @ @ @ @ O O O @ @ @ @ @ @ @ @ @ @ O O # O @ @ @ @ @ @ @ @ @ @ @ @ @ @ @ @ @ @ @ @ @ @ @ @ @ @ @ O O @ @ @ @ @ @ O O @ O @ @ @ @ @ @ @ @ @ @ @ @ @ @ & & @ @ @ @ @ @ & & @ @ @ @ @ @ + @ @ @ @ @ @ @ @ @ @ @ @ @ @ @ & & @ @ @ @ @ @ @ @ & & & & & & & & & & & & & @ @ @ @ @ @ & & @ @ @ @ @ @ @ @ @ @ @ @ @ & & @ @ @ @ & & @ @ @ @ @ ; @ & ; @ @ @ @ & & & * O O O - - O @ @ @ @ O O @ @ @ @ @ @ @ @ @ @ @ @ ; ; ; ; @ & & @ @ @ @ = = = ; ; ; @ @ @ @ # # @ @ @ @ O O @ @ @ @ # # # o . X . @ k Z Z S ;.,.,.,.D F F } [ [ _ _ x v ] $.:.:.3.8.8.t.J s @ # . o a.                                          ",
"                                                    . . . . . . > ; f f #.#.:.$.n.b.A.A.b.b.A.V.H.H.H.K.SXDXDXDXFXDXFXFXSXU.K.K.L.L.U.L.v.v.c.x.F.V.DXDXDXDXY.I.SXDXDXDXSXU.SXU.F.F.J.J.V.V.F.H.V.C.V.C.J.J.a.a.,.;.#.#.> > @ @ o @ o . #                       > @ . . o . :.%.u.j.$.*.a a a p x x m x z z V V g g y y { { #.;.2 > X X . # . . o o o . o . o o X X X X X X X X X X X X X X X X # # # . o # # # # o o . O O O X * * * * * * * * * * * * * * * * * * * * * * * * * * * * * * * * & & & & & & & & & & & & & & & * * * * * * * * * * * * * * * * * * * * * * * * * * * * * * * * X @ O X X X X X O X X X X X X X X X X X X X X X X X X X X X X X X X X # # # X X X X X * * * X X X $ $ * $ * $ X X X * * * * * * * @ O O O O O O X @ @ @ @ @ @ @ @ @ O O O O O @ @ O O O O O O O @ @ @ @ @ @ @ @ @ @ @ @ @ @ @ # o @ O O O O O O O o o # # O O O O o O @ @ O O O @ O O O O O O # # O O O O O # O O O O @ @ O O O O O @ @ @ @ O O O @ @ @ @ O O O O @ @ @ @ @ @ @ @ @ @ @ @ @ @ @ @ @ @ @ @ @ @ @ @ O O @ @ @ @ @ @ @ @ @ @ @ @ @ @ @ @ @ @ @ @ @ @ @ @ @ @ @ @ @ @ @ @ @ @ @ @ @ @ @ @ @ @ @ @ @ @ @ @ @ @ @ @ @ @ @ O O O @ @ @ @ @ @ O O O O O O @ @ @ @ @ @ @ @ @ @ @ @ @ @ @ @ # # @ # # # # @ @ @ @ @ # # # # O O O O O O O @ O O O O @ @ O O # # # # # # # # # @ @ @ @ @ @ @ @ @ @ @ @ @ @ @ @ @ @ # @ @ @ @ O O @ @ @ @ O @ @ @ O O O O O O O @ @ @ @ @ @ @ @ @ @ @ @ @ @ @ @ @ @ @ @ @ @ @ @ @ @ @ @ @ @ @ @ @ @ @ @ @ @ O O O O O O O @ @ O O O O O O O O O O O O O O O O o # O O # o O O # # O # O O # @ @ O O O O O O @ @ @ @ @ O O O O O O O O @ @ @ @ O @ O O o o O @ @ @ @ @ @ @ @ @ O O @ @ @ @ @ @ @ @ @ @ @ @ O O @ @ O O O O @ @ @ @ @ @ @ @ @ @ @ @ @ @ @ @ @ @ O @ @ @ @ O O O @ @ O O O O O O O O O O O O O O O O O O O O @ @ @ @ @ O O @ O O O O @ @ @ O O O O O @ @ @ @ O O O O O O @ O O O O O O O O O O O O O O O O O O O O @ @ @ @ O @ @ @ @ @ @ @ @ @ @ @ @ @ @ @ @ @ @ @ @ @ @ @ @ @ @ @ @ & @ @ @ @ @ @ @ @ @ @ @ @ @ @ @ @ @ @ @ @ @ @ @ @ @ @ @ @ @ @ @ @ @ @ @ O O O O O O @ @ @ @ @ @ @ @ @ @ @ @ O @ @ @ @ @ O O @ @ @ @ @ @ @ @ @ @ @ @ @ @ @ @ @ @ @ @ O O @ @ @ @ @ @ O O O O @ @ @ @ @ @ @ @ @ @ @ O @ @ & @ @ @ O O @ @ @ @ @ @ @ @ @ @ # # @ @ @ @ @ @ @ @ @ @ @ @ @ @ @ @ @ @ @ @ @ @ @ @ @ @ @ @ @ @ @ @ & & & & @ @ @ @ @ @ & & @ @ @ @ @ @ @ @ @ @ & & @ @ & & @ @ @ @ & * @ @ @ @ @ @ @ @ @ @ @ @ @ @ @ @ O O O O & - O O @ @ O O @ @ @ @ @ @ @ @ @ @ @ @ @ @ @ @ @ @ @ @ @ @ @ @ @ = @ @ @ @ @ @ @ @ O @ @ @ @ @ O O @ @ @ @ # # # # . O O @ k c Z S ,.,.:.:.F F F { ] ` [ ` x N ] { ,.,.3.3.8.t.d d # # . o a.                                          ",
"                                                    . . o o o o O # 1 y F #.3.,.v.n.V.C.n.n.V.V.V.V.F.J.J.J.J.J.V.V.H.V.v.n.V.V.J.H.L.J.v.v.i.i.F.F.FXGXHXHXDXY.C.C.n.V.V.n.V.n.C.C.F.F.V.V.F.H.F.H.H.H.J.J.a.s.#.#.F #.r y < > @ @ o o @                       @ @ . . o o 3.,.b.n.4.4.a a a a [ [ @.@.` B D F b h g g M M u u . . . . . . . . . . . . . . . . . . . . . . . . . . . . . . . . . . . . . . . . . . . . . . . . X X X X X X X X $ X X X $ $ $ X $ $ $ $ $ $ $ $ X X X $ $ $ $ X X X X X X X X X X X X X X X X X X X $ $ $ $ $ $ $ $ X X X X X X X X X X X X X X X X X . . . . . . . . . . . . . . . . . . . . . . . . . . . . . . . . . . . . . . . . . . . . . . . . . . . . . X X X X X X X X . X X X X X X X . . . X X X X X X . . . . o o o . . . . . . . . . . . . . . . . o o . . . . . . . . . . . . . . . . . . . . . . . . . . o . . o . . . . . . . . . . . . . . . . . . . . . . . . . . . . . . . . . . . . . . . . . . . . . . . . . . . . . . . . . . . . . . . . . o o o o o . o . . . . . . o . . . . . . . . . . . . . . . . . o o . . . . . . . . . . . . . . . . . . . . . . . . . . . . . . . . . . . . . . . . . . . . . . . . . . . . . . o o . . . . . . . . o . . . . o . . . . . . . . . . . . . . . . . . . . . . . . . . . . . . . . . . . . . . . . . . . . . . . . . . . . . . . o . . . . . . . . . . . . . . . . . . . . . . . . . . . . . . . . . . . . . . . . . . . . . . . . . . . . . . . . . . . . . . . . . . . . . . . . . . . . . . . . . . . . . . . . . . . . . . . . . . . . . . . . . . . . . . . . . . . . . . . . . . . . . . . . . . . . . . . . . . . . . . . . . . . . . . . . . . . . . . . . . . o o o o o . o o o o . . . . . . . . . . . . o . . . . . . . . . . . . . . . . . . . . . . . . . . . . . . . . . . . . . . . . . . . . . . . . . . . . . . . . . . . . . . . . . . . . . . . . . . . . . . . . . . . . . . . . . . . . . . . o o o o . . . . . . . o . . o o . . o o o o . . . . . . . . . . . . . . . . o o . . . . . . . . . . . . . . . . . . . . . o o o . . . . . . . . . . . . . . . . . . . . . . . . . . . . . . . . . . . . . . . . . . . . . . . . . . . . . . . . . o o o . . . . o # o o . . . . . . o o o o o o . . . . . . . . . . . . . . . . . . . . X X X X . . o . . . . . . . . . . . . . . . . . . . . . . . . . . . . . . . . . . . . . . . . . . . . . . . . . . . . . . . . . . . . . . o o o o . . . . . . . o o o o . . . . . . . . . . . . . . . . . . . . . . . . . . . . . . . . . . . . g k S F 3.3.:.;.F F F D { } @.$.} [ :.:.6.,.3.3.8.y.d d # # . . p.                                          ",
"                                                    . . @ o @ # @ O y d S D ;.#.v.v.V.C.V.n.V.V.C.C.G.J.J.J.G.G.V.V.C.V.v.v.V.C.F.F.L.L.B.n.i.i.G.G.GXGXHXFXDXSXJ.J.v.n.V.V.C.V.V.V.F.F.V.V.F.F.H.H.F.H.H.J.a.a.#.#.F o.d d < > @ @ # o @                       @ @ . . o o 3.3.n.n.*.&.a a a a ' [ @.@.` B N M j h h j j S 1 y o o . . X X . X X X X X X X X X X X X X X X X X X X X X X X X X X X X X X X X X X X X X X X X $ $ $ $ $ $ $ $ $ $ $ $ $ $ $ $ $ $ $ $ $ $ $ $ $ $ $ $ $ % $ $ $ $ $ % % % % $ $ $ $ $ $ $ $ $ $ $ $ $ $ $ $ $ $ $ $ $ $ $ X X $ X X X X X X X X X X X X X X X X X X X X X X X X X X X X X X X X X X X X X X X X X X X X X X X X X X X X X X X X X X X X X X X X X X X X X X X X X X X $ $ $ X X X X $ $ $ $ X X X X X . . o o o . . . . . . . . . . . . . . . . o o . . . . . . . . . . . . . . . . . . . . . . . . . . o o . o . . . . . . . . . . . . . . . . . . . . . . . . . . . . . . . . . . . . . . . . . . . . . . . . . . . . . . . . . . . . . . . . . . . . . . . . . . . . . . . . . . . . . . . . . . . . . . . . o . . . . . . . . . . . . . . . . . . . . . . . . . . . . . . . . . . . . . . . . . . . . . . . . . . . . . . . . . . . . . . . . . . . . . . . . . . . . . . . . . . . . . . . . . . . . . . . . . . . . . . . . . . . . . . . . . . . . . . . . . . . . . o . . . . . . . . . . . . . . . . . . . . . . . . . . . . . . . . . . . . . . . . . . . . . . . . . . . . . . . . . . . . . . . . . . . . . . . . . . . . . . . . . . . . . . . . . . . . . . . . . . . . . . . . . . . . . . . . . . . . . . . . . . . . . . . . . . . . . . . . . . . . . . . . . . . . . . . . . . . . . . . . . . . . o o o . . . o o . . . . . . . . . . . . . . . . . . . . . . . . . . . . . . . . . . . . . . . . . . . . . . . . . . . . . . . . . . . . . . . . . . . . . . . . . . . . . . . . . . . . . . . . . . . . . . . . . . . . . . . . . . . . . . . . . . . . . . . . . . . . . . . . . . . . . . . . . . . . . . . . . . . . . . . . . . . . . . . . . . . . . . . . . . . . o . . . . . . . . . . . . . . . . . . . . . . . . . . . . . . . . . . . . . . . . . . . . . . . . . . . . . . . . . . o . . . . . o . o o . . . . . . . . . . . . . . . . . . . . . . . . . . . . . . . . X X X . . . . . . . . . . . . . . . . . . . . . . . . . . . . . . . . . . . . . . . . . . . . . . . . . . . . . . . . . . . . . . . . . . . . o . . . . . . . . . . . . . . . . . . . . . . . . . . . . . . . . . . . . . . . . . . . . . . . . f k Z S ,.;.;.;.F F F S D { $.%.@.@.:.:.6.3.3.3.y.y.d d @ @ . . p.                                          ",
"                                                    . . o o o o 1 1 D D F o.3.3.v.v.B.C.V.V.V.V.C.J.J.J.G.G.G.G.B.B.M.v.a.p.k.a.n.n.H.H.n.n.y.0.G.G.HXFXDXSXU.I.J.J.v.v.V.V.V.V.V.V.F.H.F.F.F.V.F.F.V.F.H.H.v.v.o.#.#.>.D F F F > @ o o @ @                     @ @ . . . . 3.3.n.n.e.e.' _ ' ' @.=.*.*.] { D S o.F Z M 1 q . . . . . . $ $ $ % % % % % % % % % % % % % % % % % % % % % % % % % % 4 4 % 4 4 4 4 4 4 4 4 4 4 4 4 4 4 4 4 4 4 4 4 5 4 4 4 5 5 4 4 5 5 4 4 4 4 4 4 4 4 4 4 4 4 5 5 5 5 5 5 5 5 5 5 5 5 4 4 4 4 4 5 4 4 4 4 4 4 4 4 4 4 4 4 4 % % % % % % % 4 % % % % % % % % % % % % % % % % % % % % $ $ $ $ $ % % % % % % % % % % % % % % % % % % % % % % % % % % % % % % % % % % % % % % % % % % % % % % % % % % 4 4 4 4 4 4 % % % % $ X X . . . . . . . . . . . . . . . . . . . . . . . . . . . . . . . . . . . . . . . . . . . . . . . . . . . . . . . . . . . . . . . . . . . . . . . . . . . . . . . . . . . . . . . . . . . . . . . . . . . . . . . . . . . . . . . . . . . . . . . . . . . . . . . . . . . . . . . . . . . . . . . . . . . . . . . . . . . . . . . . . . . . . . . . . . . . . . . . . . . . . . . . . . . . . . . . . . . . . . . . . . . . . . . . . . . . . . . . . . . . . . . . . . . . . . . . . . . . . . . . . . . . . . . . . . . . . . . . . . . . . . . . . . . . . . . . . . . . . . . . . . . . . . . . . . . . . . . . . . . . . . . . . . . . . . . . . . . . . . . . . . . . . . . . . . . . . . . . . . . . . . . . . . . . . . . . . . . . . . . . . . . . . . . . . . . . . . . . . . . . . . . . . . . . . . . . . . . . . . . . . . . . . . . . . . . . . . . . . . . . . . . . . . . . . . . . . . . . . . . . . . . . . . . . . . . . . . . . . . . . . . . . . . . . . . . . . . . . . . . . . . . . . . . . . . . . . . . . . . . . . . . . . . . . . . . . . . . . . . . . . . . . . . . . . . . . . . . . . . . . . . . . . . . . . . . . . . . . . . . . . . . . . . . . . . . . . . . . . . . . . . . . . . . . . . . . . . . . . . . . . . . . . . . . . . . . . . . . . . . . . . . . . . . . . . . . . . . . . . . . . . . . . . . . . . . . . . . . . . . . . . . . . . . . . . . . . . . . . . . . . . . . . . . . . . . . . . . . . . . . . . . . . . . . . . . . . . . . . . . . . . . . . . . . . . . . . . . . . . . . . . . . . . . . . . . . . . . . . . . . . . . . . . . . . . . . . . . . . . . . . . . . . . . . . . o . . . . . . . . . . . . . . . . . . . . . . . . . . . . . . . . . . . . . . . . . . . . . . @ @ S S D Z #.o.;.#.F D F F #.$.:.%.} } $.$.u.0.0.0.s.s.g d @ @ o o p.                                          ",
"                                                    . . o o o o < 1 F F D D ,.,.v.v.V.V.B.V.V.C.B.C.C.C.C.C.C.G.B.M.v.x.p.p.v.a.v.v.H.H.n.n.0.0.G.G.GXHXDXDXDXSXJ.J.M.v.V.V.C.C.V.V.F.H.H.H.H.V.F.F.V.F.F.H.x.v.;.;.;.;.F F S S @ @ o o @ @                     @ @ . . . . ,.,.n.n.e.*.' _ [ [ =.*.@.&._ B N V #.#.S S 1 1 . . . X X X % % 4 4 5 5 5 5 5 5 4 5 5 5 5 5 5 5 5 5 5 5 5 5 5 5 5 5 5 5 5 5 5 7 7 7 7 7 7 7 7 7 7 7 7 7 7 7 7 7 7 7 7 7 7 7 7 7 7 7 8 7 7 7 7 7 7 7 7 7 7 7 7 7 7 7 8 8 8 8 8 7 7 7 7 7 7 7 7 7 7 7 7 5 5 7 7 7 7 7 7 7 7 5 5 5 5 5 5 5 5 5 5 5 5 5 5 4 5 4 4 4 4 4 4 4 4 4 4 4 4 4 4 4 4 4 4 4 4 4 5 4 4 4 5 5 5 4 5 5 5 5 5 5 5 4 4 4 4 4 4 4 5 5 5 5 5 5 5 5 5 5 5 5 5 5 5 5 5 5 5 5 5 5 5 5 5 5 5 7 7 7 5 5 5 5 4 4 % $ X X X o . . . . . . . . . . . . . . . . . . . . . . . . . . . . . . . . . . . . . . . . . . . . . . . . . . . . . . . . . . . . . . . . . . . . . . . . . . . . . . . . . . . . . . . . . . . . . . . . . . . . . . . . . . . . . . . . . . . . . . . . . . . . . . . . . . . . . . . . . . . . . . . . . . . . . . . . . . . . . . . . . . . . . . . . . . . . . . . . . . . . . . . . . . . . . . . . . . . . . . . . . . . . . . . . . . . . . . . . . . . . . . . . . . . . . . . . . . . . . . . . . . . . . . . . . . . . . . . . . . . . . . . . . . . . . . . . . . . . . . . . . . . . . . . . . . . . . . . . . . . . . . . . . . . . . . . . . . . . . . . . . . . . . . . . . . . . . . . . . . . . . . . . . . . . . . . . . . . . . . . . . . . . . . . . . . . . . . . . . . . . . . . . . . . . . . . . . . . . . . . . . . . . . . . . . . . . . . . . . . . . . . . . . . . . . . . . . . . . . . . . . . . . . . . . . . . . . . . . . . . . . . . . . . . . . . . . . . . . . . . . . . . . . . . . . . . . . . . . . . . . . . . . . . . . . . . . . . . . . . . . . . . . . . . . . . . . . . . . . . . . . . . . . . . . . . . . . . . . . . . . . . . . . . . . . . . . . . . . . . . . . . . . . . . . . . . . . . . . . . . . . . . . . . . . . . . . . . . . . . . . . . . . . . . . . . . . . . . . . . . . . . . . . . . . . . . . . . . . . . . . . . . . . . . . . . . . . . . . . . . . . . . . . . . . . . . . . . . . . . . . . . . . . . . . . . . . . . . . . . . . . . . . . . . . . . . . . . . . . . . . . . . . . . . . . . . . . . . . . . . . . . . . . . . . . . . . . . . . . . . . . . . . . . . . . . . . . . . . . . . . . . . . . . . . . . . . . . . . . . . . . . . . . . . . . . . . . . # @ S S S Z D D o.F F D #.F #.#.:.:.$.} $.$.q.0.y.y.s.p.g d @ @ o . p.                                          ",
"                                                    . . o o @ @ k j ,.3.#.F ,.,.a.x.M.B.M.B.C.C.C.C.J.J.G.G.J.J.M.M.x.x.a.x.B.B.V.B.U.I.V.F.i.p.H.H.GXGXGXGXGXJXJ.J.B.M.J.G.F.J.V.V.V.H.F.H.H.F.F.F.F.F.F.F.c.c.#.;.>.,.#.#.F F @ 3 @ o @ @                     @ @ . . . . :.%.n.n.g.e.' ' =.=.*.*.@.@.N B V V S D k j > @ . . X X % 4 e e Y Y I I I I I I I I P P P P P P P P P P P P P P P P P P P L P P P P P P P P P P P P P P E E E E E E E E P P E E E P P P P P P P P P E E E E E E E E E E E E E E E E E E E E P P P U P P P U U U E P E P P P P I I I I P P P P P P P I I P P P P P I P I I I I I I I I I I I I I I I P P P P I P P P P P P P P P P P I I I I I I I I I P I I I I I I P P P P P P P P U U / / / U / / U U U U I U U U Y Y Y e p l l h k k k k g g k k k k k k k k g g g g k g d d d d d d d d d d d d d d d d g g g g g d d d g d d d d g g d d d d d d d d d d d d d s s y d d d d d d d d d d y y d s d d d d d d d d d d d d d d d d r s r s s d d d d d d d d d d d d d d d d d d d d d d d d d d d d d d d d s s s s d d d d d g d d d d d d d d d d y y d d d d d d d d d d d d d d d d d d d g d d d d d d d d d d d d d d d d y y y y d d d d d d d d d d d d s s d s s s d d s s s s s s s s d d d d d d d d d d d d d d g g d d d d d d d d d d d d d d d d s s s s s d d d d d d d d d d d s s s s s s s s d d d d d d d g g g g g g g g g g g g g k k g g d d d d d d d d s s s s s s s s d d d d d d d d d d d d d d d d d d d g d d d d d d d d d d d d g d d d d d d d d d d d d d d d d d g g d d d d d d d d d d d d d d d d d d d d d d d d g g g g d g d d d d g g d d d d d d d d d s s s d d d s d d d d d d d d g g g g d d d d d d d d d d g g d g g g d d d d d d d d d d g g d d d d d d d d d d d d d d d d d d d d d d d d d d d d d d d d d d d d d d d d d d d d d d d d d d d d d d d d d d d d g d g g d d d d s s s s d s s s s s s s d d d d d d d d d d d d d d d d s s d s s s s s d d d d d d d d d d d d d d d d g g g g g g g g d s s s s s s s s s s s s s s s d d d d d d d d d d d d d d d d d d s s d d s s s s s s s s s s d d d d d d d d y d d d d d d y d d d d s s s s s d g g g g g g g g g g g g g g g g g g d d s s d d d d d g g g d d d g d g d d g d d d g g g g g g g g g g g g d d g g d y d d d d g g g g g g g g g g d g d d d d g k g g g g d d d d d d d d d d y y d d u d d d d d d d y y y d d y d d d g d d d d d d y y y y d d d d d d d d s s s d d d d d g d d y y y y y y y 1 1 1 1 1 1 1 1 d d d d > = @ # y d d g S S F F F D #.#.#.#.$.$.} } $.$.q.0.y.y.p.p.d d o @ o o p.                                          ",
"                                                    . . o . @ @ k j ,.3.F F ,.;.s.a.M.B.v.B.C.C.B.C.J.J.C.C.G.J.B.B.a.a.s.p.C.C.V.B.U.L.B.V.i.p.H.J.GXGXGXGXJXJXJ.J.M.v.J.J.F.J.C.V.V.F.F.H.H.H.F.F.F.F.F.F.p.p.#.;.,.,.;.o.F F @ > @ # @ @                     o @ . . . . %.%.n.n.q.e.' ' =.*.*.*.[ @.m N z h S F j j ; @ o X X $ % 5 L L P P E T T T T T T T T R T T T T T T T T T T T T T T T T T T T T T T T T T T R R R R R W W W W W W W W W W W W W W W W W W R W W R R R R W W W W W W W W W W W W W R R W R R R R R R R R R R W W W W R R R R R R T T T T T T T T T T T T T T T T T T T T E T T T T T T T T T T T T T T T T T T T T T T T T T T T T T T T T T T T T T T T T T T T T T R R R R R W R R W W W W W W W W W R R R R E E / U Y Y Y p p l l h k k k k k k k k k k k k k k g g g g g d d d g d d d d d d d d d d d g g g g g g d d d d d d d g g g d d d d d d d d d d d d g r r r y d d d d d d d d y y y y d d d d d d d d d d d s s s d d s s s s s s d d d d d d d d d d d d d d d d d d d d d d d d d d d d d d d d s s s d d d d d g g d d d d d d d d d d d d d d d d g g d d d d g g d d d d d g g g d d d d d d d d g d d d d d d d d y y d d d d d d d d d d d d d s d d d s d d d d d s s s s s s d d d d d d d d d d d d d g g g d d d d d d d d d d d d d d d d d d s s s d d g d g d d g d d d d s s d s s s s d g g g g d d g g g g g g g g g g g g g g g g g d s s s s s s s s s d d d d d d d d d d g g d d d d d d d g g g d d d g d d d d g g d d d d d d g d d g g g d d g g d d d d d d d g g g d d d d d d d d d d d d g g g g g g g g g d d d g g g g d d d d d g g g d d d d d d d d d d d d g g g d g g d d g d d d g g d d d d d d d d d d d d k k d g g g d d d g d d d d d d g k d d d d d d d d d d d d d d d d d d d d d d d d d d d d d d d d d d d d d d d d d d d d d d d d d d d d d d d d d d d d d d d g d d d d d s s s d d s s s d s s d d d d d g d d d d d g g g g g s s s s s s s d d d d d d d d d d d d d g g g g d g g g g g g g d d s s s s s s s s s s s s s s d d d d d d d d d d d d g g d d d d d d d d s s s s s s s s s s d d d d d d d d d d d d d d d d d d d d s d d d s d g g g g g g g g d g k g g d g g g g d d d d g d d d g g g k d d g k k g d d g d g g g g g g g g g g g g g g d d g g d d d d d d d d g g g g d d d d d d s d d d g g g g g g d g g g d d d J d d y y y d y y d d d d d d d g d d d d d d g g d d d d d d y y y y y d d d d d d d s s s s d d d d d d d y y y y y y 1 1 1 1 1 1 1 1 1 d d d d 3 > @ @ 1 1 y g S Z D S F D ;.#.#.#.:.$.} } } $.q.q.y.s.s.s.g d o o . . s.                                          ",
"                                                    . . . . . . k k y.y.;.#.;.>.x.x.v.M.M.N.B.N.B.B.B.B.M.B.B.C.B.M.v.v.a.x.C.G.V.C.F.J.V.V.p.a.L.H.SXSXFXGXJXJXU.Y.G.J.G.G.B.V.B.B.V.V.V.F.G.F.F.F.F.F.F.G.x.c.E.;.3.9.,.3.F F @ ; o @ @ @                     # o . . . . #.$.b.n.*.*.a m ' ' *.*.=.@.' ` V V M M y y . . . . $ $ e L  .:X:X`.`._._.).)._._._._._.)._._._._.)._._._._.).).).)._._._._._.).).).%X%X%X%X%X%X%X_.%X%X%X%X%X%X%X%X%X%X%X%X%X%X%X%X%X%X%X%X%X%X%X%X%X%X%X%X%X%X%X%X%X%X%X%X%X%X%X%X%X%X).%X;X%X).).).%X%X%X%X%X).).).).).).)._._._.).)._.).;X;X;X;X).).).;X;X;X;X;X;X;X;X;X;X_._._.;X_._._.;X).;X_.)._._._._.).;X).).).).).).).).)._.).).).).).).).).).).).).).).).).).%X%X;X%X%X%X-X-X-X-X;X;X;X;X).;X,X,X;X,X:X:X:X:X....h.g.u.u.u.y.y.y.s.s.y.y.y.y.y.y.y.y.0.0.8.9.0.9.8.8.9.3.8.8.8.9.8.3.3.3.3.3.3.3.8.8.8.8.8.8.8.8.8.8.8.8.3.3.8.8.8.8.t.t.t.y.y.t.3.3.8.y.8.8.8.8.8.8.t.t.3.3.8.8.8.8.8.8.8.8.3.3.8.t.t.y.8.8.t.t.t.t.t.t.3.8.t.t.8.8.8.t.y.y.8.3.3.3.y.y.d.y.y.y.y.y.d.d.3.3.y.y.3.3.y.y.3.3.8.t.t.t.t.t.t.t.t.t.t.t.t.t.y.y.y.y.y.y.y.y.y.y.y.y.d.3.3.3.t.t.8.8.8.t.t.y.8.8.3.3.3.3.t.t.3.3.t.t.y.y.y.y.8.3.3.3.3.3.8.8.3.3.8.t.y.y.y.t.3.3.3.3.3.3.8.8.8.8.8.8.8.8.8.8.t.t.t.t.8.t.t.t.t.t.8.8.8.t.t.t.8.t.t.t.8.8.8.8.8.8.8.8.8.8.3.3.8.8.8.8.8.8.8.8.8.8.8.8.8.8.8.8.8.8.8.8.8.8.8.8.t.t.t.t.t.t.8.8.8.8.8.8.8.8.8.8.y.t.t.t.8.8.3.3.t.8.8.8.8.8.3.3.3.3.3.8.8.8.8.8.8.8.8.t.t.t.t.t.8.8.t.t.t.8.8.3.3.8.8.8.8.t.t.t.8.8.8.8.8.8.8.8.t.t.8.3.3.3.t.t.y.y.t.t.t.t.t.8.t.y.y.t.8.8.8.8.t.t.t.t.t.t.t.t.t.t.t.t.t.t.t.t.8.8.8.8.8.8.8.8.8.3.3.3.3.3.8.8.t.t.t.t.t.8.8.8.3.8.t.t.t.t.8.8.3.3.3.3.3.8.8.t.3.3.3.3.3.3.3.3.8.8.8.8.8.8.8.8.8.8.8.8.8.8.8.8.3.3.3.3.3.3.3.3.8.8.3.3.3.3.3.3.3.3.3.3.3.3.8.3.8.8.3.3.3.3.8.8.8.t.8.8.3.3.8.8.t.t.8.3.3.3.3.3.8.8.8.8.8.8.8.8.8.3.3.3.8.8.8.8.3.9.3.3.3.3.0.0.3.3.3.3.3.9.3.8.3.3.3.3.t.8.8.8.8.8.8.8.8.8.8.8.8.8.t.t.t.t.t.t.8.8.8.8.3.3.8.8.3.3.8.8.8.3.3.3.3.3.3.3.3.3.t.t.8.8.3.8.8.0.8.8.8.8.8.8.3.3.8.8.8.8.8.3.3.3.3.3.3.3.y.y.t.3.3.3.3.3.8.8.8.8.8.8.8.8.8.8.8.8.3.3.8.8.8.8.3.3.3.3.3.8.8.8.3.3.3.3.3.3.3.3.8.3.3.3.3.3.8.3.3.3.3.3.3.8.8.8.8.8.8.8.0.0.8.3.3.3.8.0.3.3.0.0.3.3.3.3.3.0.3.3.3.3.3.3.0.3.3.8.0.0.0.0.0.0.0.3.3.0.0.0.3.3.3.3.3.3.0.y.6.0.0.0.0.0.0.0.3.3.3.3.3.3.3.d.3.3.3.3.3.d.3.3.3.3.8.8.t.8.t.t.8.8.8.8.8.8.t.t.y.0.8.8.8.8.8.8.3.3.3.3.3.3.0.0.6.d.d.d.d.d.6.3.6.6.6.6.6.6.d.d.3.3.3.3.8.8.8.8.8.8.8.8.8.8.8.0.3.3.8.8.8.8.8.8.8.8.0.0.0.8.0.8.3.3.3.3.3.3.3.3.3.3.3.3.3.3.s.s.> > . . . . o # F D S S S S #.F { { { } N ` N ` e.4.q.6.u.s.g g @ o o o s.                                          ",
"                                                    . . . . . . k k y.y.;.;.>.,.p.x.v.M.M.M.B.N.B.B.B.B.B.B.B.C.M.M.v.v.a.a.B.V.C.F.F.C.n.n.p.a.I.J.DXDXFXGXJXJXY.Y.J.J.G.J.V.V.B.B.B.V.F.F.G.G.F.F.F.F.F.F.x.c.>.>.3.3.>.3.F F @ ; o # @ @                     # # . . . . #.$.b.b.e.5.x a ' ' *.*.=.@._ N z V M M y y . . . . X $ e L ( `.`./.`.`._._._.$X}.}.$X$X$X$X$X$X$X$X@X@X@X@X@X@X{.{.@X@X@X@X@X@X$X$X%X%X{.{.{.{.{.{.@X@X&X&X{.{.{.{.{.oX{.{.{.{.$X{.&X&X&X&X&X&X&X&X&X&X&X&X&X&X&X&X&X{.{.{.{.{.{.{.{.@X%X%X$X%X$X$X$X{.$X{.$X{.$X$X$X@X$X@X$X@X$X$X$X$X$X$X$X$X$X$X$X$X$X$X$X%X%X%X$X%X%X%X$X/././._._./._.$X$X$X$X$X$X$X$X$X$X$X$X$X$X$X$X$X$X$X$X$X$X$X$X%X$X$X%X$X$X$X$X$X$X%X%X%X%X&X%X&X&X&X&X&X&X&X&X&X%X%X%X%X%X%X%X%X%X).,X:X:X....f.h.u.q.u.q.y.y.s.s.y.y.y.y.y.y.y.y.0.0.9.8.0.0.9.9.8.9.8.8.8.8.8.8.8.8.3.3.3.3.3.3.8.8.8.8.3.3.3.3.3.3.8.8.8.8.8.8.t.t.y.y.y.t.8.8.t.y.8.8.t.t.t.t.t.t.t.t.t.t.t.t.t.t.t.t.t.t.t.y.y.y.y.t.y.t.t.t.t.t.t.t.t.t.t.t.y.y.y.t.8.3.3.y.y.y.y.y.y.y.y.y.d.d.d.d.y.y.3.3.y.y.8.t.t.t.y.y.y.y.t.t.y.y.y.y.t.t.y.y.y.y.y.y.y.y.y.y.y.y.d.d.d.d.t.t.t.t.t.t.t.t.t.t.8.8.8.8.t.y.t.t.t.t.y.y.y.y.8.8.t.t.t.8.8.8.d.d.8.8.t.t.t.t.8.8.8.8.8.8.8.8.8.8.8.8.8.8.8.8.t.t.t.t.t.t.t.t.t.t.t.t.t.t.t.y.t.t.y.y.t.t.t.t.0.0.0.8.8.8.8.8.8.8.8.8.8.8.0.y.8.8.8.8.8.8.8.8.8.8.8.8.8.8.8.8.8.8.8.8.3.3.3.3.8.8.8.8.8.8.8.8.t.t.t.t.t.t.t.t.y.t.8.t.t.t.8.3.8.8.8.t.t.t.t.t.t.t.t.t.t.t.y.y.t.t.y.y.t.t.t.t.t.t.t.t.t.y.y.y.t.t.t.t.t.t.t.t.t.t.t.8.8.8.8.t.y.y.t.t.t.t.t.t.t.y.y.y.t.8.t.t.t.t.y.t.t.t.t.t.t.t.t.t.t.t.t.t.8.8.8.8.8.8.8.8.8.8.8.8.8.8.8.8.3.3.3.3.8.3.3.3.t.t.t.t.t.t.8.8.3.3.8.8.8.t.t.t.3.3.3.3.8.8.8.8.8.8.8.8.8.8.8.8.8.8.8.8.8.8.8.8.8.8.8.8.8.8.8.8.t.t.8.t.8.8.8.8.8.8.8.8.8.8.8.8.3.3.3.3.3.3.3.3.3.3.3.3.3.3.3.3.t.t.8.8.3.3.3.3.3.3.3.3.3.3.3.3.3.3.3.3.3.3.8.3.3.3.3.3.3.3.3.3.3.3.3.3.3.3.3.3.8.8.t.t.8.8.8.t.8.8.8.8.8.8.8.8.t.t.t.t.t.t.t.t.3.3.3.3.3.3.3.3.3.3.3.3.3.3.3.3.t.8.8.8.8.8.t.t.3.3.3.3.8.8.3.3.8.8.8.8.3.3.3.8.t.t.t.8.8.8.8.3.3.8.y.y.8.3.3.8.3.3.3.3.3.3.8.8.8.8.8.8.8.8.8.8.8.0.8.8.8.3.3.3.8.8.8.8.8.8.8.8.3.3.8.3.8.8.8.8.8.8.t.t.8.8.8.8.8.8.8.8.8.8.0.0.8.8.8.8.3.3.8.8.3.0.0.0.3.3.3.3.0.0.6.6.3.3.0.0.3.3.3.3.3.3.3.3.0.0.0.0.6.0.0.0.0.0.3.3.3.0.0.y.3.3.3.3.3.3.3.3.d.3.3.3.t.d.d.y.y.3.3.3.y.y.y.d.3.3.t.t.y.t.t.y.t.t.8.8.8.t.t.t.8.3.8.3.3.3.3.3.8.8.8.8.8.8.8.8.3.6.d.d.d.d.d.d.3.3.3.3.3.3.6.3.3.3.8.8.8.8.8.8.8.8.8.8.8.8.8.8.8.8.8.8.8.8.8.8.8.8.0.0.8.8.8.8.3.3.8.3.3.3.3.3.3.3.2.3.2.3.s.s.> > . . . . o # S S S S S S #.F $.#.} } N N N N 5.4.e.5.u.s.g g @ o o o s.                                          ",
"                                                    . . . o . o k k y.y.;.;.>.,.x.x.M.V.M.N.B.B.B.B.B.B.B.B.B.V.V.V.B.M.v.v.V.C.v.v.v.x.p.x.0.p.J.G.SXY.Y.DXGXGXSXSXJ.J.J.J.B.B.B.B.B.V.F.G.G.H.F.F.V.F.F.F.c.c.>.;.,.,.;.>.D F @ ; # @ @ @                     # # . . . . $.$.n.b.q.e.x a ` ' *.*.*.@.` ` N B M M u g . # . X $ 4 Y P :X_._.@X@X@X%X%X%X%X&X&X&X&X&X&X&X%X&X&X&X&X#X*X*X*X&X&X&X&X&X&X&X&X&X&X*X*X&X&X&X&X&X&X*X*X*X*X*X*X*X*X*X*X*X*X*X*X*X*X*X*X*X*X*X*X*X*X*X*X*X*X*X*X*X*X*X*X*X*X*X*X*X=X*X*X*X&X&X&X&X&X&X*X&X&X&X&X&X&X&X&X&X&X&X&X&X&X&X&X&X&X&X&X&X&X&X&X&X&X&X&X*X*X&X&X&X%X$X%X%X%X%X%X$X%X%X%X%X$X%X%X&X%X&X&X&X&X&X&X&X&X&X&X&X&X&X&X&X&X&X&X&X&X&X&X&X&X&X&X*X&X*X*X*X*X&X&X*X*X*X*X*X*X*X*X*X*X&X&X*X&X&X%X-X,X,X:X....f.f.5.6.4.4.3.3.3.3.3.3.3.3.3.3.,.,.,.,.,.,.,.,.,.,.>.>.>.>.>.>.>.>.>.>.,.,.,.,.,.,.3.3.3.3.3.3.3.3.3.3.>.>.>.>.>.>.>.>.3.3.2.2.2.2.2.2.3.3.2.2.3.2.2.2.2.2.3.3.3.3.3.3.3.3.3.3.3.3.3.3.3.2.3.3.2.2.2.>.>.2.2.2.3.3.3.3.3.2.2.;.;.1.3.3.<.3.3.3.3.3.3.3.3.3.1.;.<.;.3.3.2.2.2.2.2.3.2.2.2.2.2.2.2.2.2.2.3.3.3.3.3.1.3.3.3.3.3.3.1.<.<.<.2.2.2.2.2.2.>.>.3.2.2.2.2.2.2.3.2.2.2.2.2.2.3.3.>.2.3.3.3.2.2.>.3.3.2.>.>.>.>.2.>.>.>.>.>.,.,.,.>.>.>.>.>.>.>.>.2.>.>.>.>.>.>.>.2.>.>.>.>.2.2.2.>.2.3.3.2.2.2.3.3.3.3.3.3.2.2.2.2.2.2.2.2.2.3.3.>.>.>.>.>.>.>.>.>.>.>.>.>.>.>.>.3.3.3.3.3.3.3.3.2.2.2.2.2.2.2.2.>.>.2.2.2.3.3.3.3.2.2.2.2.2.>.>.2.2.2.2.2.2.2.2.2.2.2.2.3.3.3.3.3.3.3.2.2.2.2.3.2.2.2.3.3.3.3.3.2.2.3.3.3.2.2.2.2.2.2.2.2.2.2.>.3.2.>.>.2.3.3.2.2.3.3.3.2.2.2.2.2.2.2.2.2.2.2.2.2.2.2.2.2.2.2.2.>.>.,.,.,.>.>.>.>.>.>.>.>.,.,.,.3.3.3.3.3.3.3.3.3.3.2.2.>.>.>.>.>.>.2.2.2.3.3.2.2.2.>.>.>.>.>.>.>.>.>.>.>.>.>.>.>.3.3.3.>.>.>.3.2.2.2.2.2.2.2.2.2.2.2.2.2.2.2.2.2.2.2.2.2.2.>.>.3.3.3.3.3.3.3.3.2.2.2.2.2.2.2.2.2.2.>.>.;.;.;.;.3.3.2.2.3.3.3.3.3.3.2.2.3.3.3.,.,.,.,.,.,.,.,.,.,.,.,.3.3.3.3.3.>.>.2.2.2.2.2.2.2.2.2.2.2.2.2.2.>.>.2.2.2.2.2.2.3.3.2.2.3.3.3.3.2.3.3.3.3.3.3.2.2.2.>.>.>.2.3.3.,.,.>.,.,.3.,.,.>.>.>.>.;.;.>.>.2.2.2.2.2.2.2.2.>.2.3.3.>.>.>.2.,.>.,.,.,.3.3.3.>.>.>.>.>.>.>.>.>.>.>.>.>.>.>.>.>.>.>.>.>.>.>.>.2.2.2.2.>.>.2.2.>.2.2.3.3.2.>.>.>.>.>.>.>.>.,.,.>.>.>.>.>.>.>.>.;.;.,.,.;.;.,.,.,.,.,.,.,.,.,.,.3.3.3.3.3.3.3.3.,.,.,.,.,.,.,.,.,.,.,.,.,.,.3.3.3.3.3.3.3.3.3.3.1.1.;.;.3.3.3.3.3.3.3.3.3.3.3.1.2.2.2.2.2.2.2.2.2.2.>.>.2.2.2.2.3.3.3.3.3.3.3.3.2.2.2.2.>.>.>.>.;.;.<.;.3.3.3.3.3.3.3.3.3.3.3.3.>.>.>.>.>.>.>.>.>.>.,.,.,.>.>.>.>.>.>.>.>.>.>.>.>.>.>.>.>.>.>.>.;.;.>.;.;.;.;.;.>.>.;.2.;.>.y.t.> > . . . . o o S S S D S S #.#.:.$.} { m N x m &.%.e.5.u.s.g g # o o o s.                                          ",
"                                                    . . . . . o k k y.y.;.;.,.,.x.x.V.B.M.M.B.B.M.V.B.B.B.B.B.B.C.V.B.M.v.a.M.v.B.v.a.p.p.a.0.0.I.H.DXDXDXDXHXGXSXSXI.P.I.I.G.V.B.B.V.V.F.G.H.H.F.F.F.F.V.F.c.c.>.>.3.,.;.>.D F @ ; # @ @ @                     @ # . . . . $.$.b.b.q.q.N m ` ` *.*.&.[ ] N V z M M u d . # X X $ 4 Y P :X`.@X}.[.[.{.{.oXoX+X+X+XoXoXoX+XXXXXXXXX#XXX#XXXXXXXXXXXXXXXXXXXOXOXOXOXOXXXXXOXOXXXXXOXOXOX3XXX2X3X3X2X3X2X3X2X2X2X3X3XOX3XOX3X3X3X3X3X3X3X3X3X3X3X3X3X3XOXOXXXXXXXXXOXOXoXoXoXOXOXoX+X+X=XOXOXOXoX+XoXoXoXoXoXoXoXoX=X=XoXoXoXoXoXoXoXoXoXoXoX&XoX&X*X&X&XoXoX{.{.{.{.{.{.{.{.oX{.{.oXoXoXoX=XoXoXoXoXoXoXoXoXoXoXoX+XoXoX&X=XoX=XoXOXOX+XOX+XOXOXoX#X#XOXOXOXOXOXOXOXOX#X#X#X#X#X#X#X*X#X*X&X#X%X-X,X:X....-.f.7.4.4.,.3.3.3.3.3.,.3.3.,.,.,.,.,.,.,.,.,.,.,.,.,.,.,.>.>.>.>.>.,.3.>.>.>.>.>.>.,.,.>.>.>.>.,.,.,.,.2.2.2.2.>.>.>.>.3.3.2.2.3.3.3.2.3.3.3.3.3.2.2.2.3.3.3.3.3.3.3.3.3.3.3.2.2.2.2.2.3.3.2.2.3.3.2.2.>.2.2.2.3.2.3.3.3.3.3.2.1.1.3.3.3.3.3.3.3.3.3.3.3.3.;.;.3.1.3.3.3.3.3.2.2.2.2.2.2.2.2.3.3.2.2.2.3.3.3.3.3.1.3.3.3.3.3.3.3.3.3.3.3.3.3.3.3.2.>.;.3.3.2.2.2.2.3.3.2.2.2.2.2.2.2.2.2.2.3.3.3.2.2.2.3.3.2.>.>.>.>.>.>.>.>.>.,.,.,.,.>.>.>.>.>.>.>.>.>.>.>.>.>.>.>.>.2.>.>.>.>.2.2.2.>.2.3.3.2.2.2.3.3.3.3.3.3.3.3.3.3.2.2.2.2.2.2.2.>.>.>.>.>.>.>.>.>.>.>.>.>.>.>.>.2.2.2.2.2.2.2.2.2.3.2.2.2.2.2.2.>.>.2.2.2.3.3.3.3.2.2.2.2.2.>.>.2.2.2.2.2.3.3.3.3.3.3.3.3.3.3.3.3.3.3.2.2.2.3.3.3.3.3.3.3.3.3.3.2.2.3.3.3.3.3.3.2.2.3.3.3.3.2.2.2.2.>.>.2.3.3.3.2.3.3.3.3.2.2.3.2.2.2.2.2.2.2.2.2.2.2.2.2.2.2.2.>.>.,.,.,.,.>.>.,.,.,.,.>.>.,.,.2.2.2.2.2.2.2.3.3.3.2.2.>.>.2.2.2.2.2.2.2.3.3.3.3.2.2.2.2.2.>.>.>.>.>.>.>.>.>.>.>.>.>.>.>.>.>.>.2.2.2.2.2.2.2.2.2.2.3.3.3.3.2.2.2.2.2.2.2.2.3.>.>.>.>.>.2.2.2.2.;.;.2.2.>.>.;.;.>.2.2.>.;.;.2.2.>.>.>.>.2.2.2.2.2.>.;.;.>.3.3.2.3.;.;.;.>.,.,.,.,.,.,.,.>.>.,.,.2.2.2.2.2.2.2.2.2.2.2.2.2.2.2.2.>.2.2.2.2.2.2.2.2.2.2.2.2.2.2.2.>.>.2.2.2.3.2.2.2.2.2.>.2.2.3.3.>.>.>.>.>.>.>.>.>.>.>.>.>.>.>.>.>.>.2.2.2.2.2.2.2.2.3.2.2.>.>.2.>.>.>.>.>.>.>.,.>.>.>.>.>.>.>.>.>.>.>.>.>.>.>.>.>.>.>.>.>.>.>.>.3.2.2.>.>.2.2.2.2.2.2.2.3.2.2.>.>.>.>.>.>.>.>.>.;.>.>.>.>.>.>.>.;.;.>.>.>.;.,.,.,.,.,.,.,.,.,.,.,.,.,.,.,.,.,.,.,.,.,.,.,.,.,.3.,.,.,.,.,.,.3.3.;.,.,.,.,.,.,.,.1.1.1.3.3.3.3.3.3.3.3.3.3.3.3.3.2.2.2.>.>.>.2.2.2.2.2.2.2.2.2.3.2.2.2.;.>.>.>.>.3.2.2.2.>.>.>.>.;.;.<.<.3.3.3.3.;.;.3.3.3.3.3.3.>.>.>.>.>.>.>.>.>.>.,.,.,.>.>.>.>.>.>.,.,.>.>.,.>.>.>.>.>.>.>.>.;.;.>.>.;.;.;.;.;.;.;.;.;.;.t.3.> > . . . . o O S S S S S S #.#.,.:.} { N N x m [ @.q.q.p.s.g g o o o o s.                                          ",
"                                                    . . . . . . k k s.i.,.,.9.9.x.x.M.B.v.v.N.N.M.M.v.M.M.B.V.V.C.C.V.M.x.a.v.v.v.x.p.p.a.v.p.p.V.v.Y.I.P.I.P.I.V.B.B.B.F.F.V.V.V.V.V.C.H.J.H.H.H.H.H.H.G.H.x.x.>.>.0.0.,.3.F F @ ; o @ @ @                     @ o . . o . #.#.u.w.$.@.z a z a N _ _ ` @.@.{ F M M y u X # X X % 5 U ^ ,X%X@X[.#X#X*X*XeXeXeX4X3X3X9X4X4X4X4X9X4X4X4X4X4X4X4X4X4X4X4X4X4X4X4XeXeXeXeXeXeXeXeX9XeX9X9X9X4X1X4X4X8X8X5X4X4X4XeX8X8X9X8X9X8X9X8X9X8X9X8X9X8X9X8X9X9X9X4X4XeXeX9X4X9X4X3X3X3X3X9XeXeXeXeXeXeXeXeX3XeXeXeXeXeXeXeXeX3X3X3X3X3X3X3X3XeXeXeXeXeXeXeXeXeXeXeXeXOXXXXXXXOXXXOXOXOXOXOXOX3X3XeXeXeXeXeXeX3X3X3X3X3X3X2X2X2X3XeXeX3X9XeX9X9X9X9X9X9XeXeXeX9X9X9X9X9XeXeX9XeX9X9X9X9X9X9X9XXXXX#X#X#X#X#X%X_.,X:X..-.f.7.5.4.4.6.6.3.3.3.3.3.3.3.3.3.3.3.3.3.3.3.3.3.3.3.3.3.3.3.3.3.3.3.3.,.,.,.,.,.,.,.,.3.3.,.,.,.,.3.3.3.3.3.3.3.3.3.3.3.3.3.3.3.3.3.3.3.3.3.3.3.3.3.3.3.3.3.3.3.3.3.3.3.3.3.3.3.3.3.3.3.3.3.3.3.3.3.3.2.3.3.3.3.3.3.3.3.3.3.3.3.3.3.3.3.3.3.3.3.3.3.3.3.3.3.3.3.3.3.3.3.3.3.3.3.3.3.3.3.3.3.3.3.3.3.3.3.3.3.3.3.3.3.3.3.3.3.3.3.3.3.3.3.3.3.3.3.3.3.3.3.3.3.3.3.3.3.3.3.3.3.3.3.3.3.3.3.3.3.3.3.3.3.3.3.3.3.3.3.3.3.3.3.3.3.3.3.3.3.3.>.3.3.3.3.3.3.3.3.3.2.3.2.2.2.2.3.3.3.3.3.3.3.3.3.3.3.3.3.3.3.3.3.3.3.3.3.3.3.3.3.3.3.3.3.3.3.3.3.3.3.3.3.3.3.3.3.3.3.3.3.3.3.3.3.3.3.3.3.3.3.3.3.3.3.3.3.3.3.3.3.3.3.3.3.3.3.3.3.3.3.3.3.3.3.3.3.3.3.3.3.3.3.3.3.3.3.3.3.3.3.3.3.3.3.3.3.3.3.3.3.3.3.3.3.3.3.3.3.3.3.3.3.3.3.3.3.3.3.3.3.3.3.3.3.3.3.3.3.3.3.3.3.3.3.3.3.3.3.3.3.3.3.3.3.3.3.3.3.3.3.3.3.3.3.3.3.3.3.3.3.3.3.3.3.3.3.3.3.3.3.3.3.3.3.3.3.3.3.3.3.3.3.3.3.3.3.3.3.3.3.3.3.3.3.3.3.3.3.3.3.3.3.3.3.2.2.2.2.2.2.2.2.2.2.3.2.2.2.2.3.3.3.3.3.3.3.3.3.3.3.3.3.3.3.3.3.3.3.3.3.3.3.3.3.3.3.3.3.3.2.2.3.3.3.3.3.3.3.3.3.3.3.3.3.3.3.3.3.3.3.3.3.3.3.3.3.3.3.3.3.3.3.3.3.3.3.3.3.3.3.3.3.3.3.3.3.3.3.3.3.3.3.3.3.3.3.3.3.3.3.3.3.3.3.3.3.3.3.3.3.3.3.3.3.3.3.3.3.3.3.3.3.3.3.3.3.3.3.3.3.3.3.3.3.3.3.3.3.3.3.3.3.3.3.3.3.3.3.3.3.3.3.3.3.3.3.3.3.3.3.3.3.3.3.3.3.3.3.3.3.3.3.3.3.3.3.3.2.3.3.3.3.3.3.3.,.3.3.3.3.3.3.3.3.3.,.,.,.,.3.3.3.3.3.3.3.3.3.3.3.3.3.3.3.3.3.3.3.3.3.3.3.3.3.3.2.3.3.3.3.3.3.3.,.3.3.,.,.,.3.3.3.3.3.3.3.3.3.3.3.3.3.3.3.3.3.3.3.3.3.3.3.3.3.3.3.3.3.3.3.3.3.3.3.3.3.3.3.3.3.3.3.3.3.3.3.3.3.3.3.3.3.3.3.3.3.3.3.3.3.3.3.3.3.3.3.3.3.3.3.3.3.3.3.3.3.3.3.3.3.3.3.3.3.3.3.3.3.3.3.3.3.3.3.3.3.3.3.3.3.3.2.2.3.3.3.3.3.3.3.3.,.3.,.,.3.3.3.3.3.,.3.3.3.3.3.3.3.3.3.3.3.,.,.,.3.3.,.,.>.>.>.>.2.2.;.;.;.;.;.;.3.3.> > . . . . o O S S Z Z j M F o.,.:.#.$.N N N N } $.u.p.k.p.g k o o o o s.                                          ",
"                                                    . . . . . . k k y.s.,.,.9.9.v.v.B.V.v.v.M.M.v.v.v.v.v.v.B.B.C.C.V.M.a.p.v.v.v.x.s.a.v.B.p.p.B.v.DXY.Y.I.J.J.B.B.B.B.J.G.F.F.V.V.V.C.F.H.H.H.F.H.F.H.G.H.x.x.>.,.y.y.3.3.F F @ ; o @ @ @                     @ o . . o . #.#.u.u.#.$.z z z l A N A D @.$.F S M M y u X # X X % 5 P E ,X%X.X|.XXXXXX3XeX9X1X1X1X1X1X1X1X1X1X4X1X1X1X1X1X5X5X5X5X5X1X1X1X1X5X5X1X1X5X1X1X1X1X1X5X5X5X5X5X5X5X5X5X5X5X5X5X5X5X5X5X5X5X5X5X5X5X5X5X5X5X5X5X5X5X5X5X1X5X1X1X1X1X1X1X1X1X1X1X1X1X4X2X2X5X2X1X1X1X1X1X1X1X1X1X2X2X2X<X<X1X<X1X<X1X1X1X1X1X4X1X4X1X4X4X4X4X4X<X<X<X X<X<X<X<X<X<X<X<X<X4X4X4X4X4X1X1X1X1X1X1X1X1X1X1X1X1X1X1X1X1X1X1X1X1X1X1X1X1X1X1X1X1X1X1X1X4X4X4X1X4X1X4X4X4X4X4X4X4X4X4X9X9X#X&X_.,X:X..-.f.f.7.4.4.3.3.3.3.3.3.3.3.3.3.,.,.,.,.,.,.,.>.>.>.>.,.3.,.3.2.3.3.3.3.3.3.3.3.3.3.3.3.3.3.,.,.3.,.3.3.3.3.2.2.2.2.2.2.3.3.2.2.3.3.3.3.3.3.3.3.2.2.2.2.3.3.3.3.3.3.2.2.>.>.>.2.2.>.>.>.3.3.3.3.3.3.3.3.>.2.2.2.2.>.2.3.3.3.3.3.3.3.3.3.3.3.3.3.3.3.3.3.3.3.3.3.3.3.3.3.3.3.2.2.2.2.3.3.3.3.3.3.3.3.3.3.3.3.3.3.3.3.3.3.3.3.3.3.3.3.3.3.3.3.3.3.3.3.2.2.3.2.2.2.2.2.2.3.3.3.3.3.2.2.2.2.3.3.2.>.>.>.2.3.2.2.3.3.3.3.2.2.2.2.>.>.>.>.>.>.>.>.>.>.>.>.>.>.2.2.2.2.2.2.>.>.2.2.2.>.2.2.2.3.2.2.3.3.2.>.>.2.>.>.2.2.2.2.2.3.3.3.3.2.2.>.2.2.>.>.>.>.>.>.>.>.>.>.>.>.>.>.>.>.3.3.3.3.3.3.3.3.2.2.2.2.2.2.2.2.2.2.2.2.2.2.2.2.2.2.>.>.2.2.2.>.3.3.3.3.3.3.3.3.3.3.3.3.3.3.3.3.3.3.3.3.3.3.3.3.2.2.2.3.3.3.3.3.3.3.3.3.3.3.2.2.3.3.3.3.3.3.3.3.3.3.2.2.3.3.3.3.3.3.3.3.3.3.3.3.3.3.3.3.3.3.3.2.2.2.2.2.2.2.2.2.2.3.3.3.3.3.2.2.3.3.3.3.2.2.2.2.3.3.3.3.3.3.3.3.>.>.>.2.2.3.3.3.2.2.2.>.>.>.>.>.3.3.2.2.2.2.2.2.>.>.>.>.2.2.2.2.2.3.2.2.2.2.2.2.2.2.>.>.>.>.>.>.>.>.>.>.2.2.2.2.<.<.2.2.<.2.<.<.3.3.3.3.3.3.2.3.3.3.3.3.3.3.3.3.>.>.2.2.2.2.2.2.3.3.3.3.3.3.3.3.3.3.3.3.3.3.3.3.3.3.3.3.3.3.3.3.3.3.3.3.3.3.3.3.3.3.3.3.2.2.2.2.2.2.2.2.2.2.2.2.2.2.2.2.3.3.3.3.3.3.3.3.3.3.3.3.3.3.3.3.3.3.3.3.2.2.2.>.>.2.3.3.3.3.3.3.3.3.3.3.2.2.2.2.2.2.2.2.>.>.>.>.2.2.2.2.3.2.>.>.3.3.2.2.3.3.3.3.3.3.3.3.>.>.2.2.2.2.2.>.>.>.>.>.>.>.>.>.>.>.>.>.>.>.>.>.2.2.>.>.>.>.2.2.2.2.>.>.2.2.2.2.2.2.2.>.>.>.>.>.>.2.3.3.3.2.2.3.,.,.,.,.,.,.,.,.,.,.,.;.;.,.,.,.3.3.3.3.3.3.3.3.3.3.3.3.3.3.3.3.3.3.3.3.3.3.3.3.3.3.3.3.3.3.3.3.3.3.3.3.3.3.3.1.;.3.3.3.3.3.3.3.2.2.>.>.>.>.2.2.2.2.2.2.2.2.3.3.3.3.3.3.3.3.3.3.3.2.2.2.2.2.>.>.2.2.2.2.2.2.2.3.3.3.3.3.2.2.2.3.,.,.>.>.>.>.>.>.>.>.>.>.,.>.>.>.,.,.,.,.,.,.>.>.,.,.>.>.>.>.>.,.>.>.>.>.>.>.>.>.2.>.;.>.;.;.3.3.> > . . . . o O S S S Z j j F F ;.;.#.#.S A N N } $.u.p.v.a.f k o # o o s.                                          ",
"                                                    . . o . . . k g 8.y.;.,.9.9.v.v.V.V.v.v.M.v.v.v.v.v.v.v.v.v.B.M.v.a.y.y.a.p.G.C.B.B.v.v.0.9.B.B.GXHXDXSXP.J.v.v.B.v.V.V.V.V.V.V.V.V.F.F.H.H.V.F.V.H.F.G.x.c.,.,.y.y.3.3.D D @ ; o @ @ @                     @ o . . O . #.F 0.0.F +.c z z z l l c V } F D S S S q d X X X X 4 7 U ) >X-X#X4X9X4X9X4X9XqX8X8X0X0X0X0X7X7X7X0X7X7X7X7X7X7X7X7X7X7X7X7X7X7X0X7X6X5X6X8X8X8X5X5X6X7X0XtXtXtXtXrXtXtXtXtXtXtXtXtXtXrX7XrXtXrXtXtXtXrX7X6XtX6X6X7X0X7X0X0X0X0X0X0X5X8X5X8X8X8X0X0X0X8X0X8X8X5X5X8X5X5X5X5X5X8X8X8X5X7X8X8X8X7X8XqX8X7X8X8X8X8X8X8X0X0XqXqXqX8X8X4X4X4X8X8X8X8X8X8XqX0X0X0X0X0X8X8X8X0X0X0X8X8X8X8X8X8X0X0X0X0X0X0X6X8X6X8X6X8X8X8X8X8X8X0X8X0X0X0X0X0X0XqXqXqXqXqXqXqXqXqX9X9X#X*X%X,X:X....-.f.7.6.6.0.6.3.3.3.8.3.3.3.3.3.3.3.3.3.3.3.3.3.3.3.3.3.3.3.3.3.3.3.3.3.3.3.3.3.3.3.3.3.3.3.3.3.3.3.3.3.3.3.3.3.3.3.3.3.3.3.3.3.3.3.3.3.3.3.3.3.3.3.3.3.3.3.3.3.3.3.3.3.3.3.3.3.3.3.3.3.3.3.3.3.3.3.3.3.3.3.3.3.3.3.3.3.3.3.3.3.3.3.3.3.3.3.3.3.3.3.3.3.3.3.3.3.3.3.3.3.3.3.3.3.3.3.3.3.3.3.3.3.3.3.3.3.3.3.3.3.3.3.3.3.3.3.3.3.3.3.3.3.3.3.3.3.3.3.3.3.3.3.3.3.3.3.3.3.3.3.3.3.3.3.3.3.3.3.3.3.3.3.3.3.3.3.3.3.3.3.3.3.3.3.3.3.3.3.3.3.3.3.3.3.3.3.3.3.3.3.3.3.3.3.3.3.3.3.3.3.3.3.3.3.3.3.3.3.3.3.3.3.3.3.3.3.3.3.3.3.3.3.3.3.3.3.3.3.3.3.3.3.3.3.3.3.3.3.3.3.3.3.3.2.2.2.2.3.3.3.3.3.3.3.3.3.3.3.3.3.3.3.3.3.3.3.3.3.3.3.3.3.3.3.3.3.3.3.3.3.3.3.3.3.3.3.3.3.3.3.3.3.3.3.3.3.3.3.3.3.3.3.3.3.3.3.3.3.3.3.3.3.3.3.3.3.3.3.3.3.3.3.3.3.3.3.3.3.3.3.3.3.3.3.3.3.3.3.3.3.3.3.3.3.3.3.3.3.3.3.3.3.3.3.3.3.3.3.3.3.3.3.3.3.3.3.3.3.3.3.3.3.3.3.3.3.3.3.3.3.3.3.3.3.3.3.3.3.3.3.3.3.3.3.3.3.3.3.3.3.3.3.3.3.3.3.3.3.3.3.3.2.2.2.2.2.2.2.2.3.3.3.3.3.3.3.3.3.3.3.3.3.3.3.3.3.3.3.3.3.3.3.3.3.3.2.2.2.2.3.3.3.2.2.2.2.2.2.3.3.3.3.3.3.3.3.3.2.2.2.2.2.2.2.2.2.2.2.2.3.3.3.2.3.3.3.3.1.1.1.3.3.3.3.3.3.3.3.3.3.3.3.3.3.3.3.3.3.3.3.3.3.3.3.3.3.3.3.3.3.3.3.3.3.3.3.3.3.3.3.3.3.3.3.3.3.3.3.3.3.3.3.3.3.3.3.3.3.3.3.3.<.<.3.3.3.3.3.3.3.3.3.3.3.3.3.3.3.3.3.3.3.3.3.3.3.3.3.3.2.2.2.2.2.2.2.2.3.3.3.3.3.3.3.3.3.3.3.3.3.3.3.3.3.3.3.3.3.3.3.3.3.3.3.3.3.3.3.3.3.3.3.3.3.3.3.3.3.3.3.3.3.3.3.3.3.3.3.3.3.3.3.3.3.3.3.3.3.3.3.3.3.3.3.3.3.3.3.3.3.3.3.3.3.3.3.3.3.3.3.3.3.3.3.3.3.3.3.3.3.3.3.3.3.3.3.2.>.2.3.3.3.3.3.3.3.3.3.3.3.3.3.3.3.3.3.3.3.3.3.3.3.3.3.3.3.3.3.3.3.3.3.3.<.2.2.3.3.2.2.<.3.3.3.3.3.3.3.3.3.3.3.3.3.3.3.3.3.3.3.3.2.2.2.2.3.3.3.3.3.3.3.3.3.3.3.3.3.3.3.3.3.3.3.3.3.3.3.3.3.3.3.3.3.3.3.3.3.,.>.>.3.3.3.3.3.2.;.2.;.>.8.3.> > . . . . o @ S S S S M M F F ;.#.{ #.N S N N $.$.q.q.a.p.g g # # o o s.                                          ",
"                                                    . . o o . . k g 8.8.#.;.9.0.v.v.B.V.v.v.v.v.v.v.v.v.v.v.v.v.v.v.x.a.y.y.a.a.C.V.B.B.M.v.0.0.M.M.GXGXHXDXJ.J.v.v.v.x.V.n.V.F.V.V.V.V.F.F.H.H.F.F.F.H.F.F.c.c.,.9.i.i.3.3.D D @ ; o @ @ @                     @ o . . O . #.D 0.0.F F j h j j c c N M { D S M S S d f X X X X 4 7 U ! ,X*X#X4X4X1X1X1X5X8X7X7X0XtXtXtXrXrXrXtXrXrXtXtXtXtXrXrXrXtXtXtXtXrX6X6X6X6X6X6X6X6X5X5X6X6XrXtXtXrXrXrXrXrXrXrXrXrXrXrXrXrXrXrXrXrXrXrXrXrXrXrXrXrXrXrXrX6X6X6XtX7X7X0X6X6X6X6X6X6X7X7XrXrX6X6X6X6X6X6X6X6X6X6X5X5X5X5X5X5X5X5X5X5X5X5X5X5X6X6X6X6X6X6X6X6X6X6X8X7X8X8X8X7X8X8X8X8X8X8X0X0X0X0X0X7X6X6X6X6X6X6X7X6X6X6X6X6XrX7XrX7XrX7X6X7X6X6X6X7X6X7X6X6X6X7X7X7X7X7X7X7X7X7X7X7X7X7X7X7X7X7XqX9X9X*X-X>X:X....-.f.e.4.6.6.3.3.3.3.3.3.3.3.3.3.3.3.3.3.3.3.3.3.3.3.3.3.3.3.3.3.3.3.3.3.3.3.3.3.3.3.3.3.3.3.3.3.3.3.3.3.3.3.3.3.3.3.3.;.3.3.3.3.3.3.3.3.3.3.3.3.3.3.3.3.3.3.3.3.3.3.3.3.3.3.3.3.3.3.3.3.3.3.3.3.3.3.3.3.3.3.3.3.3.3.3.3.3.3.3.3.3.3.3.3.3.3.3.3.3.3.3.3.3.3.3.3.;.3.3.3.3.3.3.3.3.3.3.3.2.3.3.3.3.3.3.3.3.3.3.3.3.3.3.3.3.3.3.3.3.3.3.3.3.3.3.3.3.3.3.3.3.3.3.3.3.3.3.3.3.3.3.3.3.3.3.3.3.3.3.3.3.3.3.3.3.3.3.3.3.3.3.3.3.3.3.3.3.3.3.>.>.>.>.3.3.2.2.2.2.2.3.3.2.2.2.3.2.2.2.2.3.3.3.3.3.3.3.3.2.2.2.2.2.2.3.3.3.3.3.3.3.3.3.3.3.3.3.2.2.2.2.3.3.3.3.3.3.3.3.3.3.3.3.3.3.3.3.3.3.3.3.3.3.3.3.3.3.3.3.3.3.3.3.3.3.3.3.3.3.3.3.3.3.3.3.3.3.3.3.3.3.3.3.3.3.3.3.3.3.3.3.3.3.3.3.3.3.3.3.3.3.3.3.3.3.3.3.3.3.3.3.3.3.3.3.3.3.3.3.3.3.3.3.3.3.3.3.3.3.3.3.3.3.3.3.3.3.3.3.3.3.3.3.3.3.3.3.3.3.3.3.3.3.3.3.3.3.3.3.3.3.3.3.3.3.3.3.3.3.3.3.3.3.3.3.3.3.3.3.2.2.2.3.3.2.2.>.2.2.2.2.3.3.2.3.2.2.3.3.3.3.3.3.2.2.2.2.2.2.2.2.2.2.2.2.2.2.3.2.2.2.2.2.2.2.2.2.2.2.2.2.2.3.3.3.2.3.3.3.3.3.3.2.3.3.3.3.3.3.3.3.3.3.2.2.2.2.3.3.2.2.3.3.3.3.3.3.2.2.2.2.2.2.2.2.2.2.2.3.3.3.3.2.3.3.3.3.1.1.3.3.3.3.3.3.3.3.3.3.3.3.3.3.3.2.2.2.2.2.2.2.2.2.2.2.3.3.3.3.3.3.3.3.3.3.3.3.3.3.3.3.3.3.3.3.3.3.3.3.3.3.3.2.3.3.3.3.3.3.3.3.2.2.3.3.2.2.2.2.<.<.2.2.3.3.3.3.2.2.2.2.3.3.3.3.3.3.3.3.2.2.3.3.3.3.3.3.3.3.3.3.3.3.3.2.3.3.3.2.2.2.2.2.3.3.2.2.2.2.2.3.2.2.2.3.3.3.3.2.3.3.2.>.>.2.3.3.3.3.3.3.3.2.2.2.3.3.3.3.3.3.3.3.3.3.3.3.3.3.3.3.3.3.3.3.3.3.3.1.3.3.3.3.3.3.3.3.3.3.3.3.3.3.3.3.3.3.3.3.2.2.2.3.3.3.3.2.2.3.3.3.3.3.3.3.3.3.1.1.3.3.3.3.3.3.3.3.3.3.3.3.3.3.3.3.2.2.2.2.2.2.2.3.2.2.3.3.3.3.2.2.2.2.2.2.2.2.2.2.3.3.2.2.2.3.3.3.3.3.3.3.3.2.3.3.2.2.2.2.2.2.2.2.3.3.3.3.3.3.3.3.3.3.3.3.3.3.2.2.3.3.3.3.3.3.3.3.,.>.>.>.2.2.2.>.3.2.;.2.>.>.8.3.> > . . . . o @ Z S S S M M F F #.#.#.#.S S N N :.:.0.0.a.a.g g # # # o s.                                          ",
"                                                    . . o . . . g g 3.3.#.o.3.,.x.p.n.n.n.v.C.n.v.V.n.C.n.V.v.B.v.v.v.V.i.p.p.p.i.p.8.0.s.y.3.,.x.a.J.J.U.P.C.V.B.B.V.V.C.G.F.J.n.n.n.n.n.n.F.F.H.n.F.F.F.H.x.x.,.;.i.0.,.9.F F @ @ # @ @ @                     O # . . # . o.F 0.9.y.i.D F D D D F F F S S Z Z S S d q X X X X 4 5 / ! >X-XCXvXwXwX5X5X8X8X6X6XjXjXzXNXNXNXNXzXlXfXfXfXVXMXVXVXMXMXMXNXBXNXaXtX6X6X6X7X0X0X0X6X6X6XjXjXNXNXNXNXlXlXzXzXNXNXzXzXNXNXNXzXzXzXzXzXzXzXzXjXzXzXzXzXNXzXzXkXzXzX0XaX6X6XaXkXNXNXNXjXjXjXjXjXjXjXjXjXnXnXjXjXjXjXmXmXjXjXjXjXjXjXjXjXmXmXnXjXjXjXnXmXjXjXzXjXmXnXmXnXmXnXmXnXjXhXjXmXNXNXNXNXNXmXNXNXNXNXNXzXzXnXNXNXzXmXNXNXNXNXNXNXNXmXNXmXNXNXNXNXZXNXNXmXZXZXZXZXZXZXZXZXZXZXZXZXnXnXhXhXwXwXbXCX-X>X:X....-.7.4.6.6.3.,.3.3.3.3.3.3.3.3.3.3.3.,.3.3.3.3.3.3.3.3.3.3.3.3.3.3.3.3.3.3.3.3.3.3.3.3.3.3.3.3.3.3.3.3.3.3.3.3.3.3.3.3.3.3.3.3.3.3.3.3.3.3.3.3.3.3.3.3.3.3.3.3.3.3.3.3.;.3.3.3.3.3.3.3.3.3.3.3.3.3.3.3.3.3.3.3.3.3.3.3.3.3.3.3.3.3.3.3.3.3.3.3.3.3.3.3.3.3.3.3.3.3.3.3.3.3.3.3.3.3.3.3.3.3.3.3.3.3.3.3.3.3.3.3.3.3.3.3.3.3.3.3.3.3.3.3.3.3.3.3.3.3.3.3.3.3.3.3.3.3.3.3.3.3.3.3.3.3.3.3.3.3.3.3.3.3.3.3.,.,.,.3.3.3.3.3.3.3.3.3.3.3.3.3.3.3.3.3.3.3.3.3.3.3.3.3.3.3.3.3.3.3.3.3.3.3.3.3.3.3.3.3.3.3.3.3.2.2.3.3.3.3.3.3.3.3.<.3.3.3.3.3.3.3.2.2.3.3.3.3.3.3.3.3.3.3.3.3.3.3.3.3.3.3.3.3.3.3.3.3.3.3.3.3.3.3.3.3.3.3.3.3.3.3.3.3.3.3.3.3.3.3.3.3.3.3.3.3.3.3.3.3.3.3.3.3.3.3.3.3.3.3.3.3.3.3.3.3.3.3.3.3.3.3.3.3.3.3.3.3.3.3.3.3.3.3.3.3.3.3.3.3.3.3.3.3.3.3.3.3.3.3.3.3.3.3.3.3.3.3.3.3.3.3.3.3.3.3.3.3.3.3.3.3.3.3.3.3.3.3.3.3.3.2.2.3.3.3.3.3.3.3.3.3.3.3.3.3.3.3.3.3.3.3.3.3.3.3.3.3.3.3.3.3.2.3.3.3.2.2.3.3.3.3.3.3.3.3.3.2.3.3.3.3.3.2.2.2.3.3.3.3.3.3.3.3.2.2.3.2.3.3.3.3.3.2.3.3.3.3.3.3.2.2.2.2.2.3.3.3.3.3.2.2.3.3.3.3.3.<.2.2.<.<.<.3.3.3.3.2.2.2.2.2.2.3.3.3.1.1.1.1.1.1.3.3.3.3.3.3.3.3.3.3.3.3.3.3.3.3.3.3.3.3.3.3.3.3.3.3.3.3.3.3.3.3.3.3.3.3.3.3.3.3.3.3.3.3.3.3.2.2.2.3.3.3.2.2.<.2.3.3.3.3.3.3.3.3.3.3.3.3.3.3.3.3.3.2.3.3.3.3.2.2.3.3.3.3.3.3.3.3.3.3.3.3.3.3.2.3.3.3.3.3.3.3.3.3.2.2.3.3.3.3.3.3.3.3.2.2.2.2.2.2.3.3.;.>.2.3.3.3.3.3.3.3.3.3.3.2.2.2.2.2.2.2.2.2.2.2.3.3.3.3.3.3.3.3.3.3.3.3.3.3.3.3.3.3.3.3.3.3.3.3.3.3.3.3.3.3.3.3.3.3.3.3.3.3.3.3.3.3.3.3.2.2.2.2.3.3.3.3.2.3.3.3.3.3.3.3.3.3.3.3.3.3.3.3.3.3.3.;.3.3.3.3.3.3.3.3.3.3.3.3.3.3.3.2.2.2.<.<.<.<.2.2.<.2.3.3.2.2.3.3.2.2.>.>.>.2.2.2.2.2.2.2.2.2.2.2.3.3.2.2.3.3.3.3.3.3.3.3.3.3.3.3.3.3.3.3.2.3.3.3.3.3.3.3.2.3.3.3.3.3.3.3.2.2.2.2.3.3.;.2.;.;.8.8.> < . . . . @ O Z S Z S Z Z F F ;.;.3.3.;.#.;.;.6.y.0.y.a.p.f g o # o o y.                                      . . ",
"                                                    . . o . o . g g 3.3.#.o.3.3.v.v.V.n.n.n.V.n.n.n.v.V.n.V.V.V.v.B.V.V.s.p.p.s.a.a.8.9.y.8.9.3.v.v.P.P.P.J.G.C.B.v.V.V.C.J.C.C.V.n.n.n.n.V.F.F.H.V.F.F.F.H.p.c.>.;.i.i.3.0.D F @ ; # @ @ @                     @ @ . . # . #.#.0.9.i.s.D F S S F F S F S F S S S Z d q X X X X 4 5 / ! >X-XCXvXwXwX8X5X8X5X6X6XjXjXzXzXlXlXlXlXgXgXgXxXfXMXMXMXMXMXBXMXBXNXtXtX6X6X6X6X7X0X6X6XrXtXzXzXZXNXNXNXlXlXzXzXzXzXzXzXNXNXzXzXzXzXjXjXzXzXjXjXjXzXzXzXzXzXzXkXzXzXtXtX6X6XaXaXzXjXNXjXpXjXpXpXjXjXpXpXjXjXjXjXjXjXjXnXjXjXjXjXjXjXjXjXjXjXjXjXjXjXjXzXjXjXjXjXjXjXjXjXnXnXjXjXjXjXjXjXzXzXzXzXzXzXNXNXzXzXNXzXzXzXzXMXzXNXNXNXNXNXNXzXzXzXzXNXNXNXNXNXNXmXNXNXNXZXZXZXZXNXNXNXNXZXZXmXnXnXhXhXwXwXbXCX>X>X:X..-.f.7.4.6.6.,.,.3.3.3.3.3.3.3.3.3.3.,.,.3.3.3.3.3.3.3.3.3.3.3.3.3.3.3.3.3.3.3.3.3.3.3.3.3.3.3.3.3.3.3.3.3.3.3.3.3.3.3.3.3.3.3.3.3.3.3.3.3.3.3.3.3.3.3.3.3.3.3.3.3.3.3.3.3.3.3.3.3.3.3.3.3.3.3.3.3.3.3.3.3.3.3.3.3.3.3.3.3.3.3.3.3.3.3.3.3.3.3.3.3.3.3.3.3.3.3.3.3.3.3.3.3.3.3.3.3.3.3.3.3.3.3.3.3.3.3.3.3.3.3.3.3.3.3.3.3.3.3.3.3.3.3.3.3.3.3.3.3.3.3.3.3.3.3.3.3.3.3.3.3.3.3.3.3.3.3.3.3.3.3.3.3.3.3.3.,.,.3.3.3.3.3.3.3.3.3.3.3.3.3.3.3.3.3.3.3.3.3.3.3.3.3.3.3.3.3.3.3.3.3.3.3.3.3.3.3.3.3.3.3.3.3.3.3.3.3.3.3.3.3.3.3.3.<.3.3.3.3.3.3.3.3.3.3.3.3.3.3.3.3.3.3.3.3.3.3.3.3.3.3.3.3.3.3.3.3.3.3.3.3.3.3.3.3.3.3.3.3.3.3.3.3.3.3.3.3.3.3.3.3.3.3.3.3.3.3.3.3.3.3.3.3.3.3.3.3.3.3.3.3.3.3.3.3.3.3.3.3.3.3.3.3.3.3.3.3.3.3.3.3.3.3.3.3.3.3.3.3.3.3.3.3.3.3.3.3.3.3.3.3.3.3.3.3.3.3.3.3.3.3.3.3.3.3.3.3.3.3.3.3.3.3.3.3.3.3.3.3.3.3.2.3.3.3.3.3.3.3.3.3.3.3.3.3.3.3.3.3.3.3.3.3.3.3.3.3.3.3.3.3.2.2.3.3.3.2.2.3.3.3.3.3.3.3.3.2.2.3.3.3.3.3.2.2.2.3.3.3.3.3.3.3.3.2.2.2.2.3.3.3.3.2.2.3.3.3.3.3.3.2.2.2.<.<.2.3.3.3.3.3.3.3.3.3.2.<.<.2.2.2.<.2.3.3.3.2.2.2.2.2.2.2.3.3.3.1.1.1.1.1.1.3.3.3.3.3.3.3.3.3.3.3.3.3.2.3.3.3.3.3.3.3.3.3.3.3.3.3.3.3.3.3.3.3.3.3.3.2.3.3.3.3.3.3.3.3.3.2.2.2.3.3.3.2.2.<.<.3.3.3.3.3.3.3.3.3.3.3.3.3.3.3.3.3.3.3.3.3.3.2.2.3.3.3.3.3.3.3.3.3.3.3.3.3.3.2.3.3.3.3.3.3.3.3.3.3.2.3.3.3.3.3.3.3.3.3.3.2.2.3.3.3.3.>.2.2.2.3.3.3.3.3.3.3.3.3.3.3.3.3.3.3.3.3.3.3.3.3.3.3.3.3.3.3.3.3.3.3.3.3.3.3.3.3.3.3.3.3.3.3.3.3.3.3.3.3.3.3.3.3.3.3.3.3.3.3.3.3.3.3.3.3.3.3.3.3.3.3.3.3.3.3.3.3.3.3.3.3.3.3.3.3.3.3.3.3.3.3.3.3.3.3.3.3.3.3.3.3.3.3.3.3.3.3.2.3.2.2.<.<.2.2.3.2.2.3.3.2.2.3.3.2.2.2.2.2.2.2.2.2.2.2.2.2.2.2.2.3.3.2.2.3.3.3.3.3.3.3.3.3.3.3.2.3.3.3.3.3.3.3.3.3.3.3.3.3.3.3.3.3.3.3.3.3.3.2.2.3.3.>.2.;.;.8.8.< < . . . . @ @ Z S Z S Z Z F F ;.;.3.3.;.#.;.;.0.y.0.q.p.s.f f @ @ o o y.                                      . . ",
"                                                    . . o . o o k g 9.3.;.#.9.3.x.x.V.V.V.F.K.K.K.J.H.H.V.V.V.V.v.v.B.B.s.i.y.y.#.o.S S o.#.;.,.a.x.G.C.S.C.J.J.I.I.I.Y.SXDXY.I.J.H.H.H.L.L.H.H.H.H.F.F.L.L.c.c.,.>.p.p.0.0.F F @ ; @ @ @ @                     o @ . . O . #.;.y.y.x.v.#.#.F D ,.;.F F S S c c Z M q q X # . X 4 5 / ! >X-XCXvXwXhX5X5X5X6X6X6XkXjXpXlXlXlXxXxXxXxXxXxXMXMXMXMXMXMXMXMXNXNXtXrX6X6X6X7X7X7X6X6X6X6XkXjXNXNXlXpXMXMXMXzXzXzXjXjXzXzXzXzXzXjXjXjXjXjXjXjXjXjXjXjXjXlXzXkXzXkXtXtX6X6XtXtXzXjXNXjXjXpXpXpXpXpXpXpXpXpXpXpXpXpXpXpXpXpXpXpXpXpXpXpXpXjXjXpXpXpXjXlXlXjXjXjXjXjXjXjXjXnXjXjXjXjXjXjXjXjXjXjXjXjXjXlXlXlXlXlXlXlXlXzXzXMXMXMXMXzXlXlXnXnXzXNXNXNXNXNXNXNXNXNXNXNXNXNXNXNXNXNXNXNXNXmXmXnXhXhXwXwXvXCX>X>X:X..-.f.7.5.6.6.3.3.3.3.3.3.3.3.3.3.3.3.3.3.3.3.3.3.3.3.3.3.3.3.3.3.,.,.,.,.3.3.3.3.3.3.3.3.3.3.3.3.3.3.3.3.3.3.3.3.3.3.3.3.3.3.3.3.3.3.3.3.3.3.3.3.3.3.3.3.3.3.3.3.3.3.3.3.3.3.3.3.3.3.3.3.3.3.3.3.3.3.3.3.3.3.3.3.3.3.3.3.3.3.3.3.3.3.3.3.3.3.3.3.3.3.3.3.3.3.3.3.3.3.3.3.3.3.3.3.3.3.3.3.3.3.3.3.3.3.3.3.3.3.3.3.3.3.3.3.3.3.3.3.3.3.3.3.3.3.3.3.3.3.3.3.3.3.3.3.3.3.3.3.3.3.3.3.3.3.3.3.3.3.3.3.3.3.3.3.,.3.3.3.3.3.3.3.3.3.3.3.3.3.3.3.3.3.3.3.3.3.3.3.3.3.3.3.,.3.,.3.3.3.3.3.3.3.3.3.3.3.3.3.3.3.3.3.3.3.3.3.3.3.3.3.3.3.3.3.3.3.3.3.3.3.3.3.3.3.3.3.3.3.3.3.3.3.3.3.3.3.3.3.3.3.3.3.3.3.3.3.3.3.3.3.3.3.3.3.3.3.3.3.3.3.3.3.3.3.3.3.3.3.3.3.3.3.3.3.3.3.3.3.3.3.3.3.3.3.3.3.3.3.3.3.3.3.3.3.3.3.3.3.3.3.3.3.3.3.3.3.3.3.3.3.3.3.3.3.3.3.3.3.3.3.3.3.3.3.3.3.3.3.3.3.3.3.3.3.3.3.3.3.3.3.3.3.3.3.3.3.3.3.3.3.3.3.3.3.3.3.3.3.3.2.3.2.3.3.2.2.3.3.3.3.3.3.3.3.3.3.3.3.3.3.3.3.3.3.3.3.3.3.2.2.3.3.3.3.2.2.3.2.2.2.3.3.3.3.2.2.2.3.3.3.3.3.2.2.3.3.2.3.3.3.3.3.2.2.2.2.3.3.3.3.3.2.2.3.3.3.3.3.2.2.2.<.<.2.3.3.3.3.3.3.3.3.2.2.<.<.3.3.2.2.3.3.3.2.2.2.3.3.3.2.2.2.<.2.3.3.3.3.3.3.3.3.3.3.3.3.3.3.3.3.3.3.3.3.3.3.3.3.3.3.3.3.3.3.3.3.3.3.3.3.3.3.3.3.3.3.3.3.3.3.3.3.2.2.3.3.3.2.3.3.3.3.2.2.<.<.3.3.3.3.3.3.3.3.3.3.3.3.2.3.3.3.3.3.3.3.3.3.2.2.3.3.3.3.3.3.3.3.3.3.3.3.3.3.2.2.3.3.3.3.3.3.3.3.2.2.2.2.3.3.2.3.3.3.3.3.3.3.3.3.3.3.2.3.2.3.3.3.3.3.3.3.3.3.3.3.3.3.3.3.3.3.3.3.3.3.3.3.3.3.3.3.3.3.3.3.3.3.3.3.3.3.3.3.3.3.3.3.3.3.3.3.3.3.3.3.3.3.3.3.3.3.3.3.3.3.3.3.3.3.3.3.2.3.3.3.3.3.3.3.3.3.3.3.3.3.3.3.3.3.3.3.3.3.3.3.3.3.3.3.3.3.3.3.3.3.3.3.3.3.3.3.3.3.3.3.2.2.2.>.3.3.3.3.3.3.3.3.3.3.3.2.3.3.3.3.2.3.2.2.2.3.3.3.3.3.2.2.2.2.2.2.2.2.3.3.3.3.3.3.3.2.3.3.3.3.3.3.3.3.3.3.3.3.3.3.3.3.2.2.3.3.3.3.3.3.3.3.>.,.;.>.0.8.< 1 . . . . @ @ Z S Z S S Z F F ;.2.3.3.3.;.3.3.y.y.y.y.s.s.g f @ @ o o s.                                      . . ",
"                                                    . . o o o o g g 8.3.;.;.9.3.v.v.V.V.H.H.K.U.J.H.C.C.V.C.F.F.v.B.v.B.a.a.y.y.#.o.S S D o.,.9.v.v.C.C.V.C.J.I.Y.Y.Y.Y.Y.Y.U.I.J.J.L.L.K.L.L.H.H.H.V.V.J.J.p.c.9.9.p.p.0.0.F F @ > @ @ @ @                     o @ . . O o #.;.y.i.a.v.;.;.D D ;.;.F F S S Z Z c c q q # # . X % 5 / ! >X-XvXvXhXhX6X5X8X6X7X6XiXyXiXlXlXlXxXxXxXxXxXxXMXMXMXMXMXVXMXMXBXMXrXrXrX6X6X6X6X6X6X6XrX6XjXpXNXNXzXpXMXMXMXfXzXlXlXjXjXjXzXnXjXjXjXpXjXjXjXpXjXpXjXjXlXkXjXkXkXkXtXtX6X6XtXrXjXiXzXpXpXpXpXpXpXpXpXpXuXpXpXpXpXpXpXpXpXpXpXpXpXpXpXpXpXpXpXpXpXpXjXjXlXlXlXjXjXpXjXpXjXpXjXpXjXpXjXjXkXjXjXjXjXjXlXlXlXlXlXlXlXfXlXfXlXfXlXzXlXlXlXjXzXnXzXNXNXzXzXjXNXMXNXMXNXNXzXlXlXzXNXMXNXNXNXmXmXnXhXhXwXwXvXCX>X>X:X..-.f.7.5.4.6.3.3.3.3.3.3.3.3.3.3.3.3.3.3.3.3.3.3.3.3.3.3.3.3.3.3.3.3.3.3.3.3.3.3.3.3.3.3.3.3.3.3.3.3.3.3.3.3.3.3.3.3.3.3.3.3.3.3.3.3.3.3.3.3.3.3.3.3.3.3.3.3.3.3.3.3.3.3.3.3.3.3.3.3.3.3.3.3.3.3.3.3.3.3.3.3.3.3.3.3.3.3.3.3.3.3.3.3.3.3.3.3.3.3.3.3.3.3.3.3.3.3.3.3.3.3.3.3.3.3.3.3.3.3.3.3.3.3.3.3.3.3.3.3.3.3.3.3.3.3.3.3.3.3.3.3.3.3.3.3.3.3.3.3.3.3.3.3.3.3.3.3.3.3.3.3.3.3.3.3.3.3.3.3.3.3.3.3.3.3.3.3.3.3.3.3.3.3.3.3.3.3.3.3.3.3.3.3.3.3.3.3.3.3.3.3.3.3.,.3.3.3.3.3.3.3.3.3.3.3.3.3.3.3.3.3.3.3.3.3.3.3.3.3.3.3.3.3.3.3.3.3.3.3.3.3.3.3.3.3.3.3.3.3.3.3.3.3.3.3.3.3.3.3.3.3.3.3.3.3.3.3.3.3.3.3.3.3.3.3.3.3.3.3.3.3.3.3.3.3.3.3.3.3.3.3.3.3.3.3.3.3.3.3.3.3.3.3.3.3.3.3.3.3.3.3.3.3.3.3.3.3.3.3.3.3.3.3.3.3.3.3.3.3.3.3.3.3.3.3.3.3.3.3.3.3.3.3.3.3.3.3.3.3.3.3.3.3.3.3.3.3.3.3.3.3.3.3.3.3.3.3.3.3.3.3.3.3.3.3.3.3.3.3.3.3.3.3.3.3.2.3.3.3.3.3.3.3.3.3.3.3.3.3.3.3.3.3.3.2.3.3.3.3.2.3.3.3.3.2.2.2.3.3.2.2.3.3.3.2.2.2.2.3.3.3.3.3.3.3.3.3.2.2.3.3.3.3.2.2.2.2.3.2.3.3.2.2.3.3.3.3.3.3.2.2.2.<.2.2.3.3.3.3.3.3.3.3.2.2.<.<.3.3.3.3.3.2.2.2.2.<.3.3.3.2.2.2.2.2.3.3.3.3.3.3.3.3.3.3.3.3.3.3.3.3.3.3.3.3.3.3.3.3.3.3.3.3.3.3.3.3.3.3.3.3.3.3.3.3.3.3.3.3.3.3.3.3.2.2.2.3.3.3.3.3.<.2.3.3.3.3.2.2.2.2.2.3.3.2.2.2.2.2.2.3.3.3.3.3.3.3.3.3.<.<.3.3.3.3.3.2.2.3.3.3.3.3.3.3.2.2.3.3.3.3.3.3.3.3.2.2.2.2.2.3.3.3.3.3.3.3.3.3.3.3.3.3.3.3.3.3.3.3.3.3.3.3.3.3.3.3.3.3.3.3.3.3.3.3.3.3.2.2.3.3.3.3.3.3.3.3.3.3.3.3.3.3.3.3.3.3.3.3.3.3.3.3.3.3.3.3.3.3.3.3.3.3.3.3.3.3.3.3.3.3.3.3.2.2.3.3.3.3.3.3.3.3.3.3.3.3.3.3.3.3.3.3.3.3.3.3.3.3.3.3.3.3.3.3.3.3.3.3.3.3.3.3.3.3.3.3.3.3.3.3.3.3.3.3.3.3.3.3.3.3.2.2.3.3.3.3.2.2.2.2.3.3.3.3.3.3.3.3.3.3.3.3.3.3.3.3.3.3.3.3.3.2.3.3.3.3.3.3.3.3.3.3.3.3.3.3.3.3.2.2.3.3.3.3.3.3.3.3.>.,.>.>.0.0.1 1 . . . . @ @ S S Z S S S F F 2.2.3.3.3.3.3.3.s.y.y.y.y.y.g g @ # o o s.                                      . . ",
"                                                    . . o o # o g y 0.0.>.;.3.3.p.p.v.v.H.H.J.J.L.L.J.J.I.Y.DXDXY.Y.I.SXY.Y.G.G.i.i.0.y.i.p.B.B.I.I.J.J.S.S.J.J.I.I.U.I.J.J.J.K.U.DXDXDXDXDXSXK.L.K.n.n.V.V.0.i.%.#.3.3.#.#.M M @ ; @ @ @ @                     # # . . O O #.#.p.p.p.p.;.:.D D #.;.F F S S Z Z c c 1 1 # o . X % 5 U ! >X*XvXwXhXhX8X8X8X6X7XrXtXtXyXdXfXxXxXgXxXxXgXgXVXVXVXVXVXdXVXfXxXxXrXrXtXtXrXtXrXtXtXtXtXrXiXyXMXMXfXfXMXMXfXfXfXfXdXpXjXpXjXfXlXpXpXuXjXpXpXpXpXpXpXpXiXiXpXkXjXkXrX7X5X6XtXtXpXuXfXdXpXpXpXpXpXuXuXuXuXuXpXpXdXdXdXdXuXuXuXyXuXuXuXuXyXuXpXpXpXpXpXpXdXdXlXdXlXpXpXuXpXpXpXpXpXuXiXiXiXiXpXlXlXdXfXdXdXfXfXfXgXgXdXgXfXfXfXfXfXfXfXfXMXMXlXMXlXlXlXjXzXfXlXdXlXfXfXdXiXdXlXfXlXVXnXnXmXmXnXhXwXwXvXCX>X>X:X:X-.-.7.4.4.,.3.3.3.3.3.3.3.3.3.3.3.3.3.3.3.3.3.3.3.3.3.3.3.3.3.3.3.3.3.3.3.3.3.3.3.3.3.3.3.3.3.3.3.3.3.3.3.3.3.3.3.3.3.3.3.3.3.3.3.3.3.3.3.3.3.3.3.3.3.3.3.3.3.3.3.3.3.3.3.3.3.3.3.3.3.3.3.3.3.3.3.3.3.3.3.3.3.3.3.3.3.3.3.3.3.3.3.3.3.3.3.3.3.3.3.3.3.3.3.3.3.3.3.3.3.3.3.3.3.3.3.3.3.3.3.3.3.3.3.3.3.3.3.3.3.3.3.3.3.3.3.3.3.3.3.3.3.3.3.3.3.3.3.3.3.3.3.3.3.3.3.3.3.3.3.3.3.3.3.3.3.3.3.3.3.3.3.3.3.3.3.3.3.,.3.3.,.,.3.3.3.3.3.3.3.3.3.3.3.3.3.3.3.3.,.,.,.,.,.,.,.,.3.3.3.3.3.3.3.3.3.3.3.3.3.3.3.3.3.3.3.3.3.3.3.3.3.3.3.3.3.3.3.3.3.3.3.3.3.3.3.3.3.3.3.3.3.3.3.3.3.3.3.3.3.3.3.3.3.3.3.3.3.3.3.3.3.3.3.3.3.3.3.3.3.3.3.3.3.3.3.3.3.3.3.3.3.3.3.3.3.3.3.3.3.3.3.3.3.3.3.3.3.3.3.3.3.3.3.3.3.3.3.3.3.3.3.3.3.3.3.3.3.3.3.3.3.3.3.3.3.3.3.3.3.3.3.3.3.3.3.3.3.3.3.3.3.3.3.3.3.3.3.3.3.3.3.3.3.3.3.3.3.3.3.3.3.3.3.3.3.3.3.3.3.3.3.3.3.3.3.3.3.3.3.3.3.3.3.3.3.3.3.3.3.3.3.3.3.2.3.3.3.3.2.2.3.3.3.2.3.3.3.3.2.2.3.3.2.2.2.2.2.2.3.3.3.3.3.3.3.3.3.2.2.2.2.2.2.2.2.2.3.3.3.2.2.3.3.3.2.2.3.3.2.2.2.2.2.3.3.3.3.3.<.<.3.3.2.2.2.2.3.3.3.3.2.2.2.2.<.<.3.3.3.2.2.2.2.2.3.3.3.3.3.3.3.3.1.3.3.3.3.3.3.3.3.3.3.3.3.3.3.3.<.3.3.3.3.3.3.3.3.3.3.3.3.3.3.3.3.3.3.3.3.3.3.3.2.2.3.3.3.3.3.3.<.<.3.3.3.3.2.2.2.2.3.3.3.3.2.2.2.2.2.3.3.3.3.3.2.2.3.2.2.2.3.3.3.2.2.<.2.2.3.2.3.3.2.2.2.3.3.2.3.3.3.3.3.3.3.3.2.2.2.3.3.3.3.3.3.3.3.3.3.3.3.3.3.3.3.3.3.3.3.3.3.3.3.3.3.3.3.3.3.3.3.3.3.3.3.3.2.2.2.3.3.3.3.3.3.3.3.3.3.3.3.3.3.3.3.3.3.3.3.3.3.3.3.3.3.3.3.3.3.3.3.3.3.3.3.3.3.3.3.3.3.3.3.3.3.3.3.3.3.3.3.3.3.3.3.3.3.3.3.3.3.3.3.3.3.3.3.3.3.3.3.3.3.3.3.3.3.3.3.3.3.3.3.3.3.3.3.3.3.3.3.3.3.3.3.3.3.3.3.3.2.2.3.3.3.3.3.2.3.3.3.3.3.3.3.3.3.3.3.3.3.3.3.3.3.3.3.3.3.3.3.3.2.2.3.3.3.3.3.3.3.3.3.3.3.3.3.3.2.2.3.3.3.3.3.3.,.3.>.3.>.>.y.0., < . . . . @ @ S S Z Z S S F E.d.3.2.<.3.3.;.;.s.s.0.y.3.0.g g o o o o s.                                      . . ",
"                                                    . . o o @ o g y i.0.,.,.3.3.i.i.c.v.J.J.K.K.L.L.K.K.DXDXDXDXY.Y.P.U.Y.Y.G.G.y.i.i.i.i.p.B.V.SXY.J.J.C.S.J.J.U.Y.Y.U.J.J.K.U.DXDXDXDXDXDXDXK.K.K.n.n.n.n.i.p.,.,.3.3.#.#.S S @ ; @ @ @ @                     @ # . . O O #.#.a.s.0.i.;.,.F o.F ;.F F S Z j c Z c q 1 # o . X % 5 U ! >X*XvXqXhXhX8X8X0X7X7XtXrXtXyXyXgXfXgXgXgXgXgXgXgXVXVXdXdXdXgXdXgXgXcXcXrXrXrXrXrXrXrXrXtXrXiXyXdXdXdXdXfXdXgXfXdXdXdXdXdXpXdXpXdXpXdXuXdXpXpXpXyXpXdXdXdXyXpXiXjXjXtXaX7X6XaXyXpXuXfXdXyXuXpXpXpXuXuXyXuXuXuXpXdXdXdXdXuXuXuXyXuXuXuXuXyXuXpXpXpXpXpXdXdXdXdXdXdXdXpXuXuXpXpXpXpXpXdXdXdXdXlXdXfXdXdXdXfXdXgXgXdXdXdXfXgXgXgXgXfXgXgXfXxXxXxXxXxXlXfXdXMXfXdXdXfXdXdXfXsXdXdXdXdXpXpXVXnXmXnXhXwXwXbXCX-X>X:X..-.-.*.4.4.,.3.3.3.3.3.3.3.3.3.3.3.3.3.3.3.3.3.3.3.3.3.3.3.3.3.3.3.3.3.3.3.3.3.3.3.3.3.3.3.3.3.3.3.3.3.3.3.3.3.3.3.3.3.3.3.3.3.3.3.3.3.3.3.3.3.3.3.3.3.3.3.3.3.3.3.3.3.3.3.3.3.3.3.3.3.3.3.3.3.3.3.3.3.3.3.3.3.3.3.3.3.3.3.3.3.3.3.3.3.3.3.3.3.3.3.3.3.3.3.3.3.3.3.3.3.3.3.3.3.3.3.3.3.3.3.3.3.3.3.3.3.3.3.3.3.3.3.3.3.3.3.3.3.3.3.3.3.3.3.3.3.3.3.3.3.3.3.3.3.3.3.3.3.3.3.3.3.3.3.3.3.3.3.3.3.3.3.3.3.3.3.3.3.3.3.3.,.3.3.3.3.3.3.3.3.3.3.3.3.3.3.3.3.3.,.,.,.3.,.,.3.3.3.3.3.3.3.3.3.3.3.3.3.3.3.3.3.3.3.3.3.3.3.3.3.3.3.3.3.3.3.3.3.3.3.3.3.3.3.3.3.3.3.3.3.2.3.3.3.3.3.3.3.3.3.3.3.3.3.3.3.3.3.3.3.3.3.3.3.3.3.3.3.3.3.3.3.3.3.3.3.3.3.3.3.3.3.3.3.3.3.3.3.3.3.3.3.3.3.3.3.3.3.3.3.3.3.3.3.3.3.3.3.3.3.3.3.3.3.3.3.3.3.3.3.3.3.3.3.3.3.3.3.3.3.3.3.3.3.3.3.3.3.3.3.3.3.3.3.3.3.3.3.3.3.3.3.3.3.3.3.3.3.3.3.3.3.3.3.3.3.3.3.3.3.3.3.3.3.3.3.3.3.3.3.3.3.3.3.3.3.3.3.3.3.3.3.3.3.3.3.3.3.3.2.2.2.2.3.3.3.3.3.3.3.2.3.3.2.2.2.2.2.2.3.3.3.3.3.3.3.3.3.2.2.2.2.2.2.3.3.3.3.3.2.2.2.2.3.3.2.2.3.3.2.2.2.2.3.3.3.3.3.2.<.<.3.3.<.2.2.2.3.3.3.2.2.2.2.2.<.2.3.3.3.2.<.<.2.2.3.3.3.3.3.3.3.3.1.1.1.3.3.3.3.3.3.3.3.3.3.3.3.3.<.<.3.3.3.3.3.3.3.3.3.3.3.3.3.3.3.3.3.3.3.3.3.3.3.3.3.3.2.2.3.3.3.3.2.2.<.<.3.3.2.2.3.3.3.3.2.2.2.2.3.3.3.3.3.3.2.3.3.2.2.2.<.3.3.2.2.<.2.2.3.3.3.3.2.2.2.2.3.2.3.3.3.3.3.3.3.3.2.2.3.3.2.3.3.3.3.3.3.3.3.3.3.3.3.3.3.3.3.3.3.3.3.3.3.3.3.3.3.3.3.3.3.3.3.3.3.3.2.3.3.3.3.3.3.3.3.3.3.3.3.3.3.3.3.3.3.3.3.3.3.3.3.3.3.3.3.3.3.3.3.3.3.3.3.3.3.3.3.3.3.3.3.3.3.3.3.3.3.3.3.3.3.3.3.3.3.3.3.3.3.3.3.3.3.3.3.3.3.3.3.3.3.3.3.3.3.3.3.3.3.3.3.3.3.3.3.3.3.3.3.3.3.3.3.3.3.3.3.3.3.3.2.2.2.3.3.3.3.2.3.3.3.3.3.3.3.2.3.3.3.3.3.3.3.3.3.3.3.3.3.3.3.3.2.2.3.3.3.3.3.3.3.3.3.2.2.2.3.3.2.2.2.3.3.3.3.3.,.3.,.3.>.,.0.y., < . . . . @ @ S D Z Z S S E.;.d.3.2.<.3.3.;.;.s.t.0.0.3.3.k g o o o o s.                                      . . ",
"                                                    . . @ @ @ # g y s.i.9.9.3.3.9.9.9.,.w.w.w.p.j.j.n.n.J.J.L.J.I.I.G.J.J.P.V.G.B.B.B.B.x.c.V.V.U.U.H.J.V.V.H.C.J.P.J.J.C.C.H.J.V.V.V.H.H.H.n.n.w.p.e.e.9.9.,.,.O.#.;.;.D S M M @ ; @ @ @ @                     # @ . . O o #.#.u.y.0.6.#.#.S F S D D F S D S S Z Z y 1 o o . X % 5 U W -X*XvXqXhXhX7X7X0X7X0XtXtXtXyXyXsXgXgXdXsXsXdXdXdXdXdXdXdXdXgXdXsXgXcXsXxXxXgXgXxXfXxXxXfXyXMXsXfXdXgXdXdXdXdXdXdXdXsXdXdXdXdXdXdXdXsXdXdXdXsXdXsXdXsXdXdXyXpXiXjXnXaXaXtXtXpXyXfXyXdXdXdXyXyXyXyXdXyXyXyXyXyXyXyXyXdXpXuXuXdXdXdXdXdXdXyXdXdXdXdXdXdXdXfXsXdXfXdXdXdXyXdXdXdXdXdXdXgXfXfXdXfXdXdXdXdXdXfXdXfXdXdXdXdXgXgXgXgXgXdXgXgXgXfXfXgXgXgXfXgXfXxXfXfXfXfXfXgXdXdXgXgXfXfXpXVXMXnXnXpXhXwXwXvXCX-X>X:X....-.*.&.4.,.3.3.3.3.3.3.3.3.3.3.3.3.3.3.3.3.3.3.3.3.,.,.3.3.,.,.,.,.,.,.3.3.3.3.3.3.3.3.3.3.3.3.3.3.3.3.3.3.3.3.3.3.3.3.3.3.3.3.3.3.3.3.>.3.3.3.3.3.3.3.3.3.3.3.3.3.3.3.3.3.3.3.3.3.3.3.3.3.3.3.3.3.3.3.3.3.3.3.3.3.3.3.3.3.3.3.3.3.3.3.3.3.3.3.3.3.3.3.3.3.3.3.3.3.3.3.3.3.3.3.3.3.3.3.3.3.3.3.3.3.3.3.3.3.3.3.3.3.3.3.3.3.3.3.3.3.3.3.3.3.3.3.3.3.3.3.3.3.3.3.3.3.3.3.3.3.3.3.3.3.3.3.3.3.3.3.3.3.3.3.3.,.,.3.3.3.3.3.3.3.3.3.3.3.3.3.3.3.3.3.3.3.3.3.,.,.3.3.3.3.3.3.3.3.3.3.3.3.3.3.3.3.3.3.3.3.3.3.,.,.3.3.3.3.,.,.3.,.,.,.,.,.,.,.3.3.3.3.3.3.3.3.3.3.3.3.3.3.3.3.3.3.3.3.3.3.3.3.3.3.3.3.3.3.3.3.3.3.3.3.3.3.3.3.3.3.3.3.3.3.3.3.3.3.3.3.3.3.3.3.3.3.3.3.3.3.3.3.3.3.3.3.3.3.3.3.3.3.3.3.3.3.3.3.3.3.3.3.3.3.3.3.3.3.3.3.3.3.3.3.3.3.3.3.3.3.3.3.3.3.3.3.3.3.3.3.3.3.3.3.3.3.3.3.3.3.3.3.3.3.3.3.3.3.3.3.3.3.3.3.3.3.3.3.3.3.3.3.3.3.3.3.3.3.3.3.3.3.3.3.3.2.3.3.3.3.3.3.2.2.3.3.3.3.2.2.3.3.3.3.3.3.3.3.3.3.3.3.3.3.1.1.3.3.3.3.2.2.3.3.3.3.3.3.2.2.2.2.2.2.2.2.3.3.<.<.2.2.3.3.2.2.<.<.3.3.2.2.3.3.3.3.3.2.<.2.2.2.2.<.2.3.3.3.<.2.<.<.<.2.<.3.3.3.3.2.2.2.2.2.3.3.3.3.3.3.3.3.1.1.1.3.3.3.3.3.3.3.3.3.3.3.3.3.1.1.1.3.3.3.3.3.3.3.3.3.3.1.1.1.3.3.3.3.3.3.3.3.3.3.3.3.2.2.3.3.3.3.2.2.<.2.3.3.2.3.3.3.3.2.3.2.3.3.3.3.3.3.3.3.3.3.3.3.2.2.2.3.3.3.3.3.2.3.3.3.3.2.2.2.2.2.2.2.2.2.3.3.3.3.3.3.2.2.3.3.3.3.3.3.3.3.2.2.2.3.3.3.2.3.3.3.3.3.3.3.3.3.3.3.3.3.3.3.3.3.3.3.3.3.3.3.3.3.3.3.3.3.3.3.3.3.3.3.3.3.3.3.3.3.3.3.3.3.3.3.3.3.3.3.3.3.3.3.3.3.3.3.3.3.3.3.3.3.3.3.3.3.3.3.3.3.3.3.3.3.3.3.3.3.3.3.3.3.3.3.3.3.3.3.3.3.3.3.3.3.3.3.3.3.3.3.3.3.3.3.3.3.3.3.3.3.3.3.,.3.3.3.3.,.,.,.3.3.3.3.3.3.2.2.3.3.3.3.3.3.3.3.3.3.3.3.3.3.3.3.3.3.3.3.3.3.3.3.3.3.3.3.3.2.3.3.3.3.2.2.3.3.3.2.2.2.2.2.3.3.2.2.2.3.3.3.,.3.>.3.,.3.y.y., < . . . . @ @ S D Z S G G E.E.3.3.2.>.r.3.3.3.y.8.8.t.3.3.k k o o o o y.                                      . . ",
"                                                    . . @ @ @ # g y p.p.0.0.3.3.9.9.9.:.w.0.w.v.j.j.v.V.K.L.I.J.I.Y.G.G.G.J.V.G.B.B.B.B.x.x.V.V.U.Y.J.J.V.V.C.V.J.J.J.J.J.S.J.J.H.H.H.F.H.F.V.n.w.w.0.w.9.9.9.9.O.#.:.,.F D M S @ ; @ @ @ @                     # @ o . @ . #.#.u.u.0.6.{ #.D #.D F D D S S M Z S Z d 1 o o . X % 5 U W -X*XvXqXwXhX6X7X0X7XtXtXtXyXyXyXsXdXdXsXdXdXdXdXdXdXdXdXdXdXgXsXsXsXcXxXgXsXsXsXgXgXgXgXfXdXMXdXdXsXsXdXdXdXdXdXdXdXdXdXdXdXdXdXsXsXsXsXdXsXsXsXsXsXsXsXdXdXdXyXlXnXaXkXaXaXjXyXfXyXdXdXdXdXyXyXyXyXyXdXyXyXyXyXyXyXdXpXuXuXdXdXdXdXdXdXdXdXdXuXuXuXdXdXfXfXfXfXdXsXdXyXdXdXdXdXdXdXfXxXfXfXgXdXsXdXdXdXfXdXdXdXdXdXgXgXgXgXgXgXsXsXgXgXgXgXgXgXgXgXxXfXfXfXfXxXxXfXsXsXgXfXfXdXdXdXfXVXpXnXnXaXhXwXvXCX-X>X:X....-.*.*.4.,.3.3.3.3.3.3.3.3.3.3.3.3.3.3.3.3.3.3.3.3.,.,.3.3.,.,.,.,.,.,.3.3.3.3.3.3.3.3.3.3.3.3.3.3.3.3.3.3.3.3.3.3.3.3.3.3.3.3.3.3.3.3.3.3.3.3.3.3.3.3.3.3.3.3.3.3.3.3.3.3.3.3.3.3.3.3.3.3.3.3.3.3.3.3.3.3.3.3.3.3.3.3.3.3.3.3.3.3.3.3.3.3.3.3.3.3.3.3.3.3.3.3.3.3.3.3.3.3.3.3.3.3.3.3.3.3.3.3.3.3.3.3.3.3.3.3.3.3.3.3.3.3.3.3.3.3.3.3.3.3.3.3.3.3.3.3.3.3.3.3.3.3.3.3.3.3.3.3.3.3.3.3.3.3.3.3.3.3.3.3.,.,.,.,.3.3.3.3.3.3.3.3.3.3.3.3.3.3.3.3.3.3.3.3.3.3.3.3.3.3.3.3.3.3.3.3.3.3.3.3.3.3.3.3.3.3.3.3.3.3.3.3.3.3.3.,.3.,.,.,.,.,.,.,.3.3.3.3.3.3.3.3.3.3.3.3.3.3.3.3.3.3.3.3.3.3.3.3.3.3.3.3.3.3.3.3.3.3.3.3.3.3.3.3.3.3.3.3.3.3.3.3.3.3.3.3.3.3.3.3.3.3.3.3.3.3.3.3.3.3.3.3.3.3.3.3.3.3.3.3.3.3.3.3.3.3.3.3.3.3.3.3.3.3.3.3.3.3.3.3.3.3.3.3.3.3.3.3.3.3.3.3.3.3.3.3.3.3.3.3.3.3.3.3.3.3.3.3.3.3.3.3.3.3.3.3.3.3.3.3.3.3.3.3.3.3.3.3.3.3.3.3.3.3.3.3.3.3.3.3.3.2.2.3.3.3.3.3.3.2.3.3.3.3.2.2.3.2.3.3.1.3.3.3.<.<.3.3.1.1.1.1.1.3.3.3.2.2.2.2.3.3.3.3.3.3.3.2.2.2.<.<.3.3.<.2.2.2.3.3.2.2.2.<.3.3.3.3.3.2.3.2.3.3.3.3.2.2.2.3.3.3.3.3.2.<.<.<.<.2.3.3.3.3.2.2.2.2.3.3.1.1.1.1.1.1.3.3.3.1.1.1.3.3.3.3.3.1.3.3.3.3.3.3.1.1.1.3.3.3.3.3.3.3.3.3.3.1.1.<.3.3.3.3.3.3.3.3.3.3.3.3.2.2.3.3.3.3.2.2.<.2.3.3.2.3.3.3.3.3.3.2.3.3.3.3.3.3.3.3.3.3.3.3.2.2.2.3.3.3.3.3.3.3.3.3.3.2.2.2.2.2.2.2.2.3.3.3.3.3.3.3.2.2.3.3.3.3.3.3.3.3.2.2.2.3.3.3.2.3.3.3.3.3.2.2.3.3.3.3.3.3.3.3.3.3.3.3.3.3.3.3.3.3.3.3.3.3.3.3.3.3.3.3.3.3.3.3.3.3.3.3.3.3.3.3.3.3.3.3.3.3.3.3.3.3.3.3.3.3.3.3.3.3.3.3.3.3.3.3.3.3.3.3.3.3.3.3.3.3.3.3.3.3.3.3.3.3.3.3.3.3.3.3.3.3.3.3.3.3.3.3.3.3.3.3.3.3.3.3.3.3.3.3.3.,.3.3.3.,.>.,.3.3.3.3.3.2.2.2.3.3.3.3.3.3.3.3.3.3.3.3.3.3.3.3.3.3.3.3.3.3.3.3.3.3.3.3.3.3.3.3.3.2.2.2.2.2.3.3.3.2.>.>.3.3.2.>.>.2.3.3.,.3.>.3.>.3.y.y.< < . . . . @ @ S F S S F F E.E.>.3.2.2.r.3.;.3.0.3.3.3.,.3.j k @ # o . y.                                      . . ",
"                                                    . . @ @ @ @ g d y.s.,.3.;.;.F F #.#.w.0.e.9.4.4.:.%.#.:.9.y.a.x.y.y.y.i.i.p.x.p.x.x.i.p.x.p.x.B.x.x.i.p.a.v.v.p.V.v.V.V.V.V.n.V.v.n.v.c.c.p.H.H.n.n.%.,.,.9.9.3.,.;.S Z Z j = @ @ @ @ @                     @ # # . O # ;.;.0.0.0.q.F #.F F A S S S S S S S S S q 1 . # . X % 5 U W -X#XbXvXvXwX6X6X6X6XrX6XtXtXyXyXcXyXsXsXcXcXsXsXsXdXdXVXxXxXgXgXsXsXsXgXgXgXgXgXsXsXsXdXdXgXgXgXgXgXsXsXsXsXsXdXdXdXdXyXyXyXdXdXdXdXyXyXyXyXdXpXdXdXdXyXdXpXyXyXyXyXyXiXiXiXiXpXuXuXyXyXyXuXuXuXiXiXyXiXiXiXiXiXyXyXyXyXdXdXdXdXdXdXdXdXuXuXuXuXuXuXuXuXdXdXdXfXfXdXdXdXfXfXdXdXdXgXgXgXgXfXgXfXgXgXgXgXxXxXxXfXdXdXdXdXgXgXsXsXgXgXgXgXsXsXsXgXdXdXgXdXgXdXgXgXgXgXdXsXgXfXVXdXdXdXuXVXuXaXaXaXwXwXvXCX-X>X:X......7.:.6.3.3.3.3.3.,.,.3.3.3.3.3.3.3.3.3.3.3.3.3.3.3.1.3.3.3.3.3.,.3.3.3.3.3.3.3.3.3.3.3.3.3.3.3.3.3.3.3.3.3.3.3.3.3.3.3.3.3.3.3.3.3.3.3.3.3.3.3.3.3.3.3.3.3.3.3.3.3.3.3.3.3.3.3.3.3.3.3.3.3.3.3.3.3.3.3.3.3.3.3.3.3.3.3.3.3.3.3.3.3.3.3.3.3.3.3.3.3.3.3.3.3.3.3.3.3.3.3.3.3.3.3.3.3.3.3.3.3.3.3.3.3.3.3.3.3.3.3.3.3.3.3.3.3.3.3.3.3.3.3.3.3.3.3.3.3.3.3.3.3.3.2.2.2.3.3.3.3.3.3.3.3.3.3.3.3.3.3.3.3.3.3.3.3.3.3.3.3.3.3.3.3.3.3.3.3.3.3.3.3.3.3.3.3.3.3.3.3.3.3.3.3.3.3.3.3.3.3.3.3.3.3.3.3.3.3.3.2.2.3.3.3.3.3.3.3.3.3.3.3.3.3.3.3.3.3.3.3.3.3.3.3.3.3.3.<.<.1.3.3.3.3.3.3.3.3.3.3.3.2.3.3.3.3.3.3.3.3.3.3.3.3.3.3.3.3.3.3.3.3.3.3.3.3.3.3.3.3.3.3.3.3.3.3.3.3.3.3.3.3.3.3.3.3.3.3.3.3.3.3.3.3.3.3.3.3.3.3.3.3.3.3.3.3.3.3.3.3.3.3.3.3.3.3.3.3.3.3.3.3.3.3.3.3.3.3.3.3.3.3.3.3.3.3.3.3.3.3.3.3.3.3.3.3.3.3.3.3.3.3.3.3.3.3.3.3.3.3.3.3.3.3.3.3.3.3.3.2.2.2.3.3.3.3.3.2.3.3.3.3.3.3.3.3.3.3.3.3.3.3.3.3.3.3.<.2.2.3.3.3.3.3.2.3.3.3.3.2.2.2.2.2.2.2.2.2.2.2.<.2.3.3.3.3.3.<.<.2.2.3.3.2.2.3.3.3.3.2.2.3.3.3.3.3.3.3.3.3.3.3.3.3.3.3.3.3.3.3.3.3.3.3.3.3.3.3.3.3.3.3.3.3.3.3.3.3.3.3.3.3.3.3.3.3.3.3.3.3.3.3.3.3.3.3.3.3.3.3.3.3.3.3.3.3.3.<.2.3.3.2.<.2.3.3.3.2.3.3.3.3.3.3.3.2.2.2.3.2.3.3.3.3.2.2.2.<.<.3.3.3.3.2.2.<.2.3.3.3.3.2.2.2.3.3.3.3.3.3.3.2.2.2.2.3.3.3.3.<.<.2.2.<.<.2.3.3.3.3.3.3.<.<.2.3.2.3.3.3.2.2.2.3.3.3.3.2.2.3.3.3.3.3.3.3.3.3.1.3.3.3.3.3.3.3.3.3.3.3.3.3.3.3.3.3.3.3.3.3.3.3.3.3.3.3.3.3.3.3.3.3.3.3.3.3.3.3.3.3.3.3.3.3.3.3.3.3.3.3.3.3.3.3.;.3.3.2.2.3.3.3.2.3.3.3.3.3.3.3.3.3.3.3.3.3.3.3.3.3.3.3.3.3.3.3.3.3.3.3.3.3.3.3.3.3.3.3.3.3.3.3.3.3.3.3.3.3.3.3.3.3.1.1.3.3.3.3.3.3.3.3.3.3.3.3.3.3.3.3.3.3.3.3.3.3.3.3.3.3.3.3.3.3.3.3.3.3.;.3.3.3.3.3.,.3.3.,.;.,.,.2.2.>.2.2.3.;.;.>.2.3.3.3.3.3.3.3.3.3.3.s.s.1 < # . # X @ @ D F S S D D ;.;.3.3.2.3.3.3.o.#.F F +.F 0.0.j j o o . o y.                                      . . ",
"                                                    . . @ @ @ @ g g y.s.,.,.;.;.F D #.#.0.0.q.q.4.4.:.%.:.,.3.0.p.s.0.i.y.p.p.i.v.x.v.x.i.i.c.p.x.x.c.x.c.x.x.x.a.a.V.V.v.V.V.V.n.n.v.v.c.p.c.c.F.H.v.n.9.,.9.,.0.9.3.,.S M b j > = @ @ @ @                     @ # o . @ O ;.;.0.0.0.0.F { F F A S S S S S S S S S y q . O . X % 5 U W -X*XbXvXvXwX6X6X6X6X7X6XyXyXyXyXyXyXyXyXcXyXsXsXgXdXgXxXxXgXgXgXgXgXgXgXgXgXgXgXgXgXgXgXdXgXgXgXgXgXgXgXsXdXdXdXdXpXpXpXuXuXpXuXpXpXuXuXyXuXuXpXdXpXdXdXyXyXpXpXdXuXyXyXpXpXiXpXiXiXiXpXiXuXuXpXpXpXpXjXiXiXiXiXiXyXyXyXyXuXyXuXyXuXyXuXuXuXuXuXuXuXuXuXVXVXVXuXuXuXyXyXyXsXsXdXdXfXfXxXgXgXgXgXgXgXgXgXgXgXgXgXgXdXgXsXgXgXgXgXgXxXgXgXgXdXgXgXdXfXfXgXdXdXfXgXgXgXgXdXgXdXfXdXdXuXuXVXaXaXaXhXwXwXvXCX-X>X:X....-.f.4.4.3.3.3.3.,.,.,.,.,.3.3.3.3.3.3.3.3.3.3.3.3.3.3.3.3.3.3.3.3.3.3.3.3.3.3.3.3.3.3.3.3.3.3.3.3.3.3.3.3.3.3.3.3.3.3.3.3.3.3.3.3.3.3.3.3.3.3.3.3.3.3.3.3.3.3.3.3.3.3.3.3.3.3.3.3.3.3.3.3.3.3.3.3.3.3.3.3.3.3.3.3.3.3.3.3.3.3.3.3.3.3.3.3.3.3.3.3.3.3.3.3.3.3.3.3.3.3.3.3.3.3.3.3.3.3.3.3.3.3.3.3.3.3.3.3.3.3.3.3.3.3.3.3.3.3.3.3.3.3.3.3.3.3.3.3.3.3.3.3.3.3.3.3.3.3.3.3.3.3.3.3.3.3.3.3.3.3.3.3.3.3.3.3.3.3.3.3.3.3.3.3.3.3.3.3.3.3.3.3.3.3.3.3.3.3.3.3.3.3.3.3.3.3.3.3.3.3.3.3.3.3.3.3.3.3.3.3.2.2.3.3.3.3.3.3.3.3.3.3.3.3.3.3.3.3.3.3.3.3.3.3.3.3.3.3.1.1.3.3.3.3.3.3.3.3.3.3.3.3.3.3.3.3.3.3.3.3.3.3.3.3.3.3.3.3.3.3.3.3.3.3.3.3.3.3.3.3.3.3.3.3.3.3.3.3.3.3.3.3.3.3.3.3.3.3.3.3.3.3.3.3.3.3.3.3.3.3.3.3.3.3.3.3.3.3.3.3.3.3.3.3.3.3.3.3.3.3.3.3.3.3.3.3.3.3.3.3.3.3.3.3.3.3.3.3.3.3.3.3.3.3.3.3.3.3.3.3.3.3.3.3.3.3.3.3.3.3.3.3.3.3.3.3.3.3.3.3.2.2.3.3.3.3.3.3.3.3.3.3.3.3.3.3.3.3.3.3.3.3.3.3.3.2.3.2.2.3.3.3.3.2.3.3.3.3.3.3.2.2.2.2.2.2.2.2.3.3.3.3.<.<.2.2.3.3.2.2.2.3.3.3.<.<.3.3.3.3.2.2.3.3.3.3.3.3.3.3.3.3.3.3.3.3.3.3.3.3.3.3.3.3.3.3.3.3.3.3.3.3.3.3.3.3.3.3.3.3.3.3.3.3.3.3.3.3.3.3.3.3.3.3.3.3.3.3.3.3.3.3.3.3.3.3.3.2.<.2.3.3.2.<.2.2.3.3.2.2.3.3.2.3.3.3.2.2.2.3.2.3.3.3.3.2.2.2.<.<.2.3.3.3.2.2.<.2.3.3.3.3.2.2.2.3.3.3.3.3.3.3.<.<.2.3.3.3.3.3.<.2.2.2.2.2.3.3.3.3.3.3.3.3.3.3.3.3.3.3.3.2.2.3.3.3.3.3.2.2.3.3.3.3.3.3.3.3.3.3.3.3.3.3.3.3.3.3.3.3.3.3.3.3.3.3.3.3.3.3.3.3.3.3.3.3.3.3.3.3.3.3.3.3.3.3.3.3.3.3.3.3.3.3.3.3.3.3.3.3.3.3.3.3.3.3.3.3.3.3.3.3.3.2.3.3.3.3.3.3.3.3.3.3.3.3.3.3.3.3.3.3.3.3.3.3.3.3.3.3.3.3.3.3.3.3.3.3.3.3.3.3.2.3.3.3.3.3.3.3.3.3.3.3.3.3.3.3.3.3.3.3.3.3.3.3.1.1.3.3.3.3.3.3.3.3.3.3.3.3.3.3.3.3.3.3.3.3.;.;.3.3.3.3.,.,.3.3.,.;.,.,.2.2.2.2.2.2.>.2.2.2.3.3.3.3.3.3.3.3.3.3.s.s.1 1 . . # X ; @ D F S S D D o.;.2.2.2.2.2.3.F #.F D +.D 0.3.j j # # . o y.                                      . . ",
"                                                    . . @ @ @ @ d d 3.3.o.F o.o.#.#.#.+.#.+.+.F %.$.+.F F F F D F F ,.8.;.3.i.i.B.V.F.V.x.c.x.x.v.x.x.x.v.v.x.p.p.s.,.#.q , > 1 < 1 1 1 t r h n #.#.b S D #.x.x.;.;.;.;.b h k k > > @ @ @ @                     @ @ # o @ @ ,.:.a.a.q.u.$.$.$.$.S D F F D S S S S S y y # O . X % 5 U W -X*XbXvXvXwX5X6X6X6X7X7XyXyXyXyXyXyXyXyXyXyXpXsXiXyXiXiXyXyXyXyXcXsXsXgXgXgXgXgXdXgXgXfXsXfXfXfXdXfXgXfXsXsXdXlXjXpXpXpXpXuXpXuXpXpXpXpXpXpXpXpXiXyXyXyXyXyXpXpXpXpXiXtXaXaXiXaXaXpXjXpXpXpXpXpXaXaXaXkXaXaXkXkXkXiXpXpXjXpXjXpXjXpXjXpXnXVXpXVXpXVXpXpXpXVXpXpXpXpXpXpXpXfXfXfXMXMXxXxXBXBXBXBXBXBXBXBXBXBXBXBXMXMXMXlXxXxXgXfXxXxXxXfXgXfXxXfXMXMXMXMXfXfXxXfXgXdXgXsXgXfXxXVXfXVXfXVXaXhXqXqXqXwXbXCX>X>X:X......*.:.4.,.,.,.,.,.,.,.,.,.3.3.3.3.3.3.1.3.3.3.3.3.3.3.3.3.3.3.3.3.3.3.3.3.3.3.3.3.3.3.3.3.3.3.3.3.3.3.3.3.3.3.3.3.3.3.3.3.3.3.3.3.3.3.3.3.3.3.3.3.3.3.3.3.3.3.3.3.3.3.3.3.3.3.3.3.3.3.3.3.3.3.3.3.3.3.3.3.3.3.3.3.3.3.3.3.3.3.3.3.3.3.3.3.3.3.3.3.3.3.3.3.3.3.3.3.3.3.3.3.3.3.3.3.3.3.3.3.3.3.3.3.3.3.3.3.3.3.3.3.3.3.3.3.3.3.3.3.3.3.3.3.3.3.3.3.3.3.3.3.3.3.3.3.3.3.3.2.3.3.3.3.3.3.3.3.3.3.3.3.3.3.3.3.3.3.3.3.3.3.3.3.3.3.3.3.3.3.3.3.3.3.3.3.3.3.3.3.3.3.3.3.3.3.3.3.3.3.3.3.3.3.3.3.3.3.3.3.3.3.3.3.3.3.3.3.3.3.3.3.3.3.3.3.3.3.3.3.3.3.3.3.3.3.3.3.3.3.3.3.3.3.3.3.3.3.3.3.3.3.3.3.3.3.3.3.3.3.3.3.3.3.3.3.3.3.3.3.3.3.3.3.3.3.3.3.3.3.3.3.3.3.3.3.3.3.3.3.3.3.3.3.3.3.3.3.3.3.3.3.3.3.3.3.3.3.3.3.3.3.3.3.3.3.3.3.3.3.3.3.3.3.3.3.3.3.3.3.3.3.3.3.3.3.3.3.3.3.3.3.3.3.3.3.3.3.3.3.3.3.3.3.3.3.3.3.3.3.3.3.3.3.3.3.3.3.3.3.3.3.2.2.2.3.3.3.3.3.2.3.3.3.3.3.3.3.3.3.3.3.3.3.3.3.3.3.3.3.3.3.3.3.3.2.3.3.3.3.3.3.2.2.2.2.2.2.2.2.2.<.<.2.2.2.2.2.3.3.3.3.<.2.2.2.3.3.3.3.3.3.3.3.<.<.3.3.3.3.3.3.3.3.3.3.3.3.3.3.3.3.3.1.1.3.3.3.3.3.3.3.3.3.3.3.3.3.3.3.3.3.3.3.3.3.3.3.3.3.3.3.3.3.3.3.3.3.3.3.3.3.3.3.3.3.3.3.3.3.3.3.3.3.3.1.3.3.3.3.3.2.3.<.2.2.2.3.2.2.3.3.2.2.3.3.3.3.3.3.2.2.3.3.3.3.3.2.<.2.3.3.3.3.3.2.2.3.3.3.3.3.2.3.2.3.3.3.3.3.3.2.<.<.2.3.3.3.3.2.2.3.3.3.2.2.3.3.3.3.2.2.3.3.3.3.3.3.3.3.3.3.2.3.3.3.3.3.2.3.3.3.3.3.3.3.3.3.3.3.3.3.3.3.3.3.3.3.3.3.3.3.3.3.3.3.3.3.3.3.3.3.3.3.3.3.3.3.3.3.3.3.3.3.3.3.3.3.3.3.3.3.3.3.3.3.3.3.3.3.3.3.3.3.3.3.3.3.3.3.3.3.3.3.3.3.3.3.3.3.3.3.3.3.3.3.3.3.3.2.3.3.3.3.3.3.3.3.3.3.3.3.3.3.3.3.3.3.3.3.3.3.3.3.3.3.3.3.3.3.3.3.3.3.3.3.3.3.3.3.3.3.3.3.3.3.3.1.3.3.3.3.3.3.3.3.3.3.3.3.3.3.3.3.3.3.3.1.;.;.3.3.3.,.,.,.,.,.>.;.3.3.3.2.2.2.2.2.3.3.3.3.3.3.3.3.3.3.3.3.3.3.s.s.1 1 o . o o ; ; D D S D D F #.#.3.r.2.r.3.8.o.#.F D +.F 6.3.j j # # o . 3.                                      . . ",
"                                                    . . @ @ @ @ g g ,.;.#.F ;.;.#.;.#.#.O.O.#.#.:.$.#.+.F F D D F F 3.,.8.3.y.y.V.F.G.G.B.v.x.x.x.p.v.x.B.x.p.i.0.p.#.;.1 1 , 1 1 1 , < r r h n o.#.b Z o.O.V.v.>.,.,.>.j k d y ; 3 @ @ @ @                     @ @ # o @ O :.;.a.a.u.u.$.@.$.$.D F F F F S S S S S q y O O . X % 5 / W %X&XbXvXvXwX5X5X5X5X0X7XjXiXpXiXiXiXiXiXpXpXjXpXpXiXyXyXyXyXyXyXiXdXlXMXxXgXgXgXfXfXfXfXfXfXlXfXlXfXlXfXlXlXlXlXjXnXjXjXhXjXjXjXjXjXjXjXjXjXjXpXjXpXpXpXaXpXjXjXjXpXjXaXjXhXhXhXhXhXhXhXhXhXjXjXhXjXjXjXjXjXjXjXjXjXjXnXnXnXnXnXnXnXnXnXmXnXnXnXnXnXnXnXmXVXnXVXmXVXnXpXpXpXlXMXNXMXNXMXMXMXMXBXBXBXBXBXBXMXNXMXNXMXlXlXNXxXlXMXlXMXlXxXlXMXlXMXMXMXMXMXMXMXlXMXlXMXlXMXfXfXlXfXlXpXjXnXnXnXhXwXwXvXbXCX-X>X:X......7.4.:.:.,.,.,.,.,.,.,.,.3.3.3.3.3.3.3.3.3.3.3.3.3.3.3.3.3.3.3.3.3.3.3.3.3.3.3.3.3.3.3.3.3.3.3.3.3.3.3.3.3.3.3.3.3.3.3.3.3.3.3.3.3.3.3.3.3.3.3.3.3.3.3.3.3.3.3.3.3.3.3.3.3.3.3.3.3.3.3.3.3.3.3.3.3.3.3.3.3.3.3.3.3.3.3.3.3.3.3.3.3.3.3.3.3.3.3.3.3.3.3.3.3.3.3.3.3.3.3.3.3.3.3.3.3.3.3.3.3.3.3.3.3.3.3.3.3.3.3.3.3.3.3.3.3.3.3.3.3.3.3.3.3.3.3.3.3.3.3.3.3.3.3.3.3.3.2.2.3.3.3.3.3.3.3.3.3.3.3.3.3.3.3.3.3.3.3.3.3.3.3.3.3.3.3.3.3.3.3.3.3.3.3.3.3.3.3.3.3.3.3.3.3.3.3.3.3.3.3.3.3.3.3.3.3.3.3.3.3.3.3.3.3.3.3.3.3.3.3.3.3.3.3.3.3.3.3.3.3.3.3.3.3.3.3.3.3.3.3.3.3.3.3.3.3.2.3.3.3.3.3.3.3.3.3.3.3.3.3.3.3.3.3.3.3.3.3.3.3.3.3.3.3.3.3.3.3.3.3.3.3.3.3.3.3.3.3.3.3.3.3.3.3.3.3.3.3.3.3.3.3.3.3.3.3.3.3.3.3.3.3.3.3.3.3.3.3.3.3.3.3.3.3.3.3.3.3.3.3.3.3.3.3.3.3.3.3.3.3.3.3.3.3.3.3.3.3.3.3.3.3.3.3.3.3.3.3.3.3.3.3.3.3.3.3.3.3.3.3.3.2.2.2.3.3.3.3.3.3.3.3.3.3.3.3.3.3.3.3.3.3.3.3.3.3.3.2.2.2.2.3.3.3.3.3.3.3.3.3.3.2.<.2.2.2.2.2.2.<.<.<.<.2.2.2.2.3.3.3.3.<.2.2.2.3.3.3.3.3.3.3.3.<.<.3.3.3.3.3.3.3.3.3.3.3.3.3.3.3.3.3.3.3.3.3.3.3.3.3.3.3.3.3.3.3.3.3.3.3.3.3.3.3.3.3.3.3.3.3.3.3.3.3.3.3.3.3.3.3.3.3.3.3.3.3.3.3.3.3.3.3.3.3.3.3.3.3.3.3.3.3.3.2.2.<.<.2.2.3.3.2.2.3.3.3.3.3.3.2.2.3.3.3.3.3.3.<.2.3.3.3.3.3.2.2.3.3.3.3.3.3.3.3.2.2.3.3.3.3.2.2.2.3.3.3.3.3.3.3.3.3.3.3.3.3.3.2.2.<.3.3.3.3.3.3.3.3.3.3.3.3.3.3.3.3.3.3.2.3.3.3.3.3.1.1.3.3.3.3.1.1.1.>.1.1.3.3.3.3.3.3.3.3.3.3.3.3.3.3.3.3.3.3.3.3.3.3.3.3.3.3.3.3.3.3.3.3.3.3.3.3.3.3.3.3.3.3.3.3.3.3.3.3.3.3.3.3.3.3.3.3.2.3.3.3.3.3.3.3.3.3.3.3.3.3.3.2.>.3.3.3.3.3.3.2.2.3.3.3.3.3.3.3.3.3.3.3.3.3.2.3.3.3.3.3.3.3.3.3.3.3.3.3.3.3.3.3.3.3.3.3.3.3.3.3.1.3.3.3.3.3.3.3.;.3.3.3.3.1.3.3.3.3.3.3.1.;.;.;.3.3.,.;.;.,.,.>.,.3.3.3.3.2.2.2.2.3.3.3.3.3.3.3.3.3.3.3.3.3.3.s.y.1 1 . . o o ; ; D F S D D F #.E.3.r.3.r.r.d.E.o.D S { D ,.,.j j o # . . 3.                                      . . ",
"                                                    . . @ 3 3 > 1 1 S S F o.>.>.o.O.b h ; O @ O ; & @ @ @ @ @ @ . . < 1 y.i.x.x.p.x.x.x.c.i.y.0.,.,.p.p.v.v.x.v.B.B.F S O # . . - - # @ ; ; < < ; , o O t , 9.,.i.p.i.0.M n y d ; @ @ @ @ @                     @ @ # o @ O :.:.j.j.q.u.$.@.} $.D F F F D S S S S S q d O @ . X % 5 / W %XoXeX9XwXwX5X5X5X5XqXqXaXaXaXaXtXtXtXtXtXaXaXtXtXrXrX6X6X6X6X6XrXtXiXpXjXpXiXyXiXyXiXiXiXyXiXyXiXyXiXyXtXtXtXtXtX7X7X7X8X8X8X8XqXqXqXqX7X7X0XtXaXhXhXhXaXaXkXhXaXaX7X0XaX0X0X7X8X8X5X1X5X7X7XaXhXhXhXhXtXaXaXhXhXwXwXwXwXwXwXwXwXwXwXwXaXaXaXhXnXmXnXmXhXnXhXaXaX7X6X6X6X6XrXtXaXpXjXjXiXiXiXiXpXpXjXpXjXpXjXiXiXyXiXtXaXyXiXyXiXyXiXaXiXyXaXyXyXyXyXtXtXyXaXpXjXnXNXNXNXNXNXNXNXmXmXmXnXvXwXvXwXvXbXCX>X>X:X......7.:.:.:.,.,.,.,.,.,.3.3.3.3.3.3.3.3.3.3.3.3.3.3.3.3.3.3.3.3.3.3.3.3.3.3.3.3.3.3.3.3.3.3.3.3.3.3.3.3.3.3.3.3.3.3.3.3.3.3.3.3.3.3.3.3.3.3.3.3.3.3.3.3.3.3.3.3.3.3.3.3.3.3.3.3.3.3.3.3.3.3.3.3.3.3.3.3.3.3.3.3.3.3.3.3.3.3.3.3.3.3.3.3.3.3.3.3.3.3.3.3.3.3.3.3.3.3.3.3.3.3.3.3.3.3.3.3.3.3.3.3.3.3.3.3.3.3.3.3.3.3.3.3.3.3.3.3.3.3.3.3.3.3.3.3.3.3.3.3.3.3.3.3.3.3.3.3.3.3.3.3.3.3.3.3.3.3.3.3.3.3.3.3.3.3.3.3.3.3.3.3.3.3.3.3.3.3.3.3.3.3.3.3.3.3.3.3.3.3.3.3.3.3.3.3.3.3.3.3.3.3.3.3.3.3.3.3.3.3.3.3.3.3.3.3.3.3.3.3.3.3.3.3.3.3.3.3.3.3.3.3.3.3.3.3.3.3.3.3.3.3.3.3.3.3.3.2.2.3.3.3.3.3.3.3.3.3.3.3.3.3.3.3.3.3.3.3.3.3.3.3.3.3.3.3.3.3.3.3.3.3.3.3.3.3.3.3.3.3.3.3.3.3.3.3.3.3.3.3.3.3.3.3.3.3.3.3.3.3.3.3.3.3.3.3.3.3.3.3.3.3.3.3.3.3.3.3.3.3.3.3.3.3.3.3.3.3.3.3.3.3.3.3.3.3.3.3.3.3.3.3.3.3.3.3.3.3.3.3.3.3.3.3.3.3.3.3.3.3.3.3.3.3.3.3.3.3.3.3.3.3.3.3.3.3.3.3.3.3.3.3.3.3.2.2.3.3.2.2.2.2.2.2.3.3.3.3.3.3.3.3.2.2.3.3.3.3.3.3.3.3.2.2.2.2.2.2.2.2.2.2.3.3.3.3.3.3.3.3.3.3.2.2.3.3.2.2.2.2.2.2.<.<.2.2.2.2.2.2.2.2.3.3.3.3.<.<.1.3.1.1.3.3.1.1.3.3.3.3.3.3.3.3.3.3.3.3.3.3.3.3.3.3.3.3.3.3.<.1.3.3.3.3.3.3.3.3.3.3.3.3.3.3.3.3.3.3.3.3.3.3.3.3.2.<.2.2.3.3.3.3.2.3.3.3.3.3.3.3.3.3.3.3.3.3.3.3.3.3.3.3.2.3.3.3.2.3.3.3.3.2.3.3.3.3.2.3.3.3.3.2.3.3.2.2.2.2.3.3.3.3.3.3.3.3.3.3.<.<.2.3.3.3.3.3.3.3.3.3.3.3.3.3.3.2.2.2.3.3.3.3.3.3.3.1.1.3.3.3.3.3.1.3.>.>.1.1.3.3.3.3.3.3.1.1.3.3.3.3.3.3.3.3.3.3.3.3.3.3.3.3.3.3.3.3.3.3.3.3.3.3.3.3.3.3.3.3.3.3.3.3.3.3.3.3.3.3.3.3.3.3.3.;.3.3.3.3.3.3.3.3.3.3.3.3.3.3.3.2.3.3.3.3.2.3.3.2.3.3.3.3.3.3.3.3.2.2.2.3.3.3.3.3.3.3.3.3.3.3.3.3.3.3.3.3.3.3.3.3.>.3.3.3.3.3.3.3.3.3.3.3.3.3.3.3.3.3.3.3.3.3.3.3.3.3.1.1.1.;.;.;.,.,.;.;.;.,.,.,.3.3.3.3.3.3.2.2.3.3.3.3.3.3.3.3.3.3.3.3.3.3.s.y.1 2 . . # # ; ; F F S F F F E.E.3.r.r.r.3.3.F F S M D B $.$.k k o o . . 3.                                      . . ",
"                                                    o . @ 3 > > 1 1 Z Z o.o.8.8.o.o.n h O o O O @ @ @ @ @ @ @ @ o . r < p.p.x.v.p.x.p.c.x.x.i.i.,.9.x.x.v.v.p.v.C.M.S b O O O O O O o @ = , t < < < O o , , 0.i.p.p.i.y.b b y y @ @ @ @ @ o                     @ @ # o O o :.:.j.j.j.j.$.$.$.$.F F F F D S S S S S 1 q O @ . X % 5 / W %X{.#X3X9X9X1X1X1X1X8X7XhXaXkXaXkXaXaXaXaXhXhXaXaXtX0X0X8X8X8X8X7XqXhXhXjXjXkXjXjXjXjXjXjXjXkXaXkXaXkXkXkXkXhXaX0X0X0X0XqX9X9XqXqXqXqXqX0X0X0XwXhXmXmXmXmXjXhXhXhXwX0X0X0X0X0X0XqX8X1X1X8XqXwXwXhXhXhXhXwXwXwXwXwXwXwXwXwXwXwXwXwXwXwXwXwXwXhXmXmXmXZXmXnXmXnXhXhX0X7X6X6X7X7XaXhXjXjXnXjXpXjXjXjXjXjXjXmXnXjXjXkXjXjXpXkXaXkXaXkXaXkXhXhXhXhXaXaXaXtXtX0XaXhXnXmXmXZXZXmXmXmXmXmXmXmXmXmXvXvXvXvXvXCXCX>X>X:X....[ [ $.:.,.3.,.,.,.,.3.3.3.3.3.3.3.3.3.3.3.3.3.3.3.3.3.3.3.3.3.3.3.3.3.3.3.3.3.3.3.3.3.3.3.3.3.3.3.3.3.3.3.3.3.3.3.3.3.3.3.3.3.3.3.3.3.3.3.3.3.3.3.3.3.3.3.3.3.3.3.3.3.3.3.3.3.3.3.3.3.3.3.3.3.3.3.3.3.3.3.3.3.3.3.3.3.3.3.3.3.3.3.3.3.3.3.3.3.3.3.3.3.3.3.3.3.3.3.3.3.3.3.3.3.3.3.3.3.3.3.3.3.3.3.3.3.3.3.3.3.3.3.3.3.3.3.3.3.3.3.3.3.3.3.3.3.3.3.3.3.3.3.3.3.3.3.3.3.3.3.3.3.3.3.3.3.3.3.3.3.3.3.3.3.3.3.3.3.3.3.3.3.3.3.3.3.3.3.3.3.3.3.3.3.3.3.3.3.3.3.3.3.3.3.3.3.3.3.3.3.3.3.3.3.3.3.3.3.3.3.3.3.3.3.1.3.3.3.3.3.3.3.3.3.3.3.3.3.3.3.3.3.3.3.3.3.3.3.3.3.3.3.3.3.3.3.3.3.2.3.3.3.3.3.3.3.3.3.3.3.3.3.3.3.3.3.3.3.3.3.3.3.3.3.3.3.3.3.3.3.3.3.3.3.3.3.3.3.3.3.3.3.3.3.3.3.3.3.3.3.3.3.3.3.3.3.3.3.3.3.3.3.3.3.3.3.3.3.3.3.3.3.3.3.3.3.3.3.3.3.3.3.3.3.3.3.3.3.3.3.3.3.3.3.3.3.3.3.3.3.3.3.3.3.3.3.3.3.3.3.3.3.3.3.3.3.3.3.3.3.3.3.3.3.3.3.3.3.3.3.3.3.3.3.3.3.3.3.3.3.3.3.3.3.3.2.3.3.2.3.3.2.3.2.3.3.3.3.3.3.3.3.3.3.3.3.2.3.3.3.3.3.3.2.2.2.2.2.<.<.2.2.3.3.3.3.3.3.3.3.3.3.2.2.3.3.2.2.2.2.2.2.<.<.2.2.2.2.2.2.<.2.2.3.3.3.<.<.1.3.1.1.1.1.1.1.3.3.3.3.3.3.3.3.3.3.3.3.3.3.3.3.3.3.3.3.3.3.3.<.<.3.3.3.3.3.3.1.3.3.3.3.3.3.3.3.3.3.2.3.3.3.3.3.2.<.2.2.2.3.3.3.2.3.3.3.3.3.3.3.3.3.3.3.3.3.3.3.3.3.3.3.2.2.3.3.2.3.3.3.3.2.3.3.3.3.2.3.3.3.3.2.2.3.2.2.2.2.3.3.3.3.3.3.3.3.3.2.3.3.3.3.2.2.3.3.3.3.3.3.3.3.3.3.3.3.2.2.3.3.3.3.3.3.3.3.3.3.3.3.1.1.3.3.3.3.3.3.3.3.3.3.3.1.1.1.3.3.3.3.3.3.3.3.3.3.3.3.3.3.3.3.3.3.3.3.3.3.3.3.3.3.3.3.3.3.3.3.>.3.3.3.3.3.3.3.3.3.3.3.3.3.;.<.3.3.3.2.;.3.3.3.3.3.3.3.3.3.2.2.3.3.3.3.3.3.3.2.3.3.3.3.3.3.3.3.2.2.2.2.2.3.3.3.3.3.3.3.3.3.3.3.3.3.3.3.3.3.3.>.>.3.3.3.3.3.3.3.3.3.;.;.;.1.3.3.3.3.3.3.3.3.1.1.3.3.1.1.1.1.;.;.,.,.,.,.,.,.,.,.3.3.3.3.3.3.3.3.3.3.3.3.3.3.3.3.3.3.3.3.3.3.s.y.1 2 . . O O ; ; F F S S F F E.;.r.r.r.r.3.3.F D S V D B $.$.h k . . . . 3.                                      . . ",
"                                                    . . @ @ @ @ > > j k S S >.>.o.o.h b o o - @ @ @ @ @ O O @ @ . # y 1 ;.;.>.9.y.y.0.0.i.i.0.0.9.3.y.0.;.#.b b k j 1 r @ @ o . > > @ = = ; , = o + o + t < 3.8.8.0.9.8.n h r r @ @ @ @ @ o                     @ @ O o O o ,.4.u.u.j.j.$.$.+.} ] { { { F D D S S S q q @ @ X X % 5 / W %X[.#X X3X2X1X1X1X1X4X1X5X5X5X5X5X5X5X5X5X5X5X5X5X5X5X1X1X1X5X1X5X5X8X7X6X5X6X5X5X5X5X6X5X5X5X5X5X5X5X5X5X5X1X5X1X1X1X1X<X<X<X<X<X<X<X<X<X1X1X1X5X8X8X8X8X8X5X5X1X1X1X1X1X1X1X1X<X<X<X<X<X1X1X1X1X1X1X1X1X1X1X1X<X<X<X<X X X X<X<X<X<X<X<X<X1X1X1X1X1X1X5X5X5X5X5X1X5X1X5X5X5X5X5X5X5X5X5X5X5X5X5X5X5X5X5X5X5X5X5X5X5X5X5X5X5X5X5X5X5X5X5X5X5X5X5X5X1X1X1X1X5X5X8X7X0X0X0X0X0XqX0XqX0XqX4X4X4X4X4X3X*X&X_.,X .....-.7.4.1.3.3.3.,.,.,.3.3.3.3.3.3.3.3.3.3.3.3.3.3.3.3.3.3.3.3.3.3.3.3.3.3.3.3.3.3.3.3.3.3.3.3.3.3.3.3.3.3.3.3.3.3.3.3.3.3.3.3.3.3.3.3.3.3.3.3.3.3.3.3.3.3.3.3.3.3.3.3.3.3.3.3.3.3.3.3.3.3.3.3.3.3.3.3.3.3.3.3.3.3.3.3.3.3.3.3.3.3.3.3.3.3.3.3.3.3.3.3.3.3.3.3.3.3.3.3.3.3.3.3.3.3.3.3.3.3.3.3.3.3.3.3.3.3.3.3.3.3.3.3.3.3.3.3.3.3.3.3.3.3.3.3.3.3.3.3.3.3.3.3.3.3.3.3.3.3.3.3.3.3.3.3.3.3.3.3.3.3.3.3.3.3.3.3.3.3.3.3.3.3.3.3.3.3.3.3.3.3.3.3.3.3.3.3.3.3.3.3.3.3.3.3.3.3.3.3.3.3.3.3.3.3.3.3.3.3.3.3.3.3.3.3.3.3.3.3.3.3.3.3.3.3.3.3.3.3.3.3.3.3.3.3.3.3.3.3.3.3.3.3.3.3.3.3.2.3.3.3.3.3.3.3.3.3.3.3.3.3.3.3.3.3.3.3.3.3.3.3.3.3.3.3.3.3.3.3.3.3.3.3.3.3.3.3.3.3.3.3.3.3.3.3.3.3.3.3.3.3.3.3.3.3.3.3.3.3.3.3.3.3.3.3.3.3.3.3.3.3.3.3.3.3.3.3.3.3.3.3.3.3.3.3.3.3.3.3.3.3.3.3.3.3.3.3.3.3.3.3.3.3.2.3.3.3.3.3.3.3.3.3.3.3.3.3.3.3.3.3.3.3.3.3.3.3.3.3.3.3.3.3.3.3.3.3.3.3.3.3.3.3.3.3.3.3.3.3.3.3.3.3.3.3.3.3.3.3.3.2.2.3.3.3.3.3.3.3.3.3.3.3.3.2.2.2.2.2.2.<.<.2.2.3.3.3.3.2.2.2.3.3.3.3.3.2.2.2.2.2.2.2.2.2.2.>.>.>.2.>.>.2.2.2.2.2.<.3.3.2.2.3.1.3.3.1.1.1.1.3.3.3.1.3.3.3.3.1.1.1.1.3.1.3.3.3.3.3.1.<.<.3.3.3.3.3.3.3.3.3.3.3.3.1.1.3.2.2.<.3.3.3.3.2.2.2.2.2.2.3.3.3.3.3.3.3.3.2.2.3.3.3.3.3.3.2.2.3.3.3.3.2.2.2.3.3.3.3.3.2.2.2.3.3.3.3.3.3.3.3.3.3.3.3.3.3.3.3.3.3.3.3.3.3.3.3.2.3.3.3.3.2.2.2.3.3.3.3.3.2.3.3.3.3.3.3.3.3.3.3.3.3.3.3.3.3.3.3.3.3.3.3.3.3.3.3.3.3.3.3.3.3.3.3.3.3.3.3.3.3.1.1.3.3.3.3.3.3.3.3.3.3.3.3.3.3.3.3.3.3.3.3.3.1.1.1.3.;.;.3.3.3.3.3.3.3.3.3.3.>.1.2.2.3.3.3.3.3.3.3.3.3.3.3.3.3.3.3.3.3.3.3.3.3.3.1.1.3.3.2.2.2.2.2.>.3.2.2.2.2.3.3.3.3.3.3.3.3.3.1.;.3.3.3.3.3.3.3.3.1.1.3.3.3.3.3.3.3.3.;.;.1.3.>.;.3.3.3.;.;.;.;.1.3.3.3.3.3.3.3.;.,.,.,.,.,.,.3.3.3.3.3.3.3.3.3.3.3.3.3.3.3.3.3.3.3.3.3.3.3.3.s.y.1 < o . O o ; ; F F S S G F ;.;.r.r.r.r.r.3.F F D N { ] @.$.l h . o . . 3.                                          ",
"                                                    . . @ @ @ @ > > b j G S 3.8.o.o.k b o o O O @ @ O O O @ @ @ o . y y #.9.9.9.y.y.8.9.i.i.0.i.0.9.i.y.>.>.b j b k r 1 # o O o @ = @ @ = = , , @ = + + 1 t >.8.8.y.,.9.n n r r @ > @ @ @ #                     @ @ O o O O 4.4.u.j.j.j.$.$.+.$.D { { { F D D S D D q y @ @ X $ % 5 / W %X{.XXXX X<X<X1X1X<X4X<X5X5X5X5X5X8X5X8X5X5X5X5X5X5X5X5X1X1X1X4X5X5X5X5X5X8X5X5X5X8X5X8X5X5X5X5X5X5X5X5X1X1X1X1X1X1X1X<X<X X X X X X<X<X<X<X1X1X8X8XqXqX0XqX8X5X1X1X1X1X1X1X<X<X<X<X<X<X<X<X2X1X1X1X1X1X1X1X<X<X<X X X X X X X X X<X<X<X<X<X1X1X1X4X5X5X1X1X1X1X1X1X1X5X1X1X5X5X5X5X5X5X5X5X5X5X5X5X5X5X5X5X5X5X5X5X5X5X1X1X1X1X1X1X1X1X1X1X1X1X1X1X1X1X1X1X1X4X8XqXwXwXwX0X8XqXqXqXqXqX9X9X9X3X4X9X&X%X_.,X......*.7.4.6.6.3.3.,.,.,.3.3.3.3.3.3.3.3.3.3.3.3.3.3.3.3.3.1.3.3.3.3.3.3.3.3.3.3.3.3.3.3.3.3.3.3.3.3.3.3.3.3.3.3.3.3.3.3.3.3.3.3.3.3.3.3.3.3.3.3.3.3.3.3.3.3.3.3.3.3.3.3.3.3.3.3.3.3.3.3.3.3.3.3.3.3.3.3.3.3.3.3.3.3.3.3.3.3.3.3.3.3.3.3.3.3.3.3.3.3.3.3.3.3.3.3.3.3.3.3.3.3.3.3.3.3.3.3.3.3.3.3.3.3.3.3.2.3.3.3.3.3.3.3.3.3.3.3.3.3.3.3.3.3.3.3.3.3.3.3.3.3.3.3.3.3.3.3.3.3.3.3.3.3.3.3.3.3.3.3.3.3.3.3.3.3.3.3.3.3.3.3.3.3.3.3.3.3.3.3.3.3.3.3.3.3.3.3.3.3.3.3.3.3.3.3.3.3.3.3.3.3.3.3.3.3.3.3.3.3.3.3.3.3.3.3.3.3.3.3.3.3.3.3.3.3.3.3.3.3.3.3.3.3.3.3.3.3.3.3.3.3.3.3.3.3.3.3.3.3.3.3.2.3.3.3.3.3.3.3.3.3.3.3.3.3.2.2.2.3.3.3.3.3.3.3.3.2.2.3.3.3.3.3.3.3.3.3.3.3.3.3.3.3.3.3.3.3.3.3.3.3.3.3.3.3.3.3.3.3.3.3.3.3.3.3.3.3.3.3.3.3.3.3.3.3.3.3.3.3.3.3.3.3.3.3.3.3.3.3.3.3.3.3.3.3.3.3.3.3.3.3.3.3.2.3.3.3.3.3.3.3.3.3.3.3.3.3.3.3.3.3.3.3.3.3.3.3.3.3.3.3.3.3.3.3.3.3.3.3.3.3.3.3.3.3.3.3.3.3.3.3.3.3.3.3.3.3.3.3.3.2.<.2.3.3.3.3.3.3.3.3.3.3.3.2.2.2.2.2.2.2.<.3.3.3.3.3.3.<.<.2.2.3.3.3.3.2.2.2.2.2.<.2.2.2.2.>.>.>.2.>.>.2.2.2.2.2.2.3.3.3.<.3.3.3.3.1.1.1.1.3.3.3.3.3.3.1.1.1.1.1.1.3.3.3.3.3.3.3.1.<.<.3.3.3.3.3.3.3.3.1.1.3.<.<.<.2.2.2.2.3.3.3.2.2.2.2.2.2.2.2.2.3.3.3.3.2.2.2.2.2.3.3.3.3.3.3.2.3.3.3.3.3.2.2.3.3.3.3.3.2.2.2.3.3.3.3.3.3.3.3.3.3.3.3.3.3.3.3.2.3.3.2.2.3.3.3.3.3.3.3.3.2.<.<.2.2.2.3.3.3.3.3.3.3.3.3.3.3.3.3.3.1.3.3.3.3.3.3.3.3.3.3.3.3.3.3.3.3.3.3.3.3.3.3.1.3.3.3.3.3.;.;.1.3.3.3.3.3.3.3.3.;.;.3.3.3.3.3.3.3.3.3.3.1.1.1.1.;.;.3.3.3.3.3.3.3.3.3.3.1.1.3.3.3.3.3.3.3.3.3.3.3.3.;.;.3.3.3.3.;.;.;.3.3.3.3.1.3.2.>.>.>.>.>.;.3.3.3.2.2.3.3.3.3.3.3.3.3.3.;.;.3.3.3.3.3.3.3.3.1.1.3.3.3.3.3.3.3.;.;.;.3.3.>.;.3.3.1.;.;.;.;.;.3.3.3.3.3.3.3.;.,.,.,.3.,.,.3.3.2.3.3.3.3.3.3.3.3.3.3.3.3.3.3.3.3.3.3.3.3.3.s.y.1 < o . O o ; @ F F S S S G ;.;.r.r.r.d.3.3.F F N V ] ] @.@.l f . o . . 3.                                          ",
"                                                    . o @ @ > @ , 1 d k 1 r r s 1 1 < , ; ; - ; ; ; ; ; ; @ @ @ @ @ ; > ; ; ; - 1 1 y.y.B.C.v.B.p.p.a.x.S D O - + # # @ ; > > > > = @ @ = @ 2 , > 3 3 3 = , s s t t d r d r d d @ @ @ @ @ o                     @ @ # O O @ $.$.q.w.4.4.$.$.@.$.] { #.#.F D D S S D y y O @ X * % 5 / ! %X{.XXXXXX3X2X2X2X<X<X<X1X1X1X1X5X5X1X1X1X1X1X1X1X1X1X1X1X1X1X1X1X1X1X1X1X5X1X1X1X1X5X1X1X1X1X1X1X1X1X1X1X1X1X1X1X<X<X<X X X X X X X X X X X<X<X<X<X<X<X1X1X1X1X1X<X<X<X<X<X<X<X<X<X X X X<X2X<X<X<X1X1X<X<X<X<X XXX|.|.|.|.|.|. X X X X<X<X<X<X1X1X1X1X1X1X1X1X1X1X1X1X1X1X5X1X5X1X1X1X1X1X1X1X1X1X5X5X5X1X1X1X1X1X1X1X<X<X<X<X<X<X<X<X<X<X1X1X1X1X1X1X<X<X1X1X1X1X1X1X1X1X1X1X1X<X<X<X X X X X|.|.'./.Q.(.(  .-.f.7.7.:.3.3.3.,.,.3.3.3.3.3.3.3.3.3.3.3.3.3.3.3.3.3.3.3.3.3.3.3.3.3.3.3.3.3.3.3.3.3.3.3.3.3.3.3.3.3.3.3.3.3.3.3.3.3.3.3.3.3.3.3.3.3.3.3.3.3.3.3.3.3.3.3.3.3.3.3.3.3.3.3.3.3.3.3.3.3.3.3.3.3.3.3.3.3.3.3.3.3.3.3.3.3.3.3.3.3.3.3.3.3.3.3.3.3.3.3.3.3.3.3.3.3.3.3.3.3.3.3.3.3.3.3.3.3.3.3.3.3.3.3.3.3.3.3.3.3.3.3.3.3.3.3.3.3.3.3.3.3.3.3.3.3.3.3.3.3.3.3.3.3.3.3.3.3.3.2.2.3.3.3.3.3.3.3.3.3.3.3.3.3.3.3.3.3.3.3.3.3.3.3.3.3.3.3.3.3.3.3.3.3.3.3.3.3.3.3.3.3.3.3.3.3.3.3.3.3.3.3.3.3.3.3.3.3.3.3.3.3.3.3.3.3.3.3.3.3.3.3.3.3.3.3.3.3.3.3.3.3.3.3.3.3.3.3.3.3.3.3.3.3.3.3.3.3.3.3.3.3.3.3.3.2.2.3.3.3.3.3.3.3.3.3.3.3.3.3.3.3.3.3.3.3.3.3.3.3.3.3.3.3.3.3.3.3.3.3.3.3.3.3.3.3.3.2.3.3.3.3.3.3.3.3.3.3.3.3.3.3.3.3.3.3.3.3.3.3.3.3.3.3.3.3.3.3.3.3.3.3.3.3.3.3.3.3.3.3.3.3.3.3.3.3.3.3.3.3.3.3.3.3.3.3.3.3.3.3.3.3.3.3.3.3.3.3.3.3.3.3.3.3.3.3.3.3.3.3.3.3.3.3.3.3.3.3.3.3.3.3.3.3.3.3.3.3.3.2.2.3.3.3.3.3.3.3.3.3.3.3.3.3.3.3.3.3.3.3.3.3.3.3.3.3.<.<.2.<.2.2.2.<.2.3.3.2.3.2.2.3.2.3.3.3.3.3.3.2.2.2.3.2.2.2.2.2.2.2.2.2.2.2.2.2.2.2.2.3.3.1.1.<.<.<.<.<.<.3.3.3.1.1.1.<.1.1.3.3.1.1.3.3.3.3.3.3.1.1.1.1.1.3.3.3.3.3.3.3.3.3.3.3.3.3.3.<.<.<.<.3.3.3.3.2.2.2.3.3.3.2.2.3.3.3.3.3.3.3.3.2.2.2.3.3.3.2.2.2.2.3.3.3.3.3.3.2.2.2.3.3.3.3.2.3.3.3.3.2.3.3.3.3.3.3.2.2.3.3.3.<.3.3.3.3.3.3.3.3.3.2.2.3.3.3.3.<.2.2.3.3.3.3.3.2.2.3.3.3.3.3.3.3.3.3.3.3.3.1.3.3.3.3.3.3.3.3.3.3.3.3.3.3.1.1.3.3.3.3.3.3.1.1.1.3.3.3.3.3.3.3.3.3.3.3.3.3.3.3.3.3.>.;.;.3.3.1.1.1.1.3.3.3.>.>.>.;.;.3.1.>.>.3.3.3.1.1.1.3.3.3.1.3.3.3.3.3.1.1.1.1.1.3.3.3.3.1.1.3.3.>.>.2.3.3.3.>.2.3.3.3.3.2.>.3.3.3.;.;.3.3.3.;.;.;.1.1.1.3.3.1.1.3.3.3.3.3.3.3.3.3.3.3.3.3.3.3.3.>.1.;.;.;.;.3.3.3.3.3.3.3.3.;.,.3.3.;.;.;.1.3.3.3.3.2.2.2.2.3.3.3.3.3.3.3.3.3.3.3.3.3.3.s.y.< < o . o o @ @ F F S S S D ;.;.3.2.d.3.3.,.{ { N D ` B %.$.f f . . . . 3.                                          ",
"                                                    . o @ @ > @ , 1 d k 1 r r r , , , > ; ; ; ; ; ; ; ; ; ; @ @ ; ; > > ; ; ; - < < y.i.B.C.v.B.a.a.a.v.S D O O + + @ @ @ > > > > > @ @ > @ > > > 3 3 3 = , r s t r d r y r y d @ @ @ @ @ o                     @ @ O O O @ #.$.q.w.4.4.%.%.$.%.F { { { F D S S D D y y @ @ # * % 5 / W ).{.XXXXXX<X2X2X2X<X<X<X1X1X1X1X1X1X1X1X1X1X1X1X1X1X1X1X1X1X1X1X1X1X1X1X1X1X1X1X1X1X1X1X1X1X1X1X1X1X1X4X<X<X4X<X<X<X<X X X+X X X X X X X X X<X<X<X<X<X<X<X<X<X<X<X<X<X<X<X XXX X X X X X X X2X2X2X<X<X<X<X<X<X<X|.|.|.|.|.|.|.|.|.|.|. X X<X<X<X<X1X1X1X1X1X1X1X1X1X1X1X1X1X1X1X1X1X1X1X1X1X1X1X1X1X1X1X1X1X1X1X1X1X<X<X4X4X4X<X<X<X<X<X<X<X<X<X<X<X1X2X<X<X<X<X<X1X1X1X1X1X1X<X<X<X<X<X X X X|.|.].'./.!.(. . .-.f.7.4.:.3.3.3.,.,.,.,.3.3.3.3.3.3.3.3.3.3.3.3.3.3.3.3.3.3.3.3.3.3.3.3.3.3.3.3.3.3.3.3.3.3.3.3.3.3.3.3.3.3.3.3.3.3.3.3.3.3.3.3.3.3.3.3.3.3.3.3.3.3.3.3.3.3.3.3.3.3.3.3.3.3.3.3.3.3.3.3.3.3.3.3.3.3.3.3.3.3.3.3.3.3.3.3.3.3.3.3.3.3.3.3.3.3.3.3.3.3.3.3.3.3.3.3.3.3.3.3.3.3.3.3.3.3.3.3.3.3.3.3.3.3.3.3.3.3.3.3.3.3.3.3.3.3.3.3.3.3.3.3.3.3.3.3.3.3.3.3.3.3.3.3.3.3.3.3.2.2.3.3.3.3.3.3.3.3.3.3.3.3.3.3.3.3.3.3.3.3.3.3.3.3.3.3.3.3.3.3.3.3.3.3.3.3.3.3.3.3.3.3.3.3.3.3.3.3.3.3.3.3.3.3.3.3.3.3.3.3.3.3.3.3.3.3.3.3.3.3.3.3.3.3.3.3.3.3.3.3.3.3.3.3.3.3.3.3.3.3.3.3.3.3.3.3.3.3.3.3.3.3.3.3.2.2.3.3.3.3.3.3.3.3.3.3.3.3.3.3.3.3.3.3.3.3.3.3.3.3.3.3.3.3.3.3.3.3.3.3.3.3.3.3.3.3.3.3.3.3.3.3.3.3.3.3.3.3.3.3.3.3.3.3.3.3.3.3.3.3.3.3.3.3.3.3.3.3.3.3.3.3.3.3.3.3.3.3.3.3.3.3.3.3.3.3.3.3.3.3.3.3.3.3.3.3.3.3.3.3.3.3.3.3.3.3.3.3.3.3.3.1.3.3.3.3.3.3.3.3.3.3.3.3.3.3.3.3.3.3.3.3.3.3.3.3.3.3.2.2.3.3.3.3.3.3.3.3.3.3.3.3.3.3.3.3.2.3.3.3.3.3.3.3.3.<.<.<.<.2.2.2.<.2.3.3.2.3.2.2.3.2.3.3.3.3.3.3.2.2.3.3.2.2.2.2.2.2.2.2.2.2.2.2.2.2.2.3.3.3.3.3.1.1.3.<.<.<.2.3.3.1.1.1.3.3.3.3.3.1.1.3.2.3.3.3.3.3.1.1.1.1.3.3.3.3.3.3.3.3.3.3.3.3.3.3.2.2.<.2.3.3.3.2.2.3.3.3.3.3.2.2.2.2.3.3.3.3.3.3.2.2.3.3.3.3.2.3.2.2.3.3.3.3.2.3.2.2.2.2.3.3.3.3.3.3.3.3.2.3.3.3.3.3.2.3.2.3.2.2.3.2.3.3.3.3.3.3.3.3.2.2.3.3.3.3.<.2.3.3.3.3.3.3.2.<.3.3.3.3.3.3.3.3.3.3.3.1.3.3.3.3.3.3.3.3.3.3.3.3.3.3.3.3.1.3.3.3.3.3.3.3.3.3.3.3.3.3.3.3.3.3.3.3.3.3.3.3.3.3.3.3.;.,.3.3.3.1.3.1.3.3.>.>.>.>.;.3.3.1.1.1.3.3.3.1.1.3.3.3.3.1.3.3.3.3.1.1.3.1.1.1.3.3.3.3.1.1.3.3.2.3.3.3.3.3.2.2.2.3.3.2.2.2.3.3.3.3.3.3.3.3.3.3.1.1.3.1.3.3.3.3.3.3.3.3.3.3.3.3.3.3.3.3.3.3.3.3.3.1.1.1.1.3.3.3.3.3.3.3.3.3.;.,.3.3.;.;.;.3.2.2.2.3.3.3.3.3.3.3.3.3.3.3.3.3.3.3.3.3.3.3.s.y.1 < o . # o 3 3 F F S S S D ;.;.2.2.d.3.3.;.] D B ` ` B %.$.f h . . . . 3.                                          ",
"                                                    . o 3 @ > @ r y k k > > = = = = = = ; ; & @ @ ; - ; ; @ @ @ @ @ @ @ o o O O ; , y.s.C.G.V.C.M.C.G.C.S S . O # O @ @ @ ; > > @ @ @ @ > @ 2 > > > > > = = > > @ # - - < 1 d g @ 3 @ @ @ o                     @ @ O O O @ #.#.4.e.$.$.$.$.#.$.] { #.#.#.F D D D D u u @ @ X * % 5 U W ).{.XXXXXX<X2X2X<X<X<X<X<X1X1X1X2X2X2X2X<X2X2X<X<X<X<X<X<X<X<X<X2X2X2X1X1X1X2X1X2X1X2X1X2X2X2X<X<X<X4X3X3X3X3X3X2X X X X X X X X X X X X X X<X<X<X<X<X<X<X<X<X<X<X<X<XXXXXXX XXXXX X|.|.|.XXXX3X2X4X2X<X<X<XXX3X|..X]..X[.{.+X.X.X.XXXXX X X<X<X<X2X1X1X1X1X1X1X1X1X1X1X1X1X1X1X1X1X1X1X1X1X1X1X1X1X1X1X1X1X1X2X<X<X<X3X XXXXXXX X XXXXX<X<X<X2X2X2X2X<X<X4X<X<X<X<X<X<X<X<X<X<X<X<X<X<X XXX X|.|.].}.@X!.~  . ...f.7.4.:.3.3.3.,.,.,.,.3.3.3.3.3.3.3.3.3.3.3.3.3.3.3.3.3.3.3.3.3.3.3.3.3.3.3.3.3.3.3.3.3.3.3.3.3.3.3.3.3.3.3.3.3.3.3.3.3.3.3.3.3.3.3.3.3.3.3.3.3.3.3.3.3.3.3.3.3.3.3.3.3.3.3.3.3.3.3.3.3.3.3.3.3.3.3.3.3.3.3.3.3.3.3.3.3.3.3.3.3.3.3.3.3.3.3.3.3.3.3.3.3.3.3.3.3.3.3.3.3.3.3.3.3.3.3.3.3.3.3.3.3.3.3.3.3.3.3.3.3.3.,.3.,.,.,.,.3.3.3.3.3.3.3.3.3.3.3.3.3.3.3.3.3.3.3.3.3.3.3.3.3.3.3.3.3.3.3.3.3.3.3.3.3.3.3.3.3.3.3.3.3.3.3.3.3.3.3.3.3.3.3.3.3.3.3.3.3.3.3.3.3.3.3.3.3.3.3.3.3.3.3.3.3.3.3.3.3.3.3.3.3.3.3.3.3.3.3.3.3.3.3.3.3.3.3.3.3.3.3.3.3.3.3.3.3.3.3.3.3.3.3.3.3.3.3.3.3.3.3.3.3.3.2.2.3.3.3.3.3.3.3.3.3.3.3.3.3.3.3.3.3.3.3.3.3.3.3.3.3.3.3.3.3.3.3.3.3.3.3.3.3.3.3.3.3.3.3.3.3.3.3.3.3.3.3.3.3.3.3.3.3.3.3.3.3.3.3.3.3.3.3.3.3.3.3.3.3.3.3.3.3.3.3.3.3.3.3.3.3.3.3.3.3.3.3.2.3.3.3.3.3.3.3.3.3.3.3.3.3.3.3.3.3.3.3.3.3.3.3.3.3.3.3.3.3.3.3.3.3.3.3.3.3.3.3.3.3.3.3.3.3.3.3.3.3.3.2.2.3.3.3.3.3.3.3.3.3.3.3.3.3.3.3.3.2.2.3.3.3.3.3.3.3.3.3.3.3.3.3.2.2.2.2.3.3.3.3.3.3.2.2.2.2.2.3.2.3.2.3.3.3.3.2.2.3.3.3.3.3.3.2.2.2.2.3.3.3.3.3.3.3.3.3.3.;.1.3.3.3.3.1.1.3.3.3.3.3.1.3.3.<.<.3.3.3.3.3.3.1.1.3.3.3.3.3.3.3.1.3.3.3.3.3.3.3.3.2.2.3.3.3.2.3.3.3.3.3.3.3.3.2.2.2.3.2.2.2.2.2.2.3.3.3.3.3.3.2.3.3.3.3.3.2.2.3.3.3.3.3.3.3.3.3.3.3.3.2.2.3.3.3.3.2.3.2.2.2.2.2.2.3.3.3.3.3.3.3.3.3.2.3.3.2.2.3.3.3.3.3.3.3.2.3.3.3.3.3.3.3.3.3.3.3.3.3.3.3.3.3.3.3.3.3.3.3.3.3.3.3.3.3.3.3.3.3.3.3.3.3.3.3.3.3.3.3.3.3.3.3.3.3.3.3.3.3.3.3.3.3.3.3.3.3.3.1.1.3.3.3.3.1.1.1.1.3.3.3.3.1.3.3.3.3.3.3.3.3.3.3.1.3.3.3.3.3.3.3.3.1.3.3.3.3.3.3.1.>.3.3.3.3.3.2.2.3.2.2.2.2.2.3.3.3.3.3.3.3.3.3.3.3.3.3.3.3.3.3.3.3.3.3.3.3.>.3.1.3.3.3.3.3.3.3.3.3.3.3.1.1.3.3.3.3.3.3.3.1.1.3.;.3.1.3.3.;.;.;.1.<.<.2.3.3.3.3.3.3.3.3.3.3.3.3.3.3.3.3.3.3.3.s.s.1 1 o o # o 3 3 F F S S D D #.;.>.>.3.3.,.:.F D N B B B %.$.f h . . . . 3.                                          ",
"                                                    . o @ @ > @ d y k k > > @ = @ @ @ @ ; ; & & @ @ ; ; = @ @ @ @ @ ; @ o . @ - ; , i.a.C.G.G.G.B.G.P.G.S Z . O # O @ @ @ @ 3 > > > 3 3 3 @ > > > > > > = = = = @ # @ @ < 1 y d > @ @ # o o                     @ @ @ @ O O #.#.4.4.$.$.$.$.$.$.{ { #.#.#.F F D F F u g @ ; X * % 5 U W ).{.XX+X3X<X2X2X2X<X<X<X<X<X<X<X<X4X<X4X<X4X<X<X<X<X<X<X<X<X<X<X<X<X<X<X2X2X2X2X2X2X2X2X2X<X<X<X<X3X2X3X3XOXOXXXXX X X X X X X X X X X X X X<X<X<X<X<X<X<X<X<X<X<X XXXXXXXXXXXXX|.|.|.|.+X+X|.XX3X3X<X<X<X4XXXOX|..X[.[.[.[.{.[..X.X.XXXXXXX2X2X<X2X1X1X1X1X1X1X1X1X1X1X1X1X1X1X1X1X1X1X1X1X1X1X1X1X1X1X1X2X2X<X<X<X XXXOX#XOX#XOXOXOX9XXX3X3X2X2X2X<X<X4X4X<X<X<X<X<X<X<X<X<X<X<X<X<X XXXXX|..X|.].}./.!.~  . .-.f.7.4.,.3.3.3.3.,.,.,.3.3.3.3.3.3.3.3.3.3.3.3.3.3.3.3.3.3.3.3.3.3.3.3.3.3.3.3.3.3.3.3.3.3.3.3.3.3.3.3.3.3.3.3.3.3.3.3.3.3.3.3.3.3.3.3.3.3.3.3.3.3.3.3.3.3.3.3.3.3.3.3.3.3.3.3.3.3.3.3.3.3.3.3.3.3.3.3.3.3.3.3.3.3.3.3.3.3.3.3.3.3.3.3.3.3.3.3.3.3.3.3.3.3.3.3.3.3.3.3.3.3.3.3.3.3.3.3.3.3.3.3.3.3.3.3.3.3.3.3.3.3.3.3.,.,.,.,.3.3.3.3.3.3.3.3.3.3.3.3.3.3.3.3.3.3.3.3.3.3.3.3.3.3.3.3.3.3.3.3.3.3.3.3.3.3.3.3.3.3.3.3.3.3.3.3.3.3.3.3.3.3.3.3.3.3.3.3.3.3.3.3.3.3.3.3.3.3.3.3.3.3.3.3.3.3.3.3.3.3.3.3.3.3.3.3.3.3.3.3.3.3.3.3.3.3.3.3.3.3.3.3.3.3.3.3.3.3.3.3.3.3.3.3.3.3.3.3.3.3.3.3.3.3.3.3.3.3.3.3.3.3.3.3.3.3.3.3.3.3.3.3.3.3.3.3.3.3.3.3.3.3.3.3.3.3.3.3.3.3.3.3.3.3.3.3.3.3.3.3.3.3.3.3.3.3.3.3.3.3.3.3.3.3.3.3.3.3.3.3.3.3.3.3.3.3.3.3.3.3.3.3.3.3.3.3.3.3.3.3.3.3.3.3.3.3.2.>.3.3.3.3.3.3.3.3.3.3.3.3.3.3.3.3.3.3.3.3.3.3.3.3.3.3.3.3.3.3.3.3.3.3.3.3.3.3.3.1.3.3.3.3.3.3.3.3.3.3.2.2.3.3.3.3.3.3.3.3.3.3.3.3.3.3.3.2.2.2.3.3.3.3.3.3.3.3.3.3.3.3.3.3.2.2.2.3.3.3.3.3.2.2.2.2.2.2.3.3.3.3.3.3.3.3.3.3.3.3.3.3.3.3.2.2.2.2.2.2.3.3.3.3.3.3.3.;.1.1.3.3.3.3.3.3.3.3.3.1.1.1.1.3.1.<.2.2.3.3.3.3.3.3.3.3.3.3.3.3.3.3.3.3.3.3.3.3.3.3.3.3.3.3.3.2.2.3.3.3.3.3.3.3.3.3.3.3.2.2.2.2.2.3.3.3.3.3.3.3.3.3.3.3.3.2.2.2.3.3.3.3.3.3.3.3.3.3.2.2.2.2.3.3.3.3.3.2.2.2.2.2.2.2.2.3.3.3.3.3.3.3.3.3.3.2.2.2.3.3.3.3.3.3.3.2.3.3.3.2.2.3.3.3.3.3.3.3.3.3.3.3.3.3.3.3.3.3.3.3.3.3.3.3.3.3.3.3.3.3.3.3.3.3.3.3.3.3.3.3.3.3.3.3.3.3.3.>.3.3.3.3.3.3.3.3.3.3.3.3.3.3.3.3.1.1.1.1.3.3.3.3.1.3.3.3.3.3.3.3.3.3.3.3.3.3.3.3.3.3.3.3.>.3.3.3.3.3.3.3.>.3.3.3.3.3.2.3.3.3.3.2.2.3.3.3.3.3.3.3.3.3.3.3.3.3.3.3.3.3.3.3.3.3.3.3.3.>.>.1.3.3.3.3.3.3.3.3.1.1.1.1.3.3.3.3.3.3.3.3.1.1.1.;.1.<.3.3.3.3.1.1.2.2.2.3.3.3.3.3.3.3.3.3.3.3.3.3.3.3.3.3.3.3.s.s.1 1 o o # o 3 3 F F S D S D #.#.;.;.,.,.:.#.D D N B B B %.$.h k . . . . 3.                                          ",
"                                                    . . @ @ > 3 J 1 k g > > # @ > = @ > > > > > ; ; ; ; ; - @ @ > > > > @ @ > > < r i.p.M.M.B.M.v.v.v.M.D F # o = @ @ @ @ @ & @ & & @ @ @ # @ @ > > > > > > > > > = > > 1 1 d r > @ @ o # @                     @ @ @ @ @ O { #.9.3.O.#.#.#.#.#.{ { { F F F D D o.F g g @ ; X * % 5 I R _.@XXX.X3X3X2X2X2X<X<X X2X2X2X2X2X2X<X2X3X3X2X3X2X3X2X2X<X<X<X<X2X3X3X3X3X3X2X2X2X2X2X<X<X X2X3X3XXXXX|.XXXXXXXX|.|. X X X X X X X X X X X X X X<X<X<X<X<X X X X X X XXXXXXXXX.X.X|.|.|.|.|.|.XX2X2X<X<X<X3XXXOX|..X].[.'.'.'.'.].].|.|.XXXX2X2X<X2X1X1X1X1X1X1X1X1X1X1X1X1X1X1X1X1X1X1X1X1X1X1X1X1X1X1X1X2X2X2XXXXX X|.|.].].].|.|.+X|.OX3X3X2X<X<X<X<X2X2X2X2X2X2X2X2X<X<X<X<X<X X X XXXXX.X.X.X[.}.@X(.~  . ...f.*.4.,.3.3.3.3.3.3.3.3.3.3.3.3.3.3.3.3.3.3.3.3.3.3.3.3.3.3.3.3.3.3.3.3.3.3.3.3.3.3.3.3.3.3.3.3.3.3.3.3.3.3.3.3.3.3.3.3.3.3.3.3.3.3.3.3.3.3.3.3.3.3.3.3.3.3.3.3.3.3.3.3.3.3.3.3.3.3.3.3.3.3.3.3.3.3.3.3.3.3.3.3.3.3.3.3.3.3.3.3.3.3.3.3.3.3.3.3.3.3.3.3.3.3.3.3.3.3.3.3.3.3.3.3.3.3.3.3.3.3.3.3.3.3.3.3.3.3.3.3.3.3.3.3.3.3.,.,.,.3.3.3.3.,.,.3.3.3.3.,.,.3.3.3.3.3.3.3.3.3.3.3.3.3.3.3.3.3.3.3.3.3.3.3.3.3.3.3.3.3.3.3.3.3.3.3.3.3.3.3.3.3.3.3.3.3.3.3.3.3.3.3.3.3.3.3.3.3.3.3.3.3.3.3.3.3.3.3.3.3.3.3.3.3.3.3.3.3.3.3.3.3.3.3.3.3.3.3.3.3.3.,.,.,.,.3.3.,.,.3.3.3.,.3.3.3.3.3.3.3.3.3.3.3.3.3.3.3.3.3.3.3.3.3.3.3.3.3.3.3.3.3.3.3.3.3.3.3.3.3.3.3.3.3.3.3.3.3.3.3.3.3.3.3.3.3.3.3.3.3.3.3.3.3.3.3.3.3.3.3.3.3.3.3.3.3.3.3.3.3.3.3.3.3.3.3.3.3.3.3.3.3.3.3.3.3.3.3.3.3.3.3.3.3.3.2.>.3.3.3.3.3.3.3.3.3.3.3.3.3.3.3.3.3.3.3.3.3.3.3.3.3.3.3.3.3.3.3.3.3.3.3.3.3.3.1.1.3.3.3.3.3.3.3.3.3.3.3.3.2.2.2.2.3.3.3.3.3.3.3.3.3.2.2.<.<.3.3.3.3.3.2.2.3.3.3.3.3.3.3.3.3.2.3.3.3.3.3.3.3.3.2.2.2.3.3.3.2.2.3.3.3.3.3.3.3.3.3.3.3.3.3.3.2.3.3.3.1.1.3.3.3.3.3.;.1.1.3.3.3.3.3.3.3.3.1.1.1.1.3.3.1.1.3.3.3.3.3.3.3.3.3.3.3.3.3.3.3.3.3.3.3.3.3.3.3.3.3.3.2.3.3.2.2.2.3.3.3.3.3.3.3.3.3.3.2.3.2.2.3.3.3.3.3.3.3.3.2.3.3.3.3.3.3.3.3.3.3.3.3.3.3.3.3.2.2.2.3.3.3.3.3.3.2.3.2.<.2.2.3.3.3.3.3.3.3.3.3.3.3.3.2.2.2.2.3.3.3.3.3.3.2.2.3.3.3.2.2.2.2.2.3.3.3.3.3.3.3.3.3.3.3.3.3.3.3.3.3.3.3.3.1.1.3.3.1.1.1.1.3.1.1.1.3.3.3.3.3.3.3.3.3.3.3.3.3.3.3.3.1.3.3.3.3.3.3.3.3.3.3.3.3.3.3.3.1.1.1.1.1.1.1.1.1.3.3.3.3.3.3.1.3.3.3.3.3.3.3.3.3.3.3.3.3.3.3.3.2.3.3.3.3.2.3.3.3.3.3.3.3.3.3.3.3.3.3.3.3.3.3.3.3.3.3.3.3.3.3.3.3.3.3.3.3.3.3.3.3.3.3.3.3.3.3.3.3.3.>.>.>.3.3.3.3.1.1.1.3.3.3.;.1.1.3.3.3.3.3.1.3.3.2.3.3.3.3.3.3.3.3.3.3.3.3.3.3.3.3.3.3.3.s.s.1 1 # . # o > > F F S D D S #.#.#.{ #.$.{ { D D B B ` ` 4.%.z k . . . . 3.                                          ",
"                                                    . . @ @ > > s 1 j k > > . # > > > > > > > > ; ; ; ; ; - @ @ > > > > @ @ > > y y i.s.x.a.B.M.v.v.x.v.D F # . = @ @ @ @ @ & & 3 > @ & # # @ @ > > > > 3 3 > > = @ = = 1 1 d d @ @ @ # # @                     3 @ @ @ @ @ #.#.3.3.F +.O.#.#.#.{ { F F F F F D o.o.g g @ ; X * % 5 I R _.@XXX|.3X3X3X4X4X2X<X X X X X X X X X X2X2X2X2X2X3X3X3X<X<X<X<X2X3XXXOXOXXXXX X X X X X X X XXXXX|.|.|.|.|.|.|.|.|.|.|. X X X X X X X X X X X X<X<X<X<X X X X X XXX X|.|..X.X|.|.|.|.].].].|.|. X2X4X<X<X3XXXOX|.].'.'.'.'.'.'.'.].].|.XXXX2X<X<X<X1X1X1X1X1X1X1X1X1X1X1X1X1X1X1X1X1X1X1X1X1X1X1X1X1X1X1X<X2X2XXX|.|.].].[.[.].[.|.+X+XOXOXXX2X<X<X<X<X2X2X2X2X<X<X2X2X<X<X<X X X X X X+XXX.X.X.X[.}.@X(.~  . ...f.7.4.,.3.3.3.3.3.3.3.3.3.3.3.3.3.3.3.3.3.3.3.3.3.3.3.3.3.3.3.3.3.3.3.3.3.3.3.3.3.3.3.3.3.3.3.3.3.3.3.3.3.3.3.3.3.3.3.3.3.3.3.3.3.3.3.3.3.3.3.3.3.3.3.3.3.3.3.3.3.3.3.3.3.3.3.3.3.3.3.3.3.3.3.3.3.3.3.3.3.3.3.3.3.3.3.3.3.3.3.3.3.3.3.3.3.3.3.3.3.3.3.3.3.3.3.3.3.3.3.3.3.3.3.3.3.3.3.3.3.3.3.3.3.3.3.3.3.3.3.3.3.,.3.3.3.3.3.,.,.3.3.3.,.,.,.3.3.3.3.,.,.3.3.3.3.3.3.3.3.3.3.3.3.3.3.3.3.3.3.3.3.3.3.3.3.3.3.3.3.3.3.3.3.3.3.3.3.3.3.3.3.3.3.3.3.3.3.3.3.3.3.3.3.3.3.3.3.3.3.3.3.3.3.3.3.3.3.3.3.3.3.3.3.3.3.3.3.3.3.3.3.3.3.3.3.3.3.3.3.3.3.,.,.,.,.3.,.,.,.3.3.3.,.3.3.3.3.3.3.3.3.3.3.3.3.3.3.3.3.3.3.3.3.3.3.3.3.3.3.3.3.3.3.3.3.3.3.3.3.3.3.3.3.3.3.3.3.3.3.3.3.3.3.3.3.3.3.3.3.3.3.3.3.3.3.3.3.3.3.3.3.3.3.3.3.3.3.3.3.3.3.3.3.3.3.3.3.3.3.3.3.3.3.3.3.3.3.3.3.3.3.3.3.3.3.2.>.3.3.3.3.3.3.3.3.3.3.3.3.3.3.3.3.3.3.3.3.3.3.3.3.3.3.3.3.3.3.3.3.3.3.3.3.3.3.1.1.3.3.3.3.3.3.3.3.3.3.3.3.2.2.3.3.3.3.3.3.2.3.3.3.2.2.3.<.<.3.3.3.3.3.2.2.2.3.3.3.2.3.3.3.3.3.3.3.3.3.3.3.3.3.3.3.3.3.3.3.2.2.3.3.3.3.3.3.3.3.3.3.3.3.3.3.2.3.3.3.1.>.1.3.3.3.3.1.3.3.3.3.3.3.3.3.3.3.1.1.1.1.3.3.3.3.3.3.3.3.3.3.3.3.3.3.3.3.3.3.3.3.3.3.3.3.3.3.2.3.2.2.2.2.3.2.2.2.2.3.3.3.3.2.3.3.3.3.3.3.3.3.3.3.3.3.3.3.3.3.2.2.2.3.3.3.3.3.3.3.3.3.3.3.3.3.3.2.2.2.2.2.3.3.3.3.3.3.3.3.3.3.3.3.3.3.3.3.3.3.3.3.3.3.2.3.2.2.3.3.3.3.3.3.2.2.3.3.3.3.2.2.2.2.3.3.3.3.3.3.3.3.3.3.3.3.3.3.3.3.3.3.3.3.1.3.3.3.1.1.1.1.3.3.3.3.3.3.3.3.3.3.3.3.3.>.1.1.3.3.3.3.3.3.3.3.3.3.3.3.3.3.3.3.3.3.3.3.1.1.1.1.1.3.3.1.1.3.3.3.3.1.3.3.3.3.3.3.3.3.3.3.3.3.3.3.3.3.3.3.3.3.3.3.2.3.3.3.3.3.3.3.3.3.3.3.3.3.3.3.3.3.3.3.3.3.3.3.3.3.3.3.3.3.3.3.3.3.3.3.3.3.3.3.3.3.3.3.3.3.>.1.1.1.3.3.3.3.1.1.1.1.3.;.3.1.3.3.3.3.3.1.3.3.3.3.3.3.3.3.3.3.3.3.3.3.3.3.3.3.3.3.3.3.s.s.1 1 # . # o 3 3 F F S D S D #.#.F F $.{ ] { B ] N B B ` %.%.z k . . . . 3.                                          ",
"                                                    . . @ @ > > 1 1 Z Z s d > > 3 @ 3 > > > > > - - - - - @ @ @ > > , > > > > > g d i.i.s.p.V.V.B.V.C.C.F D . o @ @ @ @ @ & & > k k q < & @ @ @ > > > > @ @ @ @ > > > > 1 1 1 1 @ @ @ @ # o                     @ @ @ @ @ @ #.#.0.0.#.#.#.:.:.:.$.$.#.{ { F F F o.o.k f & & X * % 5 P R _.{.XX|.3X3X3X3X2X2X<X X X|.|.|.|.|. X X X X X X X X X X X X X X XXX X|.XX|.|.|. X XXXXX X X X|.|.|.|.].].].].].].|.|.|. X X X X X X X X X X X X X X X X X X X X X X|.|.|.|.|.|.].].].].].].|.|. X X<X4X4X4XXXOX|.].'.'.'.'.'.'.'.].].|.XX X X<X<X2X1X1X1X1X1X1X1X1X1X1X1X1X1X1X1X1X1X1X1X1X1X1X1X1X1X1X2X<X2X X|.|.].].'.'.'.'.'.].].|.XXXX XXX<X<X<X<X<X2X<X<X<X<X2X2X<X<X<X X X X XXXXXXX.X.X.X[.@X@X(.~  . .-.f.*.4.4.3.3.3.3.3.3.,.3.3.3.3.3.3.3.3.3.3.3.3.3.3.3.3.3.3.3.3.3.3.3.3.3.3.3.3.3.3.3.3.3.3.3.3.3.3.3.3.3.3.3.3.3.3.3.3.3.3.3.3.3.3.3.3.3.3.3.3.3.3.3.3.3.3.3.3.3.3.3.3.3.3.3.3.3.3.3.3.3.3.3.3.3.3.3.3.3.3.3.3.3.3.3.3.3.3.3.3.3.3.3.3.3.3.3.3.3.3.3.3.3.3.3.3.3.3.3.3.3.3.3.3.3.3.3.3.3.3.3.3.3.3.3.3.3.3.3.3.,.,.,.,.3.3.3.3.,.,.3.3.3.3.,.,.3.3.3.3.,.,.,.3.3.3.3.3.3.3.3.3.3.3.3.3.3.3.3.3.3.3.3.3.3.3.3.3.3.3.3.3.3.3.3.3.3.3.3.3.3.3.3.3.3.3.3.3.3.3.3.3.3.3.3.3.3.3.3.3.3.3.3.3.3.3.3.3.3.3.3.3.3.3.3.3.3.3.3.3.3.3.3.3.3.3.3.3.3.3.3.3.3.3.,.,.3.3.,.,.,.3.3.3.3.3.3.3.3.3.3.3.3.3.3.3.3.3.3.3.3.3.3.3.3.3.3.3.3.3.3.3.3.3.3.3.3.3.3.3.3.3.3.3.3.3.3.3.3.3.3.3.3.3.3.3.3.3.3.3.3.3.3.3.3.3.3.3.3.3.3.3.3.3.3.3.3.3.3.3.3.3.3.3.3.3.3.3.3.3.3.3.3.3.3.3.3.3.3.3.3.3.3.3.3.3.3.2.3.3.3.3.3.3.3.3.3.3.3.3.3.3.3.3.1.1.>.3.3.3.1.3.3.3.3.3.3.3.3.3.3.3.3.3.3.1.1.1.3.3.3.3.3.3.3.3.3.3.3.3.3.3.3.3.3.3.3.3.2.2.3.3.3.3.2.2.<.<.3.3.2.2.2.<.2.2.3.3.<.2.3.3.3.3.3.3.3.3.3.3.3.3.3.3.3.3.3.3.2.3.3.3.3.3.3.3.3.3.3.3.3.3.3.3.3.3.3.3.3.3.3.3.3.3.3.3.3.3.3.3.3.3.3.3.3.3.3.3.3.3.3.3.3.3.3.3.3.1.1.1.3.3.3.3.3.3.3.3.1.1.>.3.3.3.3.3.2.2.>.2.3.3.3.2.2.2.2.2.3.3.3.3.2.2.2.3.3.3.3.3.3.3.3.3.3.3.3.3.2.2.2.2.2.2.3.3.3.3.3.2.2.3.3.3.3.3.3.3.3.2.3.3.3.3.3.3.3.3.3.3.3.3.2.2.2.2.3.3.3.3.2.2.3.3.3.3.3.3.2.2.3.3.3.3.2.3.3.3.3.2.<.<.3.3.3.3.3.3.3.3.3.3.3.3.3.3.3.3.3.3.1.1.1.1.3.3.1.3.1.1.3.3.3.3.3.3.3.3.3.3.3.3.1.1.1.1.3.3.3.3.3.3.3.3.3.3.3.3.3.3.3.3.3.3.3.3.1.1.1.1.1.3.1.1.1.1.3.3.3.1.3.3.3.3.3.3.3.3.3.3.3.3.3.3.3.3.3.3.3.3.3.3.3.3.3.3.3.3.3.3.3.3.3.3.3.3.3.3.3.3.3.3.3.3.3.3.3.3.3.3.3.3.3.3.3.3.3.3.3.3.3.3.3.3.3.3.3.3.3.3.3.3.3.3.3.3.3.3.3.3.3.3.3.3.3.3.3.3.3.3.3.3.3.3.3.3.3.3.3.3.3.3.3.3.3.3.3.3.3.3.3.3.s.s.1 1 # . # # > > F F D D D D #.#.{ ] +.} } +.] ] N m m m %.$.h h . . . . 3.                                          ",
"                                                    . . @ @ > > 1 1 Z Z J y @ = @ @ 3 > > > 2 > - - ; ; ; - @ @ > > > > > > > > h g y.y.y.y.B.B.B.B.B.V.F F # . @ - - @ @ @ > , k k < < & & & & > > > > @ @ @ @ > = > 3 1 1 d 1 @ @ @ @ o o                     @ @ @ @ @ @ #.#.0.0.#.;.#.%.:.:.$.{ { { { F F D o.#.h h @ & O * % 5 I T _.{..X|.3X3X2X2X2X2X<X X|.|.|.|.|.|.|.|.|.|.|. X X X X X X X X XXX|..X.X.X.X.X].|.+X+XOX|.|.|.|.|.].].].'.'.].].].].|.|. X X X X X X X X X X X X X X X X X X XXXXX|.|.|.].].].].[.].].].].].].].|. X<X9X3X4XXXXX|.].'.'.^.^.^.'.'.'.].|.|. X X<X<X2X1X1X1X1X1X1X1X1X1X1X1X1X1X1X1X1X1X1X1X<X<X1X1X1X1X2X<X<XXXXX|.].].'.'.'.^.'.'.'.].].+X|.XX XXX<X<X<X<X<X<X<X<X<X<X<X<X X X X XXXXXXXXXXX.X.X[.[.@X_.(.~  . .-.f.*.4.4.3.3.3.3.3.3.,.3.3.3.3.3.3.3.3.3.3.3.3.3.3.3.3.3.3.3.3.3.3.3.3.3.3.3.3.3.3.3.3.3.3.3.3.3.3.3.3.3.3.3.3.3.3.3.3.3.3.3.3.3.3.3.3.3.3.3.3.3.3.3.3.3.3.3.3.3.3.3.3.3.3.3.3.3.3.3.3.3.3.3.3.3.3.3.3.3.3.3.3.3.3.3.3.3.3.3.3.3.3.3.3.3.3.3.3.3.3.3.3.3.3.3.3.3.3.3.3.3.3.3.3.3.3.3.3.3.3.3.3.3.3.3.3.3.3.3.,.,.,.,.,.3.3.3.3.,.,.3.3.3.3.,.,.,.3.3.3.,.,.,.3.3.3.3.3.3.3.3.3.3.3.3.3.3.3.3.3.3.3.3.3.3.3.3.3.3.3.3.3.3.3.3.3.3.3.3.3.3.3.3.3.3.3.3.3.3.3.3.3.3.3.3.3.3.3.3.3.3.3.3.3.3.3.3.3.3.3.3.3.2.3.3.3.3.3.3.3.3.3.3.3.3.3.3.3.3.3.3.3.3.3.,.,.3.3.,.,.,.3.3.3.3.3.3.3.3.3.3.3.3.3.3.3.3.3.3.3.3.3.3.3.3.3.3.3.3.3.3.3.3.3.3.3.3.3.3.3.3.3.3.3.3.3.3.3.3.3.3.3.3.3.3.3.3.3.3.3.3.3.3.3.3.3.3.3.3.3.3.3.3.3.3.3.3.3.3.3.3.3.3.3.3.3.3.3.3.3.3.3.3.3.3.3.3.3.3.3.3.3.3.3.3.3.3.3.3.3.3.3.3.3.3.3.>.>.3.3.3.3.3.3.1.1.>.3.3.3.1.;.3.3.3.3.3.3.3.3.3.3.3.3.3.1.1.1.3.3.3.3.3.3.3.3.3.3.3.3.3.3.3.3.3.3.3.2.2.2.3.3.3.3.2.2.<.<.3.3.2.2.2.<.2.2.2.2.<.2.3.3.3.3.3.3.3.3.3.3.3.3.3.3.3.3.3.3.2.2.3.3.3.3.3.3.3.3.3.3.3.3.3.3.3.3.3.3.3.3.3.3.3.3.3.3.3.3.3.3.3.3.3.3.3.3.3.3.3.3.3.;.3.3.3.3.3.1.1.1.3.3.3.3.3.3.3.3.1.>.>.>.3.3.3.3.>.>.>.>.3.3.3.3.2.3.3.3.3.3.3.3.2.2.2.3.3.3.3.3.3.3.3.3.3.3.3.3.2.2.2.2.2.3.3.3.3.3.3.2.2.3.3.3.3.3.3.3.3.2.2.3.3.3.3.3.3.3.3.3.3.3.3.2.2.2.3.3.3.3.2.2.3.3.3.3.3.3.3.2.2.3.3.3.<.<.2.3.3.3.3.3.3.3.3.3.3.3.3.3.3.3.3.3.3.3.3.3.3.3.3.1.1.3.3.3.1.3.3.3.3.3.3.3.3.3.3.3.3.3.3.3.1.1.1.1.3.3.3.3.3.3.3.3.3.3.3.3.3.3.3.3.3.3.3.3.1.1.1.1.3.3.1.3.1.1.3.3.3.1.3.3.3.3.3.3.3.3.3.3.3.3.3.3.3.3.3.3.3.2.3.3.3.3.3.3.3.3.3.2.2.3.3.3.3.3.3.3.3.3.3.3.3.3.3.3.3.3.3.3.3.3.3.3.3.3.3.3.3.3.3.3.3.3.3.3.3.3.3.3.3.3.3.3.3.3.3.3.3.3.3.3.3.3.3.3.3.3.3.3.3.3.3.3.3.3.3.3.3.3.3.3.3.3.3.3.3.3.3.3.3.3.s.s.1 1 # . # # > ; F F D F F D $.$.] D } +.@.+.B B N N N m %.$.f h . . . . 3.                                          ",
"                                                    . . & @ > ; 1 g S #.1 < ; ; > & @ @ ; ; > & @ @ @ @ @ @ ; @ < 1 > > @ o O O S M M.x.v.v.J.J.G.G.G.G.O.S . . # @ # @ O O < < A ] u f * X & @ > > ; > O o @ # > > o o > > 1 1 @ > o o @ o                     @ @ @ @ @ @ ;.#.0.0.3.:.$.] %.%.$.$.$.$.] F D D F D i g @ & O * 4 5 U R _.@X[.|.XX<X2X<X2X2X XXX].].].].'.].'.'.].[.[..X.X|.|. X X X XXX|..X'.'.'.'.'.'.'.'.].[.|.].|.].].].'.'.^.'.^.'.'.'.|.|. X X X X X X X X X X X X X X X X X X XXX|.oX].].'.'.'.'.'.'.'.'.].].].].].|. X2X3X3XOXOX].[.^.^.^.^.^.^.'.'.].].|. X X<X<X<X<X<X1X1X1X1X1X1X1X1X1X1X1X1X1X1X1X1X<X<X<X2X1X1X1X1X<X<XXX#X].].'.^.^.~.~.~.^.'.'.[.+X.XXX XXX<X<X X X X X X X X<X X X X X|. XXXXXXX|.|.]..X[.@X$X_.(.(. . .-.-.*.4.:.,.3.3.3.3.3.3.3.3.3.3.3.3.3.3.3.3.3.3.3.3.3.3.3.3.3.3.3.3.3.3.3.3.3.3.3.3.3.3.3.3.3.3.3.3.3.3.3.3.3.3.3.3.3.3.3.3.3.3.3.3.3.3.3.3.3.3.3.3.3.3.3.3.3.3.3.3.3.3.3.3.3.3.3.3.3.3.3.3.3.3.3.3.3.3.3.3.3.3.3.3.3.3.3.3.3.3.3.3.3.3.3.3.3.3.3.3.3.3.3.3.3.3.3.3.3.3.3.3.3.3.3.3.3.3.3.3.3.3.3.3.3.3.3.3.3.3.3.3.3.3.3.3.3.3.3.3.3.3.3.3.3.3.3.3.3.3.3.3.3.3.3.3.3.3.3.3.3.3.3.3.3.3.3.3.3.3.3.3.3.3.2.3.3.3.3.3.3.3.3.3.3.3.3.3.3.3.3.3.3.3.3.3.3.3.3.3.3.3.3.3.3.3.3.3.3.3.3.3.3.3.3.3.3.3.3.3.3.3.2.3.3.3.3.3.3.3.3.3.3.3.3.3.3.3.3.3.3.3.3.2.2.3.3.3.3.3.3.3.3.3.3.3.3.3.3.3.3.3.3.3.3.3.3.3.3.3.3.3.3.3.3.3.3.3.3.3.3.3.3.3.3.3.3.3.3.3.3.3.3.3.3.3.3.3.3.3.3.3.3.3.3.3.3.3.3.3.3.3.3.3.3.3.3.3.3.3.3.3.3.3.3.3.3.3.3.3.3.3.3.3.3.3.3.3.3.3.3.3.3.3.3.3.3.3.3.3.3.3.3.3.3.3.3.3.3.3.3.3.3.3.3.3.3.3.1.3.3.3.3.3.3.3.3.3.3.3.3.3.3.3.3.3.3.3.3.;.3.3.3.3.1.1.1.>.3.3.3.3.3.3.3.3.2.2.2.2.2.3.3.3.3.3.3.3.3.3.3.3.3.3.3.3.3.3.3.3.3.3.3.3.3.3.3.3.3.3.3.3.2.2.3.3.3.3.3.3.3.3.3.3.3.3.3.3.3.3.3.3.3.3.3.3.3.3.3.3.3.3.3.3.3.3.3.3.;.>.1.1.3.3.1.1.3.3.3.3.3.3.3.3.3.3.3.3.3.3.3.3.1.3.3.3.1.;.<.1.3.3.3.3.3.3.3.3.3.3.3.3.3.3.3.3.,.,.,.,.3.3.,.,.,.,.,.,.,.,.3.3.3.3.2.2.;.3.3.3.3.1.,.,.,.,.3.3.,.,.,.,.,.,.,.,.3.3.3.2.3.3.3.3.2.2.2.>.>.2.2.2.3.3.3.2.3.3.3.3.3.3.3.2.2.3.3.3.3.3.3.3.3.3.3.3.3.3.3.3.3.3.1.1.3.3.3.3.3.3.3.3.3.3.3.3.3.3.3.3.3.3.3.3.3.3.3.3.3.3.3.3.3.3.3.3.3.3.3.3.3.3.3.3.3.3.3.,.,.,.,.,.3.3.3.3.3.3.3.,.3.3.3.3.3.3.3.3.,.,.,.,.,.,.,.,.,.,.,.,.,.,.,.,.3.,.,.,.,.,.,.3.,.,.,.3.3.3.3.3.3.3.3.3.3.3.3.3.3.3.3.3.3.3.3.3.3.3.3.3.3.3.3.3.,.,.,.,.,.,.,.,.3.3.3.3.3.3.,.,.;.,.3.3.3.3.3.3.,.,.,.,.,.,.;.;.3.3.3.3.3.3.3.3.3.3.3.3.3.3.3.3.3.3.3.3.3.3.3.3.3.3.3.,.3.,.3.3.3.3.3.3.3.3.3.3.3.3.3.3.3.3.s.s.J 1 o o o # @ ; F F N N D ] $.$.@.@.[ ] @.@.] ] N N ] N $.$.u h . . . . 3.                                          ",
"                                                    . . @ @ > ; y f D F < , @ ; @ @ @ & > > > > @ ; @ @ ; ; > ; 1 1 > > O O O @ S D M.v.v.p.J.J.G.J.V.G.S O.. o @ @ # @ @ & < > ] ] f u X X * X ; ; > > O o @ O ; = . . > , 1 1 @ > o o o .                     @ @ O @ @ @ #.#.y.0.3.%.$.+.:.%.$.$.+.$.] { D S F D g h @ & X $ 4 5 U R _.@X{.|.XX<X2X<X2X3X XXX].].].'.'.'.'.'.'.'.[..X.X.X X|. X X X|.].[.'.'.^.^.^.^.'.'.'.'.[.]..X].].].'.^.^.^.^.'.'.'..X|.|.|. X X X X X X X X X X X X X X X X XXX|.oX'.'.^.'.'.'.'.'.'.'.'.].].].|.|.|. X3XXXXXXX].[.^.^.^.^.^.^.^.'.].].|.|. X X<X<X<X<X1X1X1X1X1X1X1X1X1X1X1X1X1X1X1X2X2X3X4X4X1X1X1X<X<X<XXX#X'.'.^.^.~.~.~.~.^.^.'.]..X+XXXXX X X<X X X X X X X X X X X X X XXXXXXXXX.X.X].oX{.%X@X_.(.(. . .-.-.*.4.:.,.,.3.3.3.3.3.3.3.3.3.3.3.3.3.3.3.3.3.3.3.3.3.3.3.3.3.3.3.3.3.3.3.3.3.3.3.3.3.3.3.3.3.3.3.3.3.3.3.3.3.3.3.3.3.3.3.3.3.3.3.3.3.3.3.3.3.3.3.3.3.3.3.3.3.3.3.3.3.3.3.3.3.3.3.3.3.3.3.3.3.3.3.3.3.3.3.3.3.3.3.3.3.3.3.3.3.3.3.3.3.3.3.3.3.3.3.3.3.3.3.3.3.3.3.3.3.3.3.3.3.3.3.3.3.3.3.3.3.3.3.3.3.3.3.3.3.3.3.3.3.3.3.3.3.3.3.3.3.3.3.3.3.3.3.3.3.3.3.3.3.3.3.3.3.3.3.3.3.3.3.3.3.3.3.3.3.3.3.3.3.3.3.3.3.3.3.3.3.3.3.3.3.3.3.3.3.3.3.3.3.3.3.3.3.3.3.3.3.3.3.3.3.3.3.3.3.3.3.3.3.3.3.3.3.3.3.3.3.3.3.3.3.3.3.3.3.3.3.3.3.3.3.3.3.3.3.3.3.3.3.3.3.3.3.3.3.3.3.3.3.3.3.3.3.3.3.3.3.3.3.3.3.3.3.3.3.3.3.3.3.3.3.3.3.3.3.3.3.3.3.3.3.3.3.3.3.3.3.3.3.3.3.3.3.3.3.3.3.3.3.3.3.,.3.3.3.3.3.3.3.3.3.3.3.3.3.3.3.3.3.3.3.3.3.3.3.3.3.3.3.3.3.3.3.3.3.3.3.3.3.3.3.3.3.3.3.3.3.3.3.3.3.3.3.3.3.3.3.3.3.3.3.3.3.3.3.3.3.3.3.3.3.1.1.3.3.3.1.3.3.3.3.3.3.3.3.1.3.3.3.1.1.1.>.3.3.3.3.3.3.3.3.2.2.2.2.2.3.3.3.3.3.3.3.3.3.3.3.1.3.3.3.3.3.3.3.3.3.3.3.3.3.3.3.3.3.3.3.2.2.3.3.3.3.3.3.3.3.3.3.3.3.3.3.3.3.3.3.3.3.3.3.3.3.3.3.3.3.3.3.3.3.3.3.1.1.3.3.3.3.3.3.3.3.3.3.3.3.3.3.3.3.3.3.3.3.3.3.3.3.3.3.3.3.3.3.3.3.3.3.3.3.3.3.3.3.3.3.3.3.3.,.,.,.,.,.,.,.,.3.,.,.,.,.,.,.3.3.3.3.3.2.3.3.3.3.1.1.,.,.,.,.,.,.,.,.,.,.>.,.,.,.3.3.2.2.3.3.3.3.2.2.2.2.2.2.2.3.3.3.3.2.3.3.3.3.3.3.3.3.3.3.3.3.3.3.3.3.3.3.3.3.3.3.3.3.3.3.3.3.3.3.3.3.3.3.3.3.3.3.3.3.3.3.3.3.3.3.3.3.3.3.3.3.3.3.3.>.1.3.3.3.3.3.3.3.3.3.3.3.,.3.,.3.3.3.3.3.3.3.3.3.3.3.3.,.3.,.,.,.3.3.3.,.,.,.,.,.,.,.,.,.,.,.,.,.,.,.,.,.,.,.,.,.,.,.,.,.,.,.3.3.3.3.3.3.3.3.3.3.3.3.3.,.3.3.3.3.3.3.3.3.3.3.3.3.3.3.3.3.;.,.,.,.,.,.,.,.,.,.3.3.3.3.,.,.;.,.,.3.,.,.,.,.,.,.,.;.;.;.,.,.3.3.3.2.3.3.3.3.3.3.3.2.3.3.3.3.3.3.3.3.3.3.3.3.3.3.3.3.,.3.3.3.3.3.3.3.3.3.3.3.3.3.3.3.3.3.s.s.J 1 o # o # @ @ F F N N D ] @.@.[ [ ] ] [ [ ] ] N N ] B $.@.u y . . . . 3.                                          ",
"                                                    . . @ @ > > y q M S y y , ; q y ; ; ; ; ; > @ @ @ @ ; ; ; @ ; > , < @ - . . g h a.v.s.0.v.x.x.x.V.M.>.o.= + , , > @ . X O & v v u u X X > ; > > > < @ O ; = k k g k k k < > > > . . o .                     @ @ O @ @ @ #.#.0.9.$.$.] ] $.@.$.@.@.@.] ] D S M S y h @ & * % 4 5 U R _.@X[.[.XXXX4X<X2X3X X+X].].'.'.'.'.'.'.'.'.[..X.X+X|.|. X X|..X].[.'.'.^.^.^.^.^.^.'.'.[.].+X].].'.^.^.^.^.^.^.'.'.].|.|.|.|.|. X X XXX X X X X X X X X X X XXX|..X'.'.^.^.^.^.'.'.'.'.].].].|.|.|.|.|. X XXXXX].[.^.^.^.^.^.^.'.'.].].|.|. X X<X<X<X<X<X<X<X<X<X<X<X<X4X2X2X2X<X<X2X2X2X2X<X<X<X<X<X<X<X<XXXXX'.'.^.^.~.~.~.~.~.^.'.'..X+XXXXX X X X<X X X X X X X X X X X X X+XXX|.|.|.|.].{.}.@X`.`.(.(  . ...-.*.4.:.,.3.3.3.3.3.3.3.3.3.3.3.3.3.3.3.3.3.3.3.3.3.3.3.3.3.3.3.3.3.3.3.3.3.3.3.3.3.3.3.3.3.3.3.3.3.3.3.3.3.3.3.3.3.3.3.3.3.3.3.3.3.3.3.3.3.3.3.3.3.3.3.3.3.3.3.3.3.3.3.3.3.3.3.3.3.3.3.3.3.3.3.3.3.3.3.3.3.3.3.3.3.3.3.3.3.3.3.3.3.3.3.3.3.3.3.3.3.3.3.3.3.3.3.3.3.3.3.3.3.3.3.3.3.3.3.3.3.3.3.3.3.3.3.3.3.3.3.3.3.3.3.3.3.3.3.3.3.3.3.3.3.3.3.3.3.3.3.3.3.3.3.3.3.3.3.3.3.3.3.3.3.3.3.3.3.3.3.3.3.3.3.3.3.3.3.3.3.3.3.3.3.3.3.3.3.3.3.3.3.3.3.3.3.3.3.3.3.3.3.3.3.3.3.3.3.3.3.3.3.3.3.3.3.3.3.3.3.3.3.3.3.3.3.3.3.3.3.3.3.3.3.3.3.3.3.3.3.3.3.3.3.3.3.3.3.3.3.3.3.3.3.3.3.3.3.3.3.3.3.3.3.3.3.3.3.3.3.3.3.3.3.3.3.3.3.3.3.3.3.3.3.3.3.3.3.3.3.3.3.3.3.3.3.3.3.3.3.3.3.3.3.3.,.3.3.3.3.3.3.3.3.3.3.3.3.3.3.3.3.3.3.3.3.3.3.3.3.3.3.3.3.3.3.3.3.3.3.3.3.3.3.3.3.3.3.3.3.3.3.3.3.3.3.3.3.3.3.3.3.3.3.3.3.3.3.3.3.3.3.3.3.3.3.3.3.3.3.3.3.3.3.3.3.3.3.3.3.3.3.3.3.3.3.3.3.3.3.2.2.3.3.3.3.2.2.2.2.3.3.3.3.3.3.3.3.3.3.3.1.3.3.3.3.3.3.3.3.3.3.3.3.3.3.3.3.3.3.3.2.2.3.3.3.3.3.3.3.3.3.3.3.3.3.3.3.3.3.3.3.3.3.3.3.3.3.3.>.1.1.3.1.1.3.3.1.3.3.3.3.3.3.3.3.3.3.3.3.3.3.3.3.3.3.3.3.3.3.3.3.3.3.3.3.3.3.3.,.,.,.,.,.,.,.,.,.,.,.,.,.,.,.,.,.;.;.:.,.,.,.3.,.,.,.,.,.,.3.3.3.3.3.3.3.3.3.3.3.3.,.,.,.,.,.,.,.,.,.,.>.,.,.,.3.3.2.2.3.3.3.3.2.2.2.2.3.3.3.3.3.3.3.3.3.3.3.3.3.3.3.3.3.3.3.3.2.2.3.3.3.3.3.3.3.3.3.3.3.3.3.3.3.3.3.3.3.3.3.3.3.3.3.3.3.3.3.3.3.3.3.3.3.3.1.1.3.3.3.1.1.3.3.3.3.3.3.3.3.3.3.3.,.,.3.3.3.3.3.3.3.3.3.3.3.3.,.,.,.,.,.,.,.,.,.,.,.,.,.,.,.,.,.,.,.,.,.,.,.,.,.,.,.,.,.,.,.,.,.,.,.,.,.,.,.,.,.,.,.3.,.,.,.,.,.,.3.3.3.3.3.3.3.3.3.3.3.3.3.3.3.3.;.,.,.,.,.,.,.,.,.,.,.3.3.,.,.,.;.,.,.,.,.,.,.,.3.,.,.;.;.;.,.,.,.,.>.>.,.,.,.,.,.,.>.>.>.,.,.,.3.3.3.3.3.3.3.3.3.3.3.3.3.3.3.3.3.3.3.3.3.3.3.3.3.3.3.3.3.3.s.s.1 1 # # o @ @ @ F F N N D D +.} [ [ } [ [ ` N ` N N D A $.$.f h . . . . 3.                                          ",
"                                                    . . @ @ > 2 f y D M y y ; @ ; 0 @ , ; ; ; ; ; ; > > > > @ @ < > 1 < o @ . @ k k p.a.i.s.a.a.a.x.M.V.>.>.= = , r @ = . . O & A N l f X X & & ; > > > @ O > > k k k j g k > > > > . . o .                     @ @ O @ @ O #.#.0.0.%.%.] ] @.@.&.$.@.&.` ] B B V S y h & & * % 4 5 U R _.@X[.].XXXX4X<X2X3X|..X'.'.'.'.'.'.'.'.'.'.[.[.|.+X|.|.|.|.|.+X].[.^.^.^.^.^.~.^.^.^.^.'.].+X[.'.'.^.^.^.^.^.^.'.'.].|.|.|.|.|.|.|.|.|. X X X X X X X X X X|.XX|..X'.'.^.^.^.^.^.'.'.'.].].|.|.|.|.|.|. X|.|.XX].[.^.^.^.^.^.^.'.'.].].|.|.XX XXX<X<X4X<X<X<X<X<X<X<X<X4X4X<X<X<X<X<X<X<X<X<X<X<X<X<X<X<XXX|.oX'.'.^.^.~.~.~.~.~.^.'.'.]..XXXXX X X X X X X X X X X X X X XXXXX+X|.|.|.oX{.[.@X}.@X`.`.~ (  . ...-.*.4.,.,.3.3.3.3.3.3.3.3.3.3.3.3.3.3.3.3.3.3.3.3.3.3.3.3.3.3.3.3.3.3.3.3.3.3.3.3.3.3.3.3.3.3.3.3.3.3.3.3.3.3.3.3.3.3.3.3.3.3.3.3.3.3.3.3.3.3.3.3.3.3.3.3.3.3.3.3.3.3.3.3.3.3.3.3.3.3.3.3.3.3.3.3.3.3.3.3.3.3.3.3.3.3.3.3.3.3.3.3.3.3.3.3.3.3.3.3.3.3.3.3.3.3.3.3.3.3.3.3.3.3.3.3.3.3.3.3.3.3.3.3.3.3.3.3.3.3.3.3.3.3.3.3.3.3.3.3.3.3.3.3.3.3.3.3.3.3.3.3.3.3.3.3.3.3.3.3.3.3.3.3.3.3.3.3.3.3.3.3.3.3.3.3.3.3.3.3.3.3.3.3.3.3.3.3.3.3.3.3.3.3.3.3.3.3.3.3.3.3.3.3.3.3.3.3.3.3.3.3.3.3.3.3.3.3.3.3.3.3.3.3.3.3.3.3.3.3.3.3.3.3.3.3.3.3.3.3.3.3.3.3.3.3.3.3.3.3.3.3.3.3.3.3.3.3.3.3.3.3.3.3.3.3.3.3.3.3.3.3.3.3.3.3.3.3.3.3.3.3.3.3.3.3.3.3.3.3.3.3.3.3.3.3.3.3.3.3.3.3.3.3.3.3.,.,.3.3.3.3.3.3.3.3.3.3.3.3.3.3.3.3.3.3.3.3.3.3.3.3.3.3.3.3.3.3.3.3.3.3.3.3.3.3.3.3.3.3.3.3.3.3.3.3.3.3.3.3.3.3.3.3.3.3.3.3.3.3.3.3.3.3.3.3.3.3.3.3.3.3.3.3.3.3.3.3.3.3.3.3.3.3.3.3.3.3.3.3.3.2.2.3.3.3.3.3.2.3.3.2.2.2.3.3.3.3.3.3.3.3.1.1.3.3.3.3.3.3.3.3.3.3.3.3.3.3.3.3.3.3.2.2.3.3.3.3.3.3.3.3.3.3.3.3.3.3.3.3.3.3.3.3.3.3.3.3.3.3.;.1.1.1.1.1.1.1.1.3.3.3.3.3.3.3.3.3.3.3.3.3.3.3.3.3.3.3.3.3.3.3.3.3.3.3.3.3.3.3.,.,.,.,.,.,.,.,.,.,.,.,.,.,.,.,.,.:.:.;.:.,.3.3.3.3.3.,.,.,.3.3.3.3.3.3.3.3.3.3.3.3.,.,.,.,.,.,.,.,.,.,.,.,.,.,.3.3.3.3.3.3.3.3.2.2.2.2.3.3.2.2.3.3.3.3.3.3.3.3.3.3.3.3.3.3.3.3.3.3.3.3.3.3.3.3.3.3.3.3.3.3.3.3.3.3.3.3.3.3.3.3.3.3.3.3.3.3.3.3.3.3.3.3.3.3.3.3.3.3.1.3.1.1.3.3.3.3.3.3.3.3.3.3.,.,.,.3.3.3.3.,.,.,.,.,.,.,.,.,.>.>.,.,.,.,.,.,.,.,.,.,.,.,.,.,.,.,.,.,.,.,.,.,.,.,.,.,.,.,.,.,.,.,.,.,.,.,.,.,.,.,.,.,.,.,.,.,.3.3.3.3.3.3.3.3.3.3.3.3.3.3.3.3.;.,.,.,.,.,.,.,.,.,.,.,.3.,.,.,.,.,.,.,.,.,.,.,.,.,.,.,.,.,.,.,.,.,.,.>.,.,.,.,.,.,.,.,.,.,.3.3.3.3.3.3.3.3.3.3.3.3.3.3.3.3.3.3.3.3.3.3.3.3.3.3.3.3.3.3.3.3.s.s.1 1 # # # @ @ @ F F N N A A ] ] ` [ [ ] ` N N N N N D D $.%.f k . . . . ;.                                          ",
"                                                    # . @ @ > < 1 y p.v.p.v.n.H.J.V.V y ; ; ; , , , y y 1 1 ; ; ; , S S g h , < { F V.B.v.x.;.#.y < S b i.p.x.V.t.3.= = . O , ; M c l l 0 0 u u & ; ; ; o o > , a.x.B.B.3.F > @ > > . . o o                     @ @ @ @ O O #.#.q.q.4.*.] [ [ ` @.&.&.&.` [ ` B F F h h * & X $ 4 5 U R _.@X[.].XX X2X2X2X3X|.[.'.'.'.^.^.^.^.^.'.'.'.[.|.|.|.|.|.|.+X.X'.'.^.^.~.~.~.~.~.^.^.^.'.'.[.[.'.'.^.^.^.^.~.^.^.'.].|.|.|.|.|.|.|.|.|.XXXX X X X X X X X X X+X|.{.'.^.^.^.^.^.^.^.^.'.[..X.X.X|.|.|.|.|.|.|.+X].[.^.^.^.^.^.^.'.'.[.]..X|.|. XXXXXXX3X3X2X2X2X2X2X2X2X2X2X2X2X<X<X<X<X3X3X2X4X<X<X<X<X XXX.XoX'.'.^.~.~.Q.~.~.~.^.'.'.[..X|. X X X X X X X X X X X X X X X X X|.|.|.|.].].'.^.~.~.W.W.! )  . ...f.&.4.,.,.3.3.3.3.3.3.3.3.3.3.3.3.3.3.3.3.3.3.3.3.3.3.3.3.3.3.3.3.3.3.3.3.3.3.3.3.3.3.3.3.3.3.3.3.3.3.3.3.3.3.3.3.3.3.3.3.3.3.3.3.3.3.3.3.3.3.3.3.3.3.3.3.3.3.3.3.3.3.3.3.3.3.3.3.3.3.3.3.3.3.3.3.3.3.3.3.3.3.3.3.3.3.3.3.3.3.3.3.3.3.3.3.3.3.3.3.3.3.3.3.3.3.3.3.3.3.3.3.3.3.3.3.3.3.3.3.3.3.3.3.3.3.3.3.3.3.3.3.3.3.3.3.3.3.3.3.3.3.3.3.3.3.3.3.3.3.3.3.3.3.3.3.3.3.3.3.3.3.3.3.3.3.3.3.3.3.3.3.3.3.3.3.3.3.3.3.3.3.3.3.3.3.3.3.3.3.3.3.3.3.3.3.3.3.3.3.3.3.3.3.3.3.3.3.3.3.3.3.3.3.3.3.3.3.3.3.3.3.3.3.3.3.3.3.3.3.3.3.3.3.3.3.3.3.3.3.3.3.3.3.3.3.3.3.3.3.3.3.3.3.3.3.3.3.3.3.3.3.3.3.3.3.3.3.3.3.3.3.3.3.3.3.3.3.3.3.3.3.3.3.3.3.,.3.,.,.3.3.3.3.,.3.3.3.3.3.3.3.,.,.,.,.3.,.3.3.3.3.3.3.3.3.3.3.3.3.3.3.3.3.3.3.3.3.3.3.3.3.3.3.3.3.3.3.3.3.3.3.3.3.3.3.3.3.3.3.3.3.3.3.3.3.3.3.3.3.3.3.3.3.3.3.3.3.3.3.3.3.3.3.1.1.3.3.3.3.3.3.3.3.3.3.3.3.3.3.3.3.3.3.3.3.3.3.3.3.3.2.2.3.3.3.3.3.3.3.3.3.2.2.3.,.,.,.,.,.,.,.>.,.,.,.,.,.3.3.3.3.3.3.3.3.3.;.3.3.3.3.3.3.3.3.3.3.3.3.3.3.3.3.3.3.3.3.3.3.3.3.3.3.3.3.3.3.3.3.;.;.3.3.1.1.1.1.3.3.3.3.3.3.3.3.3.3.3.3.3.3.3.3.3.3.3.3.3.3.3.3.>.>.>.1.3.3.3.3.,.,.,.,.,.,.,.,.;.,.,.,.,.3.3.3.,.,.,.:.,.,.,.3.3.3.3.,.,.,.3.3.3.1.1.3.3.3.3.3.3.3.,.,.,.,.,.,.,.,.,.,.,.,.,.,.3.3.2.3.3.3.3.2.3.3.3.3.2.3.3.3.3.3.3.3.3.3.3.3.3.3.3.3.3.3.3.3.3.3.3.3.3.3.3.3.3.3.3.3.3.3.3.3.3.3.3.3.3.1.1.1.3.3.3.3.3.3.3.3.3.3.3.3.3.3.3.3.3.3.3.3.3.3.3.3.>.1.3.3.3.3.3.1.;.,.,.,.,.,.,.,.,.,.,.,.,.,.,.,.,.,.,.,.,.,.,.,.,.,.,.,.,.,.,.,.,.,.,.,.,.,.,.,.,.,.,.,.,.,.,.,.,.,.,.,.,.,.,.,.,.,.,.,.,.,.,.,.3.3.3.3.3.3.3.3.3.3.3.3.3.3.3.3.;.,.,.,.,.,.,.,.3.3.3.3.3.,.,.,.,.,.,.,.,.,.,.3.,.,.,.3.3.,.,.,.,.,.,.,.,.,.,.,.3.,.,.,.,.3.3.3.,.,.3.3.3.3.3.3.3.3.3.3.3.3.3.3.3.3.3.3.3.3.3.3.3.3.3.3.3.3.s.s.2 2 . # o @ @ @ F F N S N N D B N N N N ] ] A D } { { { #.:.y g . . . . ;.                                          ",
"                                                    # . & & > , 1 y v.p.v.p.n.n.H.V.u i ; : ; ; , < g y y 1 - - < , F S g g > , F F v.v.v.B.#.#.r r S D c.c.R.M.t.3.@ @ . # ; & N V z l u w w u & @ & & . # , < M.B.G.C.;.F > > > > . . o .                     @ @ @ @ O O #.#.w.w.4.5.] ` ' ' @.&.&.&.' ` ` ] { +.h h & & * $ 4 5 P R _.@X{.[..XXX3X<X2XOX|.[.'.'.'.^.^.^.^.^.^.'.'.[.[.|.|.|.|.|..X.X'.'.^.^.~.~.~.~.~.~.^.^.'.'.[.'.'.'.^.^.~.^.~.^.^.'.[.].|.|.|.|.|.|.|.|.XX X|.|.|.|. X X X|.|.+X].{.'.^.^.^.^.^.^.^.^.'.{.[..X.X].|.|.|.|.|.|.XX].[.'.'.^.^.^.^.'.'.[.{..X.X|.|.|.|.XXXX X X X XXXXXXXXXXXXXXX X X X X X XXX2X2X2X<X<X<X X|.+X.X'.'.^.~.Q.Q.~.~.~.^.^.'.[..X+X|.|. X X X X X X X X X X X X X|.|.|.|.|.|.[.[.^.^.~.Q.W.Q R E X. ...f.7.4.,.,.3.3.3.3.3.3.3.3.3.3.3.3.3.3.3.3.3.3.3.3.3.3.3.3.3.3.3.3.3.3.3.3.3.3.3.3.3.3.3.3.3.3.3.3.3.3.3.3.3.3.3.3.3.3.3.3.3.3.3.3.3.3.3.3.3.3.3.3.3.3.3.3.3.3.3.3.3.3.3.3.3.3.3.3.3.3.3.3.3.3.3.3.3.3.3.3.3.3.3.3.3.3.3.3.3.3.3.3.3.3.3.3.3.3.3.3.3.3.3.3.3.3.3.3.3.3.3.3.3.3.3.3.3.3.3.3.3.3.3.3.3.3.3.3.3.3.3.3.3.3.3.3.3.3.3.3.3.3.3.3.3.3.3.3.3.3.3.3.3.3.3.3.3.3.3.3.3.3.3.3.3.3.3.3.3.3.3.3.3.3.3.3.3.3.3.3.3.3.3.3.3.3.3.3.3.3.3.3.3.3.3.3.3.3.3.3.3.3.3.3.3.3.3.3.3.3.3.3.3.3.3.3.3.3.3.3.3.3.3.3.3.3.3.3.3.3.3.3.3.3.3.3.3.3.3.3.3.3.3.3.3.3.3.3.3.3.3.3.3.3.3.3.3.3.3.3.3.3.3.3.3.3.3.3.2.2.3.3.3.3.3.3.3.3.3.3.3.3.3.3.3.3.,.,.,.,.3.3.3.3.,.,.3.3.,.,.3.3.,.,.,.,.3.,.3.3.3.3.3.3.3.3.3.3.3.3.3.3.3.3.3.3.3.3.3.3.3.3.3.3.3.3.3.3.3.3.3.3.3.3.3.3.3.3.3.3.3.3.3.3.3.3.3.3.3.3.3.3.3.3.3.3.3.3.3.3.3.3.3.3.1.1.3.3.3.3.3.3.3.3.3.3.3.3.3.3.3.3.3.3.3.3.3.3.3.3.3.3.3.3.3.3.3.3.3.3.3.3.2.2.3.,.,.,.,.,.,.,.>.,.3.3.,.,.3.3.3.3.3.3.3.3.3.;.3.3.3.3.3.2.3.3.3.3.3.3.3.3.3.3.3.3.3.3.3.3.3.3.3.3.3.3.3.3.3.3.3.3.3.3.1.1.1.1.;.1.3.3.3.3.3.3.3.3.3.3.3.3.3.3.3.3.3.3.3.3.3.3.>.>.1.1.3.3.3.,.,.,.,.,.,.,.,.,.,.,.,.,.,.3.3.3.,.,.,.,.,.,.,.,.,.,.,.,.,.,.3.3.1.3.3.3.3.3.3.3.3.3.,.,.,.,.,.,.,.,.,.,.,.,.,.,.3.3.2.2.3.3.3.3.2.2.3.3.3.3.2.2.3.3.3.3.3.3.3.3.3.3.3.3.3.3.3.3.3.3.3.3.3.3.3.3.3.3.3.3.3.3.3.3.3.3.3.3.3.3.3.3.3.3.3.3.3.3.3.3.3.3.3.3.3.3.3.3.3.1.3.3.3.3.3.3.1.1.;.3.3.3.3.1.;.;.,.,.,.,.,.,.,.,.,.,.,.,.,.,.,.,.,.,.,.3.,.,.,.,.,.,.,.,.,.,.,.,.,.,.,.,.,.,.,.,.,.,.,.,.,.,.,.,.,.,.,.,.,.,.,.,.,.,.,.,.,.,.3.3.3.3.3.3.3.3.3.3.3.3.3.3.3.3.,.,.3.3.,.,.,.3.3.3.3.3.,.,.,.,.,.3.3.,.,.,.3.3.,.,.,.3.3.,.,.;.,.,.,.,.,.,.,.,.,.,.,.,.,.,.3.3.,.,.3.3.3.3.3.3.3.3.3.3.3.3.3.3.3.3.3.3.3.3.3.3.3.3.3.3.3.3.s.s.2 2 . o o @ @ @ F F N S N N B N N N V N ] { D D $.$.$.$.#.:.u g . . . . ;.                                          ",
"                                                    . . ; & > > y y n.n.J.H.DXDXFXDXn i : O : : ; ; g y 1 , O O < < s.a.a.a.,.;.,.;.o.D D F y k . . ; @ 0.0.SXSXa.M.o.;.j g O X < 0 0 0 u u w w & & & ; O O < < i.a.C.G.;.o.@ @ > > . . o .                     @ @ O @ O O #.#.n.n.q.g.[ [ [ [ =.=.=.=.' ' ` ` ] ] h h & ; * % 4 5 P T _.@X@X[..X|.XXXXXXXX|.[.'.^.^.^.^.^.^.^.^.'.'.[.].+X|.].|.|.+X{.'.}.~.^.~.~.~.~.~.~.~.^.'.'.}.}.'.'.^.^.~.~.~.^.^.'.[.[.|.|.|.|.|.|.|.|.|.|.|.|.|.|.|.|.|.+X+X+X[.{.'.^.^.~.~.~.^.^.^.'.{.[.[.[.[.[.|.|.|.|..XXX[.[.^.'.^.^.^.^.'.'.[.oXoX.X].].].|.|..X|.|.|.|.|.|.|.|.|.|.|.|.|.|.|.|. X X X X X X X X|..X|.{.'.^.^.~.Q.Q.Q.~.~.~.^.'.[.[..X.X|. X X XXXXX X|.|.|.|.|.|.|.|.|.|.|.|.].'.'.^.~.Q.W.W ! T E  . .f.f.7.4.,.,.3.3.3.3.3.3.3.3.3.3.3.3.3.3.3.3.3.3.3.3.3.3.3.3.3.3.3.3.3.3.3.3.3.3.3.3.3.3.3.3.3.3.3.3.3.3.3.3.3.3.3.3.3.3.3.3.3.3.3.3.3.3.3.3.3.3.3.3.3.3.3.3.3.3.3.3.3.3.3.3.3.3.3.3.3.3.3.3.3.3.3.3.3.3.3.3.3.3.3.3.3.3.3.3.3.3.3.3.3.3.3.3.3.3.3.3.3.3.3.3.3.3.3.3.3.3.3.3.3.3.3.3.3.3.3.3.3.3.3.3.3.3.3.3.3.3.3.3.3.3.3.3.3.3.3.3.3.3.3.3.3.3.3.3.3.3.3.3.3.3.3.3.3.3.3.3.3.3.3.3.3.3.3.3.3.3.3.3.3.3.3.3.3.3.3.3.3.3.3.3.3.3.3.3.3.3.3.3.3.3.3.3.3.3.3.3.3.3.3.3.3.3.3.3.3.3.3.3.3.3.3.3.3.3.3.3.3.3.2.3.3.3.3.3.3.3.3.3.3.3.3.3.3.3.3.3.3.3.3.3.3.3.3.3.3.3.3.3.3.3.3.3.3.3.3.3.3.3.3.3.3.3.3.3.3.3.3.3.3.3.3.3.3.3.3.3.3.3.3.3.3.3.,.,.,.,.,.,.,.,.,.,.,.,.,.,.,.,.,.,.3.3.3.3.3.3.3.3.3.3.3.3.3.3.3.3.3.3.3.3.3.3.3.3.3.3.3.3.3.3.3.3.3.3.3.3.3.3.3.3.3.3.3.3.3.3.3.3.3.3.,.,.,.3.,.,.3.3.3.3.3.,.,.,.,.,.,.,.,.,.,.,.>.,.,.3.3.3.3.3.3.3.3.3.3.3.3.3.3.3.3.3.3.3.3.3.3.3.3.3.3.3.3.3.3.3.3.3.3.3.3.,.,.,.,.,.,.,.,.3.3.3.,.,.3.3.3.3.3.3.3.3.3.3.3.3.3.3.3.2.3.3.3.3.3.3.3.3.3.3.3.3.3.3.3.3.3.3.3.3.3.3.3.3.3.3.3.3.3.3.1.1.1.1.>.>.>.,.,.,.,.,.,.,.,.,.,.,.,.,.,.,.,.,.,.,.,.,.,.>.>.>.,.,.,.,.,.,.,.,.,.,.,.,.,.,.,.,.,.,.,.,.,.,.,.,.,.,.,.,.,.,.,.,.,.,.3.3.3.3.3.3.,.,.,.,.,.,.,.,.,.,.,.,.,.,.,.,.,.,.,.,.3.3.3.3.3.3.3.3.2.3.3.3.3.3.3.2.3.3.3.3.3.3.3.3.3.3.3.3.3.3.3.3.3.3.3.3.3.3.3.3.3.3.3.3.3.3.3.3.3.3.3.3.3.3.3.3.3.3.3.3.3.3.3.3.3.3.3.3.1.1.3.1.,.>.>.>.,.,.,.,.,.>.;.>.,.,.,.>.,.,.,.,.,.,.,.,.,.,.,.,.,.,.,.,.,.,.,.,.,.,.,.,.,.,.,.,.,.,.,.,.,.,.,.,.,.,.,.,.,.,.,.,.,.,.,.,.,.,.,.,.,.,.,.,.,.,.,.,.3.3.3.3.,.,.,.,.,.,.,.,.3.,.,.,.,.,.3.3.,.,.3.3.3.,.3.3.,.,.,.,.,.,.,.3.,.,.,.,.,.,.,.3.;.,.,.,.,.,.,.;.,.,.,.,.,.,.,.,.,.,.>.,.,.,.,.,.,.,.>.,.,.,.3.3.3.3.3.3.3.3.3.3.3.3.3.3.3.3.3.3.3.3.3.3.3.3.s.s.1 2 . . . o @ @ D F N D D N D N N V V V S F S S :.#.#.#.;.,.y y . . . . ;.                                          ",
"                                                    . . ; & > ; < < n.n.H.H.SXDXDXDXa i O O - : ; ; h y 1 , o @ < , s.p.x.a.;.o.,.3.S S D D g g . . @ > 8.y.SXSXx.x.E.E.j b . . < 0 0 0 l l w w & @ @ ; O O , < v.v.G.C.F o.@ @ > > . . o .                     @ @ o O # o ;.%.n.b.g.h.[ [ ' [ *.=.[ [ ' ' ` ` ] ] h h & ; * $ 4 7 P T _.`.@X[..X.XXXXXXX#X].[.'.^.^.^.^.^.^.^.^.^.'.}.{.+X+X.X|..XoX{.'.}.~.~.~.Q.~.~.~.~.~.~./.'.}.'.'.'.^.^.~.~.~.~.^.^.}.[.].|.|.|.|.|.|.|.|.|.|..X.X.X.X.X+X|..XoX[.{.^.^.~.~.~.~.^.^.^.'.{.[.[.[.[.[..X|.|.|..X.X[.[.^.^.^.^.^.^.^.'.[.oX{.{.[.'.'.].[..X|.|.|.|.|.|.|.|.|.|.|.|.|.|.|.|.+X+X XXX X X X X|..X[.{.^.^.~.~.Q.Q.~.~.~.~.^.^.{.{.+X.X+X+X|.|.XX|.|.|.|.|.|.|.|.|.|.|.|.|..X[.'.^.~.~.W.W.W ! T P  . .f.f.7.4.,.,.,.,.3.3.3.3.3.3.3.3.3.3.3.3.3.3.3.3.3.3.3.3.3.3.3.3.3.3.3.3.3.3.3.3.3.3.3.3.3.3.3.3.3.3.3.3.3.3.3.3.3.3.3.3.3.3.3.3.3.3.3.3.3.3.3.3.3.3.3.3.3.3.3.3.3.3.3.3.3.3.3.3.3.3.3.3.3.3.3.3.3.3.3.3.3.3.3.3.3.3.3.3.3.3.3.3.3.3.3.3.3.3.3.3.3.3.3.3.3.3.3.3.3.3.3.3.3.3.3.3.3.3.3.3.3.3.3.3.3.3.3.3.3.3.3.3.3.3.3.3.3.3.3.3.3.3.3.3.3.3.3.3.3.3.3.3.3.3.3.3.3.3.3.3.3.3.3.3.3.3.3.3.3.3.3.3.3.3.3.3.3.3.3.3.3.3.3.3.3.3.3.3.3.3.3.3.3.3.3.3.3.3.3.3.3.3.3.3.3.3.3.3.3.3.3.3.3.3.3.3.3.3.3.3.3.3.3.3.2.3.3.3.3.3.3.3.3.3.3.3.3.3.3.3.3.3.3.3.3.3.3.3.3.3.3.3.3.3.3.3.3.3.3.3.3.3.3.3.3.3.3.3.3.3.3.3.3.3.3.3.3.3.3.3.3.3.3.3.3.3.3.3.,.,.,.,.,.,.,.,.:.,.,.,.,.,.,.,.3.3.3.3.3.3.3.3.3.3.3.3.3.3.3.3.3.3.3.3.3.3.3.3.3.3.3.3.3.3.3.3.3.3.3.3.3.3.3.3.3.3.3.3.3.3.3.3.3.3.3.3.,.,.3.3.,.,.3.3.3.3.,.,.,.,.3.,.,.,.,.,.3.,.>.,.,.,.,.,.3.3.3.3.3.3.3.3.3.3.3.3.3.3.3.3.3.3.3.3.3.3.3.3.3.3.3.3.3.3.3.3.3.,.,.,.,.,.,.,.,.3.3.3.,.,.,.3.3.1.3.3.3.3.3.3.2.3.3.3.3.2.3.3.3.3.3.3.3.3.3.3.3.3.3.3.3.3.3.3.3.3.3.3.3.3.3.3.3.3.3.3.3.1.1.1.>.,.,.,.,.,.,.,.,.,.,.,.,.,.,.,.,.,.,.,.,.,.,.,.,.,.,.,.,.,.,.,.,.,.,.,.,.,.,.,.,.,.,.,.,.,.,.,.,.,.,.,.,.,.,.,.,.,.,.,.,.,.;.;.3.3.3.3.3.,.,.,.,.,.,.,.,.,.3.3.,.,.,.,.,.,.,.,.3.3.3.3.3.3.3.3.3.3.3.3.3.3.3.3.3.3.3.3.3.3.3.3.3.3.3.3.3.3.3.3.3.3.3.3.3.3.2.2.1.1.3.3.3.3.3.3.3.3.3.3.3.3.3.3.3.3.3.3.3.3.3.3.3.3.1.1.1.1.;.;.>.>.>.>.>.,.,.,.,.>.>.>.,.,.,.,.3.,.,.,.;.,.,.,.,.,.,.,.,.,.,.,.,.,.,.,.,.,.,.,.,.,.,.,.,.,.,.,.,.,.,.,.,.,.,.,.,.,.,.,.,.,.,.,.,.,.,.,.,.,.,.,.,.,.,.3.3.3.3.3.,.,.,.,.,.,.,.,.3.,.,.,.,.,.,.3.,.3.3.3.3.3.3.3.,.,.,.,.,.,.3.3.,.,.,.,.;.,.,.,.;.;.;.;.;.;.;.;.,.,.,.,.,.,.,.,.,.;.;.;.;.,.,.,.,.>.;.;.;.,.3.3.3.3.3.3.3.3.3.3.3.3.3.3.3.3.3.3.3.3.3.3.3.3.s.s.1 1 . o . . @ @ D F S F D D D N N V z c N D D F :.:.#.:.;.,.1 1 . . . . ;.                                          ",
"                                                    . O ; ; > ; y y p.v.J.K.H.H.K.K.9.%.+.+.%.9.F D %.:.F #.y h S S 0.y.,.:.0.9.,.3.; > ; @ 1 < - ; , < #.;.a.x.8.8.v.x.S S k h M k c l 6.4.j.q.6.0.p.a.i.p.a.p.x.a.P.C.F S ; = > > . . . .                     @ @ # O o o #.#.n.n.q.h.=.[ [ ' ' ' ' ' a a m m +.+.V V & & * $ 4 5 I T _.`.@X'.[.[.+XoXoXoX[.}.^.^.^.~.~.~.~.~.^.^.'.'.].[.[.{.].[.{.{.}.^.^.~.~.~.~.Q.Q.~.~.~.^.^.^.'.'.^.^.^.~.~.~.~.^.^.'.'.].].].].].].].].].].].|.|.|.|.|.|.+X].[.{.}.'.^.^.~.^.^.^.^.^.^.'.].[.[.[.[.[.[..X.X.X[.[.'.'.^.^.^.^.^.^.'.}.{.}.'.'.'.'.'.'.'.'.].].].].].].].].].].].].].].].].|.+X+X+X+X+X+X+XoX{.{.'.^.~.~.Q.Q.Q.Q.~.~.^.'.@X{.{..X.X.X.X.X.X.X|.|.|..X|.+X+X.X|..X].[.[.[.}./.~.~.W.W.W ! T P  . .f.7.7.:.4.,.3.3.3.3.3.3.3.3.3.3.3.3.3.3.3.3.3.3.3.3.3.3.3.3.3.3.3.3.3.3.3.3.3.3.3.3.3.3.3.3.3.3.3.3.3.3.3.3.3.3.3.3.3.3.3.3.3.3.3.3.3.3.3.3.3.3.3.3.3.3.3.3.3.3.3.3.3.3.3.3.1.1.1.3.3.3.3.3.3.3.3.3.3.3.3.3.3.3.3.3.3.3.3.3.3.3.3.3.3.3.3.3.3.3.3.3.3.3.3.3.3.3.3.3.3.3.3.3.3.3.3.3.3.3.3.3.3.3.3.3.3.3.3.3.3.3.3.3.3.3.3.3.3.3.3.3.3.3.3.3.3.3.3.3.3.3.3.3.3.3.3.3.3.3.3.3.3.3.3.3.3.3.3.3.3.3.3.3.3.3.3.3.3.3.3.3.3.2.3.3.3.3.3.3.3.3.3.3.3.3.3.3.3.3.3.3.3.3.3.3.3.3.3.3.3.3.3.3.3.3.3.3.3.3.3.3.3.3.3.3.3.3.3.3.3.3.3.3.3.3.3.3.3.3.3.3.3.3.3.3.3.3.3.3.3.3.3.3.3.3.3.3.3.3.3.3.3.3.3.3.3.3.3.3.3.3.3.3.3.3.3.3.3.3.3.3.3.3.3.3.3.3.3.,.,.,.,.,.,.,.,.,.,.,.,.,.,.,.3.3.3.3.,.,.,.,.,.,.3.3.3.3.3.3.3.3.3.3.3.3.3.3.3.3.3.3.3.3.3.3.3.3.3.3.3.3.3.3.3.3.3.3.3.3.3.3.,.,.,.,.,.,.,.;.,.,.,.,.3.3.3.3.,.,.,.3.3.,.,.,.3.,.,.,.,.,.,.,.3.3.3.3.3.3.3.3.3.3.3.3.3.3.3.3.3.3.3.3.3.3.3.3.3.3.3.3.3.3.>.>.,.,.,.,.,.,.,.,.,.,.,.:.,.,.,.,.>.1.1.1.1.1.3.3.3.3.3.3.3.3.3.3.3.3.3.3.3.3.3.3.3.3.3.3.3.3.3.3.3.3.3.3.3.3.3.3.1.1.3.3.3.3.1.>.,.,.,.,.,.,.,.,.,.,.,.,.,.,.,.3.,.,.,.,.,.,.,.,.,.,.,.,.,.,.,.,.,.,.:.,.,.,.,.,.,.,.,.,.,.,.,.,.,.,.,.,.,.,.,.,.,.,.,.,.,.,.3.3.,.,.,.3.3.,.,.,.3.,.,.,.,.,.,.,.;.;.;.,.,.,.,.,.3.3.3.3.3.3.3.3.3.3.3.3.3.3.3.3.3.3.3.3.3.3.3.3.3.3.3.3.2.2.2.2.2.3.3.3.3.3.3.3.3.3.3.3.3.3.3.3.3.3.3.3.3.3.3.3.3.3.3.3.3.3.3.3.3.3.3.3.3.3.3.3.,.,.,.,.,.,.3.3.,.,.,.3.3.,.,.,.,.,.,.,.,.,.,.,.,.,.,.3.3.3.,.,.,.,.,.,.,.,.,.,.,.,.,.,.,.,.,.,.;.,.,.,.,.,.,.,.,.,.,.,.,.,.,.,.,.,.,.,.,.,.,.,.,.,.,.,.,.,.3.3.,.,.,.,.,.,.,.,.3.,.,.,.,.3.3.3.,.,.3.3.3.,.,.,.;.,.,.,.,.,.,.3.,.,.,.3.3.,.,.,.,.,.,.,.,.3.,.,.,.,.,.,.,.,.,.,.,.3.,.,.;.;.,.3.,.,.,.,.3.3.3.3.3.3.;.1.1.3.3.3.3.3.3.3.3.3.3.3.3.3.3.3.3.3.s.y.1 1 . o . . @ @ D D M S N M N V V c { S S S D F ;.;.#.#.;.;.< < . . . . ;.                                      . . ",
"                                                    . # & @ > ; y i v.v.J.K.H.H.H.L.e.e.%.#.9.9.+.#.#.:.F #.h h S S 0.0.,.,.0.9.,.,.> , - @ 1 < O ; < r #.;.v.M.i.8.x.p.S S h h c j V c :.:.u.q.0.0.p.p.y.y.p.p.v.x.J.G.#.F > @ > > . . . .                     @ @ # O o o #.#.n.n.e.e.@.' =.=.' ' ' ' a a m m +.+.c c & & * $ 4 5 P T _.`./.^.@X[.oX#X&X{.[.}.^.^.~.~.~.~.~.~.^.^.^.'.'.}.].[.'.'.}.}.'.^.^.~.~.~.Q.Q.Q.Q.~.~.^.^.^.^.^.^.^.~.~.~.~.~.~.^.'.'.'.[.[.[.[.[.[.[.[.[.[.[.[.[.].[.].].].[.}.'.^.^.~.^.^.^.^.^.^.^.'.'.[.'.'.}.[.[.[.[.[.[.'.'.^.^.^.^.^.^.^.'.'.}.'.'.'.'.'.'.'.'.'.'.'.'.'.'.].'.'.'.'.'.'.'.'.'.].].+XoX=X+XoXoXoX{.{.}.^.^.~.~.Q.Q.~.~.~.~.^./.@X@X{.{.{.[..X.X.X.X.X.X|..X.X+X.X.X.X[.[.[.{.@X'.^.~.Q.W.W.! ! E P  . .f.f.7.4.4.,.3.3.3.3.3.3.3.3.3.3.3.3.3.3.3.3.3.3.3.3.3.3.3.3.3.3.3.3.3.3.3.3.3.3.3.3.3.3.3.3.3.3.3.3.3.3.3.3.3.3.3.3.3.3.3.3.3.3.3.3.3.3.3.3.3.3.3.3.3.3.3.3.3.3.3.3.3.3.3.3.3.1.3.3.3.3.3.3.3.3.3.3.3.3.3.3.3.3.3.3.3.3.3.3.3.3.3.3.3.3.3.3.3.3.3.3.3.3.3.3.3.3.3.3.3.3.3.3.3.3.3.3.3.3.3.3.3.3.3.3.3.3.3.3.3.3.3.3.3.3.3.3.3.3.3.3.3.3.3.3.3.3.3.3.3.3.3.3.3.3.3.3.3.3.3.3.3.3.3.3.3.3.3.3.3.3.3.3.3.3.3.3.3.3.3.3.3.3.3.3.3.3.3.3.3.3.3.3.3.3.3.3.3.3.3.3.3.3.3.3.3.3.3.3.3.3.3.3.3.3.3.3.3.3.3.3.3.3.3.3.3.3.3.3.3.3.3.3.3.3.3.3.3.3.3.3.3.3.3.3.3.3.3.3.3.3.3.3.3.3.3.3.3.3.3.3.3.3.3.3.3.3.3.3.3.3.3.3.3.3.3.3.3.3.3.3.3.3.3.3.3.3.3.,.,.,.,.,.,.,.,.,.,.,.,.,.,.,.3.3.3.3.3.3.,.,.,.,.3.3.3.3.3.3.3.3.3.3.3.3.3.3.3.3.3.3.3.3.3.3.3.3.3.3.3.3.3.3.3.3.3.3.3.3.3.3.,.,.,.,.,.,.,.,.,.,.,.,.,.,.,.3.,.,.,.,.,.,.,.,.3.,.,.,.,.,.,.,.3.3.3.3.3.3.3.3.3.3.3.3.3.3.>.1.3.3.3.3.3.3.3.3.3.3.3.3.3.3.3.1.,.,.,.,.,.,.,.,.,.,.,.,.,.,.,.,.>.1.1.1.1.1.3.3.3.3.3.3.3.3.3.3.3.3.3.3.3.3.3.3.3.3.3.3.3.3.3.3.3.3.3.3.3.3.3.3.3.1.3.3.3.3.1.>.,.,.,.,.,.,.,.,.,.,.,.,.,.,.,.3.,.,.,.,.,.,.,.,.,.,.,.,.,.,.,.,.,.,.,.,.,.,.,.,.,.,.,.,.,.,.,.,.,.,.,.,.,.,.,.,.,.,.,.,.,.,.3.3.,.,.,.,.,.,.,.,.,.,.,.,.,.,.,.,.,.,.,.,.,.,.,.,.3.3.3.3.3.3.3.3.3.3.3.3.1.3.3.3.3.3.3.3.3.3.3.3.3.3.3.3.3.3.2.2.2.3.3.3.3.3.3.3.3.3.3.3.3.3.3.3.3.3.3.3.3.3.3.3.3.3.3.3.3.3.3.3.3.>.1.1.3.3.3.3.,.,.,.,.,.,.,.,.,.,.,.,.,.,.,.,.,.,.,.,.,.,.,.,.,.,.,.,.,.,.,.,.,.,.,.,.,.,.,.,.,.,.,.3.3.,.,.,.;.,.,.,.,.,.,.,.,.,.,.,.,.,.,.,.,.,.,.,.,.,.,.,.,.,.,.,.,.,.,.3.,.,.,.,.,.,.,.,.,.,.,.,.,.,.3.3.,.,.3.3.3.3.,.,.,.,.,.,.,.,.3.3.,.,.3.3.,.,.,.,.,.,.,.,.,.,.,.,.,.,.,.,.,.,.,.,.,.,.,.,.,.,.,.3.,.,.,.,.3.3.3.3.3.3.3.3.3.3.3.3.3.3.3.3.3.3.3.3.3.3.3.3.3.3.y.y.1 1 . . . . @ @ S S M S N M D N M V F S S M S F ;.#.#.#.#.;.< < . . . . ;.                                      . . ",
"                                                    . . > > g g h h n.n.K.DXK.K.FXFXH.K.F.H.DXDXn.n.v.V.v.v.0.0.p.i.v.v.9.3.,.;.D D ; ; . o < 1 , < < , g y D F p.i.B.C.M.C.C.G.a.a.p.u.v.j.A.A.b.v.C.C.V.V.G.G.M.M.G.B.S S @ > > > . . . .                     @ @ . O o o #.+.w.j.&.*.' _ [ =.' ' _ ' x _ m N { { h j & & * $ 4 5 P E _.`./.^.^.'.].[.{.[.'.^.^.~.~.~.~.~.~.~.~.^.^.^.^.'.'.'.'.'.'.'.^.^.~.~.~.~.~.~.~.~.~.~.~.~.~.^.^.~.~.~.~.~.~.~.~.^.^.'.^.^.'.'.'.'.'.'.'.'.'.'.'.'.'.'.'.'.'.'.'.^.^.~.~.^.^.^.^.^.~.^.'.'.'.'.'.'.'.'.'.'.'.'.'.'.^.^.^.^.^.^.^.^.^.'.'.'.^.^.'.'.'.}.'.'.'.'.'.'.'.'.'.'.'.'.'.'.'.'.'.'.].].].].].].{.{.}.'.^.^.~.~.~.~.~.~.~.~.^.^.'.'.'.'.'.'.'.'.].].'.'.'.'.].[.].'.'.'.'.'.'.'.}./.~.Q.Q.(.Q ! E U  . .-.7.7.4.,.,.3.3.3.3.3.3.3.3.3.3.3.3.3.3.3.3.3.3.3.3.3.3.3.3.3.3.3.3.3.3.3.3.3.3.3.3.3.3.3.3.3.3.3.3.3.3.3.3.3.3.3.3.3.3.3.3.3.3.3.3.3.3.3.3.3.3.3.3.3.3.3.3.3.3.3.3.3.3.3.3.3.3.3.3.3.3.3.3.3.3.3.3.3.3.3.3.3.3.3.3.3.3.3.3.3.3.3.3.3.3.3.3.3.3.3.3.3.3.3.3.3.3.3.3.3.3.3.3.3.3.3.3.3.3.3.3.3.3.3.3.3.3.3.3.3.3.3.3.3.3.3.3.3.3.3.3.3.3.3.3.3.3.3.3.3.3.3.3.3.3.3.3.3.3.3.3.3.3.3.3.3.3.3.3.3.3.3.3.3.3.3.3.3.3.3.3.3.3.3.3.3.3.3.3.3.3.3.3.3.3.3.3.3.3.3.3.3.3.3.3.3.3.3.3.3.3.3.3.3.3.3.3.3.3.3.3.3.3.3.3.3.3.3.3.3.3.3.3.3.3.3.3.3.3.3.3.2.2.3.3.3.3.3.3.3.3.3.3.3.3.3.3.3.3.3.3.3.3.3.3.3.3.3.3.3.3.3.3.3.3.3.3.3.3.3.3.3.3.3.3.3.3.3.3.3.3.3.3.3.3.3.3.3.3.3.3.3.3.3.3.3.3.3.3.3.3.3.3.3.3.3.3.3.3.3.3.3.3.3.3.3.3.3.3.3.3.3.3.3.3.3.3.3.3.3.3.3.3.3.3.3.3.3.3.3.3.,.,.,.,.3.3.3.,.,.,.,.,.,.,.,.,.,.,.,.,.,.,.,.,.3.,.,.,.,.,.,.,.3.3.3.3.1.1.3.3.3.3.3.3.3.3.3.1.3.3.3.3.3.3.3.3.3.3.3.3.3.3.3.3.,.,.,.,.,.,.,.,.,.,.,.,.,.,.,.,.,.>.,.,.,.,.,.,.,.,.,.,.,.,.,.,.3.3.3.3.3.3.3.3.3.3.3.3.3.3.3.3.3.3.3.3.3.3.3.3.3.3.3.3.3.3.1.1.,.,.,.,.,.,.,.,.,.,.,.,.,.,.,.3.,.,.,.,.,.,.,.,.,.,.,.,.,.,.,.,.,.,.,.3.3.,.,.,.,.,.,.,.,.,.,.,.,.,.,.,.,.,.,.,.,.,.,.,.,.,.3.3.,.,.,.,.,.,.,.,.;.;.,.3.3.3.,.,.3.3.3.3.,.,.,.,.3.3.3.3.3.3.3.3.3.3.1.1.1.1.1.1.3.3.3.3.3.3.3.3.2.2.3.3.3.3.3.3.3.3.3.3.3.3.3.3.3.3.3.3.3.3.3.3.3.3.3.3.3.3.3.3.3.3.3.3.3.3.3.3.3.1.1.1.>.1.3.3.,.,.,.,.,.,.,.,.,.,.,.,.,.,.,.,.,.,.,.,.,.,.,.,.,.,.,.,.,.,.,.,.,.,.,.,.,.,.,.,.,.3.3.3.3.3.3.,.,.,.,.,.,.,.,.,.,.,.,.,.,.,.,.,.,.,.,.,.,.,.,.,.,.,.,.,.,.,.,.,.,.,.,.,.,.,.,.,.,.,.,.,.,.,.,.,.,.,.3.3.3.3.3.,.,.3.3.,.,.,.3.3.3.3.,.,.,.,.,.,.,.,.,.,.,.,.,.,.,.,.,.,.,.,.,.,.:.,.3.3.,.,.,.,.,.,.,.,.3.3.3.,.3.3.3.3.3.3.3.3.3.3.3.3.3.3.3.3.3.3.<.3.3.3.y.y.1 1 . . . . O O S S M S M M { D S F ,.:.#.{ F F ;.#.{ #.#.#.< < . . . . ;.                                      . . ",
"                                                    . . > ; g f k z V.V.U.U.U.SXDXDXK.SXH.L.DXDXV.F.v.n.c.a.p.i.x.a.v.v.9.9.,.;.Z M ; ; . o 1 1 ; , < , r 1 #.;.p.0.v.v.B.C.J.J.p.x.s.p.j.j.b.b.V.n.V.V.B.V.V.V.C.C.V.B.D F ; > > > . . o                       @ @ . o o o #.#.u.j.$.@.` ' [ =._ ' _ _ _ _ _ _ ] F h h & & X $ 4 5 I E `.`.`././.}.[.{.{.@X}./.~.~.~.~.~.~.~.~.~.~.^.^.^.^.^.^.^.^.^.^.^.~.~.~.~.~.~.~.~.~.~.~.~.~.~.~.~.~.~.~.~.~.~.~.~.^.^.^.^.^.^.^.^.^.^.^.^.^.^.^.^.^.^.'.^.^.^.^.^.^.^.~.~.~.^.^.^.~.~.^.^.^.^.^.^.^.^.^.'.'.'.'.^.^.^.^.^.^.^.^.^.^.^.^.^.^.^.^.^.'.'.'.'.'.'.'.'.'.'.'.'.'.'.'.'.^.^.'.'.}.{.{.{.{.{.{.'.'.'.^.^.~.~.~.~.~.~.~.~.^.^.^.}.}.}.}.}.'.}.'.'.'.'.'.'.'.[.[.}.}.}.}.}.}.}./.^./.~.Q.W.!.Q Q E E  . .f.7.4.:.,.,.3.3.3.3.3.3.3.3.3.3.3.3.3.3.3.3.3.3.3.3.3.3.3.3.3.3.3.3.3.3.3.3.3.3.3.3.3.3.3.3.3.3.3.3.3.3.3.3.3.3.3.3.3.3.3.3.3.3.3.3.3.3.3.3.3.3.3.3.3.3.3.3.3.3.3.3.3.3.3.3.3.3.3.3.3.3.3.3.3.3.3.3.3.3.3.3.3.3.3.3.3.3.3.3.3.3.3.3.3.3.3.3.3.3.3.3.3.3.3.3.3.3.3.3.3.3.3.3.3.3.3.3.3.3.3.3.3.3.3.3.3.3.3.3.3.3.3.3.3.3.3.3.3.3.3.3.3.3.3.3.3.3.3.3.3.3.3.3.3.3.3.3.3.3.3.3.3.3.3.3.3.3.3.3.3.3.3.3.3.3.3.3.3.3.3.3.3.3.3.3.3.3.3.3.3.3.3.3.3.3.3.3.3.3.3.3.3.3.3.3.3.3.3.3.3.3.3.3.3.3.3.3.3.3.3.3.3.3.3.3.3.3.3.3.3.3.3.3.3.3.3.3.3.3.3.3.2.2.3.3.3.3.3.3.3.3.3.3.3.3.3.3.3.3.3.3.3.3.3.3.3.3.3.3.3.3.3.3.3.3.3.3.3.3.3.3.3.3.3.3.3.3.3.3.3.3.3.3.3.3.3.3.3.3.3.3.3.3.3.3.3.3.3.3.3.3.3.3.3.3.3.3.3.3.3.3.3.3.3.3.3.3.3.3.3.3.3.3.3.3.3.3.3.3.3.3.3.3.3.3.3.3.3.3.3.3.3.,.,.,.3.3.3.3.3.3.3.3.,.,.,.,.,.,.,.,.,.,.,.,.3.,.,.,.,.,.,.,.3.3.3.3.1.1.1.3.3.3.3.3.3.3.3.1.3.3.3.3.3.3.3.3.3.3.3.3.3.3.3.3.,.,.,.,.,.,.,.,.,.,.,.,.,.,.,.,.,.,.,.,.,.,.,.,.,.,.,.,.,.,.,.,.3.3.3.3.3.3.3.3.3.3.3.3.3.3.3.3.3.3.3.3.3.3.3.3.3.3.3.3.3.3.3.1.,.,.,.,.,.,.,.,.,.,.,.,.,.,.,.3.,.,.,.,.,.,.,.,.,.,.,.,.,.,.,.,.,.,.3.3.3.3.,.,.,.,.,.,.,.,.3.3.,.,.,.,.,.,.,.,.,.,.,.,.,.,.3.,.3.,.,.,.,.,.,.,.;.,.,.,.3.,.,.,.3.3.3.3.,.,.,.,.3.3.3.3.3.3.3.1.3.3.3.1.;.1.1.3.3.3.3.3.3.3.3.3.2.3.3.3.3.3.3.3.3.3.3.3.3.3.3.3.3.3.3.3.3.3.3.3.3.3.3.3.3.3.3.3.3.3.3.3.3.3.3.3.3.3.3.1.>.3.3.3.,.,.,.3.,.,.,.,.,.,.,.,.,.,.,.,.,.,.,.,.,.,.,.,.3.,.,.,.,.,.,.,.,.,.,.,.,.,.,.,.,.,.3.3.3.3.,.,.,.,.,.,.,.,.,.,.,.,.>.,.,.,.,.,.,.,.,.,.,.,.,.,.,.,.,.,.,.,.,.,.,.,.,.,.,.,.,.,.,.,.,.3.3.,.,.,.,.,.3.3.3.3.3.,.,.,.3.,.,.,.,.3.3.3.,.,.,.,.,.,.,.,.,.3.3.,.,.,.,.,.,.,.,.,.,.,.,.,.3.3.,.,.,.,.,.,.,.,.3.3.,.,.3.3.3.3.3.3.3.3.3.3.3.3.3.3.3.3.3.3.;.3.1.3.y.y.1 2 . . . . O O S S M M M M { { D F ;.:.#.F F D ;.;.{ #.{ #.< < . . . . ;.                                      . . ",
"                                                    . . > > k h y y a.a.V.n.n.n.K.K.V.H.n.n.n.n.c.c.9.0.9.9.0.9.a.p.v.v.0.p.0.y.M j ; - o O , , O @ @ O # o M S p.i.v.a.B.M.B.B.s.a.0.p.a.a.j.j.0.0.0.w.x.v.v.x.8.3.;.0.o.;.> ; > > . . o                       @ @ . o o o #.#.j.j.@.[ [ ' [ [ m _ _ _ ' [ ] ] ] F h h O & X $ 4 5 I E `.`.`././.^.^.'.'.^.^.~.~.~.~.~.~.~.~./.~.~.~.^.~.^.^.^.^.^.^.~.~.~.~.~.~.~.~./././.~.~.~.~.~.~.~.~.~.~.~.~.~.~.~.~.^.^.~.^.^.^.^.^.^.^.^.^.^.^.^.^.^.^.^.^.^.^.^.^.^.~.~.~.^.^.^.^.^.^.^.^.^.^.^.^.^.^.^.^.^.^.^.^.^.^.^.^.^.^.^.^.^.^.^.^.^.^.^.^.^./.'.'.^.^.^.^.^.^.^.^.^.^.^.^.^.^.^.^.^.^.^.^.^.'.^.^.^.^.^.~.~.~.~.~.^.^.^.^.^.^.^.^.^.^.^.^.^.^.^.^.^.^.^.^.^.^.^.^.^.^.^.~.~.~.~.~.Q.Q.W.W.W ! ! E  . .f.7.4.4.,.,.3.3.3.3.3.3.3.3.3.3.3.3.3.3.3.3.3.3.3.3.3.3.3.3.3.3.3.3.3.3.3.3.3.3.3.3.3.3.3.3.3.3.3.3.3.3.3.3.3.3.3.3.3.3.3.3.3.3.3.3.3.3.3.3.3.3.3.3.3.3.3.3.3.3.3.3.3.3.3.3.3.3.3.3.3.3.3.3.3.3.3.3.3.3.3.3.3.3.3.3.3.3.3.3.3.3.3.3.3.3.3.3.3.3.3.3.3.3.3.3.3.3.3.3.3.3.3.3.3.3.3.3.3.3.3.3.3.3.3.3.3.3.3.3.3.3.3.3.3.3.3.3.3.3.3.3.3.3.3.3.3.3.3.3.3.3.3.3.3.3.3.3.3.3.3.3.3.3.3.3.3.3.3.3.3.3.3.3.3.3.3.3.3.3.3.3.3.3.3.3.3.3.3.3.3.3.3.3.3.3.3.3.3.3.3.3.3.3.3.3.3.3.3.3.3.3.3.3.3.3.3.3.3.3.3.3.3.3.3.3.3.3.3.3.2.2.3.3.3.3.3.3.3.3.3.3.3.3.3.3.3.3.3.3.3.3.3.3.3.3.3.3.3.3.3.3.3.3.3.3.3.3.3.3.3.3.3.3.3.3.3.3.3.3.3.3.3.3.3.3.3.3.3.3.3.3.3.3.3.3.3.3.3.3.3.3.3.3.,.3.3.3.3.3.,.,.3.3.3.3.3.3.3.3.3.3.3.3.3.3.3.3.3.3.3.3.3.3.3.3.3.3.3.3.3.3.3.3.3.3.3.3.3.3.3.3.3.3.,.,.3.3.3.3.3.3.3.3.3.3.,.,.,.,.,.,.,.,.,.,.3.,.,.,.,.,.3.3.3.3.3.3.3.3.3.3.3.3.3.3.3.3.3.3.3.3.3.3.3.3.3.3.3.3.3.3.3.3.3.3.,.,.,.,.,.,.,.,.,.,.,.,.,.,.,.,.,.,.,.,.,.>.>.,.3.3.3.3.3.3.3.3.3.3.3.3.3.3.3.3.3.3.3.3.3.3.3.3.3.3.3.3.3.3.3.3.3.3.3.3.3.3.3.3.,.,.,.,.,.,.,.,.,.,.,.,.,.,.,.3.,.,.,.,.,.,.,.,.,.,.,.,.,.,.,.,.,.,.3.3.3.,.,.>.>.>.,.,.,.,.,.,.,.,.,.,.,.,.,.,.,.,.,.,.,.,.3.,.,.,.,.,.,.,.,.,.,.,.>.>.,.,.,.,.,.,.,.,.,.,.,.,.3.3.>.3.3.3.3.3.3.3.3.1.1.1.3.3.3.3.3.3.3.3.3.3.2.2.3.3.3.3.3.3.3.3.3.3.3.3.3.3.3.3.3.3.3.3.3.3.3.3.3.3.3.3.3.3.3.3.3.3.3.3.3.3.3.3.3.3.3.3.3.3.,.,.,.,.3.,.,.,.3.,.,.,.,.,.,.,.,.,.,.,.,.,.,.,.3.,.,.,.,.,.,.,.,.,.,.,.,.,.,.,.,.,.,.,.,.,.,.,.,.,.,.,.,.,.,.,.;.,.,.,.,.,.,.,.,.,.,.,.,.,.,.,.,.,.,.,.,.,.,.,.,.,.,.,.,.,.,.,.,.,.3.3.3.3.,.,.,.,.3.3.3.,.,.,.,.,.,.,.,.,.,.,.3.,.,.,.,.,.,.,.,.,.,.,.3.3.,.3.,.,.,.,.,.,.,.,.,.,.,.,.,.,.,.,.,.,.,.,.3.3.,.,.3.3.3.3.3.3.3.3.3.3.3.3.3.3.3.3.3.3.;.3.;.3.y.3.> > . . . . O O M M c V c V F F #.F S S V M S S ;.;.{ #.F #.< < . . . . ;.                                      . . ",
"                                                    . . > > f k h h p.a.V.n.n.n.K.J.F.F.n.n.n.n.p.p.9.9.9.9.p.i.v.v.v.v.p.i.0.y.k y ; @ @ @ ; ; o O o # . . S D 0.0.p.i.B.M.B.B.p.a.i.p.a.a.u.q.0.0.9.0.x.v.x.x.y.0.;.,.;.;.> @ > > . . .                       @ @ . o o o #.+.j.u.} ] [ [ ' ' x m m m @.@.@.+.F F h h O * X $ 4 5 I P (.(.`./././.^.'.'.^.^.^.~.~.~.~.~.~.~.~.~.~.~.~.~.~.^.^.~.~.~.~.~.~.~.~.~.~.~.~././.~.~.~.~.~.~.~.~.~.~.~.~.~.~.~.~.^.~.~.~.~.~.~.~.~.~.~.~.~.~.^.^.^.^.^.^.^.^.^.^.^.~.~.~.^.^.^.^.^.^.^.^.^.^.^.^.^.^.^.^.^.^.^.^.^.^.~.^.^.^.^.^.^.^.^.^.^.^.^.^.^.^.^.^.^.^.^.^.^.^.^.^.^.^.^.^.^.^.^.^./.^.^.^.^.'.^.^.^.^.~.~.~.~.~.~.^.~.~.~.^.^.^.^.^.^.^.^.^.^.^.^.^.^.'.^.^.^.^.^.^.^.^.^.^./.~.~.Q.Q.W.W.W ! W )  . .f.7.4.:.,.,.3.3.3.3.3.3.3.3.3.3.3.3.3.3.3.3.3.3.3.3.3.3.3.3.3.3.3.3.3.3.3.3.3.3.3.3.3.3.3.3.3.3.3.3.3.3.3.3.3.3.3.3.3.3.3.3.3.3.3.3.3.3.3.3.3.3.3.3.3.3.3.3.3.3.3.3.3.3.3.3.3.3.3.3.3.3.3.3.3.3.3.3.3.3.3.3.3.3.3.3.3.3.3.3.3.3.3.3.3.3.3.3.3.3.3.3.3.3.3.3.3.3.3.3.3.3.3.3.3.3.3.3.3.3.3.3.3.3.3.3.3.3.3.3.3.3.3.3.3.3.3.3.3.3.3.3.3.3.3.3.3.3.3.3.3.3.3.3.3.3.3.3.3.3.3.3.3.3.3.3.3.3.3.3.3.3.3.3.3.3.3.3.3.3.3.3.3.3.3.3.3.3.3.3.3.3.3.3.3.3.3.3.3.3.3.3.3.3.3.3.3.3.3.3.3.3.3.3.3.3.3.3.3.3.2.2.3.3.3.3.3.3.3.3.2.2.3.3.3.3.3.3.3.3.3.3.3.3.3.3.3.3.3.3.3.3.3.3.3.3.3.3.3.3.3.3.3.3.3.3.3.3.3.3.3.3.3.3.3.3.3.3.3.3.3.3.3.3.3.3.3.3.3.3.3.3.3.3.3.3.3.3.3.3.3.3.3.3.,.,.3.,.,.,.,.,.3.3.3.3.3.3.3.3.3.3.3.3.3.3.3.3.3.3.3.3.3.3.3.3.3.3.3.3.3.3.3.3.3.3.3.3.3.3.3.3.3.3.,.,.3.3.,.,.3.3.3.3.3.3.3.3.,.,.,.,.,.,.,.,.3.,.,.,.,.,.3.3.3.3.3.3.3.3.3.3.3.3.3.3.3.3.3.3.1.1.1.1.3.3.3.3.3.3.3.3.3.3.3.3.,.,.,.,.,.,.,.,.,.,.,.3.3.,.,.,.,.,.,.,.,.,.,.,.3.3.3.3.3.3.3.3.3.3.3.3.3.3.3.3.3.3.3.3.3.3.3.3.3.3.3.3.3.3.3.3.3.3.3.3.3.3.3.3.,.,.,.,.,.,.,.,.,.,.,.,.,.,.,.3.,.,.,.,.,.,.,.,.,.>.,.,.,.,.,.,.,.,.,.,.,.,.>.>.,.,.,.,.,.,.,.,.,.,.,.,.,.,.,.,.,.,.,.,.,.,.3.,.,.,.,.,.,.,.,.,.,.,.>.>.,.,.,.,.,.,.,.,.,.,.,.,.3.>.>.3.3.3.3.3.3.3.3.1.3.3.3.3.3.3.3.3.3.3.3.3.2.2.3.3.3.3.3.3.2.2.3.3.3.3.3.3.3.3.3.3.3.3.3.3.3.3.3.3.3.3.3.3.3.3.3.3.3.3.3.3.3.3.3.3.3.3.3.3.,.,.,.,.,.,.,.,.3.,.,.,.,.,.,.,.,.,.,.,.,.,.,.,.3.,.,.,.,.,.,.,.,.,.,.,.,.,.,.,.,.,.,.,.,.,.,.,.,.,.,.,.,.,.,.,.;.,.,.,.,.,.,.,.,.,.,.;.;.,.,.,.,.,.,.,.,.,.,.,.,.,.,.,.,.,.,.,.,.3.3.3.3.3.3.3.,.,.,.,.,.,.,.,.,.,.,.,.,.,.,.,.,.,.,.,.,.,.,.,.,.,.,.3.3.3.3.3.,.,.,.,.,.,.,.,.,.,.,.,.,.,.,.3.,.,.,.,.3.3.3.,.3.3.3.3.3.3.3.3.3.3.3.3.3.3.3.3.;.3.;.3.,.3.y.3.> > . . . . O O M M V V j V F #.#.#.S M h c M S ;.;.#.#.{ #.< < . . . . ;.                                      . . ",
"                                                    . . O O & @ O O M M #.+.%.%.,.,.%.%.9.9.9.,.%.%.#.#.%.%.,.,.9.3.y.0.3.:.;.,.y r > ; < < ; ; > ; - ; . . D D a.a.i.0.a.i.y.y.3.0.9.9.p.p.v.v.a.a.0.0.0.0.;.>.g g 1 1 g k @ @ > > . . .                       @ @ . . . o F F j.j.@.@.&.@.[ ` a m m m @.@.+.+.F F h h O & X $ 4 5 Y P ( (.`.Q./.~.~.^.^.~.~.~.~.~.~.~.~.~.~.~.~.~.~.~.~.~.~.~.~.~.~.~.^.~././.~.~.~.~.~.~.~.~.~.~.~.~.~.~.~.~.~.~.~.~.~.~.~.~./././././././.~.~.~.~./.^.^.^.^.^.~.~.~.~.~.~.~.~.~.~.^.^.^.^.^.^.^.^.~.~.~.~.^.~.^.^.^.^.^.^.~.~.~.~.~.~.~.~.^.^.^.^.^.~.~.~.~.^.^.^.^.^.^.^.^.^.^.^.^.^.^.^.^.~.~.~.^.~.^.^.^.^.^.^.^.~.~.~.~.~.~.~.~.~.~.~.^.~.~.~.~.~.~.^.~.^.~.^.^.^.^.~.~.~.~.~.~.~.~.~.~.~.~.~./.Q.Q.W.Q W )  . .f.7.4.:.3.3.3.3.3.3.3.3.3.3.3.3.3.3.3.3.3.3.3.3.3.3.3.3.3.3.3.3.3.3.3.3.3.3.3.3.3.3.3.3.3.3.3.3.3.3.3.3.3.3.3.3.3.3.3.3.3.3.3.3.3.3.3.3.3.3.3.3.3.3.3.3.3.3.3.3.3.3.3.3.3.3.3.3.3.3.3.3.3.3.3.3.3.3.3.3.3.3.3.3.3.3.3.3.3.3.3.3.3.3.3.3.3.3.3.3.3.3.3.3.3.3.3.3.3.3.3.3.3.3.3.3.3.3.3.3.3.3.3.3.3.3.3.3.3.3.3.3.3.3.3.3.3.3.3.3.3.3.3.3.3.3.3.3.3.3.3.3.3.3.3.3.3.3.3.3.3.3.3.3.3.3.3.3.3.3.3.3.3.3.3.3.3.3.3.3.3.3.3.3.3.3.3.3.3.3.3.3.3.3.3.3.3.3.3.3.3.3.3.3.3.3.3.3.3.3.3.3.3.3.3.3.3.3.3.3.2.2.3.3.3.3.3.3.3.3.3.3.3.3.3.3.3.3.3.3.3.3.3.3.3.3.3.3.3.3.3.3.3.3.3.3.3.3.3.3.3.3.3.3.3.3.3.3.3.3.3.3.3.3.3.3.3.3.3.3.3.3.3.3.3.3.3.3.3.3.3.3.3.3.3.3.3.3.3.3.3.3.3.3.3.3.3.3.,.,.,.,.3.3.3.3.3.3.3.3.3.3.3.3.3.3.3.3.3.3.3.3.3.3.3.3.3.3.3.3.3.3.3.3.3.3.3.3.3.3.3.3.3.3.,.,.,.,.,.,.,.,.,.,.,.,.,.,.,.,.,.,.,.,.,.,.,.,.,.,.,.3.3.3.3.3.3.3.3.3.3.3.3.3.3.3.3.3.3.3.3.3.3.3.>.>.>.3.3.>.3.3.3.3.3.3.,.,.,.,.,.,.,.,.,.,.3.3.3.3.,.,.,.,.3.,.,.,.,.,.,.,.,.,.,.,.,.,.3.3.3.3.3.3.3.3.3.3.3.3.3.3.3.3.3.3.3.3.3.3.3.3.3.3.3.3.1.1.3.3.,.,.,.,.,.,.,.,.,.,.,.,.,.,.,.3.,.,.,.,.,.,.,.,.,.,.,.,.,.,.,.,.3.3.3.3.3.3.3.3.3.3.3.3.3.3.3.,.,.,.,.,.,.,.,.,.,.,.,.,.,.,.,.,.,.,.,.,.,.,.,.,.,.,.>.>.,.,.3.3.,.,.,.,.,.,.,.,.3.1.1.3.3.3.3.3.3.3.3.1.3.3.3.3.3.3.3.3.3.3.3.3.2.3.3.3.3.2.2.3.3.3.3.2.2.2.3.3.3.3.3.3.3.3.3.3.3.3.3.3.3.3.3.3.3.3.3.3.3.3.3.3.3.3.3.3.3.3.3.3.,.,.,.,.,.,.,.,.3.3.,.,.,.,.,.,.,.,.,.,.,.,.,.,.,.,.,.,.,.,.,.,.,.,.,.,.,.,.,.,.,.,.,.,.,.,.,.,.,.,.,.,.,.,.,.3.;.;.,.,.,.,.,.,.,.,.,.,.,.,.,.,.,.,.,.,.,.,.,.,.,.,.,.,.,.,.,.3.3.,.,.,.,.,.,.3.,.,.,.,.,.,.3.3.,.,.,.,.,.,.,.3.3.3.3.3.3.3.,.,.,.,.,.3.3.3.3.3.,.,.,.,.,.,.,.,.,.,.,.,.,.,.3.3.3.,.,.,.3.3.3.3.3.3.3.3.3.3.3.3.3.3.3.3.3.3.3.3.;.3.;.3.;.3.y.3.< > . . . . O O S S V M c M #.#.#.#.S S h f c V #.#.#.;.#.:.< < . . . . ;.                                      . . ",
"                                                      . O @ @ O @ @ M V F F %.:.,.,.%.%.9.9.3.,.%.%.%.%.,.3.3.3.3.3.i.3.3.,.,.3.1 1 , ; 1 < - - > ; @ = . . F D a.v.9.9.p.i.0.0.9.0.0.9.i.0.v.v.p.p.0.0.0.9.,.3.g d < 1 j k @ @ @ @ . . .                       @ @ . . . . F S p.j.$.@.$.@.[ ` x m m m @.@.+.+.F F h h @ & X $ % 4 Y P ( (.`.!.Q.~.~.~.^.^./.~.~.~.~.~.~.~.~.~././.~.~.~.~.~.~.~.~.~.~.~.~././.~.~.~.~.~.~.~.~.Q.Q.~.~.~.~.~.~.~.~.~.~.~.~.~.~././.Q.Q.~.~.~.~.~.~.~.~.~.~.~.~.~.~.~.~.~.~.~.~.~.~.~.~.~.~.~.~.~.~.^.~.~.~.~./.~.^.^.^.^.^.~.~.~.~.~.~.~.~.~.~.~.^.^.^.~.~.^.^.^.^.^.^.^.^.^.^.~.^.^.^.^.^.~.~.~.~.~.^.^.^.^.^.~.~.^.~.~.~.~.~.~.~.~.~.~.~.~.^.~.~.~.~.~.~.^.~.~.^.^.^.~.~.~.~.~.~.~.~.~.~.Q.~.Q.~.~./.Q.!.W.!.! )  . .f.7.4.:.3.3.3.3.3.3.3.3.3.3.3.3.3.3.3.3.3.3.3.3.3.3.3.3.3.3.3.3.3.3.3.3.3.3.3.3.3.3.3.3.3.3.3.3.3.3.3.3.3.3.3.3.3.3.3.3.3.3.3.3.3.3.3.3.3.3.3.3.3.3.3.3.3.3.3.3.3.3.3.3.3.3.3.3.3.3.3.3.3.3.3.3.3.3.3.3.3.3.3.3.3.3.3.3.3.3.3.3.3.3.3.3.3.3.3.3.3.3.3.3.3.3.3.3.3.3.3.3.3.3.3.3.3.3.3.3.3.3.3.3.3.3.3.3.3.3.3.3.3.3.3.3.3.3.3.3.3.3.3.3.3.3.3.3.3.3.3.3.3.3.3.3.3.3.3.3.3.3.3.3.3.3.3.3.3.3.3.3.3.3.3.3.3.3.3.3.3.3.3.3.3.3.3.3.3.3.3.3.3.3.3.3.3.3.3.3.3.3.3.3.3.3.3.3.3.3.3.3.3.3.3.3.3.3.3.3.2.3.3.3.3.3.3.3.3.3.3.3.3.3.3.3.3.3.3.3.3.3.3.3.3.3.3.3.3.3.3.3.3.3.3.3.3.3.3.3.3.3.3.3.3.3.3.3.3.3.3.3.3.3.3.3.3.3.3.3.3.3.3.3.3.3.3.3.3.3.3.3.3.3.3.3.3.3.3.3.3.3.3.3.3.3.3.3.,.3.3.3.3.3.3.3.3.3.3.3.3.3.3.3.3.3.3.3.3.3.3.3.3.3.3.3.3.3.3.3.3.3.3.3.3.3.3.3.3.3.3.3.3.3.,.,.,.,.,.;.;.;.,.,.,.,.,.,.3.,.,.,.,.,.,.3.,.,.,.,.,.3.3.3.;.3.3.3.3.3.3.3.3.3.3.3.3.3.3.3.3.3.3.;.;.;.;.;.3.3.3.3.1.1.1.1.,.,.,.,.,.,.,.,.,.,.3.3.3.3.,.,.,.,.3.,.,.,.,.,.,.,.,.,.,.,.,.,.3.3.3.3.3.3.3.3.3.3.3.3.3.3.3.3.3.3.3.2.3.3.3.3.3.3.3.3.1.1.3.3.,.,.,.,.,.,.,.,.,.,.,.,.,.,.,.3.,.,.,.,.,.,.,.,.,.,.,.,.,.,.,.,.3.3.3.3.;.;.3.3.3.3.3.3.3.3.3.,.,.,.,.,.,.,.,.,.,.,.,.,.,.,.,.3.,.,.,.,.,.,.,.,.;.;.,.,.,.,.3.3.,.,.,.,.,.,.,.,.3.1.1.3.3.3.3.3.1.1.3.1.3.3.3.3.3.3.3.3.3.3.3.3.2.3.3.3.3.2.2.2.3.3.3.2.2.2.3.3.3.3.3.3.3.3.3.3.3.3.3.3.3.3.3.3.3.3.3.3.3.3.3.3.1.1.3.1.3.3.3.3.3.3.,.,.,.,.,.,.3.3.,.,.;.,.,.,.,.,.,.,.,.,.,.,.,.,.,.,.,.,.,.;.,.,.,.,.,.,.,.,.,.3.3.3.3.3.3.,.,.,.,.,.,.,.,.3.;.;.,.,.,.,.,.,.3.,.,.,.,.,.,.3.,.,.,.,.,.,.,.,.,.,.,.,.,.,.3.3.3.,.,.,.,.,.,.,.;.;.;.,.,.,.3.3.,.,.,.,.,.,.3.3.3.3.3.3.3.3.3.3.3.3.3.3.3.3.,.,.3.,.3.,.3.,.3.,.3.,.,.,.,.3.3.,.3.,.,.,.3.3.3.3.3.3.3.3.3.3.3.3.3.3.3.3.3.3.3.3.1.3.;.3.;.3.y.3.< > . . . . X O S S M V c M #.:.#.%.F S u u z V #.#.#.;.:.:.< 1 . . . . ;.                                      . . ",
"                                                        > > o @ > 1 1 1 F S F D F D S S o.#.0.0.9.0.,.0.3.0.;.:.#.o.#.#.#.;.#.#.1 < - ; @ ; , > , 1 ; ; @ O S S s.s.y.0.y.y.0.y.0.0.s.p.a.p.s.p.0.0.0.0.y.y.0.y.d k 1 r > , # o . . . .                         @ @ . . o o F F 0.w.+.+.%.%.` @.` ` ] +.$.#.$.+.#.#.h h O O X $ % % Y P ( ~ !.Q.Q.Q.Q.Q.Q.Q.~.~.Q.Q.~.~.~.~.~.Q.~.~.~.Q.Q.~.~.~.~.Q.Q.Q.Q.Q.Q.~.Q.Q.Q.Q.Q.Q.Q.Q.Q.Q.Q.Q.Q.Q.Q.Q.Q.Q.Q.Q.Q.Q.Q.Q.Q.Q.Q.Q.Q.Q.Q.Q.Q.Q.~.Q.~.~.~.~.~.~.~.~.~.~.~.~.~.~.~.~.~.~.~.~.~.~.~.~.~.~.~.~.~.~.~.~.~.~.~.~.~.~.~.~.~.~.~.~.~.~.~.~.~.~.~.~.~.~.~.~.~.~.~.~.~.~.~.~.~./.~.~.~.~.~.~.~.~.~.~.~.~.~.~.~.~.~.~.Q.Q.Q.Q.~.~.~.~.~.~.~.~.~.~.~.~.~.Q.Q.Q.Q.Q.Q.Q.Q.Q.Q.Q.Q.Q.Q.Q.Q.Q.~.~.Q.Q.W.Q R ^  . .f.f.4.6.3.3.3.3.3.3.3.3.3.3.3.3.3.3.3.3.,.3.3.3.3.3.3.3.3.3.3.3.3.3.3.3.3.3.3.3.3.3.3.3.3.3.3.3.3.3.3.3.3.3.3.3.3.3.3.3.3.3.3.3.3.3.3.3.3.3.3.3.3.3.3.3.3.3.3.3.3.3.3.3.3.3.3.3.3.3.3.3.,.,.,.,.,.,.3.3.3.3.3.3.3.3.3.3.3.3.3.3.3.3.3.3.3.3.3.3.3.3.3.3.3.3.3.3.3.3.3.3.3.3.3.3.3.3.3.3.3.3.3.3.3.3.3.3.3.3.3.3.3.3.3.3.3.3.3.3.3.3.3.3.3.3.3.3.3.3.3.3.1.3.3.3.3.3.3.3.3.3.3.3.3.3.3.3.3.3.,.,.3.3.3.3.3.3.3.3.3.3.3.3.3.3.3.3.3.3.3.3.3.3.3.3.3.3.3.3.3.3.3.;.3.3.3.3.3.3.,.,.,.,.,.,.>.>.,.3.3.3.>.>.>.2.3.3.2.2.2.3.2.2.3.2.>.>.2.3.3.3.3.3.3.3.3.3.3.3.3.3.,.3.3.3.3.3.3.3.,.,.,.3.,.3.3.,.>.>.,.3.3.3.3.3.3.3.3.3.3.3.3.3.3.3.3.3.3.3.3.3.3.3.3.3.3.3.3.3.3.3.3.3.3.3.3.3.3.3.3.3.3.3.3.3.3.3.3.3.,.,.,.,.3.3.3.3.3.3.3.,.,.,.3.3.,.,.,.,.3.3.3.3.,.,.,.,.,.,.3.3.,.,.,.,.,.,.,.,.,.,.,.,.3.3.,.,.,.,.,.,.,.,.,.,.,.,.,.,.,.,.,.,.,.,.>.>.>.>.,.,.>.>.>.>.>.>.>.>.,.,.,.,.,.,.;.;.,.,.;.,.,.3.,.,.,.,.,.,.3.,.,.;.,.,.,.,.,.,.,.,.3.3.3.,.,.,.,.,.,.,.,.,.,.,.3.3.3.3.3.3.3.3.3.3.3.3.2.3.3.3.3.2.3.3.3.3.3.3.3.3.3.3.3.3.3.3.3.3.3.3.3.3.3.3.3.3.3.,.,.,.,.,.,.,.,.,.,.,.,.,.,.3.,.,.,.,.>.>.,.,.,.,.,.,.,.,.,.,.,.,.;.,.,.,.,.,.,.,.3.,.3.3.3.3.3.3.3.3.3.3.3.3.3.3.3.,.,.,.,.,.,.,.,.,.,.,.,.,.3.3.3.3.3.3.3.3.3.3.3.3.3.3.1.1.3.3.,.,.3.3.3.3.>.>.>.>.3.3.3.3.3.3.2.2.2.2.3.3.>.2.2.3.3.2.2.>.1.1.3.3.3.1.;.;.3.3.3.3.3.3.3.3.3.3.3.3.3.3.3.3.3.3.1.1.1.3.3.3.,.>.>.>.>.>.>.>.,.,.>.>.>.>.>.>.;.,.,.3.3.,.,.,.,.,.,.,.,.,.,.;.3.3.3.3.3.3.3.,.3.3.3.3.3.3.3.3.,.,.,.,.,.,.,.3.,.,.,.,.3.3.3.3.>.,.,.>.>.>.>.,.3.3.3.3.>.>.,.,.>.,.3.3.3.,.,.,.3.3.3.3.3.3.3.3.3.3.3.3.3.1.3.3.3.3.3.3.3.3.3.3.3.1.1.3.3.3.3.3.3.,.,.,.,.3.3.3.,.,.3.3.3.3.3.3.3.3.3.3.3.3.3.3.,.,.3.3.3.3.,.,.,.,.3.3.3.3.3.3.3.3.3.3.3.3.3.3.,.>.,.;.;.,.3.0.> 1 . . . . o . S Z M c c c ] { ] ] z l 0 w l z @.$.#.#.;.:.q q . . . . ;.                                      # X ",
"                                                          o @ o > 1 d d S F S F F D D D #.:.0.0.0.0.,.9.9.0.:.:.o.F ;.#.;.;.#.#.< < O ; ; > > - , 1 ; ; - @ M M s.s.y.0.y.0.0.y.s.p.a.a.a.p.s.s.q.0.0.0.s.i.y.y.k k 2 1 > > # # @ o                             @ @ . . o o F F 0.w.+.+.%.%.+.+.] ] ] +.$.+.+.F #.#.c h O O X X % 4 Y L ( ~ !.W.!.Q.Q.Q.!.Q.!.Q.!././././././.Q./.~.!.Q././././.Q./.Q./.Q.Q././.Q.Q.!.!.!.!.!.!.Q.Q.Q.Q.Q.Q.Q.Q.Q.Q.Q.Q.Q.Q.Q.Q.Q.Q.Q.Q.Q.Q.Q.Q.Q.Q.~.Q.Q.Q.Q.Q.~.~./.~.~.~.~.Q.~.Q.~.~.~.~.~.~.~.~././././.Q.Q.~.~.~.~.~.~.~.~.~.~./.~.~.~./.~.~.~.~.~.~.~.~.~./././././.Q././././././././././././././././././.Q.Q.Q.Q./.!.Q.Q.!.Q.!.Q././././.!.Q./.Q./.~./.Q.Q.Q.Q.Q.Q.Q.Q.Q.Q.Q.Q.Q.Q.Q.Q.Q.Q.Q.Q.Q.Q.!.!.Q ) /  . .f.7.7.,.3.3.3.3.3.3.3.3.3.3.d.d.d.3.3.3.3.3.3.3.3.3.3.3.3.3.3.3.3.3.3.3.3.3.3.3.3.3.3.3.3.3.3.3.3.3.3.3.3.3.3.3.3.3.3.3.3.3.3.3.3.3.3.3.3.3.3.3.3.3.3.3.3.3.3.3.3.3.3.3.3.3.3.3.3.3.3.3.,.,.3.3.3.3.3.3.3.3.3.3.3.3.3.3.3.3.3.3.3.3.3.3.3.3.3.3.3.3.3.3.3.3.3.3.3.3.3.3.3.3.3.3.3.3.3.3.3.3.3.3.3.3.3.3.3.3.3.3.3.3.3.3.3.3.3.3.3.3.3.3.3.3.3.3.3.3.3.3.3.3.3.3.3.3.3.3.3.3.3.3.3.3.3.3.3.3.3.3.3.3.3.3.3.3.3.3.3.3.3.3.3.3.3.3.3.3.3.3.3.3.3.3.3.3.3.3.3.3.3.3.3.3.3.3.3.3.3.,.,.,.3.3.,.,.,.3.3.3.3.3.2.3.3.3.3.3.3.3.3.3.3.3.2.2.3.3.3.3.3.3.3.3.3.3.3.3.3.3.3.3.3.3.3.3.3.3.3.3.3.3.3.3.3.3.,.,.3.3.3.3.3.3.3.3.3.3.3.3.3.3.3.3.3.3.3.3.3.3.3.3.3.3.3.3.3.3.3.3.3.3.3.3.3.3.3.3.3.3.3.3.3.3.3.3.3.3.3.3.3.3.3.3.3.3.3.3.3.3.3.3.3.3.3.3.3.3.3.3.3.3.3.3.3.3.3.3.3.3.,.3.3.3.3.3.3.3.,.,.3.3.3.3.3.3.3.3.3.3.3.3.3.3.3.3.3.3.3.3.3.3.3.3.,.,.,.,.3.3.3.3.,.,.,.,.3.3.3.3.3.3.3.3.,.,.,.,.,.,.3.3.3.,.,.,.3.3.3.3.,.,.,.3.3.3.,.,.3.3.3.3.3.3.3.3.3.3.3.3.3.3.3.3.3.3.2.2.2.2.2.2.2.2.3.3.3.3.3.3.3.3.3.3.3.3.3.3.3.3.3.3.3.3.3.3.3.3.3.3.3.3.3.3.,.,.3.3.3.3.3.,.,.,.3.3.3.3.3.3.3.3.;.,.,.,.>.;.,.,.,.,.;.;.,.,.,.,.3.3.,.,.3.3.3.3.3.3.3.3.3.3.3.3.3.3.3.3.3.3.3.3.3.,.,.,.,.,.,.,.3.3.3.3.3.3.3.3.3.3.3.3.3.3.3.3.3.3.3.3.3.3.3.3.3.3.3.,.3.3.3.3.>.>.>.3.3.3.3.3.3.3.3.3.3.3.3.3.3.3.3.3.3.3.3.3.3.3.3.3.3.3.3.3.3.3.3.3.3.3.3.3.3.3.3.3.3.3.3.3.3.3.3.3.3.3.3.3.3.,.,.,.,.,.,.,.>.>.>.>.>.>.>.>.,.3.3.3.3.3.3.,.3.3.3.3.3.3.,.,.3.3.3.3.3.3.3.3.3.3.3.3.3.3.3.3.3.3.3.3.3.3.3.3.,.3.3.3.3.3.3.3.,.3.3.3.,.,.3.3.3.3.3.3.3.3.3.3.,.3.3.3.3.3.3.3.3.3.3.3.3.3.3.3.3.3.3.3.3.3.3.3.3.3.3.3.3.3.3.3.3.3.3.3.3.3.3.3.,.,.,.,.,.,.3.3.3.3.3.3.3.3.3.3.3.3.3.3.3.3.3.3.3.>.3.3.3.3.3.3.3.3.3.3.3.3.3.3.3.3.3.3.3.3.3.3.;.>.,.;.;.,.3.3.1 1 . . . . @ @ Z M M c M c { { D D z z w w z z $.$.#.#.;.;.q 1 . . . . ;.                                      X X ",
"                                                                g d o @ @ > 1 1 F D F F :.,.,.,.:.:.#.:.3.0.3.,.,.3.0.y.y.y.8.8.k k @ @ o . @ @ @ ; O O o . g g 0.y.0.0.y.p.s.a.0.0.9.0.3.0.9.0.3.3.,.,.0.0.3.3.b j 1 , = 3 . o                                 @ @ . . o o O.O.9.9.B B +.+.B B +.] B ] ] ] D S +.#.c c @ O X X $ % L L / ( ~ (.! ! W.W.W.W.W.W.W.W.W.W.W.W.W.W.W.W.W.W.W.W.W.Q.Q.Q.Q.Q.Q.Q.Q.W.W.W.W.W.W.W.W.W.W.W.W.W.W.W.W.W.W.W.W.W.W.W.!.Q.Q.Q.Q.Q.Q.Q.Q.Q.Q.Q.Q.Q.Q.Q.Q.Q.Q.Q.Q.Q.Q.Q.Q.Q.!.Q.Q.Q.Q.Q.Q.Q.Q.Q.Q.Q.!.Q.!.Q.Q.Q.!.Q.!./././.!././.Q.Q.Q.Q.Q.Q.Q.Q.Q.!.!.!.!.!.!./.!.Q.Q.Q.!.Q.Q.Q.Q.Q.Q.Q.Q.Q.Q.W.W.W.W.W.W.W.W.W.!.!.!.!.W.W.W.W.W.W.W.W.W.W.W.Q.Q.Q.Q.W.Q.Q.Q.Q.Q.Q.Q.Q.Q.Q.Q.Q.Q.Q.Q.Q.Q.!.!.!.!.!.!.Q Q E /  . .f.f.7.6.3.3.3.3.3.3.3.3.3.3.3.3.3.3.3.3.3.3.3.3.3.3.3.3.3.3.3.3.3.3.3.3.3.3.3.3.3.3.3.3.3.3.3.3.3.3.3.3.3.3.3.3.3.3.3.3.3.3.3.3.3.3.3.3.3.3.3.3.3.3.3.3.3.3.3.3.3.3.3.3.3.3.3.3.3.3.3.3.3.3.3.3.3.3.3.3.3.3.3.3.3.3.3.3.;.3.3.3.3.3.3.3.3.3.3.3.3.3.3.3.3.3.3.3.3.3.3.3.3.3.3.3.3.3.3.3.3.3.3.3.3.3.3.3.3.3.3.3.3.3.3.3.3.3.3.3.3.3.3.3.3.3.3.3.3.3.3.3.3.3.3.3.3.3.3.3.3.3.3.3.3.3.3.3.3.3.3.3.3.3.3.3.3.3.3.3.3.3.3.3.3.3.3.3.3.3.3.3.3.3.3.3.3.3.3.3.3.3.3.3.3.3.3.3.3.3.2.2.2.2.3.3.3.3.2.>.>.2.3.3.>.2.2.2.2.2.2.3.2.2.2.2.>.>.2.3.3.3.3.3.3.3.3.3.3.3.,.,.,.,.,.,.3.3.3.3.3.3.3.3.3.3.3.3.3.3.3.3.3.3.3.3.3.3.3.3.3.3.3.3.3.3.3.3.3.3.3.3.3.3.3.3.3.3.3.3.3.3.3.3.3.3.3.3.3.3.3.3.3.3.3.3.3.3.3.3.3.3.3.3.3.3.3.3.3.3.3.3.3.3.3.3.3.3.3.3.3.3.3.3.3.3.3.3.3.3.3.3.3.3.3.3.3.3.3.3.3.3.3.3.3.3.3.3.3.3.3.3.3.3.3.3.3.3.3.3.3.3.3.3.3.3.3.3.3.3.3.3.3.3.3.2.2.3.3.3.3.3.3.3.3.3.3.3.3.3.3.3.3.3.3.3.3.3.3.3.3.3.3.3.3.3.3.3.3.3.3.3.3.3.3.3.3.3.3.3.3.3.3.3.3.3.2.3.3.3.3.3.3.3.3.3.3.3.3.3.3.3.3.3.3.3.3.3.3.3.3.3.3.3.3.3.3.3.3.3.3.3.3.3.3.3.3.3.3.3.3.,.,.,.,.,.3.3.,.,.3.3.3.3.3.3.3.3.3.3.3.3.3.3.3.3.3.3.3.3.3.3.3.3.3.3.3.3.,.,.3.3.,.,.,.,.,.3.3.3.3.,.,.3.3.3.3.3.3.3.3.3.3.3.3.3.3.3.3.3.3.3.,.,.3.3.3.3.3.3.,.,.,.,.3.3.3.3.3.3.3.3.3.3.2.2.2.3.3.3.3.3.3.3.3.3.3.3.3.3.2.3.3.3.3.3.3.2.3.3.3.3.3.3.3.3.3.3.3.3.3.3.3.3.3.3.3.3.3.3.3.3.3.3.3.3.3.3.3.3.3.3.2.2.2.3.3.2.3.3.3.3.3.3.3.3.3.3.3.3.3.3.3.3.3.3.3.3.3.3.3.3.,.,.,.,.,.,.,.,.,.,.,.,.>.>.>.>.3.3.3.3.3.3.3.3.3.3.3.3.3.3.3.3.3.3.3.3.3.3.3.3.3.3.3.3.3.3.3.3.3.3.3.3.3.3.3.3.3.3.3.3.3.3.3.3.3.3.3.3.3.3.3.3.1.1.3.3.3.3.3.3.3.3.3.3.3.3.3.3.3.3.3.3.3.3.3.3.3.3.3.3.3.3.3.3.3.3.3.3.3.3.3.3.3.3.3.3.3.3.3.3.3.3.3.3.3.3.3.3.1.3.3.3.;.;.3.3.,.,.,.,.,.3.3.0.> > . . . . . . M M M j V z F D N N f z u u z a %.$.$.#.;.;.q 1 . . . . ;.                                      X X ",
"                                                                g k o > @ @ 1 > F F F F 3.3.,.:.3.3.,.:.0.0.3.3.,.,.0.y.y.i.3.3.d k @ @ O . O @ @ ; O O o . g g 0.0.i.i.i.s.a.a.y.i.0.y.3.0.9.0.0.9.,.,.0.0.3.3.b k 2 > 3 3 . o                                 @ @ . . o o F F 0.9.B B ] +.` ] @.@.+.+.D D B B #.#.V c O O X X $ % e L / ^ ( ! ~ ~ ~ ~ ~ (.~ (.(.(.(.(.(.(.(.(.(.(.(.(.(.(.(.(.!.!.!.!.!.!.!.!.!.!.!.!.!.!.!.!.W.! Q ! Q Q Q Q ! Q W.Q W.W.W.W.W.W.W.W.W.W.W.W.W.!.!.!.!.!.!.!.!.(.!.(.!.W.W.!.(.(.!.!.(.(.(.(.!.!.(.(.(.(.(.(.(.!.!.`.`.`.`.`.!.`.`.!.!.(.!.(.(.(.(.(.(.(.(.(.`.(.`.`.`.!.`.`.`.(.!.!.!.!.!.!.(.(.(.(.(.(.(.(.Q Q Q Q Q Q Q Q (.(.(.(.(.(.(.(.(.(.(.(.(.(.(.(.!.!.!.!.!.!.!.!.W.!.!.!.W.W.!.!.(.(.(.(.!.Q ) ( ^ /  . .f.f.4.4.3.8.8.8.t.8.3.3.3.3.3.3.d.d.d.d.3.3.3.3.3.3.3.3.3.3.3.3.3.3.3.3.3.3.3.3.3.3.3.3.3.3.3.3.3.3.3.3.3.3.3.3.3.3.3.3.3.3.3.3.3.3.3.3.3.3.3.3.3.3.3.3.3.3.3.3.3.3.3.3.3.3.3.3.3.3.3.3.3.3.3.3.3.3.3.3.3.3.3.3.3.3.3.3.3.3.3.3.3.3.3.3.3.3.3.3.3.3.3.3.3.3.3.3.3.3.3.3.3.3.3.3.3.3.3.3.3.3.3.3.3.3.3.3.3.3.3.3.3.3.3.3.3.3.3.3.3.3.3.3.3.3.3.3.3.3.3.3.3.3.3.3.3.3.3.3.3.3.3.3.3.3.3.3.3.3.3.3.3.3.3.3.3.3.3.3.3.3.3.3.3.3.3.3.3.3.3.3.3.3.3.3.3.3.3.3.3.3.3.3.3.3.3.3.3.3.3.3.3.3.3.3.3.3.3.3.3.3.3.3.2.2.3.3.3.3.3.3.3.3.3.3.3.3.3.3.3.3.3.3.3.3.3.3.3.3.3.3.3.3.,.,.3.3.3.3.3.3.3.3.3.3.3.3.3.3.3.3.3.3.3.3.3.3.3.3.3.3.3.3.3.3.3.3.3.3.3.3.3.3.3.3.3.3.3.3.3.3.3.3.3.3.3.3.3.3.3.3.3.3.3.3.3.3.3.3.3.3.3.3.3.3.3.3.3.3.3.3.3.3.3.3.3.3.3.3.3.3.3.3.3.3.3.3.3.3.3.3.3.3.3.3.3.3.3.3.3.3.3.3.3.3.3.3.3.3.3.3.3.3.3.3.3.3.3.3.3.3.3.3.3.3.3.3.3.3.3.3.3.3.3.3.3.3.3.3.3.3.3.3.3.3.3.3.3.3.3.3.3.3.3.3.3.3.3.3.3.3.3.3.3.3.3.3.3.3.3.3.3.3.3.3.3.3.3.3.3.3.3.3.3.3.3.3.3.3.3.3.3.3.3.3.3.3.3.3.3.3.3.3.3.3.3.3.3.3.3.3.3.3.3.3.3.3.3.3.3.3.3.3.3.3.3.3.3.3.3.3.3.3.3.3.3.3.3.3.3.3.3.3.3.3.3.3.3.3.3.3.3.3.3.3.3.3.3.3.3.3.3.3.3.3.3.3.3.3.3.3.3.3.3.3.3.3.3.3.3.3.3.3.3.3.3.3.3.3.3.3.3.3.3.3.3.3.3.3.3.3.3.3.3.3.3.3.3.3.3.3.3.3.3.3.3.3.3.3.3.3.3.3.3.3.3.3.3.3.3.3.3.3.3.3.3.3.3.3.3.3.3.3.3.3.3.3.3.3.3.3.3.3.3.3.3.3.3.3.3.3.3.3.3.3.3.3.3.3.3.3.3.3.3.3.3.3.3.3.3.3.3.3.3.3.3.3.3.3.3.3.3.3.3.3.3.3.3.3.3.3.3.3.3.3.3.3.3.3.3.3.3.3.3.3.3.3.,.,.,.,.,.,.,.,.,.>.3.3.3.3.3.3.3.3.3.3.3.3.3.3.3.3.3.3.3.3.3.3.3.3.3.3.3.3.3.3.3.3.3.3.3.3.3.3.3.3.3.3.3.3.3.3.3.3.3.3.3.3.3.3.3.3.3.3.3.3.3.3.3.3.3.3.3.3.3.3.3.3.3.3.3.3.3.3.3.3.3.3.3.3.3.3.3.3.3.3.3.3.3.3.3.3.3.3.3.3.3.3.3.3.3.3.3.3.3.3.3.3.3.3.3.3.3.3.3.3.;.,.,.,.,.3.3.3.> > . . . . O o S M M j V V { { N D u f u p x z :.%.$.;.;.;.q 1 . . . . ;.                                      X X ",
"                                                                . . o . . . . @ > > ; ; h j h h , < y g D F ;.;.3.3.i.s.a.a.y.0.j k . . @ @ O . O @ o o . . d g a.a.x.a.i.0.y.0.9.0.#.#.h j y y g y 1 1 g g 1 1 < > @ # # # . .                                 @ @ . . . . S S ,.%.n n z n N B 9.4.$.%.D +.B B #.#.V b O O . . X % e L U / / ^ ) ) ) ) ) ^ ) ! ! ! Q Q ) ) ) ( ) ) ) ) ) ) Q Q ! Q Q Q Q ! ! ! ! ! ! ! ! ! ! ! Q ) ) ) ) ) ~ ~ Q Q Q Q ~ ~ ~ Q Q ~ Q ~ ~ Q Q ~ Q Q ~ ~ (.(.(.(.~ ~ ~ ~ ~ ~ ~ ~ Q ~ Q ~ Q ~ ~ ~ ~ ~ ~ ~ ~ ~ ~ ~ ~ Q ~ ~ ~ ~ (.Q (.(.(.(.(.~ ~ ~ ! Q Q Q Q ! Q Q Q Q ~ ~ Q Q ~ ~ Q Q Q Q Q Q Q Q ) ) ( ( ( ! ! ! ) ) ( ( ( ( ( ( ! ! ~ ~ ! ! ~ ~ ! ! ! ! ! ! ! ! ! ! ! ! ! ! ! ! Q Q Q Q Q Q Q Q ~ ~ ~ ~ ( ( ^ ^ U U  ...f.g.u.u.3.8.y.y.y.y.y.y.y.y.3.3.3.3.d.y.6.6.3.d.3.3.3.3.3.3.3.3.3.3.3.3.3.3.3.3.3.3.3.3.3.3.3.3.3.3.3.3.3.3.3.3.3.3.3.3.3.3.3.3.3.3.3.3.3.3.3.3.3.3.3.3.3.3.3.3.3.3.3.3.3.3.3.3.3.3.3.3.3.3.3.3.3.3.3.3.3.3.3.3.3.3.3.3.3.3.3.3.3.3.3.3.3.3.3.3.3.3.3.3.3.3.3.3.3.3.3.3.3.3.3.3.3.3.3.3.3.3.3.3.3.3.3.3.3.3.3.3.3.3.3.3.3.3.3.3.3.3.3.3.3.3.3.3.3.3.3.3.3.3.3.3.3.3.3.3.3.3.3.3.3.3.3.3.3.3.3.3.3.3.3.3.3.3.3.3.3.3.3.3.3.3.3.3.3.3.3.3.3.3.3.3.3.3.3.3.3.3.3.3.3.3.3.3.3.3.3.3.3.3.3.3.3.3.3.3.3.3.3.3.3.3.3.3.3.3.3.3.3.3.3.3.3.3.3.3.3.3.3.3.3.3.3.3.3.3.3.3.3.3.3.3.3.3.3.3.3.3.3.3.3.3.3.3.3.3.3.3.3.3.3.3.3.3.3.3.3.3.3.3.3.3.3.3.3.3.3.3.3.3.3.3.8.3.3.3.3.3.3.8.3.3.3.3.3.3.3.3.3.3.3.3.3.3.3.3.3.3.3.3.3.3.3.3.3.3.3.3.3.3.3.3.3.3.3.3.3.3.3.3.3.3.3.3.3.3.3.3.3.3.3.3.3.3.3.3.3.3.3.3.3.3.3.3.3.3.3.3.3.3.3.3.3.3.3.3.3.3.3.3.3.3.3.3.3.3.3.3.3.3.3.3.3.3.3.3.3.3.3.3.3.3.3.3.3.3.3.3.3.3.3.3.3.3.3.3.3.3.3.3.3.3.3.3.3.3.3.3.3.3.3.3.3.3.3.3.3.3.3.3.3.3.3.3.3.3.3.3.3.3.3.3.3.3.3.3.3.3.3.3.3.3.3.3.3.3.3.3.3.3.3.3.3.3.3.3.3.3.3.3.3.3.3.3.3.3.3.3.3.3.3.3.3.3.3.3.3.3.3.3.3.3.3.3.3.3.3.3.3.3.3.3.3.3.3.3.3.3.3.3.3.3.3.3.3.3.3.3.3.3.3.3.3.3.3.3.3.3.3.3.3.3.3.3.3.3.3.3.3.3.3.3.3.3.3.3.3.3.3.3.3.3.3.3.3.3.3.3.3.3.3.3.3.3.3.3.3.3.3.3.3.3.3.3.3.3.3.3.3.3.3.3.3.3.3.3.3.3.3.3.3.3.3.3.3.3.3.3.3.3.3.3.3.3.3.3.3.3.3.3.3.3.3.3.3.3.3.3.3.3.3.3.3.3.3.3.3.3.3.3.3.3.3.3.3.3.3.3.3.3.3.3.3.3.3.3.3.3.3.3.3.3.3.3.3.3.3.3.3.3.3.3.3.3.3.3.3.3.3.3.3.3.3.3.3.3.3.3.3.3.3.3.3.3.3.3.3.3.3.3.3.3.3.3.3.3.3.3.3.3.3.3.3.3.3.3.3.3.3.3.3.3.3.8.3.3.3.3.3.3.3.3.3.3.3.3.3.3.3.3.3.3.3.3.3.3.3.3.3.3.3.3.3.3.3.3.8.8.8.8.8.8.8.8.y.8.t.t.t.3.8.8.t.t.t.8.t.t.t.t.0.8.3.3.3.3.3.3.3.3.3.3.3.3.3.3.3.3.3.3.3.3.3.3.3.3.3.3.3.3.0.0.1 1 . . . . O O M M V V S S :.:.{ ] u u p x x N :.$.$.;.;.;.q 1 . . . . 3.                                      X X ",
"                                                                  o . o o . . o ; ; @ - k h h h , , g g o.F :.,.,.,.0.y.i.s.0.0.j g @ . . O . . o o o . . . d g a.a.v.v.i.y.y.0.3.0.o.;.h M y y g y r 1 y y 1 1 > > @ # @ @ o                                   @ @ . . . . M V ,.,.n n a a B B e.e.%.,.O.+.S B o.o.h h O X . . X % 6 e X.U / / / / / / / / / / ^ ^ ^ ^ / / / / / / / ^ ^ ^ ^ ^ ^ ^ ^ ^ ^ ^ ^ ^ ^ ^ ^ ^ ^ ^ ^ ^ ^ ^ ^ ^ ^ ^ ^ ^ ^ ^ ^ ^ ^ ^ ^ ^ ^ ^ ^ ^ ^ ^ ^ ^ ^ ^ ^ ^ ^ ^ ^ ^ ^ ^ ^ ^ ^ ^ ^ ^ ^ ^ ^ ^ ^ ^ ^ ^ ^ ^ ^ ^ ^ ^ ^ ^ ( ( ^ ^ ^ ^ ( ( ^ ( ( ( ( ^ ^ ^ ( ( ( ( ( ( ( ( / ( ( ( ^ ^ ^ ^ ^ ^ ^ ^ ^ ^ ^ ^ ^ / / ^ ^ ^ ^ ^ / / / / / / ^ ^ ^ ^ ^ ^ ^ ^ ^ ^ ^ ^ ^ ^ ^ ^ ^ ^ ^ ^ ^ ^ ^ ^ ^ ^ ^ ^ ^ ( ^ ^ ^ ^ ^ ^ ^ ^ ^ ^ / / U U  .| f.g.q.y.0.y.y.y.y.y.y.y.y.y.3.3.3.y.d.y.y.y.3.3.3.3.3.3.3.3.3.3.3.3.3.3.3.3.3.3.3.3.3.3.3.3.3.3.3.3.3.3.3.3.3.3.3.3.3.3.3.3.3.3.3.3.3.3.3.3.3.3.3.3.3.3.3.3.3.3.3.3.3.3.3.3.3.3.3.3.3.3.3.3.3.3.3.3.3.3.3.3.3.3.3.3.3.3.3.3.3.3.3.3.3.3.3.3.3.3.3.3.3.3.3.3.3.3.3.3.3.3.3.3.3.3.3.3.3.3.3.3.3.3.3.3.3.3.3.3.3.3.3.3.3.3.3.3.3.3.3.3.3.3.3.3.3.3.3.3.3.3.3.3.3.3.3.3.3.3.3.3.3.3.3.3.3.3.3.3.3.3.3.3.3.3.3.3.3.3.3.3.3.3.3.3.3.3.3.3.3.3.3.3.3.3.3.3.3.3.3.3.3.3.3.3.3.3.3.3.3.3.3.3.3.3.3.3.3.3.3.3.3.3.3.3.3.3.3.3.3.3.3.3.3.3.3.3.3.3.3.3.3.3.3.3.3.3.3.3.3.3.3.3.3.3.3.3.3.3.3.3.3.3.3.3.3.3.3.3.3.3.3.3.3.3.3.3.3.3.3.3.3.3.3.3.3.3.3.3.3.3.3.3.3.3.3.3.3.3.3.3.3.3.3.3.3.3.3.3.3.3.3.3.3.3.3.3.3.3.3.3.3.3.3.3.3.3.3.3.3.3.3.3.3.3.3.3.3.3.3.3.3.3.3.3.3.3.3.3.3.3.3.3.3.3.3.3.3.3.3.3.3.3.3.3.3.3.3.3.3.3.3.3.3.3.3.3.3.3.3.3.3.3.3.3.3.3.3.3.3.3.3.3.3.3.3.3.3.3.3.3.3.3.3.3.3.3.3.3.3.3.3.3.3.3.3.3.3.3.3.3.3.3.3.3.3.3.3.3.3.3.3.3.3.3.3.3.3.3.3.3.3.3.3.3.3.3.3.3.3.3.3.3.8.8.3.3.3.3.3.3.3.3.3.3.3.3.3.3.3.3.3.3.3.3.3.3.3.3.d.d.d.d.3.3.3.3.3.3.3.3.3.3.3.3.3.3.3.3.3.3.3.3.3.3.3.3.3.3.3.3.3.3.3.3.3.3.3.3.3.3.3.3.3.3.3.3.3.3.3.3.3.3.3.3.3.3.,.3.3.3.3.3.3.3.3.3.3.3.3.3.3.3.3.3.3.3.3.3.,.3.3.3.3.3.3.3.,.,.3.3.3.3.3.3.3.3.3.3.3.3.3.3.3.3.3.3.3.3.3.3.3.3.3.3.3.3.3.3.3.3.3.3.3.3.3.3.3.3.3.3.3.3.3.3.3.3.3.3.3.3.3.3.3.3.3.3.3.3.3.3.3.3.3.3.3.3.3.3.3.3.3.3.3.3.3.3.3.3.3.3.3.3.3.3.3.3.3.3.3.3.3.3.3.3.3.3.3.3.3.3.3.3.3.3.3.3.3.3.3.3.3.3.3.3.3.3.3.3.3.3.3.3.3.3.3.3.3.3.3.3.3.3.3.3.3.3.3.3.3.3.3.3.3.3.3.3.3.3.3.3.3.3.3.3.3.3.3.3.3.3.3.3.d.3.3.3.3.3.3.3.3.3.3.3.3.3.3.3.3.3.3.3.3.3.3.3.3.3.t.t.8.8.8.8.8.8.8.8.3.8.3.3.8.8.t.t.y.y.y.y.y.y.8.8.3.3.3.3.3.3.3.3.3.3.3.3.3.3.3.3.3.3.3.3.3.3.3.3.3.3.3.3.6.0.1 > O . . . O O M M M M S F 3.3.$.} i u p x x N %.$.#.#.;.;.q q . . . . 3.                                      # # ",
"                                                                      d > > Z M > > @ @ y g y g O O < 1 o.o.,.,.3.,.0.0.y.s.0.0.;.,.3.3.#.F Z S k k j j j M ,.,.i.y.a.x.i.i.x.p.x.x.>.>.g g @ - 1 1 > > > > @ @ o o . . . .                                     ; @ . . . . M M ,.,.n n h h B N e.0.%.,.F +.S B D D h h o . . . . X $ % 4 4 5 5 7 7 7 7 7 7 8 8 8 8 8 8 8 8 8 8 8 8 8 8 8 8 8 8 8 7 7 7 7 8 8 8 7 7 7 7 8 8 8 8 8 8 8 8 8 8 8 K 8 K K K K K K K K K K K K K K K K K K K K K K K K K K K K K K K K K K K K K K K K K K K K K K K K K K K K K K K K K K K K K K K 8 8 K K K K 8 8 8 8 8 8 8 8 8 8 8 8 8 8 8 8 8 8 8 8 8 8 8 8 8 8 8 8 8 8 8 8 8 8 8 8 8 8 8 8 8 8 8 8 8 8 8 8 8 8 8 8 8 8 8 8 8 8 8 8 K K K K K K K K K K K K K 8 9 9 e 6 w w 0 q < < 1 1 1 1 1 1 < < 2 2 1 1 1 1 1 1 1 2 > > > > 1 > > > > > > > > > > > > > > > > > > > > > > > > > > > > > > > > > > > > > > > 2 2 2 2 2 2 > > > > > > > > > > > > > > > > > > > > > > > > > > > > > > > > > > > > > > > > > > > > > > > > > > > > > > > > > > > > > > > > > > > > > > > > > > > > > > > > > > > > > > > > > > > > > > 2 2 2 2 2 2 2 2 2 2 2 2 > > > > > > > > > > > > > > > > 2 2 2 2 2 2 > > 2 2 2 2 2 2 > > 2 > > > > > > > > > > > > > > > > > > > > > > > > > > > > > > > > > > > > > > > > > > > > > > > > > > > > > > > > > > > > > > > > > > > > > > > > > > > > > > > > > > > > > > > > > > > > > > > > > > > > > > > > , , , > , , > > > > > > > > > > > > > > > > > > > > > > > > > > > > > > > > > > > > > > > > > > > > > > > > > > > > > > > > > > > > > > > > > > > > > > > > > > > > > > > > > > > > > > > > > > > > > > > > > > > > > > > > > > > > > > > > > > > > > > > > > > > > > > > > > > > > > > > > > > > > > > > > > > > > > > > > > 2 > > 2 2 2 2 > 2 2 2 2 2 2 2 2 > > > > > 2 > > > > > > > > > > > > > > > > > > > > > > > > > > > > > > > > > > > > > > > > > > > > > > > > > > > > > > > > > > > > > > > > > > > > > > > > > > > > > > > > > > > > > > > > > > ; ; ; ; > > > > > > > > > > > > > > > > > > > > > > > > > > > > > > > > > > > > > 2 2 > > > > > 2 2 > > > > > > > > > > > > 2 2 > > > > > > > > > > > > > > > > > > > > @ @ > > > > > > > > > > > > > > > > > > > > > > > > > > > > > > ; ; ; > > > > > > > > > > > > > > > > > 2 2 2 > > > > 2 2 2 2 2 > > 2 > > > > > > > > > > > > > > > > > > > > > > > > > > > > > > > > > > > > > , , > > > > > > > > > , , 2 , , > 2 2 2 , , > > > > , > 1 1 > > > > > > > > > > > > > > > > > > > 3 3 > @ @ @ @ @ @ & @ O @ @ @ > > < < M M S S S B %.:.{ } i u p x x x %.$.#.#.#.;.q y . . . . 3.                                      # # ",
"                                                                          1   Z @ ; O O y y y g O o , < #.#.3.;.,.,.3.9.0.y.0.0.3.;.3.3.F F j j k g k j Z S ;.;.s.i.a.x.y.y.x.p.a.x.;.>.d g @ - 1 1 > > > ; @ @ o . . .                                         ; @ . . . . M V #.:.n V h u N m e.q.%.,.F #.S B S D h h . . . . . X X $ % % 4 4 4 4 5 5 5 5 5 5 5 5 5 5 5 5 5 5 5 5 5 5 5 5 5 5 5 4 4 4 5 5 5 5 5 5 5 5 5 5 5 5 5 7 7 7 7 7 7 7 7 7 7 7 7 7 8 7 7 7 7 7 7 7 7 7 7 7 7 7 7 7 7 7 7 7 7 7 8 8 8 8 7 7 7 7 7 7 8 8 8 8 8 8 8 8 8 8 7 7 7 7 8 8 8 8 8 9 9 8 8 7 7 7 7 7 7 7 7 7 7 7 5 5 5 5 5 5 5 5 5 5 5 5 5 5 5 5 5 7 7 7 7 7 7 7 7 7 7 7 7 5 5 5 5 5 5 5 5 5 5 7 5 5 5 7 7 7 7 7 5 5 5 5 5 5 5 7 5 5 7 7 7 7 7 7 7 7 7 7 9 9 7 7 9 6 6 6 0 0 2 1 < < 1 1 1 < 1 1 > > 2 2 2 2 1 1 1 1 1 2 > > > > > > > > > > > > > > > > > > > > > > > > > > > > > > > > > > > > > > > > > > > > > > > > > > > > > > > > > > > > > > > > > > > > > > > > > > > > > > > > > > > > > > > > > > > > > > > > > > > > > > > > > > > > > > > > > > > > > > > > > > > > > > > > > > > > > > > > > > > > > > > > > 2 2 2 2 2 2 > > > > > > > > > > > > > > > > > > > > > 2 > > > > > > > 2 2 2 > > > > > > > > > > > > > > > > > > > > > > > > > > > > > > > > > > > > > > > > > > > > > > > > > > > > > > > > > > > > > ; ; > > > > > > > > > > > > > > > > > > > > > > > > > > > > > > > > > > > > > > > > > > > > > , > > , , , > > > > > > > > > > > > > > > > > > > > > > > > > > > > > > > > > > > > > > > > > > > 1 > > > > > > > > > > > > > > > > > > > > > > > > > > > > > > > > > > > > > > > > > > > > > > > > > > > > > > > > > > > > > > > > > > > > > > > > > > > > > > > > > > > > > > > > > > > > > > > > > > > > > > > > > > > > > 2 2 > > > > 2 2 2 > 2 2 2 2 2 2 2 > > > > > > > > > > > > > > > > > > > > > > > > > > > > > > > > > > > > > > > > > > > > > > > > > > > > > > > > > > > > > > > > > > > > > > > > ; > > > > > > > > > > > > > > > > > > > > > > > > ; ; ; > > > > ; > > > > > > > > > > > > > > > > > > > > > > > > > > > > > > > > 2 2 > > > > > > 2 2 > > > > > > > > > > > > 2 2 > > > > > > > > > > > > > > > > > > > > > > > > > > > > > > > > > > > > > > > > > > > > > > > > > > > > ; ; ; > > > > > > > > > > > > > > > > > 2 2 > > > > > 2 2 2 2 2 2 2 > > > > > > > > > > > > > > > > > > > > > > > > > > > > > > > > > > > > > > > , > > > > > > , , , , , , , > > > 2 2 2 2 2 2 , 2 > , > > > > > > > > > > > > > > > > @ > 3 > @ @ @ @ @ @ @ @ @ @ @ @ o @ @ @ 2 > < , M S F S D S :.%.{ +.u u x x x z @.$.#.#.#.;.q y . . . . 3.                                      # # ",
"                                                                                . . . . . @ O @ ; ; y g ,.,.,.;.D D o.D 0.3.y.i.v.x.V.V.s.s.a.p.x.a.B.B.P.P.v.v.p.a.y.i.i.p.y.i.a.s.o.F 1 1 1 < 1 < > > @ . @ o                                                 > > . . . . D S 9.0.B S u i z z e.4.%.%.F F S S S S h b y y < , # . X X X X $ X $ $ $ $ % % % % $ $ $ $ $ % $ $ $ $ $ $ $ $ $ $ $ $ X X $ $ $ $ $ $ $ $ $ $ $ $ % % % % % % % % 4 % % 4 4 4 4 4 4 4 % % % % % % % % % % % % % 4 4 4 4 4 4 4 4 4 4 4 4 4 4 4 4 4 4 4 4 4 4 4 4 4 4 4 4 4 4 4 4 % 4 4 % % % % 4 4 % % 4 % % % % % $ $ % $ $ $ % $ $ $ $ $ $ $ $ $ % % % % % % % % $ % % % % % % % $ $ $ $ $ $ % % % % % % % % % $ $ $ $ $ $ $ $ % $ % % % % % % % 4 4 4 4 4 4 % % % % $ X X X . o . . . . . . . o . . . . . . o o o o o o o o o o o o o o . . o # o o o o o o o . o o o . . . o o . o o o o o . . o o o o o o o o o o o . . o o o o o o o . o o o . . . . o o . . . . . . . . . o . . . . . . . . . . o o o . . . . . . . . . . . . o . . . . . o o o o . . . . . . . . . . . . . o o o o o o o o o o o o o o o o o o o o o o o o o o . o o o o o o o o . . . o o . . . . o o o o o o o o o o o o o o o o . . . . o o . . o o o o o o o . o o o o o o # # o o o o . o o . . . o o o o o o o o . . o o o o o o # @ o o o . o o . . . . . . . . . . o o o o o o o o . . o o o o o o o o o o o o o o . o o o o o o o o o . . o o . . o # # o . . . # . o # o . . . . o o O o . . o @ @ o o o o o o o o o o o o o o o o o o o o o o o o o o o o o o o o o o o o o o o o o o o o o o o o o o o o o o o o o o o o o o o o o o o o o o o o o o o o o o o o o o o o o o o . . . . o o o o o o o o o o o o o o o o o o o o o o o o o o o o o o o o o o o o o o o o . . o o @ # o o o o o o o o o o o o o o o o o o o o o o o o . . . o o o o o o o . . . . @ @ @ o o o . . o o . . o o o o o o o o o o o o o o o o o o o o . . o . . . . o . . o o o . . . o o o o o o o o o . o o o o o o o . . . o o o . . . . . . . o o o o o o o o # o o o # o o o o # # o o o o . . . . . . . o o o . o o o o o o o o o o . . . o o o o o o o o o o o o o o o o o o o . . . . . . o o o o o o o o . o o o . . o o o o . o o o o o o o # . . . . . . . . . . . . . o o o o . . . o o o o o o o o . . o . . . o o o o o . . . . . . o o o o . . . . . . . . . . o o . . . . . . . . o o . . . . . . . . o o . . . . . o O o o o o # o . # # o o o o O O o O @ @ O o o o o o O O @ @ @ @ # o o o # # . . . . . . . . . . . o . . . . . . o . . . > < F D F F { +.F D 0.9.0.&.` ` p p N m $.$.#.#.#.#.q y . . . . 3.                                      . . ",
"                                                                                o o . . o . @ O ; ; y y ;.;.;.;.D D #.D 9.,.0.y.p.a.V.V.s.s.s.i.a.a.B.B.P.P.v.x.i.p.y.i.y.s.y.s.i.i.#.o.r r 1 r 1 < , > @ o @ o                                                 > > . . . . D D 3.0.M M y y f z :.4.:.,.F F D D o.D V h 1 < < , . . . . . X X X X X X X $ $ $ $ X X X X X $ X X X X X X X X X X X X X X X X X X X X X X X X X X $ X X X $ $ $ $ $ $ $ $ $ $ % % % % $ $ % $ % $ $ % % % $ $ $ % % % % % % % % % % % % % % % % % % % % % % % % % % % % % % % % % % $ $ $ $ $ $ $ $ $ $ $ $ $ $ $ X X X X X X X X X X X X X X X X X X $ $ $ $ $ $ X $ $ $ $ $ $ $ X X X X X X X X $ X X X $ $ X X $ $ X X X $ $ $ $ $ $ $ $ $ $ $ % % % % % % % $ $ $ X X X . . . . . . . . . . . o o o o . . o o o o o o o o o o o o o o . . o o o o o o o o o . . o o . o . . . o o o o o o o o o o o o o o o o o o o o . . . . o o o o o o o o o . o . . o . . o o o o o . o o o o . . . . . . . o o o o . . o . . . . . . . . . . . . . . . o o o . . . . . . . . . . . . . . o o o o o o o o o o o o o o o o o o o o o o o o o o o o o o o o o o o o o o o o . . . . o o o o o o o o o o o o . . . . . . . . o o . . . . . . . . . . . . . . o o o o . . . . o o o o . . o o o o o o . o . . . . o o . . o o o o o o o o . o . . . . . . . . . o o o o o o o o o o o o o o o o o o o o o o o o o o o o o o o o o . . . o . . o o # o . . o . . . . . . o . . o O O O o o O @ o o o o o o . . o o o o o o o o o o o o o o o o o o o o . o o o o o o o . o o o o o o . o . o o o o o o o o o o o o . . o o o o o o o . . . . o o o o . . . . o o o . o . o . . . . . . . o o . . . . . o o o o o o o o o o o o o o o . . . . . . . . . . . . . o o o . . . o o o o . . o . . . o o o o o o o o . o o o o o o o . . . . . . o o o o . o . . . . o o o o o . . . . . . . . o . . o . . . o o o o o o . . . . o . . . . . . . . . . . . . . . . . o o o o o o o o . . . . . . o . . . . . . . . . . . . . . . . o o o o o . o o o . . o o . . . . . . . . . . . . . . . . . . . . o o o o o o . . . . . . . . . . . . o . o o o o o o . . . . . . . . . . o o o o o o o o o o o o o o . . o o . . . . o o o o o . # # X X . . o . . . . . . o # o o o o o o o o o o o o o o o o o . . . . o . . . . . o . o . . . . . . . . . . . . . . . . . . . . . . . . . o o o . . . . o # O o o X o . . . . O O o o O O o o O O O o o o O O o O O O o o o o O O O O o o o o # o o # # # . . . . . . . . . . . . . . . . . . o . . . < 1 F F { ] D ] D B 9.,.4.&.] ` p p N m $.$.#.#.;.#.y y . . . . 3.                                      X . ",
"                                                                                  . . . . . # O o # < < F o.;.;.D D o.D >.;.,.9.v.v.v.v.0.0.0.0.a.p.s.i.V.B.B.V.i.i.9.3.,.,.#.;.0.,.Z S < 1 ; - = 3 # @ . # o o                                                 > < . . . . D D y.p.F F f u z z $.$.$.#.S M M M M M M M D #.y.s.k k . . . . . . . . . . . . X . . . . o . . . . . . . . . . . . . . . . . . . . X X X X X X X X X X X X X X X X X X X $ X X $ $ $ $ $ $ $ $ $ $ $ $ $ $ $ $ $ $ $ X X X X X X $ X X X X X X X X X X X X X X X X X X X X X X X X X X X X X X . . . . X X . . . . X X X X X X X X X X X X X X X X . . . . . . X . . . . X X X X . . . . . . . . . . . . . . . . . X X . . . . X X X X X X X X X X X X X X $ $ X X X $ X X o o . . . . . . X X . . . . . . . . . . . . . . . . . . . . . . . . . . . . . . . . . . . . . . . . . . . . . . . . . . . . . . . . . . . . o . . . . . . . . . . . . . . . . . . . . . . . . . . . . . o . . . . . . . . . . . . . . . . . . . . . . . . . . . . . . . . . . . . . . . . . . . . . . . . . . . . . . . . . . . . . . . . . . . . . . . . . . . . . . . . . . . . . . . . . . . . . . . . . . . . . . . . . . . . . . . . . . . . . . . . . . . . . . . . . . . . . . . . . . . . . . . . . . . . . . . . . . o o . . . . . . . . . . . . . . . . . . . . . . . . . . . . . . . . . . . . . . . . . . . . . . . . . . . . . . . . . . . . . . . . . . . . . . . . o . . . . . . . . . . o o . . . . . . . . . . . . . . . . . . . . . . . . . . . . . . . . . . . . . . . . . . . . . . . . . . . . . . . . . . . . . . . . . . . . . . . . . . . . . . . . . . . . . . . . . . . . . . . . . . . . . . . . . . . . . . . . . . . . . . . . . . . . . . . . . . . . . o . . . o o . . . . . . . . . . . . . . . . . o o . . . . . . . . . . . . . . . . . . . . . . . . . . . . . . . . . . . . . . . . o . . . . . . . . . . . . . . . . . . . . . . . . . . . . . . . . . . . . . . . . . o . . . . . . . . . . . . . . . . . . . . . . . o o o . . . . . . . . . . . . . . . . . . . o . . . . . . o . . . . o . . . o o . . o o o . o o . . . . . . . . . . . . . . . . . . . . . . . . . . . . . . . . . . . . . . . . . . . . . . . . . . . . . . . . . . . . . . . . . . . . . . . . . . . . . . . . . . . . . . . . . . . . . . . . . . . . . . . . . . . . . . . . . . . . X X X X X X X X X . X . X . X o X . o o . . . . . . O O O O O O O O X O O @ @ @ @ @ . o o o o . . . o o o . . . . . . . . . . . . . . . . . k h :.4.} } ] ] @.+.w.w.e.e.&.@.x a ` ] $.$.#.#.#.#.q y . . . . 3.                                        Z ",
"                                                                                    . . . . @ o # . , , D F ;.;.D D o.o.>.;.,.>.a.a.p.p.9.0.0.0.p.p.p.p.C.B.v.x.i.i.3.3.,.,.;.;.3.>.S D r y > - 3 @ @ o @ . o .                                                   1 . . . . D F y.i.S S u i z z +.$.$.$.F S S D F S S V D D y.p.k k . . . . . . . . . . . . . . . . . . . . . . . . . . . . . . . . . . . . . . . . . . . . X . . . . . . . . . . . X X . X X X X $ $ $ $ $ $ $ $ X $ X X X X X X X X X X X X X X X X X X X X X X X X X X X X X X X X X X X X X . . . X . . . . . . . . . . . . . . . . X . X . X . X . X . X . . . . . . . . . . . . . . . . . . . . . . . . . . . . . . . . . . . . . . . . X X X X X X X X X X X X X X X X X X X X . o o . . X . . . . X . . . . . . . . . . . . . . . . . . . . . . . . . . . . . . . . . . . . . . . . . . . . . . . . . . . . . . . . . . o o . . . . . . . . . . . . . . . . . . . . . . . . . . . . o o o o . . . . . . . . . . . . . . . . . . . . . . . . . . . . . . . . . . . . . . . . . . . . . . . . . . . . . . . . . . . . . . . . . . . . . . . o o o . . . . . o . . . . . o . . . . . . . . . . . . . . . . . . . . . . . . . . . . . . . . . . . . . . . . . . . . . . . . . . . . . . . . . . . . . . . . . . . . . . . . . . . . . . . . . . . . . . . . . . . . . . . . . . . . . . . . . . . . . . . . . . . . . . . . . . . . . . . . . . . . . . . . . . . . . . . . . . . . . . . . . . . . . . . . . . . . . . . . . . . . . . . . . . . . . . . . . . . . . . . . . . . . . . . . . . . . . . . . . . . . . . . . . . . . . . . . . . . . . . . . . . . . . . . . . . . . . . . . . . . . . . . . . . . . . . . . . . . . . . . . . . . . . . . . . . . . . . . . . . . . . . . . . . . . . . . . . . . . . . . . . . . . . . . . . . . . . . . . . . . . . . . . . . . . . . . . . . . . . . . . . . . . . . . . . . . . . . . . . . . . . . . . . . . . . . . . . . . . . . . . . . . . . . . . . . . . . . . . . . . . . . . . . . . . . . . . . . . . . . . . . . . . . . . . . . . . . . . . . . . . . . . . . . . . . . . . . . . . . . . . . . . . . . . . . . . . . . . . . . . . . . . . . . . . . . . . . . . . . . . . . . . . . . . . . . . . . . . . . . . . . . . . . . . . . . . . . . . . . . . . . . . . . . . . . . . . . . . . . . . . . . . . o o o o . . X X X X X X X X X X X X X O O O O o o o O X . . . . X . . X O o X . O O O # o . . . . . o o o o o o o . . . . . . . . . . . . . . . . . . . c c :.4.@.@.` N @.+.e.q.e.e.@.[ x a _ ` $.#.#.o.#.#.q q . . . . d.                                          ",
"                                                                                          a.1 > . . @ O j j M b b j M M S S S S #.%.:.9.0.9.i.0.0.0.#.#.0.0.c.v.3.,.F o.F o.S Z D o.F o.1 1 ; , > > > r 1 r 1                                                     1 . . . . D F 0.0.M M u y f f V V S S N M F F M V c h D S u.u.{ #.> > < < < < < 1 1 < < < < 1 1 1 1 < 1 1 1 1 d y g g g d y y 1 q q q q q q q q u u f f f l l f f f f f f f f h f h l h h h f l l l l l l l l l z l l l l z z c c l h l h c z c z z z z c z z l z c c c z l z c c c c z z c j j j j j j h h h h h k k k k h f f f f f f f f f f f f f f f f f g g g g g g g g d y y q y d d d f k g d d d d d d g g g g g g f f k k c c c c c c c c c c c c c c c c c c c c M z z h h c V n h h z h h h h j c c c M M M b M M j j j j j j j j h h j j h h j j j j j j j j j j j j j j j j j j j j j j M M j j j j M M j j j j M j j j j j j j j j j j b M M M M M M M M M M M M M M M M Z S S Z Z M M M Z M Z j j j j Z Z Z M M M Z Z Z Z Z Z Z Z M c M M M M Z Z Z Z Z Z Z Z M Z Z S Z Z Z Z M M S S M M M M M S M M M M S S Z Z Z Z S S Z Z S S S S S S S S S S S S S S D D D D D D D D D D D F F F F F F D D D F F F F F F F F F F F F F F F D D S S D F F F F D D D S S S S S S S S S S S S S D D S S S F D D F F F F D D F F F F F F F F F F D F F F F D F F F F F F F F F F F F F { F F F F F F F F F F F F F F F F F F S S S D D D S S S S S S S S S S D D D D S S D D S S S S S D S S D D D D D D D D D D D D D D D D S D D D D D D S D D D D D D D D D D D D D D D D D F F F D D D D F F D D D D D D D D D D D D D D D D D D D D D D D D D D D D D D D D D D D D D D D D D D D D D D D D D D D D D D F D D D D D D D F F F F F F F D F F F F F F F F F F F F F F F F F D F D D F F F F F F F F F F F F F F F F F F F F F F F F F D D D D D D D D D D D D D D D D D D D D D D D F D D D D D D D D D D F D D D F F F D F F F F F F F F D F F F F F o.o.F F F F F F F F D D F D D D D F F D D D D D D D D D D D D D S S D D D D S S D D D D D D S S S S D D D D D D F F F F F F F F F D F F F F D S D F F F F F F F F F F D D F F F F F D D D F F F D S D D D D D D D D F F F F F F F F D D D D D D D D D D D D D D D F F F F F F F D D D D D F F F F F D D D D D D D D D D D D D D D D S S D S D B D S S B N M N M S S N N N M M M M M S S S S S S S S S S S S S S S S M M S S S D A A N v v c v N N N N V N N N N N N N N S N N N N N V V M N S N M c M M M M M M M S M M M M Z S Z Z Z Z j j H H j j j k j j k j j j g g k y { A } } ` ` x z ` ] e.e.e.4.` ` x x N N $.#.#.#.;.;.y 1 . . . . y.                                          ",
"                                                                                            @ 1 . . - @ b j b j M b M S S S S M %.%.#.#.0.,.p.0.9.0.#.:.0.0.a.p.9.3.o.o.F o.M M D o.o.#.r r ; , > @ s 1 >                                                         1 . . . o F F 0.0.M M u u f u N V N N S D #.#.S S M M F D u.u.#.#., > < < < 1 0 0 0 < < , < < 1 , < , < < r r 1 y y y y y 1 1 1 1 q q q q u u q u u u f u f f f f k h f f f f f f h l f f h f l z l l l p l z l z l u f u l z f f f f h h z z z z h f z z c z l z c z z z l z c V c z z z z h z h h h h k h h h h k h k h f g g g g g f f f f k f k g g g g g g g g g g g g g g y d y y y g f g y d y y y d g d d g g f f g g f k k h k h k h c c c c c c c c c c c c c c c c z z c V c c n h z z z z h h c M j j j j j j b b j j j j h h j j h h h h h h h j j j k k k k k k j j k k j j j j k j j c j j j j j j j j j j j j M j j j j M M M j j j j j b M M c c c M M M M M M S S S S S S S j M M M Z Z Z M j j j j j Z M Z M Z S S Z Z Z S Z Z Z Z Z S S Z Z Z Z Z Z S Z Z S S S S S S S S M S S S S S S S S S S S S S S S S S S S S S S S S S S S S S S S S S S S D D D F D D S S S S S S S S D D D F S S D D D D F F F F F F F F F F F F F F D S S S D D D D D D D S S S S S D D S S S D S S S S S S S S S S S D F F D S S S D F F F F F F F D D F F F D D D F F F F F F F F F F F F F F S F F F F D D F F F F F D S S D S S S S S S S S S S S S S S S S D D D S S S S S S S S S S D D F S D D D D D D D S S S S S D S D Z S S S D S S S D D D D D D D D D D D D D D D D D D D D D D D D D D D D D D D D D D D D D D D D D D S D D D D D D D D D D D D D D D D D D D D D D D D D D D D D D D D D D D F F D D D D D D D D F F F F F F D D F F F F F F F F F F F F F F F F F F F D S D F F F F F F F F F F F F F D D D F F D F F F D D D D S S D D D D S S S D D S S S S D D D D D D D D D D D D D D D D D D D D D F F F D D D D F F F F D D F F F F F F F F F F F F F F F D D F D D D D D D D S S D D D D D D D D S S S S S S D S S S S D D D D S S S S S D D D S D D D D S D D D S S D D D F F F D D S D F F F F F F F F S S F F F F F F D D D F F F F D S S S S S S S D F F F F F F F F D D D F F F F F D D D D D D D D F F F D D D D D D D D D D D D F D D S S S D D D D D D D S D D S D D D B N N D D D D N N N N N N M M N N M M M M S S S S S S S S Z Z Z Z Z Z S S S Z S S A A S N N N v v v v N N N N N N N N N N A D N N N N N N V V N N N V V z V M M M M M M M j j M Z Z Z Z M C j j j Z Z H j M j S S k j j k y d k g D S ] } N N x m ` [ 5.e.&.&.m N x x m z +.+.#.#.;.;.y 1 . . . . y.                                          ",
"                                                                                            d > . . @ @ j k h k b b S D M M M b S S S D v.v.GXGXv.n.+.#.+.#.3.9.;.;.F #.#.;.F F D S M M ; , o # . @                                                               J . . . O F #.3.3.c M y q u y V c M c M M F F V V k f c f :.:.$.:.D $.6.q.6.6.4.6.6.4.:.:.;.;.F F { +.,.0.a.v.u.a.v.v.a.p.s.p.0.0.0.0.0.q.u.j.q.u.j.j.j.w.q.e.j.l.k.k.k.j.l.j.l.j.l.k.j.j.j.j.j.j.j.j.j.j.j.j.a.p.p.w.p.p.a.v.q.q.u.u.j.j.v.n.j.j.j.j.v.v.b.b.A.A.A.m.b.b.b.b.A.b.A.b.b.n.b.b.b.b.b.v.v.v.v.n.b.n.v.v.v.n.v.v.s.p.a.p.s.p.a.a.a.x.a.p.p.p.s.i.a.a.s.s.s.s.s.p.q.q.q.0.6.0.u.j.y.0.0.0.y.s.a.v.v.v.k.k.v.v.v.v.v.v.M.v.v.v.M.v.B.N.N.N.M.v.M.M.k.k.v.v.k.k.k.j.v.v.V.V.v.j.v.v.v.b.N.b.v.v.v.N.k.k.v.k.a.a.x.v.x.v.v.a.x.a.x.v.x.x.a.a.a.a.a.a.a.a.p.p.p.a.a.a.a.a.a.a.a.a.v.v.a.a.k.k.a.a.a.M.v.v.a.a.a.v.v.v.a.v.M.M.M.v.M.M.v.M.v.v.x.x.v.M.v.v.v.v.v.M.M.M.M.B.V.C.C.B.N.M.a.a.M.M.M.M.v.v.a.a.a.a.a.v.M.M.M.M.M.M.M.M.M.M.M.M.M.M.B.B.B.M.M.M.M.M.M.M.M.M.B.B.B.B.B.B.B.B.v.M.M.M.M.M.B.B.M.M.M.M.M.M.M.B.M.M.M.M.M.M.B.B.B.M.M.B.C.B.M.v.v.M.M.B.B.V.C.C.P.P.P.J.J.J.J.J.J.J.P.P.P.P.J.J.G.C.C.C.G.G.J.G.G.G.C.C.C.C.C.C.J.J.J.C.C.C.C.C.V.C.C.S.S.S.J.J.M.N.B.B.M.M.B.V.C.C.S.S.C.C.C.C.C.C.C.S.S.S.C.C.C.C.P.I.U.I.U.U.U.U.U.U.U.U.U.U.P.P.P.P.P.P.U.U.P.P.I.I.P.P.P.I.P.P.I.I.I.P.P.I.I.I.U.I.I.P.P.P.J.J.J.J.J.J.J.J.J.J.P.J.J.J.J.J.G.C.C.C.J.J.V.B.v.M.M.M.M.B.V.C.C.G.J.J.J.G.G.G.J.J.J.J.J.J.J.J.C.C.C.C.J.J.J.J.J.J.J.J.G.G.G.G.G.G.C.C.C.C.C.G.J.J.C.C.C.C.C.G.C.C.C.C.C.C.C.C.C.C.C.C.C.C.C.G.C.C.C.C.C.C.C.C.G.G.J.J.J.J.J.G.G.J.G.G.G.G.G.G.G.G.G.J.J.J.J.J.G.G.C.C.G.G.G.G.P.J.J.J.J.J.J.P.J.J.J.S.S.S.S.S.S.S.S.S.J.J.J.J.C.G.J.J.J.G.G.J.J.J.J.G.C.C.G.J.C.C.C.C.C.C.C.C.C.C.C.C.C.C.C.C.C.C.C.C.C.C.C.C.C.C.C.C.C.C.V.V.C.C.C.C.C.C.C.C.C.C.C.C.V.C.G.J.C.C.G.J.G.G.G.J.J.J.J.J.J.J.J.J.G.G.J.J.J.J.J.G.J.J.J.J.J.J.J.J.J.J.J.J.J.J.J.J.J.J.J.J.J.J.J.J.G.G.C.G.G.G.C.C.G.G.G.C.C.C.C.C.C.C.C.C.C.C.C.C.C.G.G.C.C.C.C.G.C.C.C.C.C.C.C.C.C.C.C.C.C.C.C.C.C.J.J.J.G.C.C.C.J.J.P.P.P.J.J.J.B.C.J.P.P.P.P.P.J.G.C.G.J.J.J.P.J.J.J.P.P.P.P.P.U.U.I.I.I.U.U.U.U.U.U.Y.Y.U.U.Y.U.P.P.P.P.I.I.U.U.I.I.P.P.P.I.I.I.I.P.P.P.P.P.I.P.P.P.P.P.P.P.P.P.P.P.P.P.P.I.I.J.H.H.A.A.A.H.L.U.U.K.K.L.L.L.J.J.J.J.L.L.L.I.I.L.I.I.I.I.I.J.J.G.G.J.G.G.G.G.G.V.B.M.v.v.v.k.k.D.D.D.m.b.z.z.n.l.b.n.n.b.b.m.m.A.A.V.V.A.V.A.A.n.v.k.j.j.u.u.u.V.N.M.v.a.y.0.3.p.x.M.M.M.v.v.v.p.p.p.a.a.a.p.s.a.p.B.M.s.s.0.3.;.;.;.;.;.#.} $._ _ ` _ m x [ ] ` ` a x p a a a D S F #.;.;.1 1 o . . . y.                                          ",
"                                                                                            2 1 . . = @ h g k g j b S O.b b b n D S S M v.v.GXGXv.V.O.%.O.#.3.9.#.;.#.#.#.#.F F F D M b - , # = o #                                                               d . . . O #.;.3.3.c M y y u w v c N c N N $.#.N S c h c f :.:.$.$.] } 6.q.6.6.,.6.6.4.:.;.;.#.{ D { ] :.4.j.v.u.u.k.j.u.q.u.p.0.0.0.9.6.0.u.v.q.w.j.j.j.w.e.5.q.l.l.b.j.j.j.j.j.j.n.j.q.q.j.n.j.j.j.j.p.p.j.j.a.p.p.w.w.w.v.v.0.0.q.u.j.v.n.v.j.j.j.j.n.n.b.b.A.A.m.b.b.b.b.m.m.m.m.b.n.v.n.n.n.n.v.k.k.k.v.n.v.v.j.v.v.v.v.v.p.p.c.c.p.i.p.c.x.c.x.p.p.p.p.p.a.a.s.s.s.p.p.u.0.q.q.q.0.q.u.k.u.q.q.q.u.p.k.v.b.k.k.j.j.k.k.v.N.v.v.v.v.v.v.v.V.V.M.v.v.v.v.v.k.k.v.v.v.k.k.p.k.v.S.S.v.j.j.j.v.b.V.b.n.v.b.V.v.k.v.k.a.a.a.x.x.v.v.v.x.x.x.v.v.v.x.a.a.a.a.a.s.s.s.s.p.p.a.a.a.a.a.a.k.a.a.a.a.a.v.a.a.a.a.M.v.v.a.a.a.a.v.v.s.x.M.B.M.v.v.M.M.M.M.v.x.x.v.M.v.v.v.v.v.M.M.M.N.B.S.J.J.C.M.v.a.a.v.M.M.M.v.a.a.a.a.p.p.a.M.M.M.M.B.B.M.M.M.M.M.M.M.C.C.C.C.B.M.N.N.M.M.M.M.M.C.C.C.B.B.M.B.M.M.M.M.M.M.B.B.C.M.M.M.M.M.M.M.B.B.B.B.M.M.B.B.B.B.B.B.C.C.B.M.a.v.v.M.B.V.C.C.C.J.J.J.J.J.J.J.J.J.P.P.P.P.J.J.G.G.G.C.C.G.G.G.J.J.J.G.C.C.C.C.C.J.J.J.J.C.C.B.B.C.C.S.S.C.C.S.J.v.N.B.B.M.M.B.C.C.S.S.S.C.C.C.C.C.C.C.S.J.S.C.C.M.C.P.I.U.U.U.U.U.U.Y.U.U.I.U.Y.J.J.J.J.J.P.I.U.P.P.I.I.P.J.P.I.P.P.I.I.P.P.P.P.P.I.U.I.P.S.S.P.C.G.J.J.G.C.G.G.J.J.J.J.J.G.G.G.G.C.B.G.P.P.C.v.v.M.M.M.M.B.C.J.C.C.J.J.J.G.C.C.C.G.G.G.J.J.J.J.B.B.B.B.C.G.J.J.J.J.J.J.G.C.C.C.G.G.C.C.C.C.C.G.J.J.C.C.C.C.C.G.C.C.C.C.C.C.C.C.C.C.C.C.C.C.C.C.C.C.C.C.C.C.C.C.C.G.G.J.J.G.G.C.J.G.G.G.G.G.G.G.C.G.G.G.J.J.J.J.J.J.J.J.G.G.G.G.J.J.G.G.G.G.J.J.J.J.J.J.S.J.J.J.J.J.J.J.J.J.J.J.G.J.J.J.J.J.J.J.J.J.J.J.G.C.G.J.G.C.G.G.G.G.C.C.G.G.C.C.C.C.C.C.C.C.C.C.C.C.C.G.C.C.C.C.C.V.B.B.C.C.C.V.V.V.V.C.V.C.C.C.V.V.C.J.B.C.C.J.G.G.J.J.J.J.J.J.J.J.J.J.J.J.J.J.J.J.J.J.J.J.J.J.J.J.J.J.J.J.J.J.J.J.J.G.J.J.J.J.J.J.J.J.C.G.G.G.C.C.C.G.J.G.G.S.S.S.J.J.C.C.C.C.C.C.C.C.C.C.C.C.C.C.G.J.C.C.C.C.C.C.C.C.C.C.C.C.C.B.C.C.C.J.J.J.G.C.C.C.J.J.P.P.P.P.J.G.B.C.P.U.I.P.P.P.J.J.C.C.C.J.P.P.G.S.J.J.J.P.P.P.U.U.I.I.I.I.U.U.U.Y.Y.Y.Y.U.U.U.P.P.P.P.P.P.P.P.U.U.I.P.P.P.I.I.P.P.P.P.P.P.P.P.P.J.P.P.J.J.P.P.J.J.J.P.P.J.P.I.J.J.H.H.A.A.L.L.U.AXAXU.K.L.H.A.H.H.J.L.L.K.U.U.I.I.I.I.I.P.J.J.G.G.J.G.V.V.V.C.B.V.V.v.v.k.k.n.m.m.D.m.b.l.l.l.l.l.b.l.b.b.m.m.A.m.A.m.A.D.A.A.b.b.n.j.j.q.j.j.N.N.N.b.k.p.0.,.y.x.B.B.v.a.a.a.s.s.p.a.a.a.p.s.a.p.C.C.p.s.3.3.;.#.;.;.{ { } :._ _ ] ` m x [ [ m ` a x a p a a N B F #.:.,.y 1 o . . . y.                                          ",
"                                                                                            d d . . @ @ > > < > S S 3.9.D o.Z D b h n g v.v.JXJXc.v.M n y.9.y.i.S S o.o.p.c.8.8.n b S S , , + # o @                                                               k . . o . S D >.;.y u y w l l N ` v z l z v M f h f l c c ,.:.0.e.} { ,.4.6.0.4.4.4.6.3.3.3.,.#.{ #.{ 6.6.k.k.p.u.u.u.j.v.N.N.0.0.,.0.u.u.k.u.u.u.q.q.q.e.q.q.g.j.l.l.j.g.u.u.q.q.q.q.g.j.l.k.j.j.j.j.j.j.j.j.q.u.4.0.0.4.q.6.u.p.j.j.w.w.p.v.v.j.j.j.j.n.b.b.b.b.b.n.b.b.b.b.b.n.n.n.n.n.j.j.n.j.j.j.j.j.w.q.j.u.a.p.p.a.s.p.p.s.s.i.s.p.a.x.a.p.p.s.s.i.y.0.u.y.y.y.0.y.u.u.,.,.:.#.#.:.,.3.3.0.k.k.u.u.q.j.j.j.u.u.j.k.v.N.v.v.k.k.v.v.v.v.v.v.v.v.v.v.V.B.a.a.p.s.s.u.q.q.v.v.b.b.N.N.j.j.g.g.l.l.j.g.q.j.e.0.0.0.p.a.a.a.s.s.s.p.p.s.s.s.s.s.s.p.u.u.y.y.s.u.s.s.y.y.y.y.p.s.s.s.s.s.s.s.s.s.u.p.p.s.s.s.s.u.y.y.u.s.s.y.v.M.N.N.N.M.v.v.s.s.s.p.a.a.s.p.a.k.k.a.p.p.p.a.B.M.k.v.B.B.N.v.s.s.p.a.a.v.v.v.s.i.y.p.a.x.v.v.v.v.v.v.v.v.v.v.v.v.v.v.v.v.v.v.M.v.v.x.v.v.v.v.v.v.v.v.v.v.x.v.M.M.M.M.M.v.v.v.v.x.a.v.M.B.B.V.v.v.v.v.M.M.M.v.M.M.v.v.v.v.a.s.p.y.v.a.P.J.P.J.J.J.J.P.P.J.J.J.J.J.J.J.J.J.J.J.J.S.S.S.J.J.J.J.J.J.C.G.J.G.J.J.C.C.C.C.C.V.B.B.S.A.A.S.V.V.C.B.M.v.v.v.v.M.V.V.C.C.S.S.C.C.C.C.M.M.k.M.P.P.C.C.B.C.P.I.Y.Y.Y.Y.I.I.I.I.Y.U.I.P.I.I.P.J.J.J.J.P.U.I.J.J.I.U.I.I.J.P.J.J.U.Y.Y.Y.P.P.P.P.P.J.G.C.C.C.C.G.J.J.J.J.J.J.J.J.J.G.C.C.J.F.V.V.V.V.B.v.p.0.p.i.V.V.G.C.C.C.C.C.C.F.C.C.G.C.C.C.C.C.C.V.G.C.C.C.V.V.C.C.C.C.C.C.C.C.C.C.C.C.C.V.V.V.C.C.C.C.C.C.V.V.V.V.C.V.B.B.V.C.C.C.C.C.B.B.V.B.B.B.V.V.B.V.V.V.V.V.V.V.C.C.V.V.V.C.V.B.B.B.B.C.C.C.V.V.C.C.C.C.C.C.C.C.A.V.B.V.C.C.C.C.C.C.C.C.C.V.C.C.C.C.C.C.C.C.C.C.C.C.C.C.C.C.V.V.C.C.S.S.J.S.C.C.C.C.C.C.C.C.C.C.C.C.C.C.C.C.C.V.V.V.V.V.V.V.B.C.C.C.C.C.B.B.C.C.C.B.B.B.B.B.B.B.B.B.B.B.V.V.V.V.V.B.B.B.B.V.V.V.C.C.C.G.G.G.G.G.G.C.C.C.C.C.C.C.C.C.C.C.C.C.J.G.C.C.C.C.C.C.C.C.C.C.C.C.G.G.V.V.B.V.C.C.C.C.C.C.C.C.V.V.V.C.C.C.B.V.V.V.V.V.B.B.B.B.B.B.B.V.B.V.V.V.B.N.M.M.B.B.B.V.B.V.B.V.B.V.B.V.N.N.V.B.V.C.C.C.C.C.C.C.J.C.C.C.C.C.B.B.C.C.C.J.P.U.Y.Y.V.C.x.v.B.C.G.J.C.B.C.C.J.J.P.J.J.J.S.S.I.L.AXAXJ.I.I.I.I.I.I.I.J.J.J.J.J.J.J.J.J.J.J.J.J.J.J.J.J.J.J.J.J.J.J.J.J.J.J.J.S.G.S.J.J.J.J.J.J.J.J.J.A.A.A.A.V.A.H.L.AXAXL.L.AXK.AXL.b.m.A.L.K.U.K.L.U.L.J.J.I.I.K.J.C.C.C.G.G.G.C.C.J.C.V.b.u.q.u.j.m.m.m.z.z.m.m.m.h.h.g.h.z.z.z.m.b.b.b.b.b.b.m.m.l.l.j.q.4.4.4.5.b.D.D.b.0.4.:.#.y.y.a.v.a.s.u.y.a.p.v.a.s.y.0.3.a.a.M.M.a.v.;.;.;.:.y.u.#.{ $.} N N v m x x _ _ m m ' ' a p x a ` ` } $.%.#.r 1 . . . . y.                                          ",
"                                                                                            1 1 . . @ @ , , < ; M S ,.,.F F Z S h b h h x.x.JXJXv.p.S Z y.0.0.9.S S o.>.x.c.8.>.n b S H , = + = # @                                                               k . . O . S S >.;.u u u u z l v N x z z z x N l l l l z z :.#.4.5.} } ,.,.4.0.6.6.6.6.3.3.3.3.:.#.:.{ 6.6.p.p.u.u.u.u.j.k.b.N.q.y.3.0.u.u.j.p.q.q.e.e.q.q.q.q.g.j.j.j.j.g.u.u.q.q.q.q.j.l.l.l.j.j.j.j.j.j.j.n.q.j.5.e.e.4.q.5.j.k.k.j.p.u.a.v.v.v.j.j.l.l.n.n.b.b.n.n.b.b.b.b.n.n.n.l.l.j.j.j.l.j.j.j.j.j.w.w.j.j.v.v.a.a.i.p.s.s.s.s.s.a.a.a.p.p.p.s.p.y.0.0.u.u.0.y.0.0.0.0.3.,.:.:.;.:.3.6.0.q.k.k.u.u.u.j.j.u.q.u.j.v.v.B.v.v.v.v.v.v.v.N.v.v.v.v.v.v.N.V.v.v.a.p.s.s.u.u.v.v.b.b.N.N.j.l.g.l.m.b.j.j.q.q.e.e.q.u.p.a.a.a.s.s.s.s.p.s.s.p.s.s.s.s.u.u.u.y.u.s.s.s.y.y.y.y.s.s.s.s.u.u.u.u.s.s.s.s.s.p.s.s.s.u.y.y.u.p.s.u.k.v.M.M.M.M.v.v.s.s.s.s.p.p.p.a.a.a.a.a.p.p.a.a.M.v.v.M.B.B.N.v.s.s.p.p.a.v.v.v.s.i.y.s.p.x.v.v.v.v.v.v.v.v.v.v.v.v.v.v.v.v.v.v.v.v.x.x.x.v.v.v.v.v.v.v.x.a.a.a.M.M.M.M.M.a.a.a.v.x.x.v.B.B.V.V.M.v.v.M.M.M.M.v.M.v.v.v.v.v.p.s.i.y.v.v.P.P.P.J.J.J.J.P.J.J.J.J.J.J.J.J.J.J.G.G.S.S.C.C.S.J.S.J.G.G.G.C.J.J.G.J.G.G.G.C.C.V.B.B.J.S.S.S.V.V.C.V.v.v.v.v.v.v.B.V.C.C.C.C.C.C.C.C.M.N.v.M.P.P.C.C.M.C.J.I.Y.Y.Y.U.Y.U.I.I.I.U.I.P.U.U.U.P.J.J.J.P.P.P.J.J.U.U.I.I.G.J.G.J.I.U.U.Y.P.P.P.J.J.J.G.G.G.G.G.J.J.J.J.J.J.G.G.G.C.C.C.C.G.C.V.C.C.V.V.v.i.0.a.p.V.B.C.V.C.C.C.C.C.C.C.C.G.C.V.V.V.C.C.V.J.J.J.C.C.C.C.C.C.C.C.C.C.C.C.C.C.C.C.C.C.C.C.C.C.C.C.C.V.V.V.V.C.C.V.V.C.C.C.C.C.C.V.V.C.C.C.C.V.B.V.V.V.C.C.C.C.C.C.C.V.V.V.V.C.C.V.V.C.C.C.C.C.C.C.C.C.C.C.C.S.A.V.V.B.V.C.C.C.C.C.C.C.C.C.V.C.C.C.C.C.C.C.C.C.C.C.C.C.C.C.C.C.C.C.C.C.C.S.S.C.C.C.C.C.C.C.C.C.C.C.C.C.C.C.C.C.C.V.V.V.V.V.V.B.C.C.C.C.C.C.B.C.C.C.C.C.B.B.C.V.B.B.B.V.V.C.C.C.C.V.V.B.B.V.V.V.C.C.C.C.C.G.C.G.G.G.G.C.C.C.C.C.C.C.C.C.C.C.C.J.G.C.C.C.C.C.C.C.C.C.C.C.C.G.J.C.C.V.V.C.C.C.C.V.C.C.C.V.V.V.C.C.C.C.S.A.A.A.V.B.B.B.B.B.B.B.B.V.V.C.C.B.B.N.N.V.B.B.V.V.V.V.V.V.B.B.V.V.V.V.V.C.C.C.C.C.C.C.C.C.C.C.C.C.C.C.B.C.G.J.J.P.U.U.Y.C.C.v.v.B.C.G.J.C.C.C.C.J.J.J.J.J.J.J.S.L.U.K.U.I.I.I.I.I.U.I.I.J.J.J.J.J.J.J.J.J.J.J.J.J.J.J.J.J.J.J.J.J.J.J.J.J.J.J.J.J.J.J.J.J.J.J.J.H.H.H.J.A.A.A.A.V.A.A.H.AXAXAXAXAXAXAXL.m.A.H.L.U.AXAXK.K.L.L.K.I.I.I.J.C.C.C.C.S.J.J.S.S.A.A.b.j.q.u.q.b.m.m.m.m.z.z.z.h.h.h.h.z.z.z.z.m.m.m.b.b.b.b.m.j.j.g.q.4.4.4.5.b.b.b.n.6.4.:.$.0.y.p.a.s.s.s.y.p.p.v.a.s.y.3.3.s.s.M.M.a.a.;.;.:.,.q.q.:.#.$.} N N v x x x _ _ _ _ ' ' a a x x _ ` } { $.#.y y . . . . y.                                          ",
"                                                                                            j j . . @ @ d d y y S S #.o.S Z D D D O.h h ,.#.v.v.%.#.#.>.v.V.n.n.O.S S S 8.i.8.8.n h h h 3 , = = @ @                                                               k . . @ o S M #.#.f f i i l p _ ' x x x p x x p u u u z f ] N A ] c c A A F { F F ] F D D D D S M S V ] D #.$.{ { { $.#.$.:.4.F F D D F F $.{ } { } } $.&.&.%.$.$.%.%.$.@.$.$.{ } } } $.$.$.$.$.$.@.@.@.$.4.4.%.%.N N N N } } $.$.$.$.#.#.#.$.+.#.$.+.[ [ [ ] [ ] ] ] [ @.@.@.$.$.@.@.@.@.@.@.+.+.] ] ] ] { { :.4.y.0.6.,.#.;.#.#.#.;.;.;.;.;.:.,.,.;.;.;.;.;.:.:.;.#.#.#.#.#.F F S S M M M S F #.6.0.4.:.@.$.D D A F $.$.>.,.#.#.#.#.;.:.:.,.:.:.:.:.;.:.:.,.#.#.#.F S S D ] :.:.6.q.q.e.%.$.4.7.q.5.7.4.} } ] } $.:.,.3.3.3.,.,.,.:.,.:.:.:.>.,.>.:.:.:.:.:.,.,.>.;.>.>.>.>.,.,.>.>.>.>.;.;.>.;.;.;.;.:.:.:.;.;.;.;.#.#.;.;.3.3.3.0.y.0.0.0.,.:.;.;.:.:.:.:.3.3.3.,.,.,.3.3.6.0.0.q.0.6.3.,.,.,.,.,.3.3.9.9.,.;.;.,.,.9.0.0.6.0.0.0.0.0.0.0.0.q.0.0.0.0.6.6.0.9.9.9.9.0.8.3.3.9.3.3.3.3.3.3.0.0.y.0.3.3.;.;.#.#.;.,.0.0.0.0.3.,.,.3.3.3.,.,.3.,.,.:.;.#.F D F F 3.6.v.v.v.v.k.v.v.v.k.a.a.a.a.a.x.a.a.a.s.s.a.p.s.p.p.a.a.a.s.s.s.s.p.p.p.p.s.s.s.s.y.y.y.y.p.p.j.j.u.y.p.u.0.0.0.0.0.0.y.p.s.s.s.u.u.u.y.y.3.0.3.3.s.s.0.q.y.s.p.k.M.M.M.v.k.a.a.a.a.a.a.p.x.x.x.a.s.y.y.y.y.y.y.i.a.a.s.s.s.s.p.a.M.B.B.V.v.v.x.p.i.y.y.y.y.y.y.y.s.s.p.i.a.a.p.s.s.s.s.s.a.p.s.s.p.0.0.3.#.#.,.:.p.y.p.s.p.i.i.i.i.i.0.0.p.p.0.0.0.i.i.i.s.s.s.s.y.y.y.y.s.s.s.s.s.s.p.i.i.i.i.i.s.s.s.s.p.s.p.p.s.s.s.s.p.p.s.s.p.p.s.p.p.p.s.s.p.a.a.a.s.s.p.p.p.p.a.a.a.a.a.a.p.p.p.p.a.a.a.a.a.a.p.s.p.p.p.p.p.p.p.p.j.j.p.p.s.p.p.a.a.a.a.a.a.a.a.p.a.p.p.p.s.s.s.s.p.p.s.s.p.p.p.p.s.s.s.s.s.s.s.s.p.p.s.s.s.s.s.p.p.p.p.p.p.p.p.p.p.p.p.p.p.p.p.p.s.s.s.s.s.s.s.s.p.p.p.s.s.s.s.s.s.s.s.s.s.p.p.s.s.p.s.s.s.s.s.p.p.a.a.a.p.p.p.s.a.a.a.a.a.a.a.a.p.a.a.a.x.a.a.a.a.a.p.p.a.a.a.a.a.a.a.a.a.a.a.a.p.s.s.s.s.s.s.s.s.p.s.s.p.p.s.s.s.s.p.p.p.p.p.u.s.s.s.p.s.s.s.s.p.a.a.a.p.s.s.s.p.p.u.p.p.p.p.p.p.p.p.u.u.u.p.p.p.a.x.a.a.p.s.s.a.a.p.s.s.y.y.y.y.i.s.a.v.v.M.M.y.0.,.,.9.0.y.y.y.y.y.y.y.y.y.0.v.v.V.V.A.A.v.v.v.v.k.k.v.v.v.v.k.a.k.k.v.v.v.v.k.k.v.v.v.v.v.v.v.v.v.v.k.k.k.k.v.v.v.k.a.a.a.k.k.k.k.a.a.a.a.a.p.j.j.j.j.u.j.j.n.n.n.j.n.j.w.w.q.q.q.j.j.v.v.n.j.j.j.v.v.v.a.p.y.y.y.y.s.s.s.p.q.0.q.e.4.4.e.e.e.g.g.g.e.5.*.*.*.*.*.*.7.5.7.7.5.5.7.&.*.&.*.&.$.$.@.[ [ [ [ $.&.&.4.4.$.$.} { F { ;.:.#.#.:.:.3.3.y.0.,.;.#.#.,.3.y.y.3.,.D D #.#.:.:.{ F F N v x x x _ ' ' ' ' ' ' ' _ _ _ m N N ] B { F < 1 . . . . s.                                          ",
"                                                                                            j k . . @ @ k g y r M Z D #.D S D M O.O.n n %.>.c.x.%.#.,.,.v.V.c.n.O.S S o.i.y.8.>.n h h h , < = = @ @                                                               k . . @ # S M #.#.f f u u l p _ _ x x l p l l p p u u z a N N N D N N A N S D F F { F D D D D S N D N { D { { { $.#.#.$.$.:.,.{ o.F F F F { { D D ] } $.&.&.%.&.&.%.%.$.$.$.$.{ } } } } } } $.@.@.@.@.} @.%.%.%.@.A N N N } $.:.:.:.:.#.#.#.$.#.#.$.@.[ ] [ ] ] ] ] } @.@.@.@.$.@.@.@.@.@.@.@.+.] ] B B ] { { :.4.u.0.0.,.#.#.#.;.;.;.;.;.;.;.;.;.,.;.;.;.;.;.:.:.:.;.#.#.#.#.{ { F S S M M M F #.4.0.4.4.$.} ] ] F ] #.:.;.,.#.#.#.;.;.:.:.,.:.:.:.:.;.:.:.,.;.#.#.{ F D { { $.:.6.6.e.6.$.$.7.4.5.5.4.4.@.@.] $.$.:.,.3.3.3.,.,.,.,.,.:.,.,.>.>.>.>.:.,.,.,.3.,.,.>.>.>.>.>.,.,.,.>.>.>.>.>.;.;.;.;.:.:.:.:.;.;.;.;.#.#.#.;.3.3.3.3.3.3.3.3.:.;.;.;.;.:.:.:.3.3.3.,.,.,.3.3.q.y.y.y.0.0.3.3.,.,.,.3.3.3.3.3.,.,.,.,.,.3.9.9.3.3.3.3.3.6.6.0.0.0.6.3.6.3.3.3.3.3.3.3.9.3.3.3.3.3.3.,.3.3.3.3.3.3.0.3.3.,.;.#.F #.;.,.9.0.0.0.3.3.,.,.,.,.,.,.3.,.,.;.;.#.F F #.;.0.0.v.v.v.v.k.a.a.a.a.a.a.p.a.a.a.a.a.p.p.s.a.p.s.s.p.p.a.a.i.s.s.s.p.p.p.p.s.s.s.s.i.i.i.s.a.j.k.j.u.u.p.p.q.q.0.q.0.0.0.0.p.s.u.u.s.s.u.u.3.6.3.3.y.q.6.0.s.s.p.a.k.v.k.a.a.a.a.a.a.a.a.a.x.x.x.a.s.s.s.s.0.y.y.y.a.a.s.s.y.s.s.a.M.B.M.B.v.v.x.a.i.y.y.s.y.y.y.i.s.s.s.s.p.p.s.s.s.s.s.s.a.a.p.s.p.0.0.3.#.#.,.,.y.0.i.p.p.p.i.p.i.i.0.0.p.p.0.0.0.0.i.p.a.a.a.a.s.i.i.i.s.s.s.s.s.s.p.i.i.i.s.s.s.s.s.s.p.p.p.p.p.p.a.a.a.p.p.p.a.a.a.a.a.p.p.a.a.a.a.a.a.a.a.p.a.a.a.a.k.k.k.k.a.a.a.a.x.x.a.a.a.a.a.a.a.a.a.a.a.a.p.p.a.j.j.j.p.a.a.a.a.a.a.a.a.a.a.a.a.a.a.p.s.s.s.s.p.p.s.s.p.p.p.p.p.p.s.s.s.s.s.s.a.p.s.s.s.s.s.p.p.a.a.p.p.p.a.a.a.p.p.p.p.p.p.p.a.s.s.s.s.s.p.p.p.p.p.p.p.s.s.s.a.a.a.a.p.a.a.a.p.p.p.p.p.p.a.a.a.a.a.a.a.p.p.p.a.a.a.a.a.a.a.a.a.a.a.x.v.v.x.x.a.a.a.a.a.a.a.a.a.a.a.a.a.a.a.a.a.p.s.s.p.p.p.s.p.p.a.p.s.s.s.s.s.a.j.j.j.j.p.p.a.a.p.p.p.p.a.a.a.k.k.k.a.a.p.a.p.p.s.s.p.p.p.p.p.p.s.p.p.p.s.p.a.a.x.x.a.p.s.s.a.a.a.s.s.y.y.p.s.s.s.a.v.v.v.v.y.y.3.9.0.0.y.y.i.i.s.s.y.y.0.0.a.a.V.V.J.J.j.v.v.k.k.v.v.v.v.v.k.a.a.k.v.v.v.v.k.v.v.v.v.v.v.v.v.v.v.v.v.v.v.v.v.v.v.v.v.k.v.v.v.v.v.k.k.a.a.a.p.j.j.j.j.u.w.w.n.n.n.j.n.j.w.w.u.u.j.j.n.v.v.v.n.v.v.v.v.v.v.a.y.y.y.y.i.s.s.s.q.0.q.0.5.5.e.e.e.q.g.g.e.5.*.*.e.5.*.7.7.5.5.5.5.5.5.&.&.*.*.&.[ [ [ [ [ [ [ $.$.$.$.$.} } $.{ F F #.#.#.#.:.:.3.,.0.3.;.;.#.#.3.3.y.0.3.,.#.#.#.#.;.:.$.{ { A N x x x _ ' ' ' ' ' ' ' ' _ _ N _ N B N F F < 1 . . . . s.                                          ",
"                                                                                            j j . . > = k k g g b h t y < r M n S D D o.0.0.>.>.%.#.#.o.x.c.O.O.S S n b S S O.S S S F S < , = = @ @                                                               k . . @ O S S S S u u y y u u x x p p p p x a u u p u x p x z f f f f f f f f z c c c c c c c z z V c M c V V z z c c c V M M M M M M M M V V f z l z z m N N z z z z z z l z c c z z c c v N c c N N N V V V z z l z z f z f c c c c h h h h h h z z a p p p u u u u a z a p p p u u u u u u i i i i y y y y h h M M M j g g g g d d y g g g g g g g g g g f f f f g g g d d h h k f g g g f c l M M z V c V i u i u h z h z k h h h h h c c c c h h h j c c V V V c h f h h z z z f z c z x x x x x z l u u u f f h k k k k f f f f f h h h f f g g f f k k k f f g g g g g f f f f f f g g g g g g h h h h g g g g y y g g k g g k k k k k g g g g g g k g k k k k k k k h h g g g g k k k g g g h k h k k g g g h g g g g g g g y g g k k k k k k g g g g g g g k k k g g h k k k k k k k j j j j k k g g y g k h k k h h h k k k h g g g k g g g f h h f y u k g j j h j h k k h h h h k k k h h h h h h h k h h h h h k h k h h h h h h h h h h k h h h j j c c k k h k j j b j h h h j j j k k h j j k k h k h j j j j k k h j j b M M j j j j j j j j M M M j j j j j h k h k j j h h g k h k j j h j g h h g y g h k g g g h h h h h h h h h h h h h h k k h k k k h h h h h j h j b k k h k k k k k h k h h g h k k h h h k k g g g h k k h h k h h k k k h h h h h h h h h h h h h h h k h h h h k h h h j h h h k k j j j h h h h h j j h k k k h h h h k k k k h h h h h k k k k h k k k k k k k h h k k k k k k k k h k k h h h k k k k k k k k h h h h k k k k h k k k f f k k k h h h k k h h j h k h k h h h j h k h k h h h k k k h k k k k k k k k h h h h k k k h k k k h j j j j h h h h k k k h h h h h k k h h h h h j j j h h h h h h h h h h h h h h h h h h h h h k h h h k h h k k k h h k h h h h k k h f f f k k k h h h h k k k h k k k h h h h k k k k k k k k h h h k h h h h g h k k k k h j k k h h k h g y y h g h g y k k k k k k h g y y h f V h N D f V h h h h h c c c c c h c V V V c c V V M M M V V V V c c c c V V V V V V M c M M M M M M V c V V S S S S N V V V z V z z V V V V V V V V V V V V V V M M V M M V M M M M M M M M n h V V V V V V m m m x x x x x x x x x x x x x m m m x x x x x x x x x z x x x N x N N z c V V c V N N c c S S D S F D S S S M M c Z M M M M S S S S S N M N N z z x x N _ _ _ m m m _ _ _ _ N m x V V S F 1 1 . o . o s.                                          ",
"                                                                                            Z Z . . > > k k k h b b < y t , S h O.o.O.#.0.y.,.>.#.;.o.o.x.p.%.#.M S b S S b O.S S O.o.O.t < @ @ @ @                                                               k . . @ O D D V V u u i u i u a x p p a a x x u p p u x a x z z f l f z z f f z z c l h c c c l z c c V c V V c V V V V V M M j j M M M M V V f f z z x z x x N N x z z z c c c c z l l l c c z c V V z z z z f z l l z f f u z z c z h h h h n z z z z z x x u u u u u p p p a a a a u u u u i i i i y y y y h h V c M M k h g g d d g g g g g g g h k k k k k k k f k k k f g f h f f g f f c h V c z z z V u f u u z z h h h h h h h h c c c h h h h j j j V M M c c z z z z l l f z z z z x x x z z l z z f f f f k h h h k k k f h k k k k k f f g f k k k k k f f g g g k k k k k k k k k k h h h h k h h h g g g g g g k g g g k k k g g g g g k k g g k k k k k k h k h k h g k h j j k g g h k k k k g g g g g g g g g g y y y g g h k h g g h g g g g g g h k k h g k h k k k k k k j j j j k k k k g g g g g g g g g g g g g g y y g g y y g f k k j h k f h j k j k k k k h j h k h k k k h h h h h h k k h h h h h h h h h h h h h h h h h h h h c j c c h h j k j j j j h h h h c j j j j c c c k k k k k k k k j j j j j b M M h h k k j j j j M M j j j j j b k h h h h h k h k h k k j j k h g g g g g g k k g g g h h k h h h h k k h k h h j h k h k h j j h j h h h h h j h h h h j j j j h h h k k h k k h j j h k h g g k h j j j h h h h h j j j j j j h h h h h h h j h h h h j j j h j h h h j j h h j j j j j h h k h j j k k h k k j h h k k h h h h h h h h h k h h h h h h k h h h k h k g h k h h h h h k k h h h h k k k k k k h h h h h h h h j h h k k k k k h h h h h h h h b j h k h h j j j j h h h h h h k h k h h h h h j k k k h h h h k h k h k k k h j j b j j h h h k h h h h h j j h h h h h h j j b j j j j j h h h h h h h h h h h h h h h h h h h h h h k k k h k k k k c h h h h h h h k k k k h h j h h k h h k k h h j j h h h h j h h h k h j j h h h k h h k k k h h h j b k k h h h g y y g k k j g y h k g g k k h g u y h f h h N D z V y f h h h h z c V V V V V V V V V M M M M M M M M V V V V V M M M M M M M M M M S S S S M M M M S S S M M V V V z z z z V V V N N N V V V V V V V V V M M M M M b b M M V V V V h h V V V N N N N V m x x m m m m m m m m m x x x x x x x x x x x x x x x x x x x a z z c c N N V V V N c c M Z D S D S S D S S S M S M S S D D N S S M N N N A z z x N N ` ` ` m m m m _ _ m m m V V V F +.< < . o . . s.                                          ",
"                                                                                              1 . . > @ > > < , h h < y S O.DXFXp.9.i t n M ,.9.#.#.h i S S %.,.#.#.b n b b y.i.#.F D D y y - o @ @                                                               j . . O O D F S S z c c V l z x x l z x x x z m m m z N V V N N z N N V N c c M M M c M M M M M M S S M M M S M M M M M M M N S S #.#.#.#.F #.N N N N A ] ] ] ] D A A A A D D { { { ] F F { } } $.$.} { ] { { D D D D N N N B S S D S S M M M S B N N N N N N N N N N N A ` N N N N N N N N c c V V c z h h h M M S S D D M M S Z Z Z S S S S S M M M S S S M S S S S S S S S D F F D D D D D { { :.$.} $.} } N N V V N N M S S S S S S S D S S S S S S S S S D D S S S N N M c c V V N N c N N v N N N N N A c c c M S S S S S Z Z Z S S S S S Z M M M M Z Z M S S M M M c M M S S S S S S M Z Z Z Z S S Z Z Z Z Z M j j M M Z M M M M Z M M j j M M M M M j M M Z S S Z M M M M j j j j j j Z Z M M M M M M j j j j j j j c Z M M M M M Z Z S Z S S Z Z Z Z Z Z Z Z S S S S S Z Z Z Z Z Z Z Z S S S Z M Z S M M M M M M M M Z Z Z Z Z b M M Z Z M j M Z M M M M M j M Z j M M M c M M M M M V V V V V M M M M M M M M M M V M M M M M M M M M M M M M V V V S M S S M M S Z D D D D S S S S S S S S S S S S S S S D S S S S S S S S S S S S S S S S S S S D D D D D D D S S S S Z Z S S Z S M S Z S S D S S S S S S S S S S M M M M M M M M M M M M M M V V S M M M M M M S S S M M S S S D M M M M S S S S M M M M b j j j D D F F F S S Z S S S S S S Z M Z Z Z Z Z Z Z S S S Z Z Z Z Z Z S S S S S S S S S S S S S Z Z Z S S S S M M M M S S S S Z Z S S S S S M M M S S M S M M S S S S S S S S M M M M M M M M M M M S Z S Z Z Z M M M Z Z Z Z Z Z S Z S S S M M M M M S S M M M M M M M S S M M M M M S S S S S S S M S M S S S S M M M M M M M M M M Z Z M Z Z S Z Z M M Z Z Z Z Z Z S S S S S M M M M M M M M S S S M M S S S S M S S S S S S S S M M M M M M M M M M M V V M M M V M M M M M M M M S S S S M M M M S S S M M M M M M S M M M M M S S A N N N N M M M M N N N M M M S S S S S S S S S S S M S S S S S S S S S S S S S S S D M M S M M M S S S M V j V M S F #.#.S B N S S A D F { { F F F F A A F F F F F D D D D D D D D D D D D D F F F F D F F F F F F F F F F F #.#.#.#.#.#.F F F F D S F F D +.{ { { { { { F F F F F { #.#.#.{ o.o.o.o.#.#.{ F #.F F F ] ] ] D { ] ] ] ] ] } ] ] } } } ] } ] [ ` ` B N N N N ` N N N N N N ] ] } ] } A D N D N F D F D S A F F { D { { F ] F F D S A N D A F S S D S S D D A D D ] ` N N N _ N _ ` N N ` ` m N ] D { { #.#.r 1 . o . . y.                                          ",
"                                                                                              d . . > @ > ; < < h h y < D M FXFXp.w.y t M n 0.9.#.#.u h S S 0.%.o.o.b b b b i.i.>.#.o.F y r - o @ @                                                               j . . O O F o.S S z c c V l l z z l z N v N V N V V f N V z V N l N N V A c c N M c c M M M M M S S S M M M S M V V M M S S S S S o.F { #.F +.D N N N D ] ] ] ] ] D A D F ] ] { { { ] F F ] { $.$.{ { D D { { N N D D N N V M S D D S M M M S S S N N D D D ] N N N N N N N N N N N N N N c z V V V c z h h h M M S D D D M M M M M Z Z Z S M S S M M S S S S S S S S S S S S D D D D D D D D { { $.#.] { { } N N c c N N N S S M M S S D D S S S S S S S S S D D A S S S N M c c V c N N N N V c A N N N N S M M M M S S S S S S S S S S S S S S M M M M Z Z M S S S M M M M S S S S S S S S S Z S S S S S Z S S Z Z Z M M M Z M j b Z Z M M Z M M M Z Z Z M M M Z S S Z M M j j M M M M j M Z M M b M M M M j j j j j j M Z M Z Z Z Z Z Z Z S S S S Z Z Z Z Z Z M M Z S S S S S S S Z S Z M Z S S S Z M Z S M j b b M M j j b b Z Z b b b b M M M b M Z M M S M M j M S j c M M c M M M M M M V V V V V M M M M M M M M M M M M M M M M M M M M M M M M V V S S S S S S S S D S S S S S S S S S S S S S S S S S S S S S S M S S S S S S S S S S S S S S S D D D D D F D S S S S Z Z S S Z S S S S S S S S S S S Z Z S S S S S M M M M M M M M M M M M M V V M M M M S S S S S S S S S D S S S S S S S S S S M M M M M j j j S D F F F D S Z S S S S S S Z M S S S Z Z Z S S S S Z Z Z Z Z Z S S S S S S S S S Z S S S S Z Z S S S M M M S S M S S M M M Z S M S S M M M M M M M S S S S S S M M M M S M M M M M M M M b M M Z Z S S S S S S S S S S Z Z S S S S S S S M M M M M S S S M M M S S S M M M M M S S S S S S M M S M S S S S M M M S M M M M M M S Z M Z Z S Z Z Z Z Z Z Z Z Z Z S S S S S M M M M M M M S S S S M M S S S S M M S S S S S S S S S M M S S S M M M M V V V V V V M M M M M M M S S S S M S S S S S S S M M M M M M M M M M M M M S S A A A A M M M N S S A M M M S S S S S S S S S S S S S S S S S S S S S S S M S S S D M M S M M M S S S M V b M N M S F F D D A S N S A F F F F F F F F F F F F F F D D D D D F D D D D D D D F F F F F F F F F F F F F F F F #.#.#.#.#.o.F F S F D S O.O.F +.{ { { { { { F { F F F #.#.#.#.{ o.o.F F F F F F F S F F { { { ] { D D ] { { { ] } +.$.$.} } } { N B N N N N N B ` D D A N N N N A N ] N D N F D ] D D F D D F A F F #.{ { ] D D A S D S { A F S S D S S D D D D D D B N N N ` ] N N N m ` N m N B B { F #.#.1 1 o o . . y.                                          ",
"                                                                                              g . . @ 3 o o O . 1 < ; ; :.3.LXLXGXGXy t 3.#.LXKXDXDX, y i h KXKXKXKXS b < < ,.3.#.F ; - > , # O o o                                                               Z . . . . < q 1 < < < 0 q 0 0 0 0 0 0 < q q q 0 0 0 1 < < < < < < < < < < < < < < < < < < < < 1 1 1 1 1 1 1 1 1 1 1 1 q 1 1 < y r r y y y y y y y y y y y y y y u y y y y u q u u u q u q q q y y y y y u y y y y y y y y y y y y q 1 1 1 y y 1 1 1 1 q 0 0 0 0 0 0 0 0 0 q q 0 0 0 0 0 q q q 0 1 1 1 1 1 1 1 1 1 1 1 1 1 1 1 1 1 1 1 y y y 1 1 1 1 y y d d d y d d y y q 1 q y y y y y y y y q q q y y u y y y y y y u u u u g y y y y y y y y u y y y y y y q q q u u u u u q 0 0 q y u y q q q q q q q u u u y y y y y y y y y y y d d d g d d y y y d d d y y y y y y y y y y y y y y y y d d g g g g g g g g g d g g d d g d d d g g d d d g g g d y d d g g g d d d d d d d d d d y y y d d d g d d d d d d d d d d d d d g g d d d d y g d d d d d g g g g g g g g g g g g g d d d g g g d d d d d g g g g g g y g g g d d g k k d d d g g g g g g g g g g g g g g g g g g g g f f g k g g g g h h h h k g g g g g h k k k h g g g g g k h g g h h h h f f g f f f k k k k f g k k g g g g g g g g g g g g g g g g g g g g g g g g g g g g g g h h h g g g g g g g f f f g g g g g g k f f f f f k k k f g g f f k k k g h k g y y g k g g g g g g g g g g g g g g g d f f g g g g g g k g g g g g g g g g g g g g g g g g g g g g g g k k k k k k k g k k k k k f k k k k k k k k k k k k k k k k k k k k f f f k k k k k k k g g g g k k f f k k k k g k k g g g g g k k k k k g g g k k f f g g g g k f f g g g g g k k k g g g g g g g g g g g g g g g g g g g g g g g g g g g g g g g g g g g g g g g k f k k g g h h g g h k h g k h h h h h k k g g k g g g g g k k k g g g g g g g g g g g g k g g g g k f k k f f g g g g g g g g g g g g g g k k h g g g g g h g g g h k k k k k k k k g k g k k k g g g g f g g g g g g g d g g g g g g g d g g g g g g g d g g g d d d d d y y y y y y y y y y y y y y y y d d d d g d d d y d d g g d d d g g g g y y y g y y y y y g g h g f f f h k k k k k k k k k k k h h h h k k k k k k h h k k k k k k k k k k k k k k k k h k k k j k k k k k k h h h g g g h h h h h f f k k f f h k k h h h h h k k h h h h h h f f f h h k k h k h h h h h f h f f f h f f f u u u u u u u u u u f f f f f f f f f f f f f f y h f g u u u f f f f f f f f f u f u u u u f f f y y y y u u y y 0 y y y q 0 0 0 0 0 0 y i y y y y y y y y r 2 > o o . . p.                                          ",
"                                                                                                . . > > o o O o 1 < ; ; :.0.LXLXHXJX, < 3.%.IXIXSXDX; ; h h KXKXKXIXb D r < ,.#.F o.; < ; < # O @ .                                                               b . . . O < 1 1 < < 1 0 0 q 0 0 1 1 1 1 1 1 1 1 1 1 < 1 < 1 < 0 0 0 0 0 0 0 0 0 0 q 1 1 1 1 1 < 1 1 1 1 1 1 1 1 1 1 1 1 1 1 < y r r y y y y q y y y y y y y y y y y y y y q q d u u u u u u y y y y y u y u y y y y y y y y y y y y q q q y y q q q q y y y y q q q q q 0 q q 0 0 0 0 q q q q 1 1 q q 1 1 1 1 1 1 1 1 1 1 1 1 y r r r y d d y 1 1 y y y d d d d d d d d y y 1 d d d y y y d d u u u u u u u y y y u y u u u u y u u u u y y y u y y y y y y y q u u u u u q y y q 0 q y u y q q q q q q q u u y y y y y y y y d d y y y d d d d d y y d d d d d y y y y y y y y y y y y y y y d d d d g g g g g g d d g g g d g d d d g d d d y d d d y y d d d d d d d d d d d d d d d d d y d d g g d d d d d d d y d d d d g g g d d d d d d d d d d g g g g g d d g g g g g g d d d d d d g d d d d d g g g g g g g g g g d d d g g g d d g g g g g g d d g g g g g g g g g g g g g g g g g g g g g g h h h g g g g g g h h g g g g g g g h g g g g h h g g g g g g g g g k g g g g g g g y y g g g g g g g g g g g g y y g g y y y g g g y y g g g g g g g g g g g g g g g g g g g g g g g g g g g g g g g g g g g g f f g g g g g g g g g g g g g g g g g g g g g g d d g g g g g d d g g g g g g g g g g g g g g g g g g g g g g g g g k k k k k k k k f g g g g g g g g g k k f k k k k k k k k k k k g g g g g g g k g g g g g g g g g g g g g g g g g g g g g g g g g g g g g g g g g g g g g g g g g g g g g g g g k g g g g g g g g g g g g g g g g g g g g g g g g g g g g g g g g g g g g g g g g g g g g g g g g g y g g g g y g g g g g g g g g k k k g g g k g g g g g g g g g g g g g g g g g g g g g g g f g g g g g g g g g g g g g g g g g g g g y g y g g g g g g g g g k k k k k k k k k k k k f f k k g g g d g d d d g g g g g g g g g d d d d d d d g g g d d d d d y y y y y y y y y y y y y y y y d d d d d d d d d d d d d d d d y g g g y y y g g y y y y y g g k k k k k k k k k k k k k k k k k k k k k k k k k k j h k k k k k k k k k k k k k k k k k k k h k k k k k k k h h h h h k h h h k h h h k f k k k k k k h h h h k h h h h h h h h h h h k k h f k h h h h h k h f h f h h f f f f u f u f u f f f f f f h f f f f f f f f h h h h g g y f f f f f f f f f u u u f f u u u f f f g y y u u y y y y y y y q q q q q 0 q q q y y y i u y y y r 1 , o o o o s.                                          ",
"                                                                                                    d > @ o . o g g 1 < #.F GXGXx.x.; ; J.J.PXPXJXJX; - o.#.LXPXIXKXg g o - M D F S @ . . . . . .                                                                 M . . . . . . . . . . . . . . . . . . . . . . . . . . . . . . . . . . . . . . . . . . . . . . . . X # . # O O # O O O # # # O @ @ O @ @ @ O O O O O O O O * O @ O O O O O * O X X O O o o # X . . . . X X . . X X X . . . . . . . . . . . . . . . . . . . . . X X . . . . . . X . . . . . . . . . . . . . . . . . . . . . . . . . . . . . . . . . . . . . o o o o o o o o . . o o o o o o o o # # O O O X . . X X O O O O # # o o O O O o o . o o o o o o o o o o o o o . . . . . . . . . . . . . . . . . # o . . . . . . . . o o o o o . . . o . . . o o . . . . o o o o o o . . . . . . . . o o . o o o o o . . . . . . . . . . . . . . . . . . o o o o o @ o o . . o o o o o o o o o o o . o o o o o o o o o o o o o o o o . . . . . . . . . . . . . o o O o o o o . . . . o o o o o o . . o o o o o o o o o o o o o o o o . . o o . o o o o # o # o o o o . . . . . o . . . . . . o o o o o o o o o O O O # # # o o # # # o o . . o o o . o . . . . . . . # o o o o o o o o o o . o o o o . . . . . . . . o . . . . . . . . . . . . . o o . . . o # # # . o o o o o o o o o o o o o o o o . . . . . . . . . . . . o o o o o . . . . o . . . . . . . . . . o o o . . . . . . . . . . . . . . . . . . . . . o o o o o o . . o o o . . . . . . . . . . . . . o o o o o o . . o o o o o o o o o o . . . . . . o o o o o o # # o o o . o o o o o o o o o o o o . . . . . . . . o o . . . . . . o o . . . . . . . . . o o o o o o o o o . . . o o o . . . . . . . . . . . . . . . . . . . . . . . . o o o o . . . . . o o o o o o . . . . . . . . . . . . . . . . . . . . . . . o o o o o o o o . . . . . . . o . o o o o o o o . . . . . o o o o o o o o o o o . . . . . . . . o . . . o o o o . . . . . . . . . . . . . . . . o o . . . . . . . . . o o o o . # o . . . . . . # . . . . o . . . . . . . . . . o o o . . o o o o o o o o o . . o . . . . . o o . o O O O O O @ @ O o o o o o o # o # o . . . . . . . . . . . . . . . . . . . . . . . . . . . . . . . . . . . . . . . . . . . . . . . . . . . . . . . . . . . . . . . . . . . . . . . . . . . . . . . . . . . . . . . . . . . . . . . . . . . . . . . . . . . . . . . . . . . . . . . . . . . . X X X X X . X o o o o o O O X X # # # # o o o o # # o o # O O O X X X X X . . . X X . . . . . . X . X X X X . X X . . . o o o o o . o o s.                                          ",
"                                                                                                    d g o @ o o g g 1 1 ;.;.HXGXv.v.; - C.C.PXPXJXJX. - F F PXLXIXIXh h - o S M D F O - . . . .                                                                   b . . . . . . . . . . . . . . . . . . . . . . . . . . . . . . . . . . . . . . . . . . . . . . . X # # # # O O # O O O # # O @ @ @ @ @ @ O O O O O O O O O O O O o O O O O * O # # O O O O O O # O o o o X X . X X X X o . . . . . . . . . . . . . . . . . . . X X X X . . . . X X . . . X X . . . . . . . . . . . . . . . . . . . . . . o . . . . . . . o o o o o o o o o o o o o o o o O O O O O O O O . . . o o O O O O # # o o o O O o o . . o . o o o o o o o # # # o o . X . . . X X . . . o o o o o # # o o o o . . . . o o o o o . . . . . . . o o . . . . . . o o o o . . . . . . . . . . . . . . . . . . . . . . . . . . . . . . . . . o o o o o o o . o . . o o o o o o o o o o o . o o o o o o o o . o o o o o o o . . . . . . . . . . . . . . o o o o . . . . . . . o o o o o . . o o o o o o . . . . . . . . . . . . . . . . . . . o o o o . . . . . . . . . . . . . . . . . . . . . . . . . . . . . . . . . . . . . . . . . . . . . . . . . . . . . . . . . . . . . . . . . . . . . . . . . . . . . . . . . . . . . . . . . . . . . . . . . . . . . . . . . . . . . . . . . . . . . . . . . . . . . . . . . . . . . . . . . . . . . . . . . . . . . . . . . . . . . . . . . . . . . . . . . . . . . . . . . . . . . . . . . . . . . . . . . . . . . . . . . . . . . . . . . . . o o . . . . . . . . . . . . o o . . . . . . . . . . . . . . . . . . . . . . . . . . . . . . . . . . . . . . . . . . . . . . . . . . . . . . . . . . . . . . . . . . . . . . . . . . . . . . . . . . . . . . . . . . . . . . . . . . . . . . . . . . . . . . . . . . . . . . . . . . . . . . . . . . . . . . . . . . . . . . . . . . . . . . . . . . . . . . . . . . . . . . . . . . . . . . . . . . . . . . . . . . . . . . . . . . . . . . . . . . . . . . . . # o . . . . . . . . . . . . . . . . . . . . . . o o o o o o # o o o o o o o o . . . o . . . . o . o O O O O O O O O O o o . . . # # o o . . . . . . . . . . . . . . . . . . . . . . . . . . . . . . . . . . . . . . . . . . . . . . . . . . . . . . . . . . . . . . . . . . . . . . . . . . . . . . . . . . . . . . . . . . . . . . . . . . . . . . . . . . . . . . . . . . . . . . . . . . . . X X X . . . o O . . X X X X X . . o o o o o o o o o o o # # O O X X X X X . . . X X . . . . . . . . . . . X X X . . . . . o # @ # o # #                                             ",
"                                                                                                      > . . @ @ 1 y d k >.;.v.a.0.0.S M #.#.v.v.0.0.V h V M 0.p.0.p.y g g h S F k h - @ #.                                                                        j . . . . . . . . . . . . . . . . . . o . . . . . . . o o o o . . o # # @ # o # # @ @ o # # O @ @ @ @ @ @ @ @ # @ @ @ @ @ @ @ @ @ @ @ @ @ @ @ @ @ @ @ @ @ @ @ O O O O O O O O @ @ @ @ @ @ @ @ @ @ @ @ @ O O O O # O O O O O O . o o o o o o o o o o o . o . . # # # o o . . . # o . . o o o o o o # o o o o o o o o o o o o o # O @ @ @ O O O O O O O # # # # @ @ @ @ @ @ @ @ @ @ @ @ @ @ @ @ @ @ @ O O O O O O O @ @ @ @ # # # # # # # # # O O O O O O O O # o @ @ @ @ O O O O O O O O O O o o o # # @ # o o O O O O o o o o @ # @ o o o o # # # @ @ @ @ o o o o o o o @ @ @ @ @ @ @ # # # @ # # # # # # # # O O O O O O @ @ O O O O O O O O @ @ @ # # # # @ @ @ # # # # @ @ # # @ @ @ @ # # @ @ @ @ @ @ @ @ o o o # @ @ @ @ O # O O @ @ @ @ O O O O O O O O @ @ @ O O O O O o o # O O O o o @ @ @ @ @ @ @ @ O O O O O o o . # o o o o # # # o # # # o o o o # # # # # # o o o o o o o o o o o o o o o o o o o o o o o o o o @ O o o o o o o @ @ o # O @ @ @ # # o o o o o o o o o o o o # # o o o o o o O O # O o o o o o O o o o O @ @ @ o # o # # # @ @ # O O O O O O O O # # # # O O O O o O O O O O o o o O O O O O o o @ @ @ @ @ @ # @ o o @ # O O @ @ o o o o o o o o o o o # o o o o o o o o o o o o o o o @ @ @ @ @ O # o o o o o o O o o o o o o O o o o o o o o o o o o o o o o o @ @ @ # o o # @ o o o o o @ @ @ o @ # @ # @ @ @ # # @ @ @ @ # # O O O o o o o o # o o o o o o o @ o o o o o o o o # # # # # # # # # # # # # # # # o o . . . o o # # O o o o o # o o o o o o o o # # o o o o # # o o o o o o o # O O o o O O o o . . o o o o o o o o o o o o # # o o # # # o o o o o o o o o o o o o o o o o o o o # # o o o o o o o o o o o o o # # # o o o o o o o o o o @ o o O O o o o o O O O O O O O O O O o o # O O O O O o O O O O @ @ @ @ @ o o o o o o @ @ # # @ @ @ @ o o O O @ @ @ O O O O O O O O O O O O O O O O O O O O O O O # O o # @ @ @ @ @ @ @ @ @ O @ O o o O O O O O O O O O O O @ O O O o O O O O O # O O O O O O O O O O O O O O @ @ @ @ O O @ @ # O O O @ # # # # # o o @ @ O O O O o o # # # # # # O O . o o o . . o o o o o O O O O O . . o O O O O O o o o o o # o o # o o o o o # # # # O O O o o o O O o o o o o # O # o o o o o # # # O O O O O O # o O O O O O O O O O O O O O O O O O O O O O X o o O O O O o o # # o o o O O O O O O o o # # @ > > @ @                                             ",
"                                                                                                        . . > @ y d d k ;.3.v.v.0.0.S F F #.V.v.0.0.V S h V 0.0.i.p.M k h g D F h b @ @                                                                             . . . . . . . . . . . . . . . . . . . . . . . . . . o o o o . . o o o o o o # # @ @ o o # # @ @ @ @ @ @ @ @ @ @ @ @ @ @ @ @ @ @ @ @ @ @ @ @ @ @ @ @ @ & @ @ O @ O @ @ @ @ O @ @ @ @ @ @ @ @ @ @ O O # O # o o o o O O O O o . . o o . . . . . . . . . . . . o o . . . . . . # . . . . . . . o o o o o o o o . . . o o o o o # # O O O o o o o o # # # # # # o # @ @ @ @ @ # # # # @ @ @ @ @ @ @ @ @ # # O O # # O O @ @ # # o o o o o o # O O O O O O o o o o o o o @ @ O O O O O O o o o o o o o o o o o o O o o o o o o o # o o o o o o # o o o o o # o o # o o o o o # # @ @ @ @ @ o o o # # # # # # # # O O O O O O O O O O O O O O O O @ @ @ # # # # # # @ # # # # @ @ # # # # @ @ # # @ @ @ # # @ @ @ o o # @ @ @ @ @ O O O O O O # # O O @ O O O # # O O O O O O O O # # # # O O O O @ @ @ @ @ @ @ @ O O O O o o o . # o o o o o o o o o o . . . . . # # o o o o o . o . . . . . . . o . . o o o o o . . o o o . o o @ o o o o o o o o o o o o o o o o o o o o o o o o o o o o o o # o o o o . o o o o o o o o o o o o o o @ @ @ o o # # # # # # # # O O o o O O O O o o o o o o o o o O O O O O o o o o O O O o o o o O @ @ o o o o o o o o o o o o o o o o o o o o o o o o o o o o o o o o o o o o o o o o o o o # # o o o o o o o . . . . . . . . o o o o o o o o o o o o o o o o o o o o o o o o o o o o o o o @ o o # # o o @ @ o o o o o o o o o o o o o o o o o o o o o o o o o o o o o o o o # # # o o o . . o o o o o o # # o o . . . . . o o o o o o o o o o o o o o o o o o o o o o o # # o o o o o o o o O O O O O o o o . . o o o o o o o . o o o o o o o o # o o o o o o o o o o o o o o o o o o o o o o o o o o o o o o o o o o o o o # # # o o o o o o o o o o o o o . . . . . . o o o o o o o o o o o o # O O O O O o o O O O O O O @ # o o o o o o @ @ # # @ @ @ @ O # # O O O O O O O O O O O O O O O O O O O O O O O O O O O O O # # @ @ @ @ @ @ @ @ @ @ @ @ @ @ o # o o . . o o o o o O O o o o o o o o o o o o o o o o o o o . o . o o o o o o o o o o o o o o # # o o o o o o o o o o . . . . . o . o o o o o . . . . . . . . . . . o o o . . . . . . o o o o . . . . o o o o o o o o o . . . . o . o o o o o o o o o o o o o o . . . . . . . O # O O O O O O # O O O O O O O O O O O O O O O @ @ @ O O O O O o o O O @ @ @ @ @ O @ @ @ O @ @ O O @ @ # # @ @ > > @                                               ",
"                                                                                                            F F @ @ @ O > @ o . ; o ; @ ; ; ; @ ; ; ; , , > ; @ ; - , ; , , > < O O . .                                                                               . . . . . . . . . . . . . . . . . . . . . . . . . . . . . . . . . . . . . . . . . . . . . . . . . . . . . . . . . o o o o O O O O o o o o o o o o o # # # . . o o O X o . O O O O o o # # o o o o o o . . . . o o o . . . . . . . . . . . . . . . . . . . . . . . . . . . . . . . . . . . . . . . . . . . . . . . . . . . . . . . . . . . . . . . . . . . . . . . o o o o o o o o o o o o # o o o o . . o . . . . . o o o o o . . o o o o o o o o . . . . . . . . . . . . . . . . . . . . . . . . . . . . . . . . . . o o o . . . o o o . . . . . . . . . o o o o . . . . . o o o o . . . . . . . . . . . o o o o o o o . . . . . . . . . o o o o o o # # o o o . . . . . . . . . . . . . o o . . . . o o . o o o o o o o o o o o o o o . o o o o o . . . . . o o o o o o o o o o o o o o o o o . . . . o . . . . . . . . . . . . . . . . . . . . . . . . . . . . . . . . . . . . . . . . . . . . . . . . . . . . . . . . . . . . . . . . . . . . . . . . . . . . . . . . . . . . . . . . . . . . . . . . . . . . . . . . . . . . . . . . o . . . . . . . . . . . . . . . . . . . . . . . . . . . . . . . . . . . . . . . . . . . . . . . . . . . . . . . . . . . . . . . . . . . . . . . . . . . . . . . . . . . . . . . . . . . . . . . . . o o . . o o . . . . . . . . . . . . . . . . o o . . . . . . . . . . . . . . . . . . . . . . . . . . . . . . . . . . . . . . . . . . . . . . . . . . . . . . . . . . . . . . . . . . . . . . . . . . . . . . . . . . . . . . . . . . . . . . . . . . . . . . o . . . . . . . . o o . . . . . . . . . . . . . . o o o . . o o . . . . . . . . . . . . . . . . . . . . . . . . . . . . . . . . . . . . . . . . . . . . . . . . . . . . o o . . . . . . . . o o o o o o o o # # . . . . . . . . . . . . . . . . o o . . o o o o o o . . . o o o . . o o o o o o o o . o o o o o o o o o o o o o o o o o o o o o o o o o o o o o o o o o # # # o # # # # # # # # # # # # # # # # @ @ @ @ @ o o o o o o o o o o . . . . . o o o o o o . o o o . . o # . # # # o o o o o o o o . . o o # # o # # # . . . . . . . . o o o o o o o . o o . . o o o o o o o o # # # # # # # o o o . . o o o o # # # # # # # # # # # # @ O O # # # # o # # # # @ @ @ @ # O O O @ @ @ @ o # # @ @ @ o o @ @ O O O O O O O O @ @ @ @ # @ @ # # # @ @ @ @ O O # @ + @ @ @ @                                                   ",
"                                                                                                              F @ @ @ @ ; ; O @ - ; ; > ; ; - ; ; - 1 ; , , o ; ; ; < < < > , ; @ @ . .                                                                                                                                                                                                                                                                                                                                                                                                                                                                                                                                                                                                                                                                                                                                                                                                                                                                                                                                                                                                                                                                                                                                                                                                                                                                                                                                                                                                                                                                                                                                                                                                                                                                                                                                                                                                                                                                                                                                                                                                                                                                                                                                                                                                                                                                                                                                                                                                                             ",
"                                                                                                                . o @ @ @ @ @ @ @ @ @ @ ; ; ; ; > ; ; ; ; ; ; ; < > ; @ @ @ o . > > . .                                                                                                                                                                                                                                                                                                                                                                                                                                                                                                                                                                                                                                                                                                                                                                                                                                                                                                                                                                                                                                                                                                                                                                                                                                                                                                                                                                                                                                                                                                                                                                                                                                                                                                                                                                                                                                                                                                                                                                                                                                                                                                                                                                                                                                                                                                                                                                                                                             ",
"                                                                                                                . o @ @ @ @ @ @ ; - @ - ; ; ; ; ; ; ; ; ; ; ; > > > @ @ @ @ o o > 1 . .                                                                                                                                                                                                                                                                                                                                                                                                                                                                                                                                                                                                                                                                                                                                                                                                                                                                                                                                                                                                                                                                                                                                                                                                                                                                                                                                                                                                                                                                                                                                                                                                                                                                                                                                                                                                                                                                                                                                                                                                                                                                                                                                                                                                                                                                                                                                                                                                                             ",
"                                                                                                                . o @ @ @ @ @ @ @ @ @ @ @ @ @ @ @ @ @ @ @ @ @ @ > > @ @ @ @ @ @ > 1 >                                                                                                                                                                                                                                                                                                                                                                                                                                                                                                                                                                                                                                                                                                                                                                                                                                                                                                                                                                                                                                                                                                                                                                                                                                                                                                                                                                                                                                                                                                                                                                                                                                                                                                                                                                                                                                                                                                                                                                                                                                                                                                                                                                                                                                                                                                                                                                                                                               ",
"                                                                                                                                      @ @ @ @ @ @ @ @ @                                                                                                                                                                                                                                                                                                                                                                                                                                                                                                                                                                                                                                                                                                                                                                                                                                                                                                                                                                                                                                                                                                                                                                                                                                                                                                                                                                                                                                                                                                                                                                                                                                                                                                                                                                                                                                                                                                                                                                                                                                                                                                                                                                                                                                                                                                                                                                                                                                                             ",
"                                                                                                                                                                                                                                                                                                                                                                                                                                                                                                                                                                                                                                                                                                                                                                                                                                                                                                                                                                                                                                                                                                                                                                                                                                                                                                                                                                                                                                                                                                                                                                                                                                                                                                                                                                                                                                                                                                                                                                                                                                                                                                                                                                                                                                                                                                                                                                                                                                                                                                                                                                                                                    ",
"                                                                                                                                                                                                                                                                                                                                                                                                                                                                                                                                                                                                                                                                                                                                                                                                                                                                                                                                                                                                                                                                                                                                                                                                                                                                                                                                                                                                                                                                                                                                                                                                                                                                                                                                                                                                                                                                                                                                                                                                                                                                                                                                                                                                                                                                                                                                                                                                                                                                                                                                                                                                                    ",
"                                                                                                                                                                                                                                                                                                                                                                                                                                                                                                                                                                                                                                                                                                                                                                                                                                                                                                                                                                                                                                                                                                                                                                                                                                                                                                                                                                                                                                                                                                                                                                                                                                                                                                                                                                                                                                                                                                                                                                                                                                                                                                                                                                                                                                                                                                                                                                                                                                                                                                                                                                                                                    ",
"                                                                                                                                                                                                                                                                                                                                                                                                                                                                                                                                                                                                                                                                                                                                                                                                                                                                                                                                                                                                                                                                                                                                                                                                                                                                                                                                                                                                                                                                                                                                                                                                                                                                                                                                                                                                                                                                                                                                                                                                                                                                                                                                                                                                                                                                                                                                                                                                                                                                                                                                                                                                                    ",
"                                                                                                                                                                                                                                                                                                                                                                                                                                                                                                                                                                                                                                                                                                                                                                                                                                                                                                                                                                                                                                                                                                                                                                                                                                                                                                                                                                                                                                                                                                                                                                                                                                                                                                                                                                                                                                                                                                                                                                                                                                                                                                                                                                                                                                                                                                                                                                                                                                                                                                                                                                                                                    ",
"                                                                                                                                                                                                                                                                                                                                                                                                                                                                                                                                                                                                                                                                                                                                                                                                                                                                                                                                                                                                                                                                                                                                                                                                                                                                                                                                                                                                                                                                                                                                                                                                                                                                                                                                                                                                                                                                                                                                                                                                                                                                                                                                                                                                                                                                                                                                                                                                                                                                                                                                                                                                                    ",
"                                                                                                                                                                                                                                                                                                                                                                                                                                                                                                                                                                                                                                                                                                                                                                                                                                                                                                                                                                                                                                                                                                                                                                                                                                                                                                                                                                                                                                                                                                                                                                                                                                                                                                                                                                                                                                                                                                                                                                                                                                                                                                                                                                                                                                                                                                                                                                                                                                                                                                                                                                                                                    ",
"                                                                                                                                                                                                                                                                                                                                                                                                                                                                                                                                                                                                                                                                                                                                                                                                                                                                                                                                                                                                                                                                                                                                                                                                                                                                                                                                                                                                                                                                                                                                                                                                                                                                                                                                                                                                                                                                                                                                                                                                                                                                                                                                                                                                                                                                                                                                                                                                                                                                                                                                                                                                                    ",
"                                                                                                                                                                                                                                                                                                                                                                                                                                                                                                                                                                                                                                                                                                                                                                                                                                                                                                                                                                                                                                                                                                                                                                                                                                                                                                                                                                                                                                                                                                                                                                                                                                                                                                                                                                                                                                                                                                                                                                                                                                                                                                                                                                                                                                                                                                                                                                                                                                                                                                                                                                                                                    ",
"                                                                                                                                                                                                                                                                                                                                                                                                                                                                                                                                                                                                                                                                                                                                                                                                                                                                                                                                                                                                                                                                                                                                                                                                                                                                                                                                                                                                                                                                                                                                                                                                                                                                                                                                                                                                                                                                                                                                                                                                                                                                                                                                                                                                                                                                                                                                                                                                                                                                                                                                                                                                                    ",
"                                                                                                                                                                                                                                                                                                                                                                                                                                                                                                                                                                                                                                                                                                                                                                                                                                                                                                                                                                                                                                                                                                                                                                                                                                                                                                                                                                                                                                                                                                                                                                                                                                                                                                                                                                                                                                                                                                                                                                                                                                                                                                                                                                                                                                                                                                                                                                                                                                                                                                                                                                                                                    ",
"                                                                                                                                                                                                                                                                                                                                                                                                                                                                                                                                                                                                                                                                                                                                                                                                                                                                                                                                                                                                                                                                                                                                                                                                                                                                                                                                                                                                                                                                                                                                                                                                                                                                                                                                                                                                                                                                                                                                                                                                                                                                                                                                                                                                                                                                                                                                                                                                                                                                                                                                                                                                                    ",
"                                                                                                                                                                                                                                                                                                                                                                                                                                                                                                                                                                                                                                                                                                                                                                                                                                                                                                                                                                                                                                                                                                                                                                                                                                                                                                                                                                                                                                                                                                                                                                                                                                                                                                                                                                                                                                                                                                                                                                                                                                                                                                                                                                                                                                                                                                                                                                                                                                                                                                                                                                                                                    ",
"                                                                                                                                                                                                                                                                                                                                                                                                                                                                                                                                                                                                                                                                                                                                                                                                                                                                                                                                                                                                                                                                                                                                                                                                                                                                                                                                                                                                                                                                                                                                                                                                                                                                                                                                                                                                                                                                                                                                                                                                                                                                                                                                                                                                                                                                                                                                                                                                                                                                                                                                                                                                                    ",
"                                                                                                                                                                                                                                                                                                                                                                                                                                                                                                                                                                                                                                                                                                                                                                                                                                                                                                                                                                                                                                                                                                                                                                                                                                                                                                                                                                                                                                                                                                                                                                                                                                                                                                                                                                                                                                                                                                                                                                                                                                                                                                                                                                                                                                                                                                                                                                                                                                                                                                                                                                                                                    ",
"                                                                                                                                                                                                                                                                                                                                                                                                                                                                                                                                                                                                                                                                                                                                                                                                                                                                                                                                                                                                                                                                                                                                                                                                                                                                                                                                                                                                                                                                                                                                                                                                                                                                                                                                                                                                                                                                                                                                                                                                                                                                                                                                                                                                                                                                                                                                                                                                                                                                                                                                                                                                                    ",
"                                                                                                                                                                                                                                                                                                                                                                                                                                                                                                                                                                                                                                                                                                                                                                                                                                                                                                                                                                                                                                                                                                                                                                                                                                                                                                                                                                                                                                                                                                                                                                                                                                                                                                                                                                                                                                                                                                                                                                                                                                                                                                                                                                                                                                                                                                                                                                                                                                                                                                                                                                                                                    ",
"                                                                                                                                                                                                                                                                                                                                                                                                                                                                                                                                                                                                                                                                                                                                                                                                                                                                                                                                                                                                                                                                                                                                                                                                                                                                                                                                                                                                                                                                                                                                                                                                                                                                                                                                                                                                                                                                                                                                                                                                                                                                                                                                                                                                                                                                                                                                                                                                                                                                                                                                                                                                                    ",
"                                                                                                                                                                                                                                                                                                                                                                                                                                                                                                                                                                                                                                                                                                                                                                                                                                                                                                                                                                                                                                                                                                                                                                                                                                                                                                                                                                                                                                                                                                                                                                                                                                                                                                                                                                                                                                                                                                                                                                                                                                                                                                                                                                                                                                                                                                                                                                                                                                                                                                                                                                                                                    ",
"                                                                                                                                                                                                                                                                                                                                                                                                                                                                                                                                                                                                                                                                                                                                                                                                                                                                                                                                                                                                                                                                                                                                                                                                                                                                                                                                                                                                                                                                                                                                                                                                                                                                                                                                                                                                                                                                                                                                                                                                                                                                                                                                                                                                                                                                                                                                                                                                                                                                                                                                                                                                                    "
};
