/* XPM */
static char *_c37822715b547e89b2594b6f6dbc032[] = {
/* columns rows colors chars-per-pixel */
"1258 164 247 2 ",
"   c None",
".  c #030302",
"X  c #0B0402",
"o  c #060805",
"O  c #0A0906",
"+  c #060609",
"@  c #070909",
"#  c #0B0C0A",
"$  c #090709",
"%  c #130202",
"&  c #1B0201",
"*  c #120B06",
"=  c #120D0A",
"-  c #1B0C0B",
";  c #1A0A05",
":  c #0E100B",
">  c #0C1006",
",  c #12110E",
"<  c #1A130C",
"1  c #191208",
"2  c #131311",
"3  c #1A1512",
"4  c #171814",
"5  c #1A1A16",
"6  c #1C1D1C",
"7  c #161819",
"8  c #111111",
"9  c #220000",
"0  c #280B0B",
"q  c #3E0B0D",
"w  c #390707",
"e  c #221D1A",
"r  c #291816",
"t  c #361818",
"y  c #311010",
"u  c #1E201C",
"i  c #23231D",
"p  c #2B251D",
"a  c #2A271C",
"s  c #32241D",
"d  c #37271D",
"f  c #252522",
"g  c #2A2622",
"h  c #262823",
"j  c #2B2B25",
"k  c #2D2D2A",
"l  c #262A29",
"z  c #332C25",
"x  c #3A2D24",
"c  c #322E29",
"v  c #392925",
"b  c #2F302B",
"n  c #3B3126",
"m  c #33322D",
"M  c #3B342C",
"N  c #3C392E",
"B  c #343228",
"V  c #353632",
"C  c #3A3632",
"Z  c #373833",
"A  c #3A3A35",
"S  c #3C3D3A",
"D  c #373A38",
"F  c #2F3031",
"G  c #242121",
"H  c #470608",
"J  c #550B0E",
"K  c #5C0C0C",
"L  c #5C070B",
"P  c #5C110D",
"I  c #4A0E12",
"U  c #540D11",
"Y  c #5A0D11",
"T  c #5B0710",
"R  c #4C1214",
"E  c #421C1D",
"W  c #4B1A1C",
"Q  c #471617",
"!  c #541314",
"~  c #5B1212",
"^  c #541A1B",
"/  c #59161A",
"(  c #63070B",
")  c #630B0C",
"_  c #6B0A0D",
"`  c #69070B",
"'  c #75060B",
"]  c #7A060E",
"[  c #730B0D",
"{  c #7C0A0E",
"}  c #63110D",
"|  c #640D12",
" . c #6C0D11",
".. c #740D11",
"X. c #7C0C12",
"o. c #7A0A16",
"O. c #631213",
"+. c #6C1315",
"@. c #651B1D",
"#. c #6B1B1C",
"$. c #691619",
"%. c #741214",
"&. c #7B1315",
"*. c #74151A",
"=. c #7B141A",
"-. c #73191B",
";. c #7B191C",
":. c #7F110E",
">. c #4A1E20",
",. c #531F23",
"<. c #6C1E21",
"1. c #771E23",
"2. c #472927",
"3. c #572A2B",
"4. c #42352C",
"5. c #43392E",
"6. c #4A3A2D",
"7. c #47342A",
"8. c #433C34",
"9. c #4B3D34",
"0. c #423E39",
"q. c #453732",
"w. c #553834",
"e. c #552F30",
"r. c #652629",
"t. c #792328",
"y. c #6A3034",
"u. c #4A201D",
"i. c #3E403D",
"p. c #3E4037",
"a. c #444137",
"s. c #4B4235",
"d. c #43423C",
"f. c #4B443C",
"g. c #4D493E",
"h. c #46483E",
"j. c #52453B",
"k. c #534A3D",
"l. c #574639",
"z. c #524837",
"x. c #604C3E",
"c. c #553F43",
"v. c #3F4140",
"b. c #444443",
"n. c #4B4642",
"m. c #464945",
"M. c #4A4A45",
"N. c #464A49",
"B. c #4A4B4A",
"V. c #494748",
"C. c #534544",
"Z. c #534B44",
"A. c #5A4C45",
"S. c #534D4A",
"D. c #5A4D4B",
"F. c #5A4546",
"G. c #4E504D",
"H. c #4E5146",
"J. c #545046",
"K. c #53524D",
"L. c #5B544C",
"P. c #5A554A",
"I. c #4F5150",
"U. c #525251",
"Y. c #5B5652",
"T. c #565953",
"R. c #5B5A55",
"E. c #5D5D5A",
"W. c #565958",
"Q. c #514F50",
"!. c #614847",
"~. c #62544C",
"^. c #66564A",
"/. c #635C55",
"(. c #6B5D54",
"). c #625E5A",
"_. c #655754",
"`. c #715E55",
"'. c #5E605B",
"]. c #5E6056",
"[. c #62625D",
"{. c #6B645C",
"}. c #666359",
"|. c #73665D",
" X c #646562",
".X c #696762",
"XX c #676863",
"oX c #6A6A66",
"OX c #6D6D6B",
"+X c #686768",
"@X c #736C64",
"#X c #716F6A",
"$X c #756861",
"%X c #6F706B",
"&X c #6E7065",
"*X c #72726D",
"=X c #7A746D",
"-X c #76746A",
";X c #747472",
":X c #797673",
">X c #777874",
",X c #7A7A75",
"<X c #7C7C7A",
"1X c #777978",
"2X c #707070",
"3X c #5F6261",
"4X c #3E3E40",
"5X c #88090F",
"6X c #840C14",
"7X c #8B0C14",
"8X c #8C0E19",
"9X c #8A0613",
"0X c #920A16",
"qX c #940D19",
"wX c #970B18",
"eX c #841216",
"rX c #851319",
"tX c #8C131B",
"yX c #8A151A",
"uX c #94131B",
"iX c #9B141D",
"pX c #98191D",
"aX c #891D22",
"sX c #9D1521",
"dX c #951C22",
"fX c #9C1A22",
"gX c #921620",
"hX c #A11623",
"jX c #A21923",
"kX c #A51D29",
"lX c #882327",
"zX c #952126",
"xX c #A52026",
"cX c #827B74",
"vX c #7F817B",
"bX c #7F8077",
"nX c #82837D",
"mX c #88857C",
"MX c #858582",
"NX c #8A8B85",
"BX c #8C8D8A",
"VX c #868982",
"CX c #92938D",
"ZX c #989895",
"AX c #8F908A",
"SX c #ABAEA7",
"DX c #A0A29C",
/* pixels */
"                                                                                                                                                                                                                                                                                                                                                                                                                                                                                                                                                                                                                                                                                                                                                                                                                                                                                                                                                                                                                                                                                                                                                                                                                                                                                                                                                                                                                                                                                                                                                                                                                                                                                                                                                                                                                                                                                                                                                                                                                                                                                                                                                                                                                                                                                                                                                                                                                                                                                                                                                                                                                    ",
"                                                                                                                                                                                                                                                                                                                                                                                                                                                                                                                                                                                                                                                                                                                                                                                                                                                                                                                                                                                                                                                                                                                                                                                                                                                                                                                                                                                                                                                                                                                                                                                                                                                                                                                                                                                                                                                                                                                                                                                                                                                                                                                                                                                                                                                                                                                                                                                                                                                                                                                                                                                                                    ",
"                                                                                                                                                                                                                                                                                                                                                                                                                                                                                                                                                                                                                                                                                                                                                                                                                                                                                                                                                                                                                                                                                                                                                                                                                                                                                                                                                                                                                                                                                                                                                                                                                                                                                                                                                                                                                                                                                                                                                                                                                                                                                                                                                                                                                                                                                                                                                                                                                                                                                                                                                                                                                    ",
"                                                                                                                                                                                                                                                                                                                                                                                                                                                                                                                                                                                                                                                                                                                                                                                                                                                                                                                                                                                                                                                                                                                                                                                                                                                                                                                                                                                                                                                                                                                                                                                                                                                                                                                                                                                                                                                                                                                                                                                                                                                                                                                                                                                                                                                                                                                                                                                                                                                                                                                                                                                                                    ",
"                                                                                                                                                                                                                                                                                                                                                                                                                                                                                                                                                                                                                                                                                                                                                                                                                                                                                                                                                                                                                                                                                                                                                                                                                                                                                                                                                                                                                                                                                                                                                                                                                                                                                                                                                                                                                                                                                                                                                                                                                                                                                                                                                                                                                                                                                                                                                                                                                                                                                                                                                                                                                    ",
"                                                                                                                                                                                                                                                                                                                                                                                                                                                                                                                                                                                                                                                                                                                                                                                                                                                                                                                                                                                                                                                                                                                                                                                                                                                                                                                                                                                                                                                                                                                                                                                                                                                                                                                                                                                                                                                                                                                                                                                                                                                                                                                                                                                                                                                                                                                                                                                                                                                                                                                                                                                                                    ",
"                                                                                                                                                                                                                                                                                                                                                                                                                                                                                                                                                                                                                                                                                                                                                                                                                                                                                                                                                                                                                                                                                                                                                                                                                                                                                                                                                                                                                                                                                                                                                                                                                                                                                                                                                                                                                                                                                                                                                                                                                                                                                                                                                                                                                                                                                                                                                                                                                                                                                                                                                                                                                    ",
"                                                                                                                                                                                                                                                                                                                                                                                                                                                                                                                                                                                                                                                                                                                                                                                                                                                                                                                                                                                                                                                                                                                                                                                                                                                                                                                                                                                                                                                                                                                                                                                                                                                                                                                                                                                                                                                                                                                                                                                                                                                                                                                                                                                                                                                                                                                                                                                                                                                                                                                                                                                                                    ",
"                                                                                                                                                                                                                                                                                                                                                                                                                                                                                                                                                                                                                                                                                                                                                                                                                                                                                                                                                                                                                                                                                                                                                                                                                                                                                                                                                                                                                                                                                                                                                                                                                                                                                                                                                                                                                                                                                                                                                                                                                                                                                                                                                                                                                                                                                                                                                                                                                                                                                                                                                                                                                    ",
"                                                                                                                                                                                                                                                                                                                                                                                                                                                                                                                                                                                                                                                                                                                                                                                                                                                                                                                                                                                                                                                                                                                                                                                                                                                                                                                                                                                                                                                                                                                                                                                                                                                                                                                                                                                                                                                                                                                                                                                                                                                                                                                                                                                                                                                                                                                                                                                                                                                                                                                                                                                                                    ",
"                                                                                                                                                                                                                                                                                                                                                                                                                                                                                                                                                                                                                                                                                                                                                                                                                                                                                                                                                                                                                                                                                                                                                                                                                                                                                                                                                                                                                                                                                                                                                                                                                                                                                                                                                                                                                                                                                                                                                                                                                                                                                                                                                                                                                                                                                                                                                                                                                                                                                                                                                                                                                    ",
"                                                                                                                                                                                                                                                                                                                                                                                                                                                                                                                                                                                                                                                                                                                                                                                                                                                                                                                                                                                                                                                                                                                                                                                                                                                                                                                                                                                                                                                                                                                                                                                                                                                                                                                                                                                                                                                                                                                                                                                                                                                                                                                                                                                                                                                                                                                                                                                                                                                                                                                                                                                                                    ",
"                                                                                                                                                                                                                                                                                                                                                                                                                                                                                                                                                                                                                                                                                                                                                                                                                                                                                                                                                                                                                                                                                                                                                                                                                                                                                                                                                                                                                                                                                                                                                                                                                                                                                                                                                                                                                                                                                                                                                                                                                                                                                                                                                                                                                                                                                                                                                                                                                                                                                                                                                                                                                    ",
"                                                                                                                                                                                                                                                                                                                                                                                                                                                                                                                                                                                                                                                                                                                                                                                                                                                                                                                                                                                                                                                                                                                                                                                                                                                                                                                                                                                                                                                                                                                                                                                                                                                                                                                                                                                                                                                                                                                                                                                                                                                                                                                                                                                                                                                                                                                                                                                                                                                                                                                                                                                                                    ",
"                                                                                                                                                                                                                                                                                                                                                                                                                                                                                                                                                                                                                                                                                                                                                                                                                                                                                                                                                                                                                                                                                                                                                                                                                                                                                                                                                                                                                                                                                                                                                                                                                                                                                                                                                                                                                                                                                                                                                                                                                                                                                                                                                                                                                                                                                                                                                                                                                                                                                                                                                                                                                    ",
"                                                                                                                                                                                                                                                                                                                                                                                                                                                                                                                                                                                                                                                                                                                                                                                                                                                                                                                                                                                                                                                                                                                                                                                                                                                                                                                                                                                                                                                                                                                                                                                                                                                                                                                                                                                                                                                                                                                                                                                                                                                                                                                                                                                                                                                                                                                                                                                                                                                                                                                                                                                                                    ",
"                                                                                                                                                                                                                                                                                                                                                                                                                                                                                                                                                                                                                                                                                                                                                                                                                                                                                                                                                                                                                                                                                                                                                                                                                                                                                                                                                                                                                                                                                                                                                                                                                                                                                                                                                                                                                                                                                                                                                                                                                                                                                                                                                                                                                                                                                                                                                                                                                                                                                                                                                                                                                    ",
"                                                                                                                                                                                                                                                                                                                                                                                                                                                                                                                                                                                                                                                                                                                                                                                                                                                                                                                                                                                                                                                                                                                                                                                                                                                                                                                                                                                                                                                                                                                                                                                                                                                                                                                                                                                                                                                                                                                                                                                                                                                                                                                                                                                                                                                                                                                                                                                                                                                                                                                                                                                                                    ",
"                                                                                                                                                                                                                                                                                                                                                                                                                                                                                                                                                                                                                                                                                                                                                                                                                                                                                                                                                                                                                                                                                                                                                                                                                                                                                                                                                                                                                                                                                                                                                                                                                                                                                                                                                                                                                                                                                                                                                                                                                                                                                                                                                                                                                                                                                                                                                                                                                                                                                                                                                                                                                    ",
"                                                                                                                                                                                                                                                                                                                                                                                                                                                                                                                                                                                                                                                                                                                                                                                                                                                                                                                                                                                                                                                                                                                                                                                                                                                                                                                                                                                                                                                                                                                                                                                                                                                                                                                                                                                                                                                                                                                                                                                                                                                                                                                                                                                                                                                                                                                                                                                                                                                                                                                                                                                                                    ",
"                                                                                                                                                                                                                                                                                                                                                                                                                                                                                                                                                                                                                                                                                                                                                                                                                                                                                                                                                                                                                                                                                                                                                                                                                                                                                                                                                                                                                                                                                                                                                                                                                                                                                                                                                                                                                                                                                                                                                                                                                                                                                                                                                                                                                                                                                                                                                                                                                                                                                                                                                                                                                    ",
"                                                                                                                    BXBXBXBX                                                                                                                                                                                                                                                                                                                                                                                                                                                                                                                                                                                                                                                                                                                                                                                                                                                                                                                                                                                                                                                                                                                                                                                                                                                                                                                                                                                                                                                                                                                                                                                                                                                                                                                                                                                                                                                                                                                                                                                                                                                                                                                                                                                                                                                                                                                                                                                                                                                                                        ",
"                                                                                                            u 7 . . . . . . . + + + . + + + + + + + + + . . + . . . . . . . . . .                                                                                                                                                                                                                                                                                                                                                                                                                                                                                                                                                                                                                                                                                                                                                                                                                                                                                                                                                                                                                                                                                                                                                                                                                                                                                                                                                                                                                                                                                                                                                                                                                                                                                                                                                                                                                                                                                                                                                                                                                                                                                                                                                                                                                                                                                                                                                                                                                                   ",
"                                                                                                            2 6 . . . + + + + + + + + + . . . . + . . . . . . . . . . . . . . . . .                                                                                                                                                                                                                                                                                                                                                                                                                                                                                                                                                                                                                                                                                                                                                                                                                                                                                                                                                                                                                                                                                                                                                                                                                                                                                                                                                                                                                                                                                                                                                                                                                                                                                                                                                                                                                                                                                                                                                                                                                                                                                                                                                                                                                                                                                                                                                                                                                                 ",
"                                                                                                            # 2 . . + . # $ $ # # # $ $ # # # # $ $ + $ $ $ # + $ $ $ # . . + + . .                                                                                                                                                                                                                                                                                                                                                                                                                                                                                                                                                                                                                                                                                                                                                                                                                                                                                                                                                                                                                                                                                                                                                                                                                                                                                                                                                                                                                                                                                                                                                                                                                                                                                                                                                                                                                                                                                                                                                                                                                                                                                                                                                                                                                                                                                                                                                                                                                                 ",
"                                                                                                            7 2 . . + . $ $ + $ # # $ $ # # # # $ $ + $ + + $ $ + $ + # + + + . . +                                                                                                                                                                                                                                                                                                                                                                                                                                                                                                                                                                                                                                                                                                                                                                                                                                                                                                                                                                                                                                                                                                                                                                                                                                                                                                                                                                                                                                                                                                                                                                                                                                                                                                                                                                                                                                                                                                                                                                                                                                                                                                                                                                                                                                                                                                                                                                                                                                 ",
"                                                                                            V k . $ $ # 2 $ # # 2 2 2 2 2 7 2 2 : 2 , # 2 2 # 2 6 7 f f 6 6 6 6 7 7 2 2 # 2 $ # . $ E. X                                                                                                                                                                                                                                                                                                                                                                                                                                                                                                                                                                                                                                                                                                                                                                                                                                                                                                                                                                                                                                                                                                                                                                                                                                                                                                                                                                                                                                                                                                                                                                                                                                                                                                                                                                                                                                                                                                                                                                                                                                                                                                                                                                                                                                                                                                                                                                                                                            ",
"                                                                                            k f @ . $ $ $ 2 $ # # # 2 7 2 2 # # , 2 # # 2 , # : i 7 f i 5 6 6 f 7 7 2 2 2 2 $ $ # $ E.E.MXBXCX                                                                                                                                                                                                                                                                                                                                                                                                                                                                                                                                                                                                                                                                                                                                                                                                                                                                                                                                                                                                                                                                                                                                                                                                                                                                                                                                                                                                                                                                                                                                                                                                                                                                                                                                                                                                                                                                                                                                                                                                                                                                                                                                                                                                                                                                                                                                                                                                                      ",
"                                                                                        V k 2 5 . . . + . . # # f f h k k Z b.V.B.B.B.V.B.B.B.B.k k V V k k k f f k k V V V 6 6 . $ . + . . . . .                                                             i . . . . . . . . . . . . . . . . + + + + . . . . . . . . + + + + . . . . . . . . . . . . . . . . . . . . . . . . . . . . . . . . . . . . . . . . . . . . . . . . . . . . . . . . . . . . . . . . . . . . . . . . . . . . . + + + . . . . . . . . + + + + X X + + X X . + + + + + + + + + . $ + + + + + + + + + + + + . . . . X . . . . . . . . . . . . . . . . . . . . . . . . . . . . . . . . . . . . . . . . . . . . . . . . . . . . . . . . . . . . . . . . . . . . . . . . . . . . . . . . . . . . . . . . . . . . . . . . . . . . . . . . . . . . . . . . . . . . . . . . . . . . . . . . . . . . . . . . . . . . . . . . . . . . . . . . . . . . . . . . . . . . . . . . . . . . . . . . . . . . . . . . . . . . . . . . . . . . . . . . . . . . . . . . . . . . . . . . . . . . . . . . . . . . . . . . . . . . . . . . . . . . . . . . . . . . . . . . . . . . . . . . . . . . . . . . . . . . . . . . . . . . . . . . . . . . . . . . . . . . . . . . . . . . . . . . . . . . . . . . . . . . . . . . . . . . . . . . . . . . . . . . . . . . . . . . . . . . . . . . . . . . . . . . . . . . . . . . . . . . . . . . . . . . . . . . . . . . . . . + + + + . . . . . . . . . . . . . . . . . . . . . . . . . . . . . . . . . . . . . . . . . . . . . . . . . . . . . . . . . . . . . . . . . . . . . . . . . . . . . . . . . . . . . . . . . . . . . . . . . . . . . . . . . . . . . . . . . . . . . . . . . . . . . . . . . . . . . . . . . . . . . . . . . . . . . . . . . . . . . . . . . . . . . . . . . . . . . . . . . . . . . . . . . . . . . . . . . . . . . . . . . . . . . . . . . . . . . . . . . . . . . . . . . . . . . . . . . . . . . . . . . . . . . . . . . . . . . . . . . . . . . . . . . . . . . . . . . . . . . . . . . . . . . . . . . . . . . . . . . . . . . . . . . . . . . . . . . . . . . . . . . . . . . . . . . . . . . . . . . . . . . . . . . . . . . . . . . . . . . . . . . . . . . . . . . . . . . . . . . . . . . . . . . . . . . . . . . . . . . . . . . . . . . . . . . . . . . . . . . . . . . . . . . . . . . . . . . . . . . . . . . . . . . . . . . . . . . . . . . . . . . . . . . . . . . . . . . . . . . . . . . . . . . . . . . . . . . . . . . . . . . . . . . . . . . . . . . . . . . . . . . . . . . . . . . . . . . . . . . + . . : # $ 2                                                 ",
"                                                                                      SXk k 7 # . . . . + . O $ 6 i k m m k b.S B.V.V.V.V.B.B.B.k V k m V k k f f k Z S Z V 6 6 $ . + . . . . . . +                                                           k . . . . . . . . . . . . . . . . + + + + + + + + . . . . + + + + + . . . . . . . . . . . . . . . . . . . . . . . . . . . . . . . . . . . . . . . . . . . . . . . . . . . . . . . . . . . . . . . . . . . . . . . . . . . . + + + . . . . . . . . + + X X $ $ X + X X + + X X + + + + + + $ $ + + + @ $ $ $ $ + + + + . . . . X . . . . . . . . . . . . . . . . . . . . . . . . . . . . . . . . . . . . . . . . . . . . . . . . . . . . + . + . . . . . . . . . + . . . . . . . . . . . . . . . . . . . . . . . . . . . . . . . . . . . . . . . . . . . . . . . . . . . . . . . . . . . . . . . . . . . . . . . . . . . . . . . . . . . . . . . . . . . . . . . . . . . . . . . . . . . . . . . . . . . . . . . . . . . . . . . . . . . . . . . . . . . . . . . . . . . . . . . . . . . . . . . . . . . . . . . . . . . . . . . . . . . . . . . . . . . . . . . . . . . . . . . . . . . . . . . . . . . . . . . . . . . . . . . . . . . . . . . . . . . . . . . . . . . . . . . . . . . . . . . . . . . . . . . . . . . . . . . . . . . . . . . . . . . . . . . . . . . . . . . . + . . . . . . . . . . . . . . . . . . . . . . . + + + + . . + . + + + + + + + + + + + + . . + . . . . . . . . . . . . . . + + . . . . . . . + . . . . . . . . . . . . . . . . . . . . . . . . . . . . . . . . . . . . . . . . . . . . . . . . . . . . . . . . . . . . . . . . . . . . . . . . . . . . . . . . . . . . . . . . . . . . . . . . . + + + + . . + + . . . . . . . . . . . . . . . . . . . . . . . . . . . . . . . . . . . . . . . . . . . . . . . . . . . . . . . . . . . . . . . . . . . . . . . . . . . . . . . . . . . . . . . + . . . . . . . . . . . . . . . . . . . . . . . . . . . . . . . . . . . . . . . . . . . . . . . . . . . . . . . . . . . + . . . . . . . . . . . . . . . . . . . . . . . . . . . . . . . . . . . + . . . . . . . . . . . . . . . . . . . . . . . . . . . . . . . . . . . . . . . . . . . . . . . . . . . . . . . . . . . . . . . . . . . . . . . . . . . . . . . . . . . . . . . . . . . . . + + + . . . . . . . . . . . . . . . . . . . . . . . . . . . . . . . . . . . . . . . . . . . . . . . . . . . . . . . . . . . . . . . . . . . . . . . . . . . . . . . . . . . . . . . . . . . . . . . . . . . . . . . . . . . . . . + + . + + + + . . . . . . . . . 8 : 2 $                                                 ",
"                                                                                    ZXCXf f 7 h f i f f 4 i 4 i , , # O 4 6 E.[.OXOX>X,XOX*X,X,XV V , # 2 2 f f f f k k u f 2 2 # 2 . + . + . . # $                                                           h . . . . . . . . . . . . . . . . + + + + + + + + + + + + + + + + + + . . . . . . . . . . . . . . . . . . . . . . . . . . . . . . . . . . . . . . . . . . . . . . . . . . . . . . . . . . . . . . . . . . . . . . . . . . . . . . . . . . . . . . + + + + + + + + X X . . . . . . . . . . . . . . + + + + + + + + + + . + + + X X + + . . . . . . . . . . . . . . . . . . . . . . . . . . . . . . . . . . . . . . . . . . . . . . . . . . . . . . . . . . . . . . . . . . . . . . . . . . . . . . . . . . . . . . + . . . . + + + + + + + . . . . + + + + . . . . + + + + + + + + + + + + . . . . . . . . + + + + . . . + + + + + + + + + + + + + + . . . + + + + + . . . . + . . . + + + + + + + + + + + + + + + + + + + + + + + + + + + + + + + + + + + . + + + + + + + + + . . + + + + + + + + + + + + + + + + + + . . + + + + + + + + + + + + + + + + + + + + + + + + + + + + + + + + + + + + + + + + + + + + + + + + + O + + @ @ @ @ @ @ @ @ @ @ @ @ @ @ @ @ + + + + + + + + + + + + + + + + + + + + + + + + + + + + + + + + + + + + + + + + + + + + + + + + + + . . . . + + + + + + . . . . + . . . . + + + . . . + + . . . . . . . . . . . . . . . . . . . + + + + + + + + + + + + + + O $ + + + + + + + + + + + + O O $ + + + + + + + + + + + + + + + + + + + + + + + + + + + + + + + + + + + + + + + + + + + + + + + + + + + + + + + + + + + + + . . + + + + + + + + + + + + + + + O O $ + + + + + + + + + + + + + + + + + + + + + + + + $ $ $ $ $ $ $ $ + + + + + + + + + + + + + + + + + . + + + + + + + + + + + + + + + + + + + + + + . . + + . + + + + + + + + + + + + + + + + + + + + + . . . + + + + + + . . + + + + + + + + + . . + + . . . + + + + + + + + + . . . + + + . . + + . . . . . + + + @ @ . . + + + + + + . . . . + + + + + + . . . . . . . + . + . . + + + + + + + + + + + . + + + + . . + + + + . . . . . . . . . . . . . . . . . . . . . . . . . . . . . . . . . . . . . . . . . . + . . . . . . . . . . . . . . . . . . . . . . . . . . . . . . . . . . . . . . . . . . . + + + + . . . . . + + . + + + + + + + + + + + + + + + + . . . . . . . . . . . . . . . . . . . + + + + + . . . + + + + + . . . . . . . . . . . . . X X . + + + + + + + + + + + + . . . . . . o o o o o o o o o o . . o o o o o o o o o o o o o O O O O O $ $ $ $ $ O O O # # # # @ @ h h U.T.BX                                              ",
"                                                                                    ZXZXf f f e h u f i i 5 u 4 , 4 # # 4 4 E.E.oX+X,X,XOXOX,X,XV V $ $ 7 2 f f f f V V 6 i 2 2 # # . . + . . . # 2                                                           h . . . . . . . . . . . . . . . . . . + + + + $ O + + + + + + + + . . . . . . . . . . . . . . . . . . . . . . . . . . . . . . . . . . . . . . . . . . . . . . . . . . . . . . . . . . . . . . . . . . . . . . . . . . . . . . . . . . . . . . X X X X . . . + + + X X X . . . . . . + + + + + + . + + + + $ $ + + + + X X X X X X X . . . . . . . . . . . . . . . + + + + . . . . . . . . . . . . . . . . . . . . . . . . . . . . . . . . . . . . . . . . . . . + . . . . . . . . . . . . . . . . . . . . + + + + + . . . . + + + . . . . . . . . + . . . . . . . + + + + + + + + + + + + . . . . . . . . . . . . . . . . . . + + + + + + + + + + + . . . . + + + + . . . + + . . . + + + + + + + + + + + + + + + + + + + + + + + + + + + + + + + + + + + + + + + + + + + + + + . + + + + + + + + + . + + + + + + + . . . . + + + + + + + + + + + + + + + + + + + + + + + + + + + + + + + + + + + + + + + + + + + + + + + O O @ + + + @ @ @ @ @ @ @ @ @ @ @ $ @ @ + + + + + + + + $ + + + + + O $ + + + + + + + + + + + + + + + + + @ + + + + + + + + + + + + + + + + + + . . + . + + + + . . . . @ + . . . + @ @ . + + + @ + + + + + + + . . . + + + + + + + + + + + + + + + + + + + + + O O O $ $ $ $ $ $ $ + + + + + + $ $ $ + + $ $ $ + + + + + + + + + + + + + + + + + + + + + + + + + + X @ @ $ $ X $ + + + + + + + + + + + $ + + + + + + + + + + . . . . + + + + + + + + + + + + + + O $ $ O O + + + $ $ $ $ $ O $ $ $ $ $ $ $ $ $ $ $ $ $ $ $ $ $ $ $ $ $ $ X + . + . + $ + + + + + + + $ O + + + $ $ $ + + + + + + + + + + + . . . . + + + + + + + + + + + + + + + + + . + . + . + . + + + + . . + + + + + + + + + + + + + + + @ @ @ + + . . . . + + @ @ + . + + + + + + + + + + + + + + + + . . + + + + $ @ @ + + + + + + + . . . . + + + + . . . . . + + + + + + + + + + + + + + + + + + + + . + + + $ + + + + + + + + + + + + + + + + + + + + . . . . . . . . . . . . . . . . . . . . . . . . . . . . + + + + + + + + . . . . . . . . . . . . . . . . + + . . . . . . . . . . . . . . . . . . . . . . . . + + + + + + + + + + + . + . + + + + + + + + . . . . . X . . . . X . . . . + . . + . X + + + + . + . + . . . . . . . . . . X X X X X X X X X X X X X + + + + O + + + . + + + o o o o O O O O O O o o o o o o O O O O o O O O o o o O O O O O $ $ $ # # $ O $ O @ O @ . o k k U.E.MX                                              ",
"                                                                        . . , O $ , . . O . b.b.oXoXR.E.d.d.h h 5 5 , > i i d.m.].R.,X<X.XoXT.U.2 7 O $ k k E.[.R.K.E.T.m.K.k m S i.m m h k $ # 7 6 F k k                                                   k k . . + + + . O X # O # X = # # , # # # # # : # # 2 = # # # # # = o O . . . . @ o @ @ . . @ @ . . . + + + + . . . . . + . . O . X . o . X X X X O X O X X . . X O @ @ + @ O $ O O # $ $ O O # O o O O * O X O # , # # # # # : # 2 # # # # 1 1 < < < 1 1 = , 4 , , = = = = = = = , , 2 , # # # # # : , # # 2 # 2 # = = = * * - * - * = O = O = = = 2 , 2 , , , : , # # # # $ $ $ # # # # # $ $ # : O # O * * * = - * * * * * O O # O # # # $ $ $ $ # # # # $ $ # # $ O # # # # o O O # * # O O O # # $ $ $ $ $ $ $ O @ + O $ # O O O $ $ $ O X + + + O O O O o O O $ $ $ O O O $ # $ $ $ $ O O $ # $ $ $ O X + O $ $ O @ + + + + $ $ $ $ $ # $ O + O O # $ + . O X $ + $ # . + $ + + + + + + + $ $ $ $ @ @ # # $ $ $ @ # O O $ O # O # # # # # # = O # O $ $ O # # # O $ X O # O $ + # # $ # $ $ # # O # # $ # # @ @ @ @ @ @ @ @ # $ @ @ $ . . $ $ + $ + $ $ $ O O O O + + @ $ $ $ $ $ # # # # + O $ # # # # @ O O $ @ @ @ @ O @ @ O O + + + O $ $ @ O + + + + O $ $ O O + + O O $ O O $ $ $ O + . O X O + + + O O $ O + . + O $ $ $ # @ @ @ @ $ # @ @ @ @ O O $ $ $ O $ # $ # , # # # , # O # $ , # # # # # : : # , , , , , 2 2 4 2 , 4 7 2 4 = # # # = , # # = # 2 # # 2 , 2 2 # # , # O # # $ # , # $ O # # # # # : # $ # $ # # # # # $ # $ # # # # $ $ O O @ @ O O O X + + X O $ O X + X O O $ $ O + + @ O O O $ $ O $ $ # # # # $ # # # , , # $ # # $ # # O $ $ $ $ $ O O $ $ # $ $ O O O $ # # O O O O + O O O O O O @ @ + + @ @ @ @ @ @ @ @ # # # $ $ $ $ $ O # @ O $ o O + O @ + O $ # $ X O $ $ $ O O O O $ $ $ O X O $ $ $ $ $ $ $ $ O @ $ $ $ $ O O $ # # # # # $ $ $ # # # # # # # $ $ # # # # # # # , O $ $ # # $ # # # # # # # $ $ $ # # $ # # # # # # = # = # 2 . + $ $ $ $ $ $ $ $ $ O O O $ $ $ $ # # # # # # # # # # # # # # $ $ # $ , # # # : , 2 , # # # # # $ # # = # # # # # # # # # $ $ # # # O $ O $ # # , 2 # # # $ # # # # # # # # , # # # # # # # # O O # O = 1 O = = = = = # o # O , # # # # $ # $ # # # # # # # # # # # , # , : # , : # # # # # # # # # # # = * * * = = * * O O O * O * O # # # # # # O O $ # # # # # # # $ # # O # O O + , O = * 1 < * * ; * * * - < = , = # = # = = # = , , # # # , # # = # = = 1 1 = = 1 < = * < * , , , , = = # # : # : : : # # # # # # : # , O # O = * = 1 = - < - < < < 3 , 2 , , , 2 2 = , 3 < , , , , # # , : , # O . # $ 2 2 2 2 +X                                              ",
"                                                                        + . # # # , . . + O b.V.oXoXE.R.b.d.j h u 5 > > 5 i h.M.E.E.,X>X+XOXB.U.7 7 + $ f f [.[.T.T.T.R.M.M.m m i.i.b m j m , , 2 7 k c k k k                                               f k $ . + . $ . X X * O # O = # , , # # # # # # # # # # # # # # # # X o o o o . @ @ o o . . . . . @ @ + + + + + . . . . + . . O . . . X X X X X X X X X X X X X X . . . + O $ O # * # O O O # = # * X O * * * * * # # # # O # # # : : , , 1 < 1 1 < 1 1 < * 1 , , , = = = = = = = 1 = , = # # # # # = , # , = # 2 = = * = * - ; % * * * * = = , = 2 # # , , , , , , # # : : # # # # # # # # $ $ O # , 1 * O * * - ; ; * - * * * * # O # $ $ # $ # # # # # # $ $ # $ # $ # O O # O * * * # O O O * = # $ $ $ $ $ @ @ @ @ + + O O O O X X X O O $ O O + O O O o o o o O O O O O O O $ $ O O O O O $ $ O $ O O O O O O $ $ @ @ + + + + O @ @ O $ $ O + # O $ O . . X + + + $ # + + + + + $ + + + . + + @ @ @ @ # # $ $ # @ # $ $ # O O # # # O # # # , O $ O $ $ O # # # O # # # # # # O # $ O $ O @ $ : O # # O # : # @ @ $ @ $ $ $ @ # # # @ $ $ $ # $ $ O $ $ $ O O O O O O O $ $ $ # # # O $ # $ # O $ $ $ O @ @ O @ @ @ @ @ @ @ + $ O O O O O O $ O O $ $ $ $ $ $ O O O O O O $ $ $ $ $ $ $ O O O + + + + + + O O O + + + + $ O O @ o o @ @ @ @ @ O @ @ @ O O O $ . + $ # $ $ # # # # # # # # $ # # # # # : # # # 2 2 2 2 2 2 2 4 4 2 4 4 , , , = = # # , = , , # , , , 2 2 , 4 2 2 2 # # # $ $ $ # # $ $ # # # $ $ # # # # # # # $ # $ $ # $ $ # # # $ $ @ O O O O O O O X X O $ $ O O X O O $ $ $ O $ $ $ # # $ # # # # # # # # # # # # $ # # # O $ $ $ # # O $ $ $ $ $ $ O $ $ # # # # $ $ $ $ O O O O O @ + + O O O O O O O O @ @ @ @ @ @ @ @ O O O O @ @ @ @ # # O # # O # O O @ O $ $ $ O X O $ $ $ O O O O $ $ $ $ $ $ # # # # # $ # # # # $ $ # $ $ $ # # # # # # # # # # # # # # # # # # # # # # # # # # # # # # # # # # # # # , , # # # # # # # # # # # # , # = # , O $ $ $ $ $ # # @ $ O O O O O O $ $ $ $ $ $ # # # # # # # # # # # # # $ # # # # # # # # # # # # # # # # = # = # # = # # # # # # # # # $ # $ $ # # # # $ # # # 8 : : : # # # # : # # # # # # # # O O = * * = O = = 1 * # O o # O , # # # # $ # $ # : # # # # # # # # # , # : : # # # # # # # $ # # # # # = = = = = - * * * * * * * * * O O O O $ $ # O O # # # # # # # : # # # O # O O o # O * * ; ; ; ; ; ; ; - < - 1 , = = = = = = # = , , # # # = # # # # = = = = < < < < ; ; < * = = = = = = = = : # # # # # # # : # : , $ , O # = 1 = * * * ; - - - - - < , , , , , , , = 1 < < 1 = , , # = , = # # O # $ # 2 2 # # +XXX                                            ",
"                                                                        . . . . . + . . # # i.d.[.[..XoXXXoX[.[.R.R.h.h.i.i.T.K.OX*XVXVXNXMXB.Q.. . . + h k <XnX,X,X[..XR.'.XXoXoXoXR.E.K.K.k g 7 , . . . + X +                                             f f . . + $ V A n.M.0.A d.a.a.S d.S b.b.m.V.V.V.B.B.B.B.V.M.S.M.M.b.M.M.B.M.M.M.N.M.N.N.m.v.m.b.m.B.B.B.N.N.B.B.V.V.B.B.B.B.B.K.B.B.n.n.g.g.Z.C.C.C.f.n.n.n.n.n.n.d.b.m.V.b.d.a.0.0.d.d.f.a.f.f.n.n.Z.k.C.C.A.n.f.0.n.M.B.H.K.S.B.V.V.n.n.n.g.k.k.k.j.f.C.Z.Z.L.S.S.D.A.A.A.D.S.D.S.S.S.S.K.K.K.K.K.M.J.B.B.B.B.S.S.Q.S.Y.Y._._.~.~.L.P.P.P.Z.M.n.n.B.B.B.B.B.V.M.B.T.T.W.W.R.R.T.T.E.E.E.E.E.E.R.T.M.L.Z.A.S.A.D.A.C.C.C.C.Z.Z.S.B.K.K.K.K.T.T.E.E.E.E.E.E.W.T.T.U.K.J.K.B.M.B.Z.L.Z.Z.n.n.M.Z.S.S.S.S.K.K.U.T.T.T.T.T.Y.Y.T.T.Y.R.R.R.Y.Y.R.R.R.R.R.R.R.R.T.T.R.R.T.T.T.T.T.T.T.T.R.R.R.R.R.R.R.E.R.R.R.R.R.R.E.R.T.T.T.R.R.R.E.E.R.T.T.T.E.E.E.E.R.T.R.E.E.[..X.X+XXXXXXXXXXXXXXXE.[.E.E.E.E.3XE.E.E.E.E.E.E.E.E.E.E.E.E.E.[.R.R.Y.T.T.T.W.T.S.B.R.E.E.E.E.E.E.E.E.W.E.E.E.E.E.E.E.E.E.R.E.R.T.R.T.T.R.R.T.T.T.T.[. X X X X X3X3X X X3X3X3X3X X X X X X X X X[.[..X.X.X.X.X.X.X.XT.E.R.R.E.R.R.E. X X X X X.X.X.X X X X X X X X'.E.E.[.[.[.[.E.E.E.[. X X X[.[.[.E.[. X.X.X X X[. X X X[. X X.X.X.XXXXXXXXXXXXXXX[.[.[. X X.X.X X X X X XXXXXXXXXXXoXoXoXoXoXoXoXOXoXoX.XE.R.[.[.E.T.R.R.[.XXXXoX+XOXOX%X%X%X%XOX+XOXoXoXoXoXoXoXOXOX*X*X;X,XvXnX<X,X,X,X,X,X,X;X*X;X*X*X*XOX>X>X<X,X,X,XOXOXOXOXoXoXoXoX+X+X+XoXoXoXXXXX.X[.E.R. XXX X XXXXX X X X X X X X X X X.X.X X X.X.X X X X X X X.X.X X X.X.X.X.XXXoXoXoXoXoXoXoXoXXX.X.X[.[..X.X[.E.'.E..XXX.X.X+XoXXXXXXXoXoXoXXXoXXXXX.X.XXXXXXX X X[..X.XXXXXXXXX.X.X.X.X.X.XXX.X.X.XXXXXXXXXXXXXXXXXXXoXoXoXoXoXXXXX X.X[..X.X[..X[..XXXoXoXXXXXXXXXXXXXoXoXoXXXXXXX.X.XXXXX.X.XXXXXoXoXXXXXXXoX+X+XoXoXoXoXoXoXoX+XXXoXoXoXoXoXoXoXoXoXoXOXOXOXOXOXOXOXoXoXOXoXoXoXoX.X.X.X.X.X.X.X X[.[.E. XXX+XOX*X*XOXOXOXOXOXOXOX#XoXoX.XoX.X+XOX*X;X;X;X;X2X2X*X*X*X*X*X*X;X;X;X;X;X;X;X;X>X>X>X>X>X>X>X,X,X,X,X;XOXOXoX+X+XXX X.XXXoX+X+XoXXXXXXXXXXXXXoXXXoX.XXX+XOXOXoXXXXXoXXXXX.X.XXX X X X XOXOXOX;X%X%X%X%X&X&XOXOXOXoX;X;X*X*X*X*X-X-XoXoX{.{./.(./.(.}.).}.[..X.XOXoXOXOX*XOX;X*X,X,X;X*X*X-X-X-X-X-XOXOXoXoXoXXXoXoXOXOXOXOXOXOX*X*X*X*X*X#X@XoX.X.X{.{.{.{.{.{..X{.}.[.[..X[.].E.E.].[..XXX.X.X.XXXoXOXoXoXoX.XoXXX&XoX[.).R./.~._.~.~.~.~.^.~.~.L._.R.R.).).}.}.}.[.[.[.[.[.[.[.[.[.[.[.[.[.[.}.).L.P._._.~.~.(.(.Y.Y.Y.Y.Y.R.R.R.E.E.E.R.E.E.E.E.R.R.R.R.K.T.K.K.K.K.S.A.Z.C.C.A.j.j.g.f.g.n.n.n.Z.Z.Z.n.n.C.C.Z.Z.n.n.n.f.f.d.d.d.d.Z A 4 4 $ @ + $  X X                                            ",
"                                                                        . O . . O + . . O , S d.).E..X.XoX.X[.[.E.R.d.d.A i.T.T.OX&XVXVXBXVXB.B.. . . . h k <XVX%X*X]. XE.'.OXOXOXOXE.[.K.K.m j 4 , . . . O # +                                             f f + . @ . A A d.d.A C f.f.8.C f.0.n.m.V.m.V.V.B.B.B.M.M.M.M.M.n.n.B.S.J.J.H.H.V.N.m.m.b.i.m.v.m.N.B.B.B.B.B.B.B.B.B.B.K.B.S.K.V.V.n.g.g.g.g.g.C.n.C.n.C.C.n.n.0.0.b.b.b.n.f.a.d.a.d.a.s.a.g.f.J.J.A.A.A.A.A.Z.f.0.f.n.M.S.B.V.V.b.L.L.Z.Z.j.C.k.k.f.f.C.C.A.S.S.S.D.D.A.A.D.D.D.D.Z.Z.S.S.K.K.K.J.K.K.Z.S.M.B.S.B.S.D.Y._.~._.~.~.~.L.L.L.A.S.f.d.V.B.B.B.B.V.B.H.T.T.W.W.E.R.T.T.T.R.R.R.R.T.T.K.L.L.A.P.D.D.D.A.C.C.C.Z.S.S.S.S.M.V.B.B.T.R.E.E.E.E.E.E.W.T.U.G.K.J.K.J.B.J.Z.Z.n.g.n.n.M.S.S.S.S.S.K.K.Y.T.T.T.K.K.T.K.T.K.L.Y.L.Y.R.R.R.R.E.E.E.E.R.R.T.T.T.T.T.T.T.T.T.T.T.T.R.T.T.T.T.R.R.R.R.R.R.R.R.R.R.T.T.T.T.R.R.R.E.R.E.R.T.T.T.R.R.E.R.T.R.E.E.E..X.XXXXX X XXXXXXXXX X XE.E.E.E.E.E.E.E.E.E.E.3XE.E.E.E.[.[. X XR.R.W.W.T.T.R.T.K.B.W.R.E.E.E.E.R.E.E.E.).E.E.).E.E.E.E.R.R.E.E.T.T.T.R.R.R.T.K.R.R. X[. X X X X3X'. X X X X X X X X X X X X X X[.[. X.X.X.X.X.X.X.XE.E.T.T.E.E.E.E.'.'.E.'.[. X X X X X'.'.[.'.E.E.[.[. X X X X X X X X.X.X.X X X X X X.XXXXX.X X X X X X X XXXoX+XXXXX.X.X.X.X X[..X.X.X.X.X.X.X.X'.3X3X XXXXX X XXXXXXXXXoXoXXXXXoXXX.X[.R.R.].[.R.T.E.R..XoXXXXXXX+XOXOXOX%XOXOXOXOXOXOXoXoXoXoX&X&XOXoX;X;X<XvX<X,X,X,X;X;X>X;X;X,XOXOX*X*X,X<X<X,XnXnX+XoX+XXXoX+X+XOXOXOX+X+XoXOX+XOX X[.E.R.XXXX X XXX XE.E.E.[. X X.X.X.X.XoXXXXXXXXXXXXX.X.X.X.XXXXX.X X X.X.XXXoXoX+X+XoX+XoXoXoXoXoXXX.X X X X XE.R.E.E..X.X[. XXXoX.X.X.XXXoXoXXXXXXXXXXXoX+X+XXX.X[.E. X X.XXX.X.X.X X X X X X X.X.X.X.X.X.XXXXXXXXX X.X.X.XXXXXXXXXXXXXoX[..X.X.XoXoXXX.X.X.X X.XXXXXXXXXXXoXXXXXXX.XXXXXXXoXoXoXoXoXOXOXOX+X+XOXOXOXOXOXOXOXOXOX+XOXoX+X+XOX+X+X+X+XoXoXOX&X*X*X&X&X#XOXoXoXOXOXOXOXoXoX.X.X.X.X[.[. XE.E.E.XXoX;X;X;X*X*XOXOXOXOXOXOX#XoX.XoXoXOX*XOXOX;X;X;X;X2X%X*X*X*X*X*X*X*X*X*X*X*X;X;X;X;X;X>X>X>X>X>X>X,X,X,X;X+X+X X.XXX.X[. X.XXXXXXXXXXXOX+XoXoXoXOX+X+X.XoXOXOXOXoXXXXXoXXXoXXX X XE.E.3X XOX%X%X;X%X%XOX%XOXOXoXoXoXoXOX*XOXOXOXOX-X-X@X@X{.{.}.{.(.}.Y.Y.}.}.oX.XoXoXOXOX*XOX;X*X,X,X:X>X-X*X-X-X-X-XoXOX.XXX.X.XoXoXOXOXOXOXOXOX&XOX*X*X*X#X@XoX{.{.{.{.$X$X{.{..X{.}.[.[.[.[.E.E.R.[.[..XXX.X.X.XXXXXoXXXXX.X[.XXXX*XoX[.}.P./.A.A.~.~.~.^.^.^.~.A.P.P.).}.[.{.[.}.[.}.}.).E.E.E.).[.[.[.[.[.}.).)./.(.~._.~.~.(./.Y.Y.R.Y.E.R.].].E.E.E.E.E.E.E.E.R.R.R.R.K.T.S.J.L.S.A.C.C.C.j.j.j.f.f.f.f.g.g.g.Z.Z.g.g.k.k.j.j.f.f.n.M.g.f.f.d.A a.p.h.4 5 # O . + 3X X                                            ",
"                                                                  E.h f . . 6 i V V V A V m b.i.M.B.).E..X.X.X.X.X.XR.[.T.K.K.H.d.S V.d.Z S f V + + . . V Z *X*X-X:X*X-X-X&X*X*X-XOXK.K.A S j j i i # # O O , 2                                             f f . . + . 0.0.n.f.C C f.f.a.8.S.Z.B.B.M.B.M.B.B.B.M.B.Z.n.n.g.n.M.T.K.R.R.R.R.H.H.i.i.v.v.I.G.I.I.U.U.T.W.E.E.E.T.R.T.E.E.E.E.U.K.L.A.A.A.C.C.A.F._.L._.Y.Y.Y.M.n.M.n.n.f.g.f.g.s.0.0.8.8.g.g.Y./.L.A.A.A.A.A.C.n._.R.Y.K.M.M.T.K.}./.P.P.k.C.j.9.k.k.D.D.D.S.Z.Z.A.A.F.C.C.C.Z.Z.D.L.Y.R.)._._.R.R.R.Z.S.n.M.n.n.Y.Y.(.(._._.^.^.|.|.|.|.}.}.S.Z.d.b.d.m.V.M.U.T. X X X X X X.X XE.E.E.E.E.E.E.).}.}.A.Z.f.C.C.C.A.Z.Z.A.A.Z.Z.n.S.H.T.R.XX XXX XXXXXXXXX X3XE.E.R.K.R.R.R.R.K.K.Z.Z.Z.L.Y.R.R.Y._.).).).).R.R.R.E.E.E.E.).).)./.L.R.}.{.{.{..XoX.X.X.X[.[.[.].E.).).).).[.[.).E.R.R.R.R.E.).[.[.[.[..X[.[.].].].'.'.'. X'.'.'.E.XX X'.].E.].'.[.'.[..X.X.XoX%X;X;X;X2XOX;X>X>X,X,X,XOXOX+XXX+XXX+X+X+X X X XXX+X+XXX+X+XOXOX.X[.R.Y.M.V.B.K.K.Y..X.XOXOXoXOX.X.XoXoX*X#XOXOX.XoX.X.X[.[..X.X].E.[.].R.T.K.T.oXOX,X;X;X;X;X>X;X%X2X;X;X;X;X;X2X%XOXOXOXoXoXOXOXOX*X;X;X;X;X;X>X>XoX.XT.T.E.[.oXOXOXOXOX&X*X;X;X*X;X;X;X;X*X%X&XoXOXOX*X*X*X*X*X&X%X-X*X-X&X&X&X*X&X*X*X*X&XOXOXOXoXoXoXOXOX*X;X;X,X>X;X*X*XOXOXOXOXOXOXOXOX+X+X+X%X;X;X;X>X>X>X;X;X;X;X;X;X;X;X;X;X>X,X,X*XOXOXXXH.K..XoX;X;X*XOX;X;X>X>X,X,X,X>X*X*X&XOXoXoXoX.XoXoX.XOXnXVXCXCXNXNXBXBXNXNXBXAX,X,X.X.XOX&X<X<XnXnXNXNXOXoXOXoXOX-X*X*X*X*X*X&X&X*X*X;X[.].R.R.;X;X*X*X;X*XoXXX[..XoXOXOXOXOXOX*X&XOX&X*X*X&XOXOXOXOX&XOXOXoXoXoXOXOX&X%X%X&X&X%X&X%X%X%XOXOXOXOXoX[.R.K.K..XXX;X;X*X*X;X>X;X>X;X>X,X,X>X>X>X>X;X;X;X;X;XOX+XoX*X;X;X>X;X;X;X;X;X;X;X>X>X,X,X,X,X,X,X,X,X,X,X,X>X,X,X,X<X<X<X<X>X;X*X*X*X*X,X,X,X;X;X*X;X>X>X,X>X>X>X>X,X>X;X;X#X*X;X;X;X;X;X;X;X;X*X*X*X;X;X;X*X*X-X*X*X*X*X&X*X*X;X;X;X*X*X*X&X-X*X*X;X;X;X;X-X#XoXoXOX*X*X-X>X;X*X*X*X*XOXoXE.].oXoX>X;X,X;X<X<X<X,X,X,X,X,XOXOX[.[.&X-X<XvX<X<X<XnXMXvXvXvXvXvXvX<X<X,X,X,X,X,X<X<X<XvXvXvXvXnXnXnXnXnXnXnXNXVX,X>X.X.XoXoXOXOX&X*X*X*X*X*X#XOXOXoXoXoXoXoX*X;X>X,X;X;X*X*X;X;X>X;X*X&XXXXXOXOX,X<X<X<X<X<X<X<X,X,X,X;X,X,X,X<X>X,X,X<XmXmXcXcX$X$X$X|.{.(.{.{.=X*X:X=X-X:X;X;X,X,XvX,XnXvXnXnXbXbXvXvX<X:X*X*XoXOXOXOX;X>X>X>X>X>X>X,X,X,X:X,X:X:X-X-X@XoX=X=XcXcXcXcXcX:X=X=XoX.XoXoX;X:X>X>X>X>X;X*X*X&X-X>X;X;X;X*X,X<XnXnX<XmX#X@XL.A.^.^.^.^.^.^.~.L./.}.*X-X@X@X{.oXoX|.{.}.}.}.{.{..X.X.X.X.X.X{.}.{.}.P.L.A.~.^.~.Y.Y.).).[.)..X.X[..X.X.X.X.X.X.XXXXXXXXXE.[.R.E.R.L.R.P.^.^.k.l.9.s.s.s.f.f.g.g.g.k.g.g.Z.Z.j.k.k.k.A.A.Z.g.h.d.N N h.M.5 4 # @ + + E. X                                            ",
"                                                                 X Xh f . . 7 f V V V Z m Z m.m.n.M.E.E..X[..X[..X[.R.R.E.].K.K.A A V.V.A A k k $ + . . k V oX*X-X*X&XOXoX&X-X-X-X-XR.K.C V j j i i O O X , , 7                                             f f . . O . 0.8.f.a.N C 8.0.0.0.D.S.S.K.K.S.B.B.B.B.B.B.Z.n.f.f.n.Z.L.J.R.R.R.R.H.H.p.D v.i.I.I.I.I.U.T.W.E.E.E.T.T.E.T.E.E.E.E.U.K.P.A.L.L.C.j.A.F._.L._.~.Y.Y.n.n.Z.n.n.n.g.g.f.s.0.0.8.8.g.f./._.~.~.A.C.C.Z.Z.Z._.R.Y.K.n.d.T.Y.{.}.L.P.k.A.9.9.A.C.L.L.L.L.D.D.A.A.F.C.C.C.C.C.D.L.Y._._._._._./._.Z.A.n.M.n.f.D.D.(.(.~.^.^._.|.`.|.|.(.(.Z.M.n.V.d.b.m.V.T.R. X X X X[.[. X XE.E.E.E.R.E.).}.{.}.A.A.f.C.C.C.A.A.A.S.S.A.Z.n.M.V.T.R.XX XXX XXXXXXXXXXX XE.R.K.J.T.R.R.R.J.J.f.n.Z.L.Y.Y.Y.L.R._.).).).R.R.R.E.R.R.E.).}.)./.L._.}.{.{.{..XoX.X.X.X.X.X[.E.E.E.E.[.[.[.[.).).R.R.Y.R.E.).[.[.[.[..X[.[.E.E.E.].'. X X X X X'.XX.X[.'.].].'.[.E.]..X.X[.oX*X;XOXOX2X;X;X;X>X,X1X>X+XXXXX X+XXX+X+X+X+X X XXX+XoXXX+X+X+XOX.X[.R.T.B.V.S.K.T.R..X.X*XOXOXOX[..X.XoX*X#XOXOX.XoX.X.X[.[..X.X[.E.].E.K.K.J.K.oXOX>X*X%X%X;X;X%XOX2X;X;X>X;X;X*X%XOXOXoXoXoXOXOX%X;X;X>X,X>X,X,X,XXX.XT.T.E.[.oXoXOXOXOX&X%X%X*X*X*X*X*X*X%X&XOXoXOX&X*X*X*X*X*X*X*X*X*X*X*X&X&X*X*X*X*X*X*X&XOXOXoXoXoXOX&X*X;X,X>X;X*XOXOXOX+XoX*X*X*XOXOXOXOXOX%X%X%X;X;X;X;X;X*X%X;X;X;X;X;X;X,X,X,X,X*XoXXX[.B.K..XoX,X>X;X;X*X;X;X;X;X;X;X;X;X*XOXoXoXoXoX.XoXoX.XoXVXnXCXBXVXNXBXNXVXVXNXBX,X,X[.[.&X*XnXnXnXnXVXVXXXoXoXoX&X*X;X;X*X*X*X*X;X>X>X,X].E.T.T.*X;X*XOX*XOX.X X.XXXOX*X*X*X*X&X*X*X*X*X*X*X*X*X%X*X*X*X*X&XOXoXOXOX&X%X%X%X%X%X&X&XOX%X%X%XOXOXOXoXE.R.K.K..XXX;X;X*X&X*X;X*X;X;X;X;X;X;X;X;X;X>X>X>X;X;XOXOXOX%X*X;X;X;X*X*X*X*X*X*X;X;X;X;X;X>X,X,X,X>X>X>X>X>X>X,X,X,X,X,X,X,X>X*X*X*X;X<X<X>X*XOXOX*X;X>X>X>X;X;X>X>X;X;X*X*X;X;X;X;X;X>X>X;X;X;X;X;X;X;X;X;X;X;X;X;X*X*X*X*X;X;X;X;X;X;X;X*X*X*X;X;X;X;X>X-X#XoXoXOX*X;X:X*X-X&X*X*X&XoX.XE.].oXOX,X;X,X,X,X,X,X,X,X>X>X>XOXOX[.[.-X-XnXmXnXnXnXMXMXnXnXvXnXnXnXvX<X<X,X,X,X,X,X<X<XvXvXvXvXnXnXnXvXvXnXnXNXBX,X>X[.[..X.XOXOX&X&X&X&X&X&X*X*X#XOXoXoXoXOX*X*X;X;X*X*X*X*X*X*X;X*X&XOX[.[.OXOX,X<X,X<X,X,X,X<X*X;X;X*X,X,X,X<X;X>X:X:XmXmXmXmX$X|.$X|.{./.{.{.=X*X=X=X#X-X-X-X>X>XnXvXnXnXnXnXnXnXnXnX<X<X-X-X.XoXOXOX;X>X>X,X,X,X,X,X,X,X,X,X:X-X-X@XoX{.-X=XcXcX=X=X:X:X=X=X{.{..X.X;X:X>X;X;X;X;X;X*X&X*X*X&X*X*X;X<XvXnXnXcXmX@X|.A.C.^.^.^.^.^.~.!.A._.}.*X*X@X@X{.oX|.{.{.{.{.{.{.|..XoX.X.X.X{.{.{.|.{.A.P.A.~.^.~.D.L.).)..X[.oXoX[..XXXoXoXoXXXXX.XXX.XXX).).K.L.P.L.~.~.^.^.l.z.6.6.s.s.j.k.k.k.g.k.s.z.A.k.k.k.k.k.A.A.Z.g.g.f.B B h.M.u 5 # O + + E. X                                            ",
"                                                              T.2 2 . O + # S k b.b.M.M.d.i.d.S b.M.[.[.-X-X-X-X,X,X<X<XNXVX[.[.4 , . . . . + . Z S ). X+X X<X,X-X&X#X*X-X-X-X-X-X-X).}.f.f.8.8.M.M.S S A A 6 6 O # . $                                     6 f . . O o A A d.a.8.8.M M 8.8.Z.Z.Z.Z.L.Z.M.n.V.V.M.M.n.f.f.d.f.h.n.Z./.R.E.].K.K.p.p.m.b.W.I.W.U.T.W.E.E.W.T.T.T.T.U.T.T.T.T.B.M.P.A.^.^.C.C.A.Z.D.Z._.Y.Y.Y.n.n.8.S a.f.f.n.g.g.f.s.0.8.n.f./.Y.L.A.j.s.f.f.f.s.L.L.K.L.n.d.R.L.)./.L._.C.A.s.s.f.j.A.A.D.D.Z.D.A.Z.C.j.j.f.C.C.Z.P.Y.R._.R._._._.R.g.Z.8.0.0.0.C.j.~._.A.~.^.^.^.^.(.(.^./.A.Z.Z.M.i.d.d.d.G.K.T.E.E.E.E.R.E.E.K.H.B.B.K.T.T.Y.Y._.A.P.g.j.g.C.g.C.C.A.A.Z.Z.n.d.h.K.K.E.R.E.E.E.E.E.E.E.R.U.K.K.S.T.R.R.R.K.J.h.h.Z.L.L.L.L.L.L.L.Y.R.Y.L.L.L.L.L.L.L.L.L.L.L.L.P.P.P.Y.R.).).R.R.E.E.E.R.T.K.M.J.K.T.K.K.K.K.J.B.M.M.J.K.R.R.T.T.T.T.T.K.K.G.B.K.U.W.'.'.'.W.W.W.W.T.U.U.T.T.U.K.T.U.H.G.T.T.). X+XOXXXXXOX+X+XoX[.E.E.E.XX.X3X3X3XE.E.E.E.3XE.E.[.E.E.E.R.R.B.B.V.m.B.B.V.V.K.K.].E.R.E.B.K.Y.T.[.[.E.E.R.E.E.R.T.K.T.T.T.T.Y.R.J.J.M.M.'.].oX.X X X[.[.'.E.E.'. X X'.'.'.].].E.R.T.T.R.R.].R.E.E.E.E.E.[.[.E.[.T.R.].E.XX.X.X.X.X X X X.X.X.X.X.X X[.[.'.E.E.E.].[.].].'.[.E.E.].].E.E.E.E.].].[.[.[.].E.E.R.R.R.R.E.[..XoX+XXX.X.X.X X[.).[.[. X X X[.E.E.'. X XXXXXXXXXXXXXXXXXXXXXoXoXoXXXXX.XXX[.[.[.[.R.T.[.E..X[.oXoXoXoXOXOXOXOXOXOX&XoXXX[.[.[.XX[.R.].T.].vXnXCXCXNXVXNXVXnXvXVXVX*X;XT.R.oXOX<XnXnXvX<X<X[.XXXXoX[..XoXoXXX.XoXoX.XoXoX%XT.R.T.R.+XOXOXOXOXoX[.].T.R.E.[.[.[.[.[.[.[.[. X[.[.[.[.[.[.[. X X[.'.E.E.].[.[.[.[.[.[.].].'.'.[.'.].E.[.[.T.T.G.B.E.R.oXoX.X.XXX.X.XXXXXXXXXXXXXXXXXXX.XXXXX.X X).E.E.[..XoXoXXX.X.XXX.X.X.X.X.XXXXXXX.X X.X.X.X.X.X.X X X.XXXXXXXXXXX.X.XE.].].[.oXoXXX.X X X XXXoX+XXXXXoXXXoXXXXX X[.[. X X X XXXXXoXXX.X.X.X.X.X.X.X.XXXXXoXXX.X[. X.X.XXXXXXXXXXXoXoXXXXXoXoXoXoX.X.X[.[.[..XoXoX.X.XoXOXOXoX.X[.R.T.[.[.OXOX>X;X*X*X;X*X*X&X&X*X.X.XR.R..X.X,X>X;X;X;X;X;X;X;X;X;X;X;X;X*X*XOXOXoXoXOX&X*X*X;X;X;X;X;X*X*X;X;X,X,X<XOX*XE.[.oXoXoXOX&X*X&X&XOXOXOXOXoX.X[.[..XoXOX*X*X*X*X%X%X*X&XOX%X%XXXXX].].+XOX,X<X,X,X,X,X*X;X.XXXoX.X*X&XOX%X.XoXoX.X=X=X@X=X^.(.{.{.{.{././.@X$X-X=X*X=XOXoX#X-X<XvXnXvX<X<X<X,X<X<X<X,X*X*XoXOX&X-X>X>X;X;X>X>X*X*X-X>X*X*X-X-X-X-X-X-X@X@X=X=X*X#X-X=X*X*X[.{.[.).OXoXOX&X*X;X;X*X*X&XXXXX[..XoXOX;X,X;X;X-X*X{.|._.(.^.(.^.^.^.^.^.~.~./.|.|.|.@X}.{././././.}.}.}.}.[.[.[.[.).)./.}.|.|.A.A.k.k.9.s.C A n.n.T.K.E.E.R.R.E.].].[.[.[.].[.[.[.R.T.n.n.L.L._.~.(.^.l.l.6.6.s.z.k.k.A.A.k.k.z.z.A.~.k.k.4.5.s.f.f.g.Z.Z.M.h.T.J.i u @ o + + E. X                                            ",
"                                                            U.T.7 7 . . $ . A Z b.d.V.V.i.d.b.h.h.M.[.[.-X-X-X*X,X:X<X,XNXNX[.[.# , . X . . + . S S .XoX X X<X;X*X*XoXOX-XOX:X-X-X;X).}.f.d.0.8.M.M.d.d.A S 6 i $ $ + . U.                                  6 6 . . O O M C f.f.8.8.z v q.8.A.Z.Z.L.L.L.M.n.V.B.M.M.n.g.f.f.f.f.a.f.R.R.R.].K.T.D D m.b.W.I.W.W.T.W.E.W.T.U.U.T.T.U.T.U.U.T.B.B.L.A././.C.Z.A.C.D.Z._.Y.Y.R.M.M.A a.h.n.n.f.f.g.s.a.8.8.Z.h.E.L.L.C.f.9.f.f.f.f.R.R.L.J.d.d.R.K.R./.P./.Z.A.s.s.j.j.A.A.P.P.S.S.A.Z.C.j.f.g.g.g.Z.S.Y.R.R.R._.).R.R.g.n.8.0.q.8.C.f.~.~.A.~.^.^.^.^.`.(.~._.Z.L.L.J.i.i.i.d.G.K.T.E.E.E.E.R.R.E.K.B.V.V.K.Y.Y.L.Y./.A.P.f.g.g.Z.g.Z.A.S.S.Z.Z.n.b.h.G.B.E.T.E.E.W.W.E.E.E.E.T.U.M.B.K.T.T.T.J.J.h.M.Z.Z.L.K.L.L.L.L.Y.R.P.L.L.L.L.L.L.L.J.L.L.Y./.P.P.P.L._.).).R.R.E.E.E.R.T.K.M.J.T.Y.T.K.Y.R.K.B.M.V.S.K.R.R.K.T.T.R.R.T.K.B.B.K.W.'.'.'.'.E.T.T.W.W.W.T.T.T.U.K.U.K.G.K.T.T.E.E.OX*XXX.XoX.XXX.XE.E.E.E..X X X X3X3XE.E.E.E.E.E.[.E.E.E.E.E.B.B.m.n.M.B.B.B.T.T.[.].E.E.H.K.S.K.E.).E.).R.E.E.E.T.K.T.T.T.T.Y.R.M.H.M.M.[.]..X.X X[.'.E.E.E.E.E.'.'.'.E.'.'.'.E.T.T.T.T.R.].E.].'.'.].[.[..XR.[.T.R.E.R..XXXXXXX.X X[.[..X.X.X X X.X[.[.[.'.E.'.[.[.].].'.[.E.E.[.[.].E.E.R.E.E.].[.[.[.].E.R.R.R.R.E.[..XoXXX X X X.X X[.E.E.[. X.X X X).).'.'. XXXXXXXXX.X X X.X.X.XXXXXoXXX.XOXoX[.].[.[.R.K.[.R..X.X&X&X.XoXOXOXOXOXOXoXOXoX[.[.[.[.XXXXR.[.T.R.vXvXCXZXVXVXVXVXvXvXVXVX*X;XT.R.OX*XnXVXnXvX;X,X[.oXXXoX[..XoXoXXXXXoXOXoXoXoXOXK.R.T.T.XX+X+X+XOXoX[.].R.R.E.[.[..X.X.X'.[. X X[.[.[.[.[.[. X.X.X X[.'.E.'.[.[.[.[.[. XE.E.'.[.[.[.].E.].[.K.T.G.B.E.R.oXoXXX.X.X.X[..X.X.X.X.X.X.XXXXX.X.XXXXX X X X X[..X.XXX.X.X.X.X[.[..X.X.X.X.X.X.X.X.XXXXXXXXXXX X.XXXXXXXXX.X.X.X.X].[.[.[.XXXX.X X X X X X.XXXXXXX.XXXXXXX X X[. X X X X XXXXXoXXX.X.X.X.X.XXX.X.X.XXXoXXX.X[. X.X.XXXXXXXoXoXoXoXoXXXXXoXoXOX.X.X.X.X.X.X.X.X[.[..XoXOXoXXX[.T.T..X[.*XOX>X;X*X*X*X*X&XOXOX&X.X.XE.E.oX.X<X,X,X,X,X>X;X;X;X;X*X;X;X;X-X*XOXOX.XoXoX&X*X;X;X,X;X;X*X*X*X;X>X,X<XnXOX;X[.[.oXXXoXoX&X*X*X&XOXOXOXOXoX.X[.[..XoXoXOX*X*X%XOX&X%XOXoX%X%XXXXX'.E.XX+X,X<X,X,X,X,X*X*X[..X.X.X*X&X&X*X.XoXoX.X=X=X-X=X^._.(.(.{.|.(./.@X$X*X=X*X=X#XoXOX-X<XvXnXvX<X<X<X,X,X,XbXvX*X*XOX&X-X-X-X;X;X>X,X>X*X*X-X>X-X-X-X-X-X-X-X-X@X@X=X=X@X@X-X-X#X*X).).E.E.OXoXoXOX;X;X;X*X-XOXXX.X[.[.oXOX,X,X-X;X-X*X{.{.^.(.^.^.^.^.^.^.^.~.^./.|.|.|.@X}.{.Y././.}.{.{.{.{.}.[.[.[.).)./.}.{.|.A.~.k.k.6.s.C C n.b.T.K.].[.R.R.E.E.[.[.[..XE.[.[.[.Y.K.f.f.L.L./.^._.^.l.l.6.6.s.s.k.Z.A.P.Z.A.k.z.~.~.l.!.5.5.s.s.s.f.Z.Z.g.M.K.K.i i o o $ $ E. X                                            ",
"                                                            k k # # A A V k S A A A S S d.i.M.M.M.J.E.[..X.X-X-X<XnXnXVXNXNXoXOX, , . . O $ + $ E.E.ZXZX<X>X<X;XoXoX[.[..X.X.XoX.X.X).).L.L.L.L.K.K.J.K.K.K.k j = # $ . S                                   6 6 + . O o f.d.R.Y.8.0.s s x n v z z c 8.0.m M C Z m m Z N B c z z z z Z A Z Z m Z b b b b V V V V V V V V V F b b V V V b b b b k z j M M M N B B c c M M C A m m h j b m m m m m M m V Z A A A A N M M B B B x B N m m Z Z A A Z C N N N N N M n M M N 8.8.8.0.8.0.0.0.0.0.0.0.0.C A A Z C V C C C N N N N C N N N 8.4.4.q.q.4.7.7.7.4.7.4.M N M C Z V V m m m V V V V V V m V V m k h k m C V m B x z z x c M M x x M B M M B B m m m m V V V V V V V Z A Z V m V m V Z A A A C m V C Z C C C M M N N N N N M M N N M M M N N N 8.5.N N C C C C C A A C V V V V m m m m C C C m V V m m V Z Z A m Z Z Z Z Z V m V V V Z Z Z Z Z Z V b b D Z d.i.A A b b V m V m Z A b.b.S S Z Z V V c m V Z Z V Z D Z D Z Z Z V Z A S S Z Z Z Z S A C V V V V V C V V Z A A Z V V V V C A A A S A A A A A A A Z Z Z C C C C V V V V V V V V V m V V V V V V Z Z Z Z Z Z Z Z Z Z V V V V V V V V Z V Z V V Z Z A V Z V m m m m V V V V V V V Z Z Z V V V V V V V V V V V V V V V V V V V V V V V V V V V V V Z Z V V V V V V Z Z Z V V V Z Z Z V Z Z Z Z Z Z Z V Z Z Z Z Z Z Z Z A Z Z Z Z Z A S S A A Z Z Z Z Z A A A A A A A A A A S S p.p.p.p.i.i.p.p.A i.i.d.i.i.A A A A A p.S S S A A S S d.d.S A A S S S A A A A A A A A A A A A A A A Z V S S S S A A V V Z Z V V Z Z Z Z Z Z Z Z Z Z Z Z V V Z Z Z Z Z Z V Z Z Z A A A A A A A A A Z A A A A A A A A A A Z Z Z Z Z Z Z Z Z Z V V Z Z Z A Z Z Z Z Z Z Z Z V V Z A A A A A Z Z V V V V V V Z Z Z Z Z Z Z Z Z Z Z Z Z Z Z S A A A A A A A A Z Z Z Z Z Z A A S S Z Z Z Z Z Z Z Z Z Z Z Z A A A A A A Z Z A Z A A A A A A Z Z Z V V V Z Z Z Z Z Z A Z V V V Z C Z Z Z Z Z C V Z Z Z A Z Z Z Z V V A V m m Z A V V A A A A A A S S A Z Z Z A S A A A A A A A A Z A A S S S S S S S A A A A S i.S S A A A A A S A A A A A A A A A A A A A A A A S S A A A A S S A S i.i.S S S i.A S S S D D Z Z S S S d.d.d.d.d.S A V V V A A A S S A Z C Z C C C C N M 4.4.5.8.4.5.8.8.0.0.A 0.S A S 0.d.d.d.i.d.d.d.a.d.d.d.d.d.d.i.S S S S i.S S S S A A A A A A A S S a.s.s.0.0.a.a.a.0.0.8.0.8.Z Z Z Z Z C C A 0.d.d.S S S d.S A A S d.b.b.0.0.0.8.8.8.9.9.6.6.9.9.l.l.w.9.s.s.f.g.f.f.s.s.s.a.s.a.f.f.f.f.d.h.h.d.a.8.s.s.0.8.5.M 5.5.n n M V V V C A S S Z A S S S S d.b.d.d.d.0.S A C N 8.8.8.s.9.s.z.z.9.5.j.9.j.s.Z.Z.Z.k.f.f.f.j.5.6.r r x x 8.0.J.P.L.J.R.T.f f o + + + E. X                                            ",
"                                                            V V # # Z V m m S S S S i.S d.i.B.M.J.K.[.[.{.{.-X#X,XcXnXVXVXVXoXOX, , . . # $ $ $ E.3XZXDX<X,X,X;XOXoX[.E.[..X[..X.X.X).).Y.Y.R.R.K.K.M.J.Z.J.m m 2 2 . + B.                                  7 6 O . O X a.a.R.Y.N 5.s d 4.4.v v n c 0.A M M V V Z m Z N B B z j z B Z A Z A m Z b b b b F V V F F V V V V V V V V V V b b b b k j j M N M Z M B m c m m V V c b j j k m m m m m V V A A S S A A N M M M B m c j m Z Z Z A A A A A C N M N M M M M M N N C C 8.C A A A A A A 0.A A S S A C V Z A C C N N C C C C N C M N q.7.n 4.4.7.4.n M M C C V V V V m m m V V V V V m m V V m k j k m V V M B x z z c M M M x c B B m m B m m m m m V V V V V V V Z Z Z V V m m m V C C C C m V Z Z C C M M B M N N N N N N N N M M M N N C C N N N N N C M C C V V V m V V m m m m m m m m m m m m m m C Z m m m m m m m m m V b V V Z Z Z Z Z b b Z V i.i.A A b b V m V m Z Z b.b.S S V V V V c c V V V V Z Z Z Z Z Z Z Z Z Z Z Z Z V Z Z A A A C C V V m C V V Z A A Z V C C C C A A A A Z A A A A V V V C C C V C V V V V V V V V V m m V V m m V V V V V V V V Z Z Z m V V V V V V V V V V V V V V V V V V V m m m m m m m m V V V V V A Z V V V V V V Z Z V V V V V V V V V V V V V V V V V V V V V V Z V V V V V V V V V V V Z Z Z V V V V V Z Z Z V V V V Z Z Z Z Z Z Z Z Z Z Z Z Z A Z Z Z Z Z Z V Z Z A Z A Z Z A A A A S A A p.p.i.i.p.A A i.i.i.A A i.A A A p.p.S S S A A S S i.S A A A A A A A A A A A A A A A A A A A A A A V Z A S S A A Z V V V V V m V V V Z Z Z Z Z Z V V V V Z Z Z V V V V V Z Z Z Z Z Z A A Z Z Z Z Z Z A A A A Z Z Z Z V V V V V V V V Z V V V V Z Z Z Z Z Z Z Z Z Z Z Z Z Z Z Z Z Z Z Z V V V V V V V Z Z Z Z Z Z Z Z Z Z Z Z Z Z Z S A A A A A A A A Z Z Z Z Z Z Z A Z Z Z Z Z Z Z Z Z Z Z Z Z Z Z Z A A A A Z Z Z Z A Z A A A Z Z Z Z V V V Z Z Z Z V Z Z Z V V V Z V C Z Z Z C V m m V Z Z Z Z Z Z V V V V V V V A V V V Z Z Z A A A A A A Z Z A A A A A A A A A A V Z A A A A A A A A A A Z A A S A A A A A A A A A A A A A A A A A A A A A A A A A A A A A A S S A S i.i.S S S i.S S p.S D D D A S S S b.0.d.d.d.S Z V V V Z Z Z A A Z Z V V M M C N N N 4.4.4.5.4.5.8.8.A A A 0.S S S S i.d.d.d.d.d.a.a.d.d.d.d.d.d.d.d.i.S S S S S S A A A A A A A A S S S a.s.0.0.0.a.a.a.0.8.8.A Z Z A Z Z V C A S S S S S S d.d.S S d.d.d.d.S S 8.A C 8.q.8.5.6.9.s.l.l.9.w.f.f.f.g.g.f.f.f.f.f.f.f.f.g.g.f.d.h.h.d.a.8.a.a.8.8.5.5.8.5.M M M V V V V A A S Z A S S A S S d.d.d.d.d.S A C N 0.8.0.s.9.9.j.j.9.q.f.s.g.f.Z.Z.Z.Z.g.f.f.j.5.6.r r x n 0.9.A.Z.S.S.R.T.f f + @ + $ E.E.                                            ",
"                                                            T.T.6 6 B.B.M.m.d.d.b.b.b.b.m.m.K.K.J.K.E.[.[.[.OXoXOX*X:X:X:X:X).[.h h # O 5 2 # $ b.V.MXMXOX*X*X;X.XoX[.[.OX&X.X.X.X.XR.E.T.R.R.R.).R.M.M.M.M.m m j i # # R.                                  7 7 X . O o d.d.)./.s.f.x x 4.x d d p p z x c m m m j h j m m m m c j k V V m V m m V V V V V V V V F V V V V V V V V V V V V V m b j j Z A Z A Z Z A Z A Z A S A A A A Z Z Z Z V V Z Z S S i.i.S A S S S A A Z m m m A A p.p.A p.p.A A N N N A 8.A C Z C Z A A A A S A A A 0.A A S Z Z Z Z m m m m M M M M M M m M C C M N 8.4.M n x n v z z z M V V V V V V V V V Z Z V V m m V V m k k k m m m c z x z x c M M M m m m M M m m m m m V V V V V Z Z Z V Z Z A C C V V m V Z A A A V A A A S Z V M B M M N N 8.C C C C M M N Z A 8.8.C C C C C C C C V V V C C C C V V m m m m C C C C C C Z Z Z Z m Z Z Z Z V V V b b V V V V V V V V m m A S B.H.A Z k b m m m k Z Z b.b.S S V V Z V V V V Z Z Z Z Z Z Z Z Z Z Z Z Z Z Z Z Z Z Z A A A A A A V V V V V V V V V V V V V V V V V V V Z Z Z V V V V A A C C C V V V V V V V V V V V V V V V V V V V Z Z V Z Z Z Z Z Z Z Z V V V V V V Z A A A Z Z Z A A Z Z V V V V V V V Z A A A A A A Z Z Z Z V V A A Z V Z V V V A A A A A A A A A A V V V V V Z Z Z Z Z Z Z Z Z Z Z Z Z Z Z Z Z Z Z Z Z Z Z Z Z Z Z Z Z Z Z S S A A Z A A A A A A A A A A A V V Z Z Z A Z Z A A Z A Z A A A A A A A A A Z A A A V V Z V Z Z Z Z A A A A A A A S S A A A A A A A A A A A A A A Z A A A A A A A A Z A S S S S S S A A A A A A A A A A A A A A A A Z Z A A Z Z Z Z Z V Z Z Z Z Z Z Z A A A A A Z Z A A A A A A Z Z Z Z Z V V Z Z Z Z Z Z Z Z Z Z Z V Z Z Z Z Z S S A A A A A V Z Z A A A A Z Z V V Z Z Z Z Z Z Z Z Z Z Z Z Z Z S S A A A A A A A A Z S S S S Z S S Z Z Z Z Z Z Z Z Z Z Z Z A A Z Z A A A A A A A A A A A A A A A A A Z Z Z Z Z Z Z A A A A A Z A A A A A A A A A A Z Z V Z V V Z A A A V V V V V V Z Z V Z Z A A A C A A A A A Z A m m V V V m m m V V V Z Z A A A Z Z Z V V V Z A Z A A A A Z Z A A A A A A A A A A A V V Z A A A C Z A A A A A A A A A A V V Z Z V V Z Z Z Z A S D S S S S A S S S S Z Z Z A Z Z A A A A C V V m N C C 8.8.8.4.4.N C C C C C A A A A Z Z Z Z A S Z A Z Z Z Z Z A A A S S A A A V S A A Z Z Z Z Z Z Z Z Z Z A S S C C C A A C C Z A Z A A S A A V C A A A A A S S 0.S A A A A A Z S S A C C N 8.q.4.5.s.s.j.l.w.s.s.a.s.s.s.s.a.a.a.a.a.8.8.s.s.s.S S 0.8.A C C 8.C 8.C N 8.5.M N C C C V V A S S A A A A A A A A M M m Z A A Z V M M C 8.N 4.9.9.0.0.s.a.8.8.d.a.a.a.8.8.8.9.x x d s s s N q.L.L.M.S.R.T.f G + $ $ $ E.E.                                            ",
"                                                            T.U.f 6 B.V.h.m.d.d.b.b.b.b.m.m.T.K.K.K.E.E.[.[.oXoXOX-X-X:X:X-X[.[.j f $ + 4 6 $ # S b.VXVX>X*X*X&X.XoX[..XoXOX[.[.[.[.R.R.T.R.R.R.E.R.M.h.h.b.Z Z k h # # .X[.                                7 7 X . # o h.h.).[.8.s.x d 4.4.s d s p x x m m k j m b m m m m k j m m C V V Z m V Z Z Z V V V V V F V V V V V V Z V V V V V V V m k m Z A Z A S i.A Z A Z A A V V S A Z V Z V V m A S S i.i.i.S S A A S A A Z Z m m Z A p.p.A p.p.A N N N A A S S Z N Z N C C Z Z A A A A A A A A Z Z Z V m m b m m B m m M m M m M M M B N N n n n n g z j j m m m V V V V m m m V V V V m m m c c c c c c c k c z z z z x B M C m m m m m m m m m m V V V V V V V V V V V Z V V m m m m V V V V V Z A A A C C m c M M M N N N N N M M M m C Z Z Z Z M C C C C V V V m V V V V V m m m m m m m m m m m V V m m m m m m V V V m m b b b V V V V V V V m b V Z m.B.A Z k k m m m b V V S d.S A V V V V V V V V V V Z Z Z V V V V V V V V V V V V Z C C C A C C V V V V V V V V V V V V V V V V V V V V V V V V V V V V V V V V V V m m m m m m m V V m m m m m m m V V V V V Z V V V V V V V V V V V V V V V V V V Z Z V V V V V V m V V V V Z Z A Z V V V V V V V V V V V V V V V V V V V Z Z V V A Z V V V V V V Z Z Z Z Z Z Z V Z Z Z Z Z Z Z Z Z V V V V Z V V Z Z Z Z Z Z Z Z Z Z Z Z V V V V Z Z Z Z Z V V m V V V Z Z Z V V V V V V V Z Z Z A A A A A A A A V V V Z Z Z Z Z Z A A A A A A A A Z V V Z A A A A A A A A Z V V A Z V Z A A A A Z Z Z Z A A Z Z A Z Z Z Z Z A A V Z Z A A Z V V V V V V V V V V V V V V V V V V Z Z Z Z Z Z Z Z Z Z Z Z Z Z V V V V V V V V V V V V V V Z Z V Z V V V V Z Z Z Z A Z Z Z V V V V V V Z Z Z V V V Z Z Z Z Z Z Z Z Z Z Z Z Z Z Z Z A A A A A A A A Z Z Z Z Z Z Z Z Z Z Z Z Z Z Z Z Z Z Z Z Z Z Z Z A A Z Z A A A A A Z Z Z Z A Z Z Z Z Z Z Z Z Z Z V Z Z Z V V V V C A A A A A A C V V V V m m V Z V V V V V V V V V V V V V Z A A V V C C Z V V V m m V V V V m m V V V V V V V V V V V V V m V V m V Z Z V V V V V V V V V V V V A V V V V Z V V V V C A A A A C S A A A A A A A Z Z Z Z Z A S i.S S S S S S S S S A Z V V V V V V V V V m m m m M M C C C C N N M M C C M C C C A A A Z Z A S a.S S A A Z Z A A S S S S S S S A A Z V V V Z V V Z Z Z Z Z Z Z Z C C A A A A A A C C C A A A Z V V V C A A A A A d.0.S S S S A Z A A C C V M M N 8.q.f.f.f.j.s.f.s.s.s.s.s.s.s.f.f.d.a.s.a.s.a.a.d.d.a.0.8.8.8.8.C 8.C N 8.N M M C C Z V V Z A A Z Z A A Z V V m M M m Z S S A Z V M C C M N 0.s.q.0.a.d.0.S d.h.8.d.8.s.s.s.x x s d s d 8.4.P.S.Z.S.W.T.f f $ @ $ $ E.E.                                            ",
"                                                            B.B.h f m.m.b.M.b.V.b.b.m.b.M.M.K.K.T.T.].].[.[.OXOXXX.X&X-X-X-X.X[.vXnX;X;X XE.+ . . . 0.S T.[.NXCXnXvX&XOX&X;XoXOX.X.XR.E.R.R.E.E.[.[.T.T.K.K.J.J.H.H.h h 4 5 4 6                             7 7 $ X # O d.d.T.L.s.g.6.s.l.s.d d p s x M S S V V b b V A k m f f i i h h h k h h k k k k f f f f f k k k k k k k h f f h h h h f f g j k j b Z A d.d.d.d.i.A m m m m m m m m m m V V V V Z Z Z V Z Z A Z A Z Z Z Z Z S a.d.d.d.d.d.d.a.a.a.S S A A S S S A Z A A A S S S S S A A S S S A V m m m V V V V C V C V m C C M C C M C M m z c z k V V V Z Z Z Z Z Z A Z Z V Z Z V V m j k k c c B m m c z z z c m M C C V V V V Z Z A Z Z Z Z V V Z Z Z Z Z Z A A A A Z Z A A Z Z A S S S S A S A A A M N C C C C C C A C C C A A A Z A Z Z Z C C Z V Z Z V V C C C V Z V V V V V V V V V V Z Z Z V V m m V V V V V V V V V V V V V V V V V b V Z V.B.S S k k V m V V Z Z 0.d.S S Z Z Z Z Z Z Z Z Z A Z Z Z S S S Z Z Z Z Z A S Z Z Z A A A A A A A A Z Z Z Z Z Z Z Z Z Z A A A A A A A A A A Z A A A A A A A Z Z Z Z Z V V V Z A A A A A Z Z Z Z Z Z Z Z Z Z Z Z Z Z A A A A Z Z A A Z Z Z Z Z Z Z Z A A Z Z Z Z Z Z V V Z Z A A A A A A A A A A A A Z Z A Z Z Z A A S A S S S S S S S S S S S S A A Z A S S S S S S S S S S S S S S S S A A A A A A S S A A A A A A A A A A Z A A A A A A A A A A A A S A A A A S S S S A A A S S S A A A A A A A A A A S S S S S S S S S S S S S S S S S S S S S S S S S S S S S S S S S S S S S S S S S S S S S S A A A A Z Z A A A S S S S S A Z A A A A A A S S S S S S S A A A S S S S S S S S S S S S S S S S S S A A A A S S A A A A S S S S A A A A A S S S A A S S S S A Z A A S S S A A Z S S S S A A A A S S S S S S S S S S A A A A A A S S S S S A A A A S S S S S A A S S A S S S S S S S S S S S S S S S S S S S S S S S S A S S S Z A A A A A A A A A A A A A A A A Z A A A A A A A A S S S A Z A A A A A S S S S S S S S S S S S S Z A S S S Z Z Z S S S S S S S S S S S S S S S S S S S S S S S S S S S S S S S S S S S S S S S S S S S S S S S S S S A A A S S S S S S S A A Z S S S S S S S S S S A Z V V V Z Z A A A A A A A A A C A 0.A A A A C A 0.8.0.S S S S S S S S S S i.i.i.S S S S S S S S S S S S S S d.d.d.d.d.d.i.S i.i.i.i.S S S S A A A A A A A A S S S S S S S S A S S S S S S S S S S S S S A A 0.S S A A C C C 0.8.g.g.f.f.s.g.s.s.f.a.d.a.d.a.f.f.f.d.d.d.d.h.a.0.0.0.0.0.S S d.d.d.S 0.S S 0.A S S S A A A A S S S S S A A V C C C C A A Z V V V A C m M 8.0.C A d.d.S A S S S S d.f.f.f.M x s v s s 8.4.P.S.S.S.Y.T.f f $ $ $ + E.E.                                            ",
"                                                        ZXZXB.V.k k d.V.b.V.b.d.V.m.m.b.M.M.K.K.T.K.].].[.]..X.X.XXXoXOX*X#X-XOX<X<X>X,X[.XX. . . . S V E.E.NXNXnXnX&X%XOX*X.X.X.X.XR.R.T.R.R.R.R.R.K.T.K.K.K.J.M.H.h h 6 5 5 5 6 7                         2 7 $ + # # h.d.T.P.s.z.s.s.z.s.d s p z M C a.d.Z Z b m A S k b i f f f k f f k h h k k k k k k j j k k k k k k k k k k k h k k h h h k h j j k A A i.i.d.d.p.A m m b k k c m m m m V V V Z Z Z Z Z V V Z Z V V Z Z Z Z A S a.p.p.S S S a.a.S S A Z Z A S S A Z A A S S A A A A A A A A Z V m m m m V V V m V V V m m V m M M M m C c c k k k k m c V V V V V V V C V V V Z V V m m h j k k c c c c z z z z z c B m V V V V V V Z Z V V Z Z V V Z Z Z Z Z Z Z Z C V Z Z A Z Z Z Z Z A A A A A A A A C N N C C C C C C C C V Z Z Z Z A Z V V V V Z V Z Z V V V V V V V V V V V V V V V V V V V V V V m m m m m m V V b b m m m V V V b b b b V V b.V.Z A k k m c V V Z V S S A S Z Z Z Z Z Z Z Z Z A Z Z Z Z A A Z Z Z Z Z Z A Z Z Z A Z Z Z Z Z A A V V V V V V V V V V Z Z Z Z V V A A A A Z A A A A A A A Z Z Z Z Z Z V Z Z Z Z Z A A Z Z Z Z Z Z Z Z Z A Z Z Z V A A A A Z Z Z Z Z Z Z Z Z Z Z V A Z Z Z Z Z Z A V V Z Z Z Z Z Z Z Z Z Z Z Z Z Z Z Z Z Z Z Z Z Z Z Z Z Z A A A A Z Z A A A A A A Z Z Z Z Z A A A A A S A A Z A A A A A Z Z Z Z Z A A Z Z Z Z Z Z A A Z Z Z Z A A A A A A A A A Z S S A A S A S S S S A A A A A A S S S S S S S S Z A A A A A A A S S S S S S S S S S S S S S S S S S S S S S A A A A Z Z A A A A D S S S S S A A A A Z Z Z Z Z A A A A A A Z Z Z Z Z A A A A A S A A A A A A A Z A S S S S S S A S S A Z A A S S A A A A A A S S Z Z Z Z S S A A A A A A A Z Z Z Z Z A A A A Z Z Z A A A A A Z Z Z Z Z Z Z Z Z Z A A Z Z A A S Z A A A A A A Z A Z Z S Z Z Z Z Z Z Z Z Z S S A A Z Z Z S A S S S A A A A A A A A A A A A A A Z Z S A Z Z Z Z Z Z A A A A A Z A A C C C C C C C C V Z A A A A A A Z Z S A A Z A A Z Z A A S S A A S A A A A S S A V Z Z Z Z Z Z Z A A A A S S S A S S S S A A S S A S A A A A S S S A S S S S S A S S S S S S S A A A A S S S S S S S S S S S S S S S S S S S S S S S S S S S S S A A V V V V Z A A A A A Z Z A A A A A A Z Z C C C C C A A A S S S 0.i.d.i.i.i.d.d.d.d.i.i.i.d.d.d.d.d.d.d.d.d.d.S S i.d.d.i.S S S S S S S S S S S S S S S S S S A A A A A A A S A A S S S S A A 0.S 0.d.d.d.0.S S S S S A A C C d.d.n.n.n.g.s.f.a.f.f.f.d.d.d.d.h.f.f.f.d.d.h.h.d.d.d.d.d.d.d.d.d.d.S A S S A S A A S S S A A A S A A A A A Z V 8.A A A A A S A A Z S A V C A 0.C A f.d.d.S i.i.S S S d.a.f.M n v v s p 4.8.D.P.S.Z.K.Y.f f $ $ + + E.E.                                            ",
"                                                    . . . . 2 2 b.d.d.d.d.b.V.V.M.h.d.d.d.d.M.M.G.K.R.R.E.R.].].R.R.[.].[.[.OXoXAXCXMXNX;X*X. . + + k k  X XZXZXvXMX>X,X;X,X.X X[.[.T.R.K.T.R.R.R.E.Y.R.K.J.R.K.V.h.j i , 5 . # # # $                       2 2 $ + # # m.h.R.R.f.s.6.6.l.l.7.7.q.0.0.0.n.d.m m l b b b 5 4 . . + . @ @ @ $ + @ + + + + X X X X + + X X + + + X @ + + + + + . . + + . + . . = # : : , , , , # # # = = = = = = = = = = , , , , , , , 2 2 2 , , , , , , , < < < < 1 < < < 3 < 3 3 < 3 3 3 3 3 3 3 3 7 3 3 3 3 4 4 7 4 3 4 , , , , 2 2 2 2 2 2 , , : , : # , = = = = , # # # # 2 2 # # 2 , , , = , , , , , , = # # = = = = = = = = = = = = = = , , # : # , , , , , , , , , , , , , 2 2 2 2 , , , , , , , , , , 2 2 2 2 2 2 , , , , 1 , < < 1 = = = < < , , 2 2 2 , , , 2 2 2 2 2 2 2 2 2 2 , , , , , , 2 2 2 2 2 2 2 2 2 2 2 2 , , , , , , , , , = , , 2 2 2 2 2 2 2 2 2 : 2 # 2 4 2 5 2 2 4 2 4 4 2 # 4 2 2 4 2 2 2 2 2 2 2 2 2 2 , , , , , , 4 4 2 2 2 2 4 4 2 2 2 2 2 2 , , 2 4 2 4 2 2 2 4 4 2 2 2 4 4 4 2 2 2 2 2 2 2 2 , 2 2 2 2 2 2 2 2 2 2 2 2 2 2 2 2 2 , 2 2 4 4 2 4 2 2 2 4 4 4 4 4 2 2 2 2 2 2 2 2 2 2 4 2 2 2 2 2 2 2 2 2 2 2 2 2 2 4 2 2 2 2 2 2 2 2 2 2 2 2 2 2 2 , 2 2 , , , , 2 2 2 2 2 , 2 2 2 2 2 2 2 2 2 2 2 2 2 2 2 2 2 2 2 2 2 2 2 2 2 2 2 2 2 2 2 2 2 2 2 2 2 2 2 2 2 2 , 2 2 2 2 2 2 2 2 2 2 2 2 2 2 2 4 2 2 2 2 2 2 2 4 2 2 2 2 2 2 2 2 2 2 2 , 2 2 2 2 2 4 4 4 4 4 2 2 7 2 2 4 4 4 2 4 4 4 2 2 2 2 2 2 2 4 4 4 4 2 4 2 2 2 2 2 2 , , 2 2 2 2 2 2 2 2 2 2 2 2 2 2 2 2 2 2 2 2 2 2 2 2 2 , 2 2 2 2 , , 2 2 2 2 2 2 2 2 2 2 2 2 2 4 2 4 4 2 4 4 2 2 2 2 4 4 2 2 2 2 2 2 2 2 2 2 2 2 2 2 2 2 2 2 2 2 2 2 2 2 , , 2 2 2 2 2 2 2 2 , , , , 2 2 2 2 2 2 2 2 2 2 2 2 2 2 2 2 2 2 , , , , , , , , , 2 2 2 , : , , = 2 2 2 2 2 2 2 2 2 2 2 2 2 2 2 2 2 2 2 2 2 2 2 2 2 2 2 2 2 2 2 2 2 2 2 2 2 2 2 , , , , , , , , 2 2 2 2 2 2 , , , 2 2 2 2 2 2 2 2 2 2 2 4 2 2 2 , 2 2 2 2 2 2 2 2 2 2 2 2 2 2 , 2 2 4 4 2 2 2 2 , , 2 2 2 2 2 2 2 2 2 2 , 2 2 2 2 2 2 2 2 2 2 2 , , 2 2 2 2 2 2 4 2 2 2 2 2 2 2 2 2 2 2 2 2 2 2 , , , , , , , , # # , , , , , 2 2 2 2 , , , , , , 2 , , , , 4 4 2 2 2 2 2 , 2 2 2 2 2 2 2 , 2 2 , , , , , 2 2 4 , 2 , , , , , , , , , , , , 2 2 2 2 2 2 2 2 2 4 , , , 4 4 4 , , 4 4 4 2 2 2 2 2 2 2 2 2 2 , , , 2 , 2 2 2 2 2 2 4 , , , , 4 4 4 , , , 4 4 4 4 4 2 2 4 4 4 4 2 2 , , 4 3 , < , < , 3 3 3 , , , 3 , 4 4 4 , , , 4 3 < 3 3 4 4 4 4 4 4 4 , 4 , 2 4 4 4 4 4 4 4 4 4 , 4 4 , , , , , 1 = = = # = # 2 # # # # $ O = # 3 5 j k V m i.i.d.d.d.d.a.f.N 5.s s x x f.9.g.g.n.M.K.Y.f f $ $ $ @ E.E.                                            ",
"                                                  . . . . . 2 4 b.b.d.m.b.b.V.b.M.M.h.d.d.d.B.M.B.H.R.R.E.T.E.R.R.R.].E.[.[.-X-XNXCXMXBX,X*X. . $ $ f f E.[.ZXZXMXVX>X,X*X;X[.[.E.[.T.R.K.T.R.R.R.R.K.Y.K.J.R.Y.m.m.i h 4 4 O . # # $                       2 7 @ + # # h.d.R.Y.g.s.6.6.l.l.7.7.9.0.8.8.n.b.Z V k b b b 5 4 . . + . + + + + . + X + X $ $ # X X + X $ $ $ X X O $ O + + X X + + + O + O X + # O : : , , , , # = O * * * * * = = , , , , , , , = # , , , , , , , , < < < , , , < < < < < < < 3 3 < 3 3 3 3 3 3 5 7 7 3 3 2 2 4 4 4 4 4 , , , , , 2 2 2 2 2 2 , : , , # # , , # # # 8 $ # # # 2 8 # # 2 2 , , , , , 2 2 , = # # = # # # # = = = = = = = , = = # # # # # , , , , 2 , , , , , , , 2 2 2 2 2 2 4 2 2 , , 2 2 , = 8 2 2 2 2 2 , , , , , , < , , = = = , , 2 2 4 4 2 2 2 2 , , 2 2 2 2 , , 2 2 , , , , , , 2 2 2 2 2 , 2 2 2 , , , : : , , , , , , , = # # 8 2 2 2 2 2 : , 2 , 2 # 2 2 2 2 2 2 4 2 4 4 4 = 2 2 , 4 2 2 2 4 2 2 4 2 2 , 2 , 2 4 4 4 2 2 4 2 2 2 2 4 2 2 2 4 2 2 2 2 2 4 2 2 2 4 4 2 2 2 2 2 2 2 2 2 , , 2 2 2 2 2 2 , , 2 2 2 2 2 2 2 2 4 4 4 2 4 2 , , 2 2 2 4 4 4 2 2 2 4 4 4 4 2 2 , 2 2 2 2 2 2 2 2 2 2 2 2 2 2 2 2 = 2 2 2 2 , 2 2 2 2 2 2 , , 2 2 4 4 2 2 2 2 2 , 2 2 2 , , , 2 2 2 2 2 2 2 2 2 2 , , 2 2 2 2 , , 2 2 2 2 , , 2 2 , 2 2 2 , = , 2 2 2 2 2 2 2 , , 2 2 2 2 2 2 2 2 , 2 2 2 2 2 2 , , , 2 4 4 4 2 2 2 2 2 2 2 2 4 2 2 2 2 4 4 2 2 2 2 2 , , 2 2 4 4 2 2 2 2 2 2 4 2 2 2 4 4 2 2 4 4 4 2 , 2 2 2 2 , 4 4 4 4 2 2 2 , : , , , , , , 2 2 2 2 2 2 2 2 2 2 2 2 2 , , , , 2 2 2 2 , , , , 2 2 , , , , , 2 2 2 2 2 2 2 2 2 2 2 2 2 4 4 2 2 2 2 2 2 2 2 4 4 2 2 2 2 2 2 2 2 2 2 2 2 2 2 2 , , 2 2 2 2 2 2 2 2 2 , , , , 2 2 , , , , : , , 2 2 2 2 2 2 2 2 2 2 2 2 2 2 2 2 = , , , , , , , 2 = , , 2 , # # , # = 2 2 2 2 2 2 2 2 2 2 2 2 , = , , : : , , , , 2 2 2 2 2 2 , , 2 , , , 2 2 2 2 2 , 2 , 2 , 2 2 2 2 , , , # = = , 2 2 2 2 2 2 2 2 2 2 2 4 4 2 , , , 2 2 2 2 2 2 2 2 2 2 2 2 2 # 2 2 2 2 : 2 2 2 , 2 2 2 2 2 2 , 2 2 2 2 , 2 2 2 , 2 2 2 2 2 2 2 , 2 2 2 2 2 2 2 4 2 2 2 , , 2 2 , 2 2 2 2 2 , , , 2 2 4 2 2 , , 2 2 2 2 , , , 2 2 2 2 2 2 2 2 , # , 2 , 4 4 4 4 = , 2 2 2 , , , , 2 2 2 2 2 2 2 2 , , , , , 2 4 4 2 2 , 2 , , , 2 2 , , 2 2 2 4 4 4 2 2 2 2 2 2 4 4 4 4 , , 2 4 2 2 4 4 2 2 2 2 4 4 4 4 4 2 2 2 : 2 2 2 2 , 2 2 4 , , , , , 4 4 4 4 4 4 4 4 2 2 4 4 4 4 2 2 2 2 2 , 4 4 3 3 3 3 , 4 3 4 , , , 4 , , 4 4 4 , 4 4 2 2 3 4 4 4 4 4 4 4 2 2 4 2 2 4 4 4 2 4 4 4 4 4 4 4 2 4 2 , , , 3 , , , = = = 2 2 # # # $ # = # 7 5 j j Z m d.d.m.d.p.a.8.f.C 8.p s x v f.s.f.g.g.n.L.T.f f + X $ $ E.E.                                            ",
"                                                  . . . . . 2 2 d.S d.d.d.d.K.B.R.T.H.V.S S S d.U.B. X[. X.XE.E.E.E.[.[.].E.OXoX;X-X;X,XoXOXB.B.Z S # 2 2 2 B.B.,X,XmXnX>X,XE..XE.R.E.R.R.R.R.R.E.R.Y.L.Z.Z.M.V.d.d.j j 4 4 # # # # O $                     7 2 $ @ # # m.h.K.J.k.z.6.5.s.6.4.M 5.f.C 0.h.d.A A V A 6 u # . . . . . . . . . . . . . X . . . . . . . . . . . . . . . . . . . . . . . + . . . . . O X X . X . X X X X O O O X X X O O O O O O O O O O O O O O O O O O O O O O X X O X X o O O X X % % X X X X . . X X . . + + . . . . . . . . . . . . . . . . . . . . . . . . . . . . . . . . . . . . . . . . . . . . . . . . . . . . . . . . . . . . . . . . . . . . . . . . . . . . . . . . . . . . . . . . . . . . . . . . . . + + . . . . . . . . . . . . . . . . . . . . . + + + + . . . . . . . . . . . . . + . . . . . . . . . . . . . . . . . . . . . . . . . . . + + + + . . . . . + . . . . . . + . . . . . . . + + . . . . . . . . . . . . . . . . . . . . . . . . . . . . . . . . . . . . . . . . . . . . . . + + . . . . . . . . + + + . . . . . . . . . . . . . . . . . . . . . . . . . . . . . . . + . . . . . . . . . . + + + . . . . . + . . . . . . . . . . . . . . . . . . . . . . . + + + . . . . . . . . . . . . . . . . . . . . + + . + . . . . . . . . . . . . . . . . . . . . . . . . . . . . . . . . . . . . . . . . . . . . . . . . . . . . . . . . . . . . . . + . . . . . . . . . . . . . . . . . . . . . . . . . . . . . . . . . . . . . . . . . . . . . . . . . . . . . . . . . . . . . . . . . + + . . + + + . . . . . . . . . . . . . . . . . . . . . . . . . . . . . . . . . . . . . . . . . . . . . . . . . . . + + . . . . . . . . . . . . . . . . . . . . . . . . . . . . . . . . . . . . . . . . . . . . . . . . . . . . . . . . . . . . . . + . . . . . . . . . . . . . . . . . . . . . . . . . . . . . . . . . . . . . . . . . . . . . . . . . . . . . . . . . . . . . . . . . . . . . + + + + . . . . . . . . + + + . . . . . . . . . . . . . . . . + + + + . . . + + . . . . . . . . . . + . . . . . . . . . . . . . . . . . . . . . . . . + + + . . . + . . . . . . . . . . . . . . . . . . . . . . . . . . . . . . . . . . . . . . . . . . . . . . . . . . . . . . . . . . . . . . . . . . . . . . . . . . . . . . . . . . . . . . . . . . . . . . . . . . . . . . . . . . . . . . . . . . . . . . . . . . . . . . . . . . . . . . . . . . . . . . . . . . . . . . . . . . . . . . . . . . . . . . . . . . . . . . . . . . . . . + . . 2 , Z V b V m.H.m.m.d.d.8.8.0.8.C.C.9.w.l.j.C.s.n.n.K.K.6 f . $ + $ E.T.                                            ",
"                                                  . . . . . 5 7 d.S d.d.d.d.K.H.E.T.V.V.0.b.d.d.U.G. XE.[. X[.[.E.E.[.[.].E.oXXX;X-X,X;X&X.XH.m.Z Z 2 , # 4 V.B.,X:XnXmX;X,X]..XR.R.R.R.R.R.R.R.R.L.L.L.Z.Z.B.M.S d.j m 4 4 # # # # O O                     7 7 # @ # # d.h.P.L.k.k.6.5.9.9.5.5.a.n.Z S d.0.Z A A A 5 6 # @ @ . . . . X . . X . X X X X X X . . . X X . . . X X . . . . X X X . X X X X X X X X X X X X X % % % % % % % % % % % % % % % % % % % % % % % % % % % % % * * * % % % % % % X * O % % % % % % X X X . X X . . . . . . . . . . . . . . . . . . . . . . . . . . . . . . . . . . . . . . . . . . . . . . . . . . . . . . . . . . . . . . . . . . . . . . . . . . . . . . . . . . . . . . + . . . . . + + . . . . . . . . + + . . . . + + . . . . . . . . + . . . . . . . + + + + + + . . . . + + + + . . . . . . . . . . + . . . . . . . . . + + + + . . + . . . + + + + + . . . + + . . . . . . + . . . + . . . + + . . . . . . . . . . . . . . . . . . . . . . . . . . . . . . . + . . . . . + + . . . . . . . + + . . . . . . . . + + + + . . . . . . . . . . . . . . . . . . . . . . . . . . . . . . + + . . . . + + . . . + + + + . . . . + + . . . . . . . . . . . + . + + + + + + . . . . + + + . . . . . . . . . . . . . + + + . . . . . . + + + . . . . . . . . . . . . . . . . . . . . . . . . . . . . . . . . . . . . . . . . . . . . . . + + + . . . . . + + . . . . + + . . . . + + . . . + . . . . . . . . . . . . . . . . . . . . . . . . . . . . . . . . . . . . . . . . . . . . + + + + + + + + . . + + . + + + . . . . . . . . . . . . . . . . . . . . . . . . . . . . . . . . . . . . . . . . . . . . . . . . . . . . + + + + . + . . . . . . . . . + + + + . . . . . . + . . . . . + . . . . . . . . . . . . . . . . . . . . . . . . . . . . . . . + . . . . . . . . . . . . . . . . . . . . . . . . . . . . . . . . . . . . . . . . . . . . . . . . . . . . . . . . . . . . . . . . + . . . . + + + + . . . . . . . . + + + . . . . . . . . . . . . . . . . + + + + . . . . . + . . . . . . . . + + . . . . . . . . . . . . . . . . . . . . . . . . . + + + . . . + . . . . . + + . . . . . . . . . . . . . . . . . . . . . . . . . . . . . . . . . . . . . . + . . . . . . . . . . . . . . . . . . . . . . . . . . . . . . . . . . + . . . . . + + . + . . . . . . . . . . . . . . + + . . . . + . . . . . . . . . . . . . . . . . . . . . . . . . . . . . . . . . . . . . . . . . . . . . . . . . . . . . . . . . . . . . . . . . . . . . . + . . 4 2 Z Z V Z m.m.m.m.S S 8.C 0.q.C.C.9.9.j.j.C.g.Z.n.K.K.i f . O + + E.E.                                            ",
"                                                . . . . . . 5 7 V.n.b.b.m.m.T.U.R.E.H.M.h i 5 5 Z A K.K.T.T.K.T.K.K.R.R.R.T..X[..X.XoXXX,XvXZXZX[.[.. . . . d.V BXBXCXCX;X,XE.E.R.R.R.R.R.E.E.E.R.Y.R.Y.K.K.K.K.d.h.m V 4 4 # # # # O O                     7 2 # O # # d.h.T.Y.A.A.9.9.f.f.k.Z.n.V.C Z S S V V m m # , . . . . X X X X X % % % % % % % % % % X % % % % % % % % % % % % % % % % % % % % % % % % % % % % % % & & & & & & & & & & & & & & & & & & & & & & & & & & & & & & & & & & & % % % % % % % & & & % % % X X X . . . . . . . . . . . . . . . . . . . . . . . . . . . . . . . . . . . . . . . . . . . . . . . . . . . . . . . . . . . . . . . . . . . . . . . . . . . . . . . . . . . . . . . + + . . . . . + . . + . + + . + + + + + + + + + . + + + + + . . + + + + . . . . . . . . + + + . . . . + . . . . . . . . . . . . . . . . . . . . . . . . . . . . . . . . . . + + . . . . . . . . . . . . . . . . . . . . . . + . + . . . + + + + . . . . . . . . . . . . . . . . . . . . . . . . . . . + + . . . . . . . . . . . . . . . . . . . . . . . . . . . . . . . . . . . . . . . . . . . . . . . . . . . . . . . . + + + . . . . . . . . . . . . . . . . + . + + . . . . . . . . . . . . . . . . . . . . . . . . . . . . . . . + + + . . . . . . . . + + . . . . . . . . . . . . . . . . . . . . . . . . . . . . . . . . . . . . . . . . . . . . . . . . . . . . . . . . . . . . . . . . . . . . . . . . . . . . . . . . . . . . . . . . . . . . . . . . . . . . . . . . . . . . . . . . . . . . + + + + . . . . . . . . . . . . . . . . . . . . . . . . . . . . . . . . . . . . . . . . . . . . . . . . . . . . . . . . . . . . . . . . . . . . . . . . . . . . . . + + + . . . . . . + . . . . . . . . . . . . . . . . . . . . . . . . . . . . . . . . . . . . . . . . . . . . . . . . . . . . . . . . . . . . . . . . . . . . . . . . . . . . . . . . . . . . . . . . . . . . . . . . . . . . . . . . . . . . . . . . . . . . . . . . . . . . . . . . . . . . . . . . . . . . . . . . . . . . . . . . . . + + . + + + . . . . . . . . . . . . . . . . . . . . . . . . . . . . . . . . . . . . . . + + . . . . . . . . . . . . . . . . . . . . . . . . . . . . . . . . . . . . . + + + . . . . . . . . . . . + . . . . . . . . . . . . . . . . . . + + . . . . . . . . . . . . . . . . . . . . . . . . . . . . . . . . . . . . . . . . . . . . . . . . . . . . . . . . . . . . . . . . + + . + + + . . . . . . . . . . . . . . . . . . . . . . . . . . . . . . . . . . 2 7 S A m b i.b.M.M.h.d.a.a.g.f.A.A.9.9.9.9.j.s.Z.M.K.K.i f + + + + E.T.                                            ",
"                                                . . . . . . 5 7 V.b.b.d.V.m.T.U.].].M.M.k k 6 5 A S B.K.T.T.T.T.T.T.R.T.R.K.[.[.oXoXoXXX,X;XZXZX[.[.+ . . . m S NXNXAXAX;X;XE.E.R.R.T.R.R.R.E.E.K.L.Y.L.J.J.K.K.d.d.m V 4 , # # , # + +                     7 2 $ $ # # d.h.T.R.A.A.9.8.s.s.J.J.M.M.Z Z Z Z V V m b O # . . . . X X % % % & & & & & & & & % & & & & & & & & & & & & & & & & & & & & & & & & & & & & & 9 & 9 9 & 9 9 9 9 9 9 9 9 9 9 9 9 9 9 9 9 9 9 9 9 9 9 9 9 9 9 9 9 9 9 9 9 9 9 & & & & & 9 9 9 & & & % % % X X X . . . . . . . . . . . . . . . . . . . . . . . . . . . . . . . . . . . . . . . . . . . . . . . . . . . . + . . . . . . . . . . . . . . . . . . . . . . . . . . . . . . . . + + + + . . + + + + + + + + + + + + + + + + + + + + + + + + + + + + + + + . . . . . + . + + + + . . + + + + + + . . . . + . . . . . . . . . . . . . . . . . . . . . . . . + + + . . + . . . . . . . . . . . . . . . . . . . . + + + + + + + + + . . . . . . . . + . + + + + . . + + + + + + + . . . + + + + . . + . . + + + + + + + . . . . . . . . . . . . . + . . . . . . + + . . . . . . . + . . . . . . . . . . . . . + + + . . . . + . . . . . + + + + + + + + + + + + + + . . . . + + + + . + . + . . + . . . . . . . . . + + + + + + + . . . . . . . + + . . . . . . . . . . . . + + + + . . . . . . . . + + + . . . . . . . . . . . . . . . . . . . . . . . . . . . + + . . . + + . . . . . . . . . . . . . . + . . . . . . . . . . . . . . . . . . . . . . . . . . . . . . . . . . . . . . + + + + + + . . . . . . . . + + + . + + + + + . . . + . . . + . . + . . . . + + + + + + + + + + + . . . . . + . . . . . . . . . . . . . . + . . . . . . . . . . . . . . + + + + + + + + + + . . . . . . . . . . . . . . . . . . . . . . . . . . . . . . . . . . . . . . . . . . . . + + + . + . . . . . . . + + + + + + . . . . . . . . . . . . . . . . . . + + + + . . . . . . . . . . . . . . . + . . . . . . . . . + . . + + + . . + . . + + + + . . . . . . . . . + + + . . . . . . . . . . + . . . + + + + + + + + + + . . . . . . . . . . . . . . + + . . . . . . . . . . . . + + . . . . . . . . . + . . . . . . . + . . . . . . . . + + . . . . + + . . . . . . . . . . . . + + + + . . . . . . . + + + + + + + . . . . . . . . . . . . . . . + + + . . . . . . + + . . . . . . . . . . . . . . . . + + + + + + + + X . . . . . . . . . . . . . . . . . . . . . . . . . . . . . . . + + + + + + + + . . . . . . . . . . . . . . . . . . . . . . . . . . . . . . + . # 5 S d.A b i.p.m.m.d.d.a.0.g.f.k.l.9.9.9.9.j.f.Z.M.K.K.i i + + + + T.T.                                            ",
"                                                . . . . . . 5 5 d.d.S i.M.B.T.W.[.XXR.E.V.V.b b k f k k b m V Z V A d.d.T.T.oXOX&X-X*X;X<X>XAXBX[.R.. . , 2 f 6 d.b.T.[. XoX[..XE.E.K.K.K.K.R.R.R.R.E.E.R.R.E.R.S A k m , , , # # # + .                     2 2 @ $ # # d.d.T.R.J.Z.8.8.0.s.P.J.M.M.S p.Z Z Z A m m O O . X X % - 9 0 0 0 y w w y w y y w w w w w w w w w w w w w w w w w w w w w w w w w w w q q I q q q q q q q q q q q I q q q q q q q q q q q q q q q q q q I q H H q q q q I I q q q q q q q q q q y y y 0 r e e 6 6 7 6 6 6 6 6 6 7 7 5 5 7 7 7 7 7 7 7 7 7 7 7 7 7 7 7 7 7 7 7 7 7 7 7 7 7 7 7 7 7 7 7 7 6 6 7 7 7 6 6 6 7 7 7 6 6 6 6 7 6 6 6 6 6 6 6 6 7 6 6 6 6 6 6 6 6 6 6 6 6 6 6 6 6 6 6 6 6 6 7 6 6 6 7 7 7 7 7 7 7 7 7 6 7 7 7 7 6 6 6 6 6 7 7 7 7 6 6 6 6 6 6 6 7 6 6 6 6 6 6 6 6 6 6 6 6 6 6 6 6 6 6 6 6 6 6 6 6 6 6 6 6 6 6 6 6 6 6 6 6 6 6 6 6 6 6 6 6 u u f 6 6 G G 6 6 6 6 6 6 6 7 7 6 6 6 7 7 6 7 7 7 7 6 7 7 7 7 7 6 6 6 7 7 6 6 6 6 6 6 6 7 7 7 6 6 7 7 6 6 6 6 6 6 6 7 6 6 6 6 6 6 6 6 6 6 6 6 6 6 6 6 6 6 6 6 6 6 6 6 6 6 6 6 6 6 6 6 6 6 6 6 6 6 6 6 6 6 6 6 6 6 6 u 6 6 6 6 6 6 6 6 6 6 6 6 6 6 6 6 f 6 6 6 6 6 6 6 6 6 6 6 6 6 6 6 6 6 6 6 6 6 6 6 6 6 6 6 6 6 6 6 6 6 6 6 6 6 6 6 6 6 6 6 6 6 6 6 6 6 7 7 6 6 6 6 6 6 6 6 6 6 6 6 6 6 6 6 6 6 6 G 6 6 6 6 6 6 6 6 6 6 6 6 6 6 6 6 6 6 6 6 6 6 7 6 7 7 6 6 6 6 6 6 6 7 7 6 6 6 6 6 6 6 6 6 6 6 6 6 6 6 6 6 6 6 6 6 6 6 6 6 6 6 6 6 6 6 6 6 7 7 6 6 6 6 7 7 6 6 6 6 6 6 6 6 6 6 6 6 7 7 7 7 7 7 7 7 6 6 6 6 6 6 6 6 6 6 6 6 6 6 6 6 6 6 6 6 6 6 6 6 6 6 6 6 6 6 6 6 6 6 6 6 6 6 6 6 6 6 6 6 6 6 u u 6 6 6 6 6 6 6 6 6 6 6 6 6 6 6 6 6 6 6 6 6 6 6 6 7 6 6 6 7 7 6 6 6 6 6 6 6 6 6 6 6 6 6 7 7 6 6 6 7 6 6 6 6 6 6 6 6 6 6 6 6 6 6 6 6 6 6 6 6 6 6 6 6 6 6 6 6 6 6 6 6 7 7 7 6 6 6 7 6 6 6 6 6 6 6 6 7 7 6 6 6 6 6 6 6 6 6 7 7 7 7 6 6 6 6 6 6 6 6 6 6 6 6 6 6 6 6 6 6 6 6 6 6 6 6 6 6 6 6 6 6 6 6 6 7 6 6 6 6 6 6 6 6 6 6 6 6 6 6 6 6 6 6 6 6 6 6 6 6 6 6 6 6 6 6 6 6 6 6 6 6 6 6 6 6 7 7 7 7 7 6 6 6 6 6 6 6 6 6 6 7 6 6 6 6 6 6 6 6 6 6 6 6 6 6 6 6 6 7 7 7 7 6 6 7 7 7 7 7 6 6 6 7 7 6 6 6 6 6 6 6 7 7 6 6 6 6 7 6 6 6 6 6 6 6 6 6 6 6 6 6 6 6 6 6 6 6 6 6 6 7 7 6 7 7 7 6 6 6 6 6 6 6 6 6 6 7 7 7 7 6 6 6 6 7 7 6 6 6 7 7 6 6 6 6 6 6 6 6 6 6 6 6 6 6 6 6 6 6 6 6 6 6 6 6 6 6 6 6 6 6 6 6 6 6 6 6 6 6 6 6 6 6 6 6 6 6 6 6 6 6 6 6 6 6 6 6 6 6 6 6 6 6 7 7 7 7 6 6 6 7 6 6 6 6 6 6 6 6 6 6 6 6 6 6 6 6 6 6 6 6 6 6 6 7 6 6 6 6 6 6 6 6 6 6 6 6 6 6 6 6 6 6 7 7 7 7 7 7 2 7 2 2 2 7 2 7 2 2 # + + # . $ $ : 4 V m i.i.A A 0.8.s.s.s.l.9.w.w.9.A.Z.Z.M.J.K.u u $ $ + + T.U.                                            ",
"                                                . . . . . . 4 4 S i.S S H.G.W.W.XXXX].T.V.B.j Z k k m k b k V V Z A i.S T.T.oXOX*X;XOX&X>X;XBXBXR.[.. . # 2 6 f b.d.U.K.+X.X.X[..X[.K.K.K.J.R.T.Y.R.E.E.R.R.R.R.S A b m , , , : # # . .                     2 2 + + # # d.h.R.R.J.Z.8.8.8.8.L.J.M.M.i.i.Z Z A A j b O O X X X % & 9 w w w w w w w w w w w w w w w w w w w w w w w H H H w w w w H H H H H H H H H H H H H H H H H H H H H H H H H H H H H H H H H H H H H H H H H H H H H H H H H H H H H H H H H H H H q q y y r e e e 6 6 6 6 6 6 6 6 7 7 6 6 6 7 6 6 6 6 6 6 7 7 7 7 7 7 7 7 7 7 7 7 6 6 7 7 7 6 7 6 7 7 6 6 6 6 6 6 6 6 6 6 6 6 6 6 6 6 6 6 6 6 6 6 6 6 6 6 6 6 6 6 6 6 6 6 6 6 6 6 6 6 6 6 6 6 6 6 6 6 6 6 7 6 6 6 6 6 6 6 6 6 7 7 7 7 7 7 6 6 6 6 6 6 6 7 7 7 6 6 6 6 6 6 6 6 6 6 6 7 6 6 6 6 6 6 6 6 6 6 u 6 6 6 6 6 u u 6 6 6 6 6 6 u 6 6 6 6 6 6 6 6 6 6 6 6 6 6 6 u u 6 u u G G G 6 6 6 6 6 6 6 6 6 6 7 6 6 6 7 7 7 6 6 7 7 7 7 6 6 6 7 6 6 6 6 6 6 6 6 6 6 6 6 6 6 6 6 6 6 6 6 6 6 6 6 6 6 6 6 6 6 6 6 6 6 6 6 6 6 6 6 6 6 6 6 6 6 6 6 6 6 6 6 6 6 6 6 6 6 6 6 6 6 6 u u 6 6 6 6 u u 6 6 6 6 6 u 6 u 6 6 6 6 6 6 6 6 f 6 6 6 6 6 6 6 6 6 6 6 6 6 6 6 6 6 6 6 6 6 6 6 6 6 6 6 6 6 6 6 6 6 6 6 6 6 6 6 6 6 6 6 6 6 6 6 6 6 6 7 6 6 6 6 6 6 6 6 6 6 6 6 u u u 6 6 6 6 u 6 6 6 6 6 6 6 6 6 6 6 6 6 6 6 6 6 6 6 6 6 6 6 6 6 6 6 6 6 6 6 6 6 6 6 6 f f 6 6 6 6 6 6 6 6 6 6 6 6 6 6 6 6 6 6 6 6 6 6 6 6 6 6 6 6 6 6 6 6 6 6 6 6 6 6 6 6 6 6 6 6 6 6 6 6 6 6 6 6 6 6 6 6 6 6 f 6 6 6 6 6 6 6 6 6 6 6 6 6 6 6 6 6 6 6 6 6 6 i 6 6 6 6 6 6 6 f 6 6 u u u 6 u 6 6 u u u 6 6 u u 6 6 6 6 6 u 6 6 6 6 6 6 6 6 6 6 6 6 6 6 6 6 6 6 6 6 6 6 6 6 6 6 6 6 6 6 6 6 6 6 6 6 6 6 6 6 6 6 7 7 6 6 6 6 6 6 6 6 6 6 6 6 6 6 6 6 6 6 6 6 6 6 6 6 6 6 6 6 6 6 6 6 7 7 6 6 6 6 7 6 6 6 6 6 6 6 6 6 6 6 6 6 6 6 6 6 6 6 7 6 6 6 6 6 6 6 6 6 6 6 6 6 6 6 6 6 6 6 6 6 6 6 6 6 6 6 6 6 6 6 6 6 6 6 6 6 6 6 6 6 6 6 6 6 6 6 6 6 6 6 6 6 6 6 6 6 6 6 6 6 6 6 6 6 6 6 6 6 6 6 6 6 6 6 6 6 6 7 7 6 6 6 6 6 6 6 6 6 6 6 6 6 6 6 6 6 6 6 6 6 6 6 6 6 6 6 6 6 6 6 6 6 6 6 6 6 6 6 6 6 6 6 6 6 6 6 6 6 6 6 6 6 6 6 6 6 6 6 6 6 6 6 6 6 6 6 6 6 6 6 6 6 6 6 6 6 6 6 6 6 6 6 6 7 6 7 6 6 6 6 6 6 6 6 6 6 6 7 7 6 6 6 6 6 7 7 6 6 6 6 7 6 6 6 6 7 7 6 6 6 6 6 6 6 6 6 6 6 6 6 6 6 6 6 6 6 6 6 6 6 6 6 6 6 6 6 6 G u 6 6 6 6 6 6 6 6 6 6 6 6 6 6 6 6 6 6 6 6 6 6 6 6 6 6 6 6 6 6 6 6 6 6 6 6 6 6 6 6 6 6 6 6 6 6 6 6 6 6 6 6 6 6 6 6 6 6 6 6 6 6 6 6 6 6 6 6 6 6 6 6 6 6 6 7 7 7 7 7 2 2 2 2 2 2 2 2 2 2 7 + $ $ + $ , 2 4 S V A A Z A 0.a.f.s.9.z.6.9.9.9.A.A.Z.M.M.H.6 6 $ $ $ + T.U.                                            ",
"                                                . . . . . . 2 , A A V V m.N.G.G.W.'.oX;XNXNXd.S 4 4 6 6 u 5 i u h h m b K.K.oXOX-X-X*X*X<X<XAXBX*XOXS S B.B.. . . . 7 6 oXOXNXNXoXoXT.T.K.J.R.T.R.E.[.[.[.).).E.d.i.m Z , , , , # # . .                     2 2 $ $ # # d.h.R.R.Z.g.5.8.M B M.M.m.m.d.i.Z Z S S b m O O X X X % t Q 3.3.@.r./ @.<.<.<.<.@.@.@.@.@.@.@.@.@.@.@.@.@.@.@.@.@.@.@.@.$.$.$.$.@.@.$.$.$.$.$.$.$.$.$.$.#.#.#.#.#.#.#.#.#.#.#.#.#.#.#.#.<.<.<.<.<.<.<.<.<.<.<.<.<.<.<.<.<.<.<.<.#.#.#.#.<.<.r.r.3.3.3.e.~.D.D.K.U.U.I.B.U.U.Q.Q.B.B.H.G.U.U.U.B.U.U.S.S.B.B.B.B.B.B.B.B.B.B.B.B.U.B.B.B.B.B.U.U.U.U.B.B.S.S.S.S.Q.U.S.B.Q.S.Q.Q.U.U.U.Q.Q.Q.U.U.U.U.U.U.U.U.U.U.I.U.U.U.B.B.K.K.U.U.S.K.B.B.U.U.U.U.U.G.U.U.U.U.U.U.K.K.U.U.U.U.U.U.U.U.U.U.U.U.U.K.K.K.B.B.B.B.U.U.U.U.Q.U.U.U.B.B.U.U.Q.Q.U.U.U.U.K.K.U.I.G.I.I.U.U.U.G.G.G.G.I.I.I.G.U.U.B.B.Q.Q.U.U.U.U.B.B.B.B.K.K.U.B.B.B.U.U.I.B.U.U.I.B.B.U.U.U.U.U.U.U.B.B.K.K.U.K.B.B.U.U.U.U.B.B.U.U.U.U.Q.S.B.B.U.U.U.U.U.U.Q.U.U.U.U.U.B.B.U.U.U.U.U.U.U.U.U.U.B.B.U.U.U.U.U.U.U.B.B.B.B.U.U.U.U.U.U.U.Q.Q.U.U.U.U.U.U.U.U.I.I.U.U.U.U.U.U.I.I.I.I.I.I.I.G.U.B.B.B.B.B.B.B.U.U.B.B.B.B.B.B.U.U.Q.Q.B.B.U.K.B.Q.B.B.U.U.U.U.B.B.G.B.B.B.B.B.I.I.G.G.G.G.I.I.K.K.B.B.B.B.G.K.K.B.B.B.U.U.U.U.I.G.G.G.B.B.I.I.U.I.G.B.G.G.G.G.U.U.U.B.B.Q.Q.Q.U.Q.B.B.B.U.U.B.U.U.U.U.B.B.B.B.B.B.B.U.U.U.U.U.U.B.Q.Q.U.U.U.U.Q.B.B.B.B.B.B.U.B.U.U.U.U.U.U.B.B.U.B.B.B.B.B.B.Q.Q.S.S.B.B.U.U.Q.U.U.U.I.I.U.U.Q.U.B.B.B.B.B.B.U.U.U.U.U.U.U.U.U.U.U.U.B.B.B.B.U.U.U.U.U.U.U.B.U.U.U.U.U.U.U.U.U.U.U.U.U.U.U.U.I.U.U.U.U.I.I.I.I.I.U.U.U.U.U.U.U.S.B.B.U.U.U.Q.Q.Q.G.G.G.G.G.G.U.U.U.U.U.U.U.U.U.U.U.U.U.Q.U.U.U.U.S.S.U.U.Q.B.B.B.B.B.B.B.B.U.B.B.B.B.U.U.U.U.U.I.Q.Q.B.B.B.B.B.G.I.I.B.B.B.B.B.B.B.G.U.I.I.B.U.B.B.B.U.U.B.B.B.B.B.B.B.B.B.B.B.B.B.B.B.U.U.Q.B.B.B.B.B.B.B.B.B.B.B.U.B.B.B.B.B.B.B.B.G.G.G.I.U.U.Q.Q.B.B.B.B.B.B.B.U.B.B.B.B.B.B.B.U.U.U.U.U.B.B.B.B.U.U.U.U.U.U.B.B.U.U.U.U.U.U.U.U.U.U.U.U.U.U.U.U.U.U.U.U.U.U.U.U.B.U.U.U.B.B.B.B.Q.U.U.U.U.B.B.B.U.U.U.U.B.B.B.B.B.Q.U.U.B.B.U.U.U.U.B.B.U.U.U.U.U.U.U.U.U.U.U.U.U.U.U.U.B.B.U.U.U.U.U.U.B.U.U.U.U.U.K.U.B.Q.U.U.U.G.B.B.Q.U.U.U.I.Q.B.B.B.B.B.Q.U.U.B.B.B.B.B.B.U.U.U.U.B.B.U.U.U.B.B.B.U.U.Q.Q.S.B.B.B.B.B.B.B.B.U.U.U.Q.U.U.U.U.U.U.U.U.Q.U.U.U.U.S.K.U.U.U.U.B.B.B.B.Q.U.U.U.B.B.B.Q.U.U.U.U.U.U.U.U.U.U.U.U.U.U.S.S.B.U.U.U.K.K.K.U.U.U.U.U.U.U.U.U.U.U.U.U.U.U.I.I.K.K.K.K.U.U.U.U.U.U.U.U.U.U.U.K.I.I.U.U.I.G.G.G.B.B.B.B.G.G.G.B.B.B.B.B.B.B.B.B.B.B.B.B.V.V.# $ . . . . . . m V Z Z m V A S f.a.s.s.7.7.7.6.k.Z.Z.M.M.B.6 5 $ @ $ + U.K.                                            ",
"                                                . . . . . . 2 , V Z m V m.N.G.U.'.'.%XOXNXNXi.d.5 5 u 5 5 4 i i h h k j K.K.oXOX-X&X*XoX<X<XBXBXoX&XS d.B.B.. . + . 2 # OXOXBXNXOXOXR.T.K.H.R.K.R.E.[.[.[.E.).E.i.S V Z : , , , # # . .                     2 2 # $ # # b.h.R.R.Z.Z.5.N B m M.M.m.m.i.i.Z Z S S m m O X X X X % q I r.r.@.#.+.$.#.-.-.#.#.-.-.-.-.-.+.+.$.-.-.-.+.+.*.+.+.+.+.-.*.*.*.*.+.+.+.+.+.*.*.*.*.*.*.*.-.-.-.-.-.*.*.*.*.*.*.*.*.-.-.-.;.;.;.;.;.;.;.;.;.-.-.-.-.-.;.;.-.-.-.-.-.-.-.-.#.<.<.<./ ^ 3.e.~.L.D.S.U.U.I.G.U.U.Q.Q.K.K.H.H.U.U.U.U.U.S.S.S.U.U.Q.B.B.B.B.B.B.B.B.B.U.U.U.U.U.U.U.U.U.U.U.B.S.B.S.Q.U.U.Q.S.U.Q.Q.Q.U.U.U.U.Y.Y.U.U.U.U.U.U.U.U.U.U.U.U.U.U.K.G.K.K.U.U.U.U.B.B.U.U.U.U.U.U.B.B.U.U.U.B.B.B.U.U.U.B.B.U.U.U.U.U.S.S.B.B.B.K.U.U.B.B.B.U.U.U.Q.U.U.U.U.U.U.U.U.U.U.U.U.U.K.K.I.I.I.U.U.U.U.I.I.I.I.I.U.U.U.U.U.U.B.B.B.Q.U.U.U.U.U.B.B.B.B.K.U.U.B.G.U.U.Q.B.U.U.I.U.U.U.U.U.U.U.U.U.U.U.U.U.U.S.B.B.Q.U.U.U.B.B.U.U.U.Q.B.B.B.B.U.U.U.U.U.U.Q.U.U.U.U.U.B.B.U.U.B.B.B.U.U.U.U.U.B.B.B.U.U.U.U.U.U.U.U.B.U.U.U.U.U.U.U.U.U.U.U.U.U.U.U.U.U.U.B.G.I.I.U.U.I.I.I.I.I.G.I.I.I.I.I.B.B.S.U.U.B.B.U.U.B.U.U.Q.B.B.U.U.B.B.B.B.B.B.B.B.B.B.B.B.U.U.U.G.I.G.I.B.B.B.B.B.B.G.G.G.G.G.K.K.B.B.B.B.G.G.B.B.B.K.U.U.Q.B.G.G.B.B.B.B.I.I.U.U.I.B.G.G.G.G.U.U.B.B.B.B.B.B.U.U.B.B.Q.U.U.B.U.U.Q.U.B.B.B.B.B.B.B.B.U.U.U.U.U.U.Q.U.U.U.U.U.B.B.B.B.B.B.U.U.B.B.B.U.U.B.B.B.Q.U.U.U.B.B.U.U.Q.Q.S.B.B.B.U.U.B.B.U.U.U.U.I.I.Q.Q.B.U.U.U.U.U.U.U.U.U.U.U.U.U.U.U.U.U.U.B.B.B.U.U.U.U.U.U.U.U.U.U.U.U.U.B.B.B.U.U.U.U.U.U.U.U.I.I.U.U.I.G.I.I.B.I.I.I.I.I.U.U.U.B.B.B.U.U.U.B.Q.Q.G.G.G.G.G.G.U.U.U.U.U.U.G.G.B.U.U.U.U.Q.U.U.U.U.U.U.U.U.Q.B.B.B.B.B.B.B.B.U.U.B.B.B.B.B.U.U.B.B.Q.U.U.B.B.B.B.B.B.B.B.B.B.B.B.B.B.B.I.U.Q.B.S.B.B.B.U.Q.B.B.B.B.B.B.B.U.B.B.U.B.B.B.B.B.B.B.B.B.B.B.B.B.B.B.B.B.B.B.B.B.B.B.B.B.B.B.I.I.I.I.U.U.U.U.B.B.B.B.B.B.B.B.Q.Q.B.G.B.B.B.B.B.U.U.U.B.B.B.U.U.U.U.U.U.U.U.B.U.U.U.U.U.U.U.U.U.U.U.U.B.B.U.U.U.U.U.B.U.U.U.U.U.U.B.S.U.U.U.B.U.U.U.U.U.Q.B.B.U.U.U.B.B.B.B.B.Q.Q.U.U.B.B.B.U.U.U.B.B.U.U.U.U.U.U.U.B.B.B.U.U.U.U.U.U.B.B.U.U.U.U.U.U.B.U.U.U.U.U.U.U.B.B.U.U.U.U.B.B.Q.Q.U.U.U.Q.B.B.B.B.B.U.U.U.B.B.B.B.B.B.B.U.U.U.B.B.B.U.U.U.B.B.U.U.U.U.U.B.B.B.B.B.B.Q.U.U.B.B.Q.U.U.U.U.U.U.U.Q.Q.U.U.U.U.U.K.U.U.U.U.U.U.U.U.U.U.U.U.U.B.Q.Q.U.U.B.B.U.U.U.U.U.U.U.U.U.U.U.S.B.U.U.U.K.K.U.U.U.U.U.U.U.U.U.U.I.U.U.U.U.U.I.I.K.K.K.K.U.U.U.U.U.U.U.U.U.K.B.B.I.I.U.U.U.G.B.B.B.B.B.B.G.G.G.G.B.B.B.B.B.B.B.B.B.B.B.B.B.U.$ $ . . . . . . Z V A A m m A S f.f.s.9.2.2.4.7.C.A.A.J.V.M.4 4 $ @ $ + T.U.                                            ",
"                                                . . . . . . 4 4 A d.m V A D i.d.h.i.vXbXDXSX>X<Xu 6 4 4 5 5 u 6 b h 6 i B.K.,X;X-X-XOXoXoXoXOXOXR.R.T.E.T.R.. . . . $ +  XE.AXCX[.oX].[.K.J.K.K.J.J.J.H.d.S d.i.Z V m k , 4 # 2 # # . +                     2 2 $ $ $ # b.h.[.[.L.L.N 8.B m S d.m.m.m.m.i.i.i.i.b m # = X X % & Q I r.<.-.-.;.%.;.;.;.;.%.&.&.&.=.=.=.=.=.=.=.=.%.=.=.=.=.%.=.%.=.=.=.=.=.=.=.=.=.=.&.%.%.&.=.=.=.=.;.;.=.%.%.%.=.=.=.&.;.;.=.=.=.=.=.=.;.=.=.=.=.=.=.=.=.;.;.;.=.=.=.=.%.%.=.=.-.-.#.#.~ / 3.3.F.C.C.n.V.B.B.B.B.B.B.m.V.V.M.M.B.B.B.B.B.B.B.B.B.V.V.V.V.V.V.V.V.V.V.V.V.V.V.V.B.B.V.B.B.B.B.B.V.B.B.B.B.B.B.B.B.B.B.B.B.B.B.B.V.V.V.V.B.B.B.B.B.B.B.B.N.N.N.B.B.B.B.B.B.B.B.B.B.B.B.B.V.V.V.V.B.B.m.m.B.B.B.B.B.B.B.B.B.B.B.B.B.B.B.B.B.B.B.B.V.V.V.B.B.B.B.B.B.B.B.B.B.B.B.B.B.B.B.B.V.V.V.V.B.B.B.B.B.B.B.B.B.B.N.N.B.B.B.B.B.B.B.B.B.B.B.B.B.V.V.B.V.V.V.V.V.V.B.B.B.B.B.B.B.B.B.B.V.V.B.B.V.B.B.B.B.V.V.B.B.B.B.V.B.B.V.B.B.B.B.B.V.V.V.V.B.B.B.B.B.B.B.B.B.B.B.B.B.B.B.B.B.B.B.B.B.B.B.B.N.B.B.B.B.V.B.B.B.B.V.V.V.B.B.N.B.B.B.B.B.B.B.B.B.B.B.B.B.B.B.B.N.N.N.N.N.N.B.B.B.B.B.B.N.N.N.N.B.B.B.B.B.B.B.B.B.B.B.B.B.B.B.B.V.V.B.B.V.V.B.B.B.N.V.N.B.B.B.B.B.B.N.V.V.m.N.N.N.N.m.N.N.N.N.B.V.V.B.B.V.V.V.B.B.B.B.V.B.B.B.B.N.N.N.N.N.N.N.N.m.N.N.N.B.N.N.N.B.B.B.B.B.B.B.B.B.B.B.B.B.B.B.B.B.B.B.B.B.B.B.B.B.B.B.B.B.B.B.B.B.B.B.B.B.B.B.B.B.B.B.B.B.B.B.B.B.B.B.B.B.V.V.V.B.B.V.B.B.B.B.B.V.V.B.B.B.B.B.V.m.B.B.B.B.N.m.V.B.B.B.B.B.B.B.B.B.B.B.B.B.B.B.B.B.B.V.V.V.V.V.V.B.V.V.V.B.B.B.B.B.B.B.B.B.B.B.B.B.B.B.B.B.B.B.B.B.B.B.N.N.N.N.N.B.B.B.B.B.B.B.B.B.B.B.B.B.B.B.B.B.B.B.B.B.B.B.B.B.B.B.B.B.B.B.B.B.B.B.B.B.B.B.B.B.B.B.B.B.B.B.B.B.B.B.B.B.B.B.B.B.B.B.B.B.B.B.B.B.B.B.B.B.B.B.B.B.B.B.B.B.B.B.B.B.B.B.B.B.B.B.B.B.B.B.V.V.B.B.B.B.B.B.B.B.B.V.V.V.V.V.B.B.B.B.B.B.B.B.B.B.B.B.B.B.B.B.B.B.B.B.B.V.V.m.m.N.N.B.B.B.B.B.B.B.B.B.B.B.B.B.B.B.B.B.B.B.B.B.B.B.B.B.B.B.B.B.B.B.B.B.B.B.B.B.B.B.B.B.B.B.B.B.B.B.B.B.B.B.B.B.B.B.B.B.B.B.B.B.B.B.B.B.B.B.B.B.B.B.B.B.B.B.B.B.B.B.B.B.B.B.B.B.B.B.B.B.B.B.B.B.B.B.B.B.B.B.B.B.B.B.B.B.B.B.B.B.B.B.B.B.B.B.B.B.B.B.B.B.B.B.B.B.B.B.B.B.B.B.B.B.B.B.m.V.V.B.B.B.B.B.B.B.B.B.B.B.B.B.B.V.m.B.B.B.B.B.B.B.B.B.B.B.B.B.B.B.B.B.B.V.B.B.B.B.B.V.V.V.B.B.B.B.B.B.B.V.B.B.B.B.B.B.B.B.B.B.B.B.B.B.B.B.B.B.B.B.B.B.B.B.B.B.B.B.B.B.B.B.B.B.B.B.B.B.B.B.B.B.B.B.B.B.B.B.B.B.B.B.B.B.B.B.B.B.B.B.B.B.B.B.B.B.B.B.B.B.B.B.B.B.B.B.B.B.B.B.B.B.B.B.B.B.B.B.B.B.B.N.N.m.N.N.N.N.N.N.N.V.V.V.V.V.V.V.V.N.V.V.b.B.B.# # . . . . + @ Z Z A A Z m d.d.S a.4.5.x 7.4.5.s.s.a.d.m.b.4 7 $ $ . . B.B.                                            ",
"                                                . . . . . . 4 4 Z S m V S p.m.N.m.d.vXvXDXDXvX:Xi i 5 5 5 5 5 5 j h i f M.H.,X,X-X-XoXoXoXOX*X*XR.R.W.E.T.R.. . . . # 8 E.E.CXCX.X.XXX[.M.M.K.E.K.T.M.M.h.i.i.Z m m V m , , # , # $ . +                     2 2 $ $ $ # d.h.E.E.J.J.N 8.M Z d.d.m.m.M.N.i.i.i.i.b m O * X X % & Q U r.<.;.;.&.&.eXrX=.&.&.&.6X6XX.&.6X&.X.&.X.&.X.&.eX&.eX&.&.eXeXeXeXeXeXX.X.X.X.X.X.X.X.X.X.X.&.&.&.&.&.&.&.&.&.&.&.&.&.&.&.&.&.&.&.&.=.&.&.&.&.&.&.&.=.&.eX=.=.rXrXrX&.=.&.&.=.*.-.#.O./ r.3.F.C.C.V.V.B.B.N.B.B.B.m.V.V.V.V.B.B.B.B.B.B.B.B.B.B.V.V.V.V.m.B.B.B.B.N.B.B.B.B.B.B.B.B.B.B.B.B.B.B.B.B.B.B.B.B.B.B.B.B.B.B.B.B.B.B.B.B.B.B.B.B.B.B.B.B.B.B.B.B.B.B.B.B.B.B.B.B.B.B.B.B.B.B.V.B.B.B.B.B.B.B.B.B.B.B.B.B.B.B.B.B.B.B.B.B.B.B.B.B.B.B.B.B.B.B.B.B.B.B.B.B.B.B.B.B.B.B.B.B.V.V.V.V.m.m.N.N.N.N.N.N.B.B.B.B.B.B.B.B.B.B.B.B.B.B.B.B.B.B.B.B.V.V.V.V.B.B.B.B.B.B.B.B.B.B.B.B.B.V.B.B.B.B.B.B.B.B.B.B.B.B.B.B.B.B.B.B.B.B.B.B.B.B.B.B.B.B.B.B.B.B.B.B.B.B.B.B.B.B.B.B.B.B.B.B.B.B.B.B.B.B.B.B.B.B.B.B.B.B.B.B.B.B.B.B.B.B.B.B.B.B.B.B.B.B.B.B.B.B.B.B.B.B.B.B.B.B.B.B.B.B.B.B.B.B.B.B.B.B.B.B.B.B.B.B.B.B.B.B.B.B.B.B.B.B.B.B.B.B.B.B.N.N.m.N.B.B.B.B.B.B.B.N.N.N.B.B.N.B.B.B.B.B.B.B.V.B.B.B.V.V.V.B.B.B.B.B.B.B.B.B.B.B.B.B.B.B.B.B.B.B.B.B.B.B.B.B.B.B.B.B.B.B.B.B.B.B.B.B.B.B.B.B.B.B.B.B.B.B.B.B.B.B.B.B.B.B.B.B.B.B.B.B.B.B.B.B.B.B.B.B.B.B.B.B.B.B.B.B.B.B.B.B.B.B.B.B.B.B.B.B.B.B.B.B.B.B.V.V.B.B.B.B.B.N.m.V.B.B.B.B.B.B.B.B.B.B.B.B.B.B.B.B.B.B.B.B.B.B.B.B.B.B.m.B.B.B.B.B.B.B.B.B.B.B.B.B.B.B.B.B.B.B.B.B.B.B.B.B.B.B.B.B.B.B.B.B.B.B.B.B.B.B.B.B.B.B.B.B.B.B.N.B.B.B.B.B.B.B.B.B.B.B.B.B.B.B.B.B.B.B.B.B.B.B.B.B.B.B.B.B.B.B.B.B.B.B.B.B.B.B.B.B.B.B.B.B.B.B.B.B.B.B.B.B.B.B.B.B.B.B.B.B.B.B.B.B.B.B.B.B.B.B.B.B.B.B.B.B.B.B.B.B.B.B.m.V.B.B.B.B.B.B.B.B.B.B.B.B.B.B.B.B.B.B.B.B.B.B.B.B.N.N.N.B.B.B.B.B.B.B.B.B.B.B.B.B.B.B.B.B.B.B.B.B.B.B.B.B.B.B.B.B.B.B.B.B.B.B.B.B.B.B.B.B.B.B.B.B.B.B.B.B.B.B.B.B.B.B.B.B.B.B.B.B.B.B.B.B.B.B.B.B.B.B.B.B.B.B.B.B.B.B.B.B.B.B.B.B.B.B.B.B.B.B.B.B.B.B.B.B.B.B.B.B.B.B.B.B.B.B.B.B.B.B.B.B.B.B.B.B.B.B.B.B.B.B.B.B.B.B.B.B.B.B.B.B.B.B.B.B.B.B.B.B.B.B.B.B.B.B.B.B.B.B.B.B.B.B.B.B.B.B.B.B.B.B.B.B.B.B.B.B.B.B.B.B.B.B.V.V.B.B.B.B.B.B.B.B.B.B.B.B.B.B.B.B.B.B.B.B.B.B.B.B.B.B.B.B.B.B.B.B.B.B.B.B.B.B.B.B.B.B.B.B.B.B.B.B.B.B.B.B.B.B.B.B.B.B.B.B.B.B.B.B.B.B.B.B.B.B.B.B.B.B.B.B.B.B.B.B.B.B.B.B.B.B.B.B.B.B.B.B.B.B.B.B.B.B.B.B.B.B.B.B.B.B.N.N.B.B.B.B.B.N.B.B.B.B.V.V.B.B.B.V.V.V.V.V.B.B.# # . . . . . @ Z Z Z A Z m d.d.d.a.5.8.x 4.4.5.s.f.a.i.b.b.7 7 $ $ + . B.B.                                            ",
"                                                . . . . . . 2 2 S S m b m b Z Z V Z ,XbXNXNX-X*Xi i f h h j k m i h b m B.m.XX.XXX[.].R.T.K.B.V.B.K.E.E.R.T.. . $ # 2 7 # # 7 4 S S OX;X;X<XvX<XXX[.i 5 O o # # b m A Z 4 2 # , # $ . .                     2 2 $ $ $ # d.d.R.T.Z.Z.M M j j j j A A m.m.p.p.i.p.m m # * X % % & Q U t.;.=.&.6X6X6XeXrXeXeX6XeX6XeXeXtXeXrXeX6XeXeXeXeXeX6XeXeXeXeXeXeXeXeX6X6X6X6X6X6X6X6X6X6X6XeXeXeXeXeXeXeXeXeXrXrXrXrXrXrXrXeXrXyXrXyXrXrXrXyXrXyXrXyXrXrXeXeXeXeXeXeXeXeXeX&.=.*.$.O./ r.3.F.F.C.n.B.B.B.N.B.B.B.B.V.B.V.M.B.B.B.B.B.B.B.B.B.B.B.B.B.B.B.B.B.B.B.B.B.B.B.B.B.B.B.B.B.B.B.B.B.B.B.B.B.B.B.B.B.B.B.B.B.B.B.B.B.B.B.B.B.B.B.B.B.B.B.B.B.B.B.B.B.B.B.B.B.B.B.B.B.B.B.B.B.B.B.B.B.B.B.B.B.B.B.B.B.B.B.B.B.B.B.B.B.B.B.B.B.B.B.B.B.B.B.B.B.B.B.B.B.B.B.B.B.B.B.B.B.B.B.B.V.B.B.B.B.B.B.B.G.B.B.G.B.B.B.B.B.B.B.B.B.B.B.B.B.B.B.B.B.B.B.V.B.B.B.B.B.B.B.B.B.B.B.B.V.B.B.B.V.V.V.V.B.B.B.B.B.B.B.B.V.V.B.B.B.B.B.B.B.B.B.B.B.B.B.B.B.B.B.B.B.B.B.B.B.B.B.B.B.B.B.B.B.B.B.B.B.B.B.B.B.B.B.B.B.B.B.B.B.B.B.B.B.B.B.B.B.B.B.B.B.B.B.B.B.B.B.B.B.B.B.B.B.B.B.B.B.B.B.B.B.B.B.B.B.B.B.B.B.B.B.B.B.B.B.B.B.B.B.B.B.B.B.B.B.B.B.B.B.B.B.B.B.B.B.B.B.B.B.B.B.B.B.B.B.B.B.B.B.B.B.B.B.B.B.B.B.B.B.B.B.B.B.B.B.B.B.B.B.B.B.B.B.B.B.B.B.B.B.B.B.B.B.B.B.B.B.B.B.B.B.B.B.B.B.B.B.B.B.B.B.B.B.B.B.B.B.B.B.B.B.B.B.B.B.B.B.B.B.B.B.B.B.B.B.B.B.B.B.B.B.B.B.B.B.B.B.B.B.B.B.B.B.B.B.B.B.B.B.B.B.B.B.B.B.B.B.B.B.B.B.B.B.B.B.B.B.B.B.B.B.B.B.B.B.B.B.B.B.B.B.B.B.B.B.B.B.B.B.B.B.B.B.B.B.B.B.B.B.B.B.B.B.B.B.B.B.B.B.B.B.B.B.B.B.B.B.B.B.B.B.B.B.B.B.B.B.B.B.B.B.B.B.B.B.B.B.B.B.B.B.B.B.B.B.B.B.B.B.B.B.B.B.B.B.B.B.B.B.B.B.B.B.B.B.B.B.B.B.B.B.B.B.B.B.B.B.B.B.B.B.B.B.B.B.B.B.B.B.B.B.B.B.B.B.B.B.B.B.B.B.B.B.B.B.B.B.B.B.B.B.B.B.B.B.B.B.B.B.B.B.B.B.B.B.B.B.B.B.B.B.B.B.B.B.B.B.B.B.B.B.B.B.B.B.B.B.B.B.B.B.B.B.B.B.B.B.B.B.B.B.B.B.B.B.B.B.B.B.B.B.B.B.B.B.B.B.B.B.B.B.B.B.B.B.B.B.B.B.B.B.B.B.B.B.B.B.B.B.B.B.B.B.B.B.B.B.B.B.B.B.B.B.B.B.B.B.B.B.B.B.B.B.B.B.B.B.B.B.B.B.B.B.B.B.B.B.B.B.B.B.B.B.B.B.B.B.B.B.B.B.B.B.B.B.B.B.B.B.B.B.B.B.B.B.B.B.B.B.B.B.B.B.B.B.B.B.B.B.B.B.B.B.B.B.B.B.B.B.B.B.B.B.B.B.B.B.B.B.B.B.B.B.B.B.B.B.B.B.B.B.B.B.B.B.B.B.B.B.B.B.B.B.B.B.B.B.B.B.B.B.B.B.B.B.B.B.B.B.B.B.B.B.B.B.B.B.B.B.B.B.B.B.B.B.B.B.B.B.B.B.B.B.B.B.B.B.B.B.B.B.B.B.B.B.B.B.B.B.B.B.B.B.B.B.B.B.B.B.B.B.B.B.B.B.B.B.B.B.B.B.B.B.B.B.B.B.B.G.B.B.B.B.B.B.B.B.B.B.B.B.B.B.B.B.B.B.B.B.B.B.B.B.B.B.B.B.B.B.B.B.B.B.B.B.B.B.B.B.B.B.B.B.B.B.N.V.V.B.B.B.B.8 8 . . . . . + Z Z i.S m k V Z B.J.g.g.M M x x N B d.i.b.i.4 7 $ $ + . B.B.                                            ",
"                                                . . . . . . 2 4 S S m m V b i.p.Z p.nXnXAXNX&X-Xi i h j j k j j f h b b V.V..XoX[.[.].E.E.T.K.M.B.B.[. XE.T.# + # $ 6 7 # $ 6 7 S V ;X;X*X,XvXvX XoX4 6 : # O . j k Z Z 2 2 # , $ $ . .                     2 2 $ O @ O d.d.K.L.g.f.M M z z m m Z Z m.M.p.p.i.p.m m O * X % % & ! Y t.;.rXeX6X7X7X6XeX6XeX6X5X7X7XtXtXtX7X7X7X7X7X7X7X9X9X9X9X7X7X7X7XeXeX6X6X6X6X6X6X6X6X6X6X6X6X6X6X6X6X6XeXeXeXeXeXeXeXeXeXeXeXeXeXtXtXtXeXeXyXyXyXyXtXeXeXeXtXtXeXeXeXeXeXeX6X=.=.;.$.@.r.e.F.F.C.n.B.B.B.B.B.B.B.B.B.B.M.M.B.B.B.B.B.B.B.B.B.B.B.B.B.B.B.B.B.B.B.B.B.B.B.B.B.B.B.B.B.B.B.B.B.B.B.B.B.B.B.B.B.B.B.B.B.B.B.B.B.B.B.B.B.B.B.B.B.B.B.B.B.I.I.I.B.B.B.B.B.B.B.B.B.B.B.B.B.B.B.B.B.B.B.B.B.B.B.B.B.B.B.B.B.B.B.B.B.B.B.B.B.B.B.B.B.B.B.B.B.B.B.B.Q.Q.B.B.B.B.B.B.B.B.B.B.B.B.B.B.B.B.B.B.B.B.B.B.B.B.B.B.B.B.B.B.B.B.B.B.B.B.B.B.B.B.B.B.B.B.B.B.B.B.B.B.B.B.B.B.B.B.B.B.B.B.B.V.B.B.B.B.B.B.B.B.B.B.B.B.B.B.B.B.B.B.B.B.B.B.B.B.B.B.B.B.B.B.B.B.B.B.B.B.B.B.B.B.B.B.B.B.B.B.B.B.G.B.B.B.B.B.B.B.B.B.B.B.B.B.B.B.B.B.B.B.B.B.B.B.B.B.B.B.B.B.B.B.B.B.B.B.B.B.B.B.B.B.B.B.B.B.B.B.B.B.B.B.B.B.B.B.B.B.B.B.B.B.B.B.B.B.B.B.B.B.B.B.B.B.B.B.B.B.B.B.B.B.B.B.B.B.B.B.B.B.B.B.B.B.B.B.B.B.B.B.B.B.B.B.B.B.B.B.B.B.B.B.B.B.B.B.B.B.B.B.B.B.B.B.B.B.B.B.B.B.B.B.B.B.B.B.B.B.B.B.B.B.B.B.B.B.B.B.B.B.B.B.B.B.B.B.B.B.B.B.B.B.B.B.B.B.B.B.B.B.B.B.B.B.B.B.B.B.B.B.B.B.B.B.B.B.B.B.B.B.B.B.B.B.B.B.B.B.B.B.B.B.B.B.B.B.B.B.B.B.B.B.B.B.B.B.B.B.B.B.B.B.B.B.B.B.B.B.B.B.B.B.B.B.B.B.B.B.B.B.B.B.B.B.B.B.B.B.B.B.B.B.B.B.B.B.B.B.B.B.B.B.B.B.B.B.B.B.B.B.B.B.B.B.B.B.B.B.B.B.B.B.B.B.B.B.B.B.B.B.B.B.B.B.B.B.B.B.B.B.B.B.B.B.B.B.B.B.B.B.B.B.B.B.B.B.B.B.B.B.B.B.B.B.B.B.B.B.B.B.B.B.B.B.B.B.B.B.B.B.B.B.B.B.B.B.B.B.B.B.B.B.B.B.B.B.B.B.B.B.B.B.B.B.B.B.B.B.B.B.B.B.B.B.B.B.B.B.B.B.B.B.B.B.B.B.B.B.B.B.B.B.B.B.B.B.B.B.B.B.B.B.B.B.B.B.B.B.B.B.B.B.B.B.B.B.B.B.B.B.B.B.B.B.B.B.B.B.B.B.B.B.B.B.B.B.B.B.B.B.B.B.B.B.B.B.B.B.B.B.B.B.B.B.B.B.B.B.B.B.B.B.B.B.B.B.B.B.B.B.B.B.B.B.B.B.B.B.B.B.B.B.B.B.B.B.B.B.B.B.B.B.B.B.B.B.B.B.B.B.B.B.B.B.B.B.B.B.B.B.B.B.B.B.B.B.B.B.B.B.B.B.B.B.B.B.B.B.B.B.B.B.B.B.B.B.B.B.B.B.B.B.B.B.B.B.B.B.B.B.B.B.B.B.B.B.B.B.B.B.B.B.B.B.B.B.B.B.B.B.B.B.B.B.B.B.B.B.B.B.B.B.B.B.B.B.B.B.B.B.B.B.B.B.B.B.B.B.B.B.B.B.B.B.B.B.B.B.B.B.B.B.B.B.B.B.B.B.B.B.B.B.B.B.B.B.B.B.B.B.B.B.B.B.B.B.B.B.B.B.B.B.B.B.B.B.B.B.G.G.B.B.B.B.B.B.B.B.B.B.B.B.B.B.B.B.B.B.B.B.B.B.B.B.B.B.B.B.B.B.B.B.B.B.B.B.B.B.B.B.B.B.B.B.B.N.V.m.B.B.B.B.2 2 . . . . . . Z Z A A m V A A K.J.Z.Z.M M c M C M d.i.m.b.7 4 $ + + . B.B.                                            ",
"                                                . . . . . . 4 4 S S Z Z S A H.H.M.m.:X-XNXAX].}.j h m m Z A m m f h m V b.S S V S A Z V V Z Z V V m Z V k V 5 6 7 6 2 6 . + . . k k ZXCXVXMXVXVXnXVX5 5 o @ # : h h V V , , # # $ $ . .                     2 2 $ O . O d.d.K.Z.s.0.N M z z B m i.i.M.H.p.D i.D m m O * X % % 9 R J t.;.rX7X7X0X9X9X6X6X5X5X5X5X9X7X7X7X9X9X9X9X7X8X7X7X7X7X0X0X9X9X7X7X7X7X9X9X5X6X9X6X7X6X9X6X6X6X6X6X6X6X6X7X6X6X6X6X6X6X6X6X5X5X5X5X6X6X6X6X6X6X5X5X5X5X5X5X6X6X6X6X5X5X5X6X6X6Xo.*.| ~ r.e.F.F.C.C.B.B.B.B.B.B.B.B.B.B.V.M.B.B.B.B.B.B.B.B.B.B.B.B.B.B.B.B.B.B.B.B.B.B.B.B.B.B.B.B.B.B.B.B.B.B.B.B.B.B.B.B.B.B.B.B.B.B.B.B.B.B.B.B.B.B.B.B.B.B.B.B.B.B.G.B.B.B.B.B.B.B.B.B.B.B.B.B.B.B.B.B.B.B.B.B.B.B.B.B.B.B.B.B.B.B.B.B.B.B.B.B.B.B.B.B.B.B.B.B.B.B.B.B.B.B.B.B.B.B.B.B.B.B.B.B.B.B.M.B.B.B.B.B.B.B.B.B.B.B.B.B.B.B.B.B.B.B.B.B.B.B.B.B.B.B.B.V.V.B.M.M.B.B.B.B.B.B.B.B.B.B.B.B.B.B.V.B.B.B.B.B.B.B.B.B.B.B.B.B.B.B.B.B.B.B.B.B.B.B.B.B.B.B.B.B.B.B.B.B.B.B.B.B.B.B.B.B.B.B.B.B.B.B.B.B.B.B.B.B.B.B.B.B.B.B.B.B.B.B.B.B.B.B.B.B.B.B.B.B.B.B.B.B.B.B.B.B.B.B.B.B.B.B.B.B.B.B.B.B.B.B.B.B.B.B.B.B.B.B.B.B.B.B.B.B.B.B.B.B.B.B.B.B.B.B.B.B.B.B.B.B.B.B.B.B.B.B.B.B.B.B.B.B.B.B.B.B.B.B.B.B.B.B.B.B.B.B.B.B.B.B.B.B.B.B.B.B.B.B.B.B.B.B.B.B.B.B.B.B.B.B.B.B.B.B.B.B.B.B.B.B.B.B.B.B.B.B.B.B.B.B.B.B.B.B.B.B.B.B.B.B.B.B.B.B.B.B.B.B.B.B.B.B.B.B.B.B.B.B.B.B.B.B.B.B.B.B.B.B.B.B.B.B.B.B.B.B.B.B.B.B.B.B.B.B.B.B.B.B.B.B.B.B.B.B.B.B.B.B.B.B.B.B.B.B.B.B.B.B.B.B.B.B.B.B.B.B.B.B.B.B.B.B.B.B.B.B.B.B.B.B.B.B.B.B.B.B.B.B.B.B.B.B.B.B.B.B.B.B.B.B.B.B.B.B.B.B.B.B.B.B.B.B.B.B.B.B.B.B.N.N.N.N.B.B.B.B.B.B.B.B.B.B.B.B.B.B.B.B.B.B.B.B.B.B.B.B.B.B.B.B.B.B.B.B.B.B.B.B.B.B.B.B.B.B.B.B.B.B.B.B.B.B.B.B.B.B.B.B.B.B.B.B.B.B.B.B.B.B.B.B.B.B.B.B.B.B.B.B.B.B.B.B.B.B.B.B.B.B.B.B.B.B.B.B.B.B.B.B.B.B.B.B.B.B.B.B.B.B.B.B.N.N.N.N.B.B.B.B.B.B.B.B.B.B.B.B.B.B.B.B.B.B.B.B.B.B.B.N.B.B.B.B.B.B.B.N.B.B.B.B.B.B.B.B.B.B.B.B.B.B.B.B.B.B.B.B.B.B.B.B.B.B.B.B.B.B.B.B.B.B.B.B.B.B.B.B.B.B.B.B.B.B.B.B.B.B.B.B.B.B.B.B.B.B.B.B.B.B.B.B.B.B.B.B.B.B.B.B.B.B.B.B.B.B.B.B.B.B.B.B.B.B.B.B.B.B.B.B.B.B.B.B.B.B.B.B.B.B.B.B.B.B.B.B.B.B.B.B.B.B.B.B.B.B.B.B.B.B.B.B.B.B.B.B.B.B.B.B.B.B.B.B.B.B.B.B.B.B.B.B.B.B.B.B.B.B.B.B.B.B.B.B.B.B.B.B.B.B.B.B.B.B.B.B.B.B.B.B.B.B.B.B.B.B.B.B.B.B.B.B.B.B.B.B.B.B.B.B.B.B.B.B.B.B.B.B.B.B.B.B.B.B.B.B.B.B.B.B.B.B.B.B.B.B.B.B.B.B.B.B.B.B.B.B.B.B.B.B.B.B.B.B.B.B.B.B.B.B.B.B.B.B.B.B.B.B.B.B.B.B.B.B.B.B.B.B.B.B.V.V.V.V.B.V.B.B.# 2 . . . . + + V V A A m Z i.S K.J.M.M.M M c m 8.S b.b.N.m.4 2 + + . . B.B.                                            ",
"                                                . . . . . . 4 2 S S A V A Z H.H.M.H.,X:XCXAXR.[.h h m V A S m b h h h k A b.A A S S A A Z Z V V k m A A V k f 6 6 i 7 5 . . . . f h ZXCXVXVXVXNXnXVX4 5 # # # , j j Z Z # # # # O $ . .                     2 2 X O . O S p.L.J.8.5.M n z z c m i.i.m.m.D D p.D m m O * % % % 9 R J t.aXyXtX0X0X7X7X7X7X7X7X0X0X0X0XqX0X0X7X0X0X9X9X9X9X9X9X9X7X7X8X0X8X0X7X7X7X9X7X7X7X7X7X7X7X7X7X7X7X7X7X8XtX7X7X7X7X7X7X7X7X7X7X7X7X7X7X7X7X7X7X7X7X9X7X7X7X9X9X9X9X5X5X5X9X6X6X&.*.| O.r.y.!.F.C.C.B.B.B.B.B.B.B.B.B.B.V.V.B.B.B.B.B.B.B.B.B.B.B.B.B.B.B.B.B.B.B.B.B.B.B.B.B.B.B.B.B.B.B.B.B.B.B.B.B.B.B.B.B.B.B.B.B.B.B.B.B.B.B.B.B.B.B.B.B.B.B.B.B.B.B.B.B.B.B.B.B.B.B.B.B.B.B.B.B.B.B.B.B.B.B.B.B.B.B.B.B.B.B.B.B.B.B.B.B.B.B.B.B.B.B.B.B.B.B.B.B.B.B.B.B.B.B.B.B.B.B.B.B.B.B.B.V.V.M.M.B.B.B.B.B.B.B.B.B.B.B.B.B.B.B.B.B.B.B.B.B.B.B.B.B.B.B.V.V.V.V.V.B.B.B.B.B.V.B.B.B.B.V.B.B.B.V.V.B.V.V.B.B.B.B.V.B.B.B.B.B.B.B.B.B.B.B.B.B.B.B.B.B.B.B.B.B.B.B.B.B.B.B.B.B.B.B.B.B.B.B.B.B.B.B.B.B.B.B.B.B.B.B.B.B.B.B.B.B.B.B.B.B.B.B.B.B.B.B.B.B.B.B.B.B.B.B.B.B.B.B.B.B.B.B.B.B.B.B.B.B.B.B.B.B.B.B.B.B.B.B.B.B.B.B.B.B.B.B.B.B.B.B.B.B.B.B.B.B.B.B.B.B.B.B.B.B.N.B.B.B.B.B.B.B.B.B.B.B.B.B.B.V.B.B.B.B.B.B.B.B.B.B.B.B.B.B.B.B.B.B.B.B.B.B.B.B.B.B.B.B.B.B.B.B.B.B.B.B.B.B.B.B.B.B.B.B.B.B.B.B.B.B.B.B.B.B.B.B.B.B.B.B.B.B.B.B.B.B.B.B.B.B.B.B.B.B.B.B.B.B.B.B.B.B.B.B.B.B.B.B.B.B.B.B.B.B.B.B.B.B.V.B.B.B.B.B.B.B.B.B.B.B.B.B.B.B.B.B.B.B.B.B.B.B.B.B.B.B.B.B.B.B.B.B.B.B.B.B.B.B.B.B.B.B.B.B.B.B.B.B.B.B.B.B.B.B.B.B.B.B.B.B.B.B.B.B.B.B.B.B.B.B.B.B.B.B.B.B.B.B.B.B.B.B.B.B.B.B.B.N.N.B.N.B.B.B.B.B.B.B.B.B.B.B.B.B.B.B.B.B.B.B.B.B.B.B.B.B.B.B.B.B.B.B.B.B.B.B.B.B.B.B.B.B.B.B.B.B.B.B.B.B.B.B.B.B.B.B.B.B.B.B.B.B.B.B.B.B.B.B.B.B.B.B.B.B.B.B.B.B.B.B.B.B.B.B.B.B.B.B.B.B.B.B.B.B.B.B.B.B.B.B.B.B.B.B.B.B.B.B.B.N.N.N.N.B.B.B.B.B.B.B.B.B.B.B.B.B.B.B.B.B.B.B.B.B.B.N.N.B.B.B.B.B.B.N.N.B.B.B.B.B.B.B.B.B.B.B.B.B.B.B.B.B.B.B.B.B.B.B.B.B.B.B.B.B.B.B.B.B.B.B.B.B.B.B.B.B.B.B.B.B.B.B.B.B.B.B.B.B.B.B.B.B.B.B.B.B.B.B.B.B.B.B.B.B.B.B.B.B.B.B.B.B.B.B.B.B.B.B.B.B.B.B.B.B.B.B.B.B.B.B.B.B.B.B.B.B.B.B.B.B.B.B.B.B.B.B.B.B.B.B.B.B.B.B.B.B.B.B.N.V.V.B.B.B.B.B.B.B.B.B.B.B.B.B.B.B.B.B.B.N.B.B.B.B.B.B.B.N.N.B.B.B.B.B.B.B.B.B.B.B.B.B.B.B.B.B.B.B.B.B.B.B.B.B.B.B.B.B.B.B.B.B.B.B.B.B.B.B.B.B.B.M.M.B.M.B.B.B.B.B.N.B.B.B.B.B.B.B.B.B.B.B.B.B.B.B.B.B.B.B.B.B.B.B.B.B.B.V.B.B.B.V.V.B.B.B.B.B.B.B.B.B.B.B.B.B.B.B.B.N.N.B.B.B.B.V.V.V.V.V.V.B.V.B.B.# 2 . . . . + + V V S A m V d.d.K.K.H.H.A C m B Z A m.m.B.m.7 2 . . . . B.B.                                            ",
"                                                . . . . . . 4 2 A Z A V i.S R.R.R.R..X[.OX-X-XnXCXNXZXCXCXCXnXvXVXnX>X;XE.R.V k h j m V m m m b k k k k k V B.K.,X,XB.V.. . . . k h BXBXMXBXMXMXvXvX4 4 . . . . m c S S # # # # O O . .                     8 2 + O O O A A L.L.M 4.q.9.9.s.0.a.b.b.m.b.p.p.i.i.m m O * % % & 9 R J t.rXyXuX0X0X7X7XuXuXuXuXuXiXiXiXsXiXiXiXiXiXiXiXiXfXsXiXsXfXiXuXiXuXuXqXqX0X7X8X8X8XuXuXuXuXuXuXuXuXuXuXuXuXuXuXuXuXuXuXuXuXuXuXuXuXuXuXuXuXuXuXuXuXuXuXuXuXuXuXuXuXuXuXuXuXgXdXaXaX1.<.y.y.F.F.C.C.B.B.B.B.B.B.B.B.B.B.M.M.B.B.B.B.B.B.B.B.B.B.B.B.B.B.B.B.B.B.B.B.B.B.B.B.B.B.B.B.B.B.B.B.B.B.B.B.B.B.B.B.B.B.B.B.B.B.B.B.B.B.B.B.B.B.B.B.B.B.B.B.B.B.B.B.B.B.B.B.B.B.B.B.B.B.B.B.B.V.V.V.B.B.B.B.B.B.B.B.B.B.B.B.B.B.B.B.B.B.B.B.B.B.B.B.B.B.B.B.B.B.B.B.B.B.B.B.B.B.B.B.B.B.B.B.B.B.M.M.B.B.B.N.N.N.N.N.B.B.B.B.B.B.B.B.B.B.B.B.B.B.B.B.B.B.B.B.V.V.M.M.B.B.V.B.V.V.V.V.V.V.V.V.V.B.V.V.V.V.V.V.B.B.B.B.B.B.B.B.B.B.B.B.B.B.B.B.B.B.B.B.B.B.B.B.B.B.B.B.B.B.B.B.B.B.B.B.B.B.B.B.B.B.B.B.B.B.B.B.N.B.N.N.B.B.B.B.B.B.B.B.B.B.B.B.B.B.B.B.B.B.B.B.B.B.B.B.B.B.B.B.B.B.B.B.B.B.B.B.B.B.B.B.B.B.B.B.B.B.B.B.B.B.B.B.B.V.B.B.B.B.N.B.B.B.B.B.B.B.B.B.B.B.B.B.B.B.B.N.B.B.B.N.N.N.B.B.B.B.B.B.V.V.V.V.V.V.V.B.B.B.B.B.B.B.B.B.N.N.B.B.B.B.B.B.B.B.B.B.B.B.B.B.B.B.B.B.B.B.B.B.B.B.B.B.B.B.B.B.B.B.B.B.B.B.B.B.B.B.B.B.B.B.B.B.B.B.B.B.B.B.B.B.B.B.B.B.B.B.B.B.B.B.B.B.B.B.B.B.B.V.B.B.B.B.B.B.B.B.B.B.B.B.B.B.B.B.B.B.B.B.B.B.B.B.B.B.B.B.B.B.B.B.B.B.B.B.B.B.B.B.B.B.B.B.B.B.B.B.B.B.B.B.B.B.B.B.B.B.N.B.B.B.B.B.B.B.B.B.B.B.B.B.B.B.B.B.B.B.B.B.B.B.B.B.B.B.B.B.B.B.B.B.B.B.B.B.B.B.B.B.B.B.B.B.B.B.B.B.B.B.B.B.B.B.B.B.B.B.B.B.B.B.B.B.B.B.B.B.B.B.B.B.B.B.B.B.B.B.B.B.B.B.B.B.B.B.B.B.B.B.B.B.B.B.B.B.B.B.B.B.B.B.B.B.B.B.B.B.B.B.B.B.B.B.B.B.B.B.B.B.B.B.B.B.B.B.B.B.B.B.B.B.B.B.B.B.B.B.B.B.B.B.B.B.B.B.B.B.N.N.N.N.N.N.B.B.B.B.B.B.B.B.B.B.B.B.B.B.B.B.B.B.B.B.B.B.B.B.B.B.B.B.B.B.B.B.B.B.B.B.B.B.B.B.B.B.B.B.B.B.B.B.B.B.B.B.B.B.B.B.B.B.B.B.B.B.B.B.B.B.B.B.B.B.B.N.N.N.B.B.B.B.B.B.B.B.B.B.B.B.B.B.B.B.B.B.B.B.B.B.B.B.B.B.B.B.B.B.B.B.B.B.B.B.B.B.B.B.B.B.B.B.B.B.B.B.B.B.B.B.B.B.B.B.B.B.B.B.B.B.B.B.B.B.B.B.B.B.B.B.B.B.B.B.B.B.B.B.B.V.B.B.B.B.B.B.B.B.B.B.B.B.B.B.B.B.B.B.B.B.B.B.B.B.B.B.B.N.N.B.B.B.N.N.B.B.B.B.B.B.B.B.B.B.B.B.B.B.B.B.B.B.B.B.B.B.B.B.B.B.B.B.B.B.B.B.B.B.V.V.V.V.V.V.V.V.B.B.B.B.B.B.B.B.B.B.B.B.B.B.B.B.B.B.B.B.B.B.B.B.B.B.B.B.B.B.B.B.B.B.B.B.B.B.B.B.B.B.B.B.B.B.B.B.B.B.B.B.B.N.N.N.m.V.V.N.N.N.m.V.B.V.B.B.B.B.2 2 . . . . + + Z V V Z Z A H.H.H.H.K.U.b.b.A S h.b.m.m.B.m.7 2 + + . . B.B.                                            ",
"                                                . . + + . . 4 2 A V A m S S E.R.R.R.[.{.oXOX,X,XNXNXZXZXCXCXvXnXVXnX*X*XT.R.V m b m m m m m m m h k h k k k K.K.<X,XB.B.. . . . h h BXBXMXBXBXBXnX<X, , . o . . m m d.S # $ # # O O . .                     # # . O # o Z N J.P.M 4.8.9.f.s.0.C V.V.b.d.S A p.i.m m O * % % & 9 ! J t.lXaXuXqX0X9X0XuXpXpXpXiXiXiXsXsXsXsXsXsXsXiXiXiXiXiXiXiXiXfXsXsXiXuXqXqX0X0X0X8X8X8XuXuXuXqXuXiXiXiXiXuXiXuXiXiXuXuXuXiXuXuXuXuXuXuXuXuXuXuXuXuXuXuXuXuXuXuXuXuXuXuXuXuXuXdXgXaXaX1.t.y.y.!.F.C.C.V.B.B.B.B.B.B.B.B.B.M.B.B.B.B.B.B.B.B.B.B.B.B.B.B.B.B.B.B.B.B.B.B.B.B.B.B.B.B.B.B.B.B.B.B.B.B.B.B.B.B.B.B.B.B.B.B.B.B.B.B.B.B.B.B.B.B.B.B.B.B.B.B.B.B.B.B.B.B.B.B.B.B.B.B.B.B.B.B.V.V.V.B.B.B.B.B.B.B.B.B.B.B.B.B.B.B.B.B.B.B.B.B.B.B.B.B.B.B.B.B.B.B.B.N.B.B.B.B.B.B.B.B.B.B.B.B.B.B.B.B.B.B.B.B.N.N.N.B.B.B.B.B.B.B.B.B.B.B.B.B.B.B.B.B.B.B.B.B.B.B.B.B.B.B.B.B.V.V.V.V.V.V.V.V.V.V.V.B.V.V.V.B.B.B.B.V.V.V.V.V.V.B.B.B.B.B.B.B.B.V.V.B.B.B.B.B.B.B.B.B.B.B.B.B.B.B.B.V.V.B.B.B.B.B.B.N.B.B.B.N.m.m.B.B.B.B.B.B.B.B.B.B.B.B.B.B.B.B.B.B.B.B.B.B.B.B.B.B.B.B.B.B.B.B.B.B.B.B.B.B.B.B.B.B.B.B.B.B.B.B.B.B.B.B.B.B.B.B.B.B.B.N.B.B.B.B.B.B.B.N.B.B.B.B.N.B.B.B.B.B.B.B.N.N.N.B.B.B.B.N.N.V.V.V.V.V.V.V.V.B.B.B.B.B.B.B.B.N.N.B.B.B.B.B.B.B.B.B.B.B.B.B.B.B.B.B.B.B.B.B.B.B.B.B.B.B.B.B.B.B.B.B.B.B.B.B.B.B.B.B.B.B.B.B.B.B.B.B.B.B.B.B.B.B.B.B.B.B.B.B.B.B.B.B.B.B.B.B.B.V.V.V.B.B.B.B.B.B.V.V.B.B.B.B.B.B.B.B.B.B.B.B.N.B.B.B.B.B.B.B.B.B.B.B.B.B.B.B.B.B.B.B.B.B.B.B.B.B.B.B.B.B.B.B.B.B.B.B.B.N.N.B.B.B.B.B.B.N.B.B.B.B.B.B.B.B.B.B.B.B.B.B.B.B.B.B.B.B.B.B.B.B.B.B.B.B.B.B.B.B.N.B.B.B.B.B.B.B.B.B.B.B.B.B.B.B.B.B.B.B.B.B.B.B.B.B.B.B.B.B.B.B.B.B.B.B.B.B.B.B.B.B.B.B.B.B.B.B.B.B.B.B.B.B.B.B.B.B.B.B.B.B.B.B.B.B.B.V.B.B.B.B.B.B.B.B.B.B.B.B.B.B.B.B.B.B.B.B.B.B.B.B.B.B.B.B.B.B.B.B.B.B.B.B.N.N.N.N.N.B.B.B.N.B.B.B.N.N.N.N.B.B.B.N.N.N.N.N.N.N.N.B.B.N.B.B.B.B.B.m.N.N.N.B.B.B.B.B.B.B.B.B.B.B.B.B.B.B.B.B.B.B.B.B.B.B.B.B.B.B.B.B.B.B.B.B.B.B.B.N.N.N.N.N.N.N.N.B.B.B.B.B.B.N.N.B.B.B.B.B.B.B.B.B.B.B.B.B.B.B.B.B.B.B.B.B.B.B.B.B.B.B.B.B.B.B.B.B.B.B.B.B.B.B.B.V.B.B.B.B.B.B.B.B.B.B.N.N.N.N.N.N.N.N.N.N.N.N.B.V.V.B.B.B.B.B.B.V.V.V.V.V.V.B.B.B.B.B.B.B.B.B.B.B.B.B.B.B.B.B.B.B.B.B.B.B.B.N.N.N.B.B.B.N.N.B.B.B.B.B.B.B.B.B.B.B.B.B.B.B.B.B.B.B.B.B.B.B.B.B.B.B.B.B.B.B.B.B.B.V.V.V.V.V.V.V.V.B.B.B.B.B.B.B.B.B.B.B.B.B.B.B.B.B.B.B.B.B.N.B.B.B.B.B.B.B.B.B.B.V.V.B.B.B.B.B.B.B.B.B.B.B.B.N.N.N.N.N.N.B.N.N.N.V.V.V.N.N.B.V.m.V.V.B.B.B.U.2 # . . . . + + Z Z A Z Z V B.K.H.K.U.T.V.V.S A i.i.m.m.B.m.5 4 + + . . B.V.                                            ",
"                                                . . $ $ $ + 2 4 V Z b m Z Z H.H.R.R.J.J.J.K.<XbXNXNXDXDXmXNXnXmXAXZXnXNX[.XXd.d.S i.i.S S S S S A V S S S b.oXoXZXCXNXVX>X,Xi.b.2 2 6 6 h f V Z d.S 4 5 . . , O h k Z V # O O # O O . .                     # # . . . o S 8.J.Z.s.8.s.s.k.Z.s.8.h.b.A S A S i.d.b m O * % % & 9 I Y t.lXyXuX0X9X9X7XqXuXfXjXjXjXiXiXsXhXhXhXhXhXjXhXhXhXhXhXhXfXfXfXfXuX0X9X9X9X9X9XuXuX9X9XuXqXjXhXhXhXhXjXfXfXfXfXfXfXfXfXfXjXhXfXfXfXfXfXjXjXfXfXfXfXfXfXfXfXfXfXfXfXfXfXfXfXiXdXzXlXlXt.y.y.F.F.F.C.n.m.B.B.B.B.B.B.V.V.V.V.B.B.V.V.V.B.B.B.V.V.V.V.V.B.N.N.B.B.B.B.B.B.B.B.B.B.B.B.B.B.B.B.B.B.B.B.B.B.B.V.B.B.B.B.B.B.B.B.B.B.B.B.B.B.B.B.B.B.B.B.B.B.B.B.B.B.B.B.B.B.B.B.B.B.B.B.B.B.B.B.B.B.B.B.B.B.B.B.B.B.B.B.B.B.B.B.B.B.B.B.B.B.B.B.B.B.B.B.B.B.B.B.B.B.B.B.B.B.B.B.B.B.B.B.B.B.B.B.B.B.B.B.B.B.B.B.B.B.B.B.B.B.B.B.B.B.B.B.B.B.B.B.B.B.B.B.B.B.B.B.B.B.B.B.B.B.B.B.B.B.B.B.B.B.B.B.B.B.B.B.B.B.B.B.B.B.B.B.B.B.B.B.B.B.V.V.B.B.B.B.B.B.B.B.B.B.B.B.B.B.B.B.B.B.B.B.B.B.B.B.B.B.B.B.B.B.B.B.B.B.B.B.B.B.B.B.B.B.B.B.B.B.B.B.B.B.B.B.B.B.B.B.B.B.B.B.B.B.B.B.B.B.B.B.B.B.B.B.B.B.B.B.B.B.B.B.B.B.B.B.B.B.B.B.B.B.B.B.B.B.B.B.B.B.B.B.B.B.B.B.B.B.B.V.N.N.B.B.B.N.N.N.N.N.B.B.B.B.B.N.B.B.B.B.B.B.B.B.B.B.B.B.B.B.B.B.B.B.B.B.B.B.B.B.V.B.B.B.B.B.B.B.B.B.B.B.B.B.B.B.B.B.B.B.B.B.B.B.B.B.B.B.B.B.B.B.B.B.B.B.B.B.B.B.B.B.B.B.B.B.B.B.B.B.B.B.B.B.B.B.B.B.B.B.B.B.B.B.B.B.B.B.B.B.B.B.B.B.B.B.B.B.B.B.B.B.B.B.B.B.B.B.B.B.B.B.B.B.B.B.B.B.B.B.B.B.B.B.B.B.B.B.B.B.B.B.B.B.B.B.B.B.B.B.B.B.B.B.B.B.B.B.B.B.B.B.B.B.B.B.B.B.B.B.B.B.B.B.B.B.B.B.B.B.B.B.B.B.B.B.B.B.B.B.B.B.B.B.B.B.B.B.B.B.B.B.B.B.B.B.B.B.B.B.B.B.B.B.B.B.B.B.B.B.B.B.B.B.B.B.B.B.B.B.B.B.B.B.B.B.B.B.B.B.B.B.V.B.B.B.B.B.B.B.B.B.B.B.B.B.B.B.B.B.B.B.B.B.B.B.B.B.B.B.B.B.B.B.B.B.B.B.B.B.B.B.B.B.B.B.B.B.B.B.B.B.B.B.B.B.V.V.V.B.B.B.B.B.B.B.B.B.B.B.B.B.B.B.B.B.B.B.B.B.B.B.B.B.B.B.B.B.B.B.B.B.B.B.B.B.B.B.B.B.B.B.B.B.B.B.B.B.B.B.B.B.B.B.B.B.B.B.B.B.B.B.B.B.B.B.B.B.N.N.B.B.B.B.B.B.B.B.B.B.B.B.B.B.B.B.B.B.B.B.B.B.B.B.B.B.B.B.B.B.B.B.B.B.B.B.B.B.B.B.B.B.B.B.V.B.B.B.B.B.B.B.B.B.B.B.B.B.B.B.B.B.B.B.B.B.B.B.B.B.B.B.B.B.V.V.B.V.V.V.V.B.B.V.B.B.B.B.B.B.B.B.B.B.B.B.B.B.B.B.B.B.B.B.B.B.B.B.B.B.B.B.B.B.B.V.N.B.B.B.B.B.B.N.B.B.B.B.B.B.B.B.B.B.B.B.B.B.B.B.B.B.B.B.B.B.B.B.B.B.B.B.B.B.B.B.B.B.B.B.B.B.B.B.B.B.B.B.B.B.B.B.B.B.B.B.B.B.B.B.B.B.B.B.B.B.B.B.B.B.N.B.B.B.B.N.B.B.B.B.B.B.B.B.B.B.B.B.B.B.B.B.B.B.B.B.B.B.B.B.B.B.B.B.B.B.B.B.B.B.B.B.B.B.V.V.V.V.V.V.B.B.2 2 . . . . + X Z Z Z A V Z B.B.G.G.B.B.d.d.S S d.i.i.i.m.m.4 4 . . . . B.b.                                            ",
"                                                . . $ $ $ + 7 2 m m j k Z Z H.H.].R.J.J.K.T.,X,XmXmXZXZXNXNXnXmXCXZXVXnX[.].d.i.d.d.d.d.i.S S S V V A A d.V.oXOXZXZXVX<X,X>Xb.b.2 2 5 5 f f V Z d.S 5 4 . . # # b m V V # O O # + + . .                     # # . . . o 8.C J.Z.s.s.s.f.k.k.s.a.d.h.A S A S d.b.k b O * % % & 9 I Y t.lXyXuXuXuX0X0XqXuXiXfXfXfXiXsXsXhXhXhXhXhXhXhXhXhXhXhXhXsXjXfXsXuXqX0X9X0X0X9XuXiX9XqXiXiXhXhXhXhXhXhXhXhXhXhXhXhXhXhXhXhXhXhXfXfXfXfXhXhXfXfXfXfXfXfXfXfXiXiXpXpXfXfXfXfXiXdXdXlXt.t.y.y.!.F.C.C.n.m.B.B.B.B.B.B.V.V.V.V.B.B.B.B.B.B.B.B.B.B.B.B.B.B.B.B.B.B.B.B.B.B.B.B.B.B.B.B.B.B.B.B.B.B.B.B.B.B.B.B.B.B.B.B.B.B.B.B.B.B.B.B.B.B.B.B.B.B.B.B.B.B.B.B.B.B.B.B.B.B.B.B.B.B.B.B.B.B.B.B.B.B.B.B.B.B.B.B.B.B.B.B.B.B.B.B.B.B.B.B.B.B.B.B.B.B.B.B.B.B.B.B.B.B.B.B.B.B.B.B.B.B.B.B.B.B.B.B.B.B.B.B.B.B.B.B.B.B.B.B.B.B.B.B.B.B.B.B.B.B.B.B.B.B.B.B.B.B.B.B.B.B.B.B.B.B.B.B.B.B.B.B.B.B.B.B.B.B.B.B.B.B.B.B.B.B.B.B.B.B.B.B.B.B.B.B.B.B.B.B.B.B.B.B.B.B.B.B.B.B.B.B.B.B.B.B.B.B.B.B.B.B.B.B.B.B.B.B.B.B.B.B.B.B.B.B.B.B.B.B.B.B.B.B.B.B.B.B.B.B.B.B.B.B.B.B.B.B.B.B.B.B.B.B.B.B.B.B.B.B.B.B.B.B.B.B.B.B.B.B.B.B.B.B.B.B.B.B.B.B.B.B.B.B.B.B.B.B.B.B.B.B.B.B.B.B.B.B.B.B.N.N.N.N.B.B.B.B.N.N.B.B.B.B.B.B.B.B.B.B.B.B.B.B.B.B.B.B.B.B.B.B.B.B.V.B.B.B.B.B.B.B.B.B.B.B.B.B.B.B.B.B.B.B.B.B.B.B.B.B.B.B.B.B.B.B.B.B.B.B.B.B.B.B.B.B.B.B.B.B.B.B.B.B.B.B.B.B.B.B.B.B.B.B.B.B.B.B.B.B.B.B.B.B.B.B.B.B.B.B.B.B.B.B.B.B.B.B.B.B.B.B.B.B.B.B.B.B.B.B.B.B.B.B.B.B.B.B.B.B.B.B.B.B.B.B.B.B.B.B.B.B.B.B.B.B.B.B.B.B.B.B.B.B.B.B.B.B.B.B.B.B.B.B.B.B.B.B.B.B.B.B.B.B.B.B.B.B.B.B.B.B.B.B.B.B.B.B.B.B.B.B.B.B.B.B.B.B.B.B.B.B.B.B.B.B.B.B.B.B.B.B.B.B.B.B.B.B.B.B.B.B.B.B.B.B.B.B.B.B.B.B.B.B.B.B.B.B.B.B.B.B.B.B.B.B.B.B.B.B.B.B.B.B.B.B.B.B.B.B.B.B.B.B.B.B.B.B.B.B.B.B.B.B.B.B.B.B.B.B.B.B.B.B.B.B.B.B.B.B.B.B.V.B.B.B.B.B.B.B.B.B.B.B.B.B.B.B.B.B.B.B.B.B.B.B.B.B.B.B.B.B.B.B.B.B.B.B.B.B.B.B.B.B.B.B.B.B.B.B.B.B.B.B.B.B.B.B.B.B.B.B.B.B.B.B.B.B.B.B.B.B.B.B.B.B.B.B.B.B.B.B.B.B.B.B.B.B.B.B.B.B.B.B.B.B.B.B.B.B.B.B.B.B.B.B.B.B.B.B.B.B.B.B.B.B.B.B.B.B.B.B.B.B.B.B.B.B.B.B.B.B.B.B.B.B.B.B.B.B.B.B.B.B.B.B.B.B.V.V.B.V.V.V.B.B.B.V.B.B.B.B.B.B.B.B.B.B.B.B.B.B.B.B.B.B.B.B.B.B.B.B.B.B.B.B.B.B.B.B.B.B.B.B.B.B.N.N.B.B.N.B.B.B.N.N.B.B.B.B.B.B.B.B.B.B.B.B.B.B.B.B.B.B.B.B.B.B.B.B.B.B.B.B.B.B.B.B.B.B.B.B.B.B.B.B.B.B.B.B.B.B.B.B.B.B.B.B.B.B.B.B.B.B.N.B.B.B.B.B.B.B.B.B.B.B.B.B.B.B.B.B.B.B.B.B.B.B.B.B.B.B.B.B.B.B.B.B.B.B.B.B.B.B.B.B.B.B.B.V.V.V.B.V.B.B.2 2 . . . . + X A V Z A Z A B.B.I.I.B.V.i.S S i.h.h.i.i.m.M.4 4 . . . . N.V.                                            ",
"                                                . . $ $ $ @ 7 5 m m h h b b m.M.'.T.m.m.M.M.[.E.[.[.OXOX[.[.R.R.K.T.R.].].[.].].].].E.E.E.E.E.R.[.[.E.R.R.T.E.R.). XE..X<X<XU.K.O + . . . . # # f k m A d.d.S S A A A V # # # # + + . .                     $ # . . . o S C J.A.J.J.k.g.Z.Z.J.J.M.M.S S Z A A A j k o * X % & 9 U T t.aXyXpXiXiX0X0XqXqXqXiXiXiXsXsXsXsXsXsXsXsXsXsXsXsXsXsXsXiXfXsXiXqXwX0X0X0X9X9X0X0X9X9XqXiXhXhXhXhXhXhXhXhXhXhXhXhXsXsXsXsXhXhXsXsXsXsXhXhXsXsXsXsXsXsXsXsXiXiXfXfXfXfXsXsXiXdXzXlXt.t.y.y.!.F.C.C.n.V.B.B.B.B.B.B.V.V.V.V.B.B.B.B.B.B.B.B.B.B.B.B.B.B.B.B.B.B.B.B.B.B.B.B.B.B.B.B.B.B.B.B.B.B.B.B.B.B.B.B.B.B.B.B.B.B.B.B.B.B.B.B.B.B.B.B.B.B.B.B.B.B.B.B.B.B.B.B.B.B.B.B.B.B.B.B.B.B.B.B.B.B.B.B.B.B.B.B.B.B.B.B.B.B.B.B.B.B.B.B.B.B.B.B.B.B.B.B.B.B.B.B.B.B.B.B.B.B.B.B.B.B.B.B.B.B.B.B.B.B.B.B.B.B.B.B.B.B.B.B.B.B.B.B.B.B.B.B.B.B.B.B.B.B.B.B.B.B.B.B.B.B.B.B.B.B.B.B.B.B.B.B.B.B.B.B.B.B.B.B.B.B.B.B.B.B.B.B.B.B.B.B.B.B.B.B.B.B.B.B.B.B.B.B.B.B.B.B.B.B.B.B.B.B.B.B.B.B.B.B.B.B.B.B.B.B.B.B.B.B.B.B.B.B.B.B.B.B.B.B.B.B.B.B.B.B.B.B.B.B.B.B.B.B.B.B.B.B.B.B.B.B.B.B.B.B.B.B.B.B.B.B.B.B.B.B.B.B.B.B.B.B.B.B.B.B.B.B.B.B.B.B.B.B.B.B.B.B.B.B.B.B.B.B.B.B.B.B.B.B.B.B.N.B.B.B.N.N.N.N.B.B.B.B.B.B.B.B.B.V.B.B.B.B.B.B.B.B.B.B.B.B.B.B.B.B.B.B.B.B.B.B.B.B.B.B.B.B.B.B.B.B.B.B.B.B.B.B.B.B.B.B.B.B.B.B.B.B.B.B.B.B.B.B.B.B.B.B.B.B.B.B.B.B.B.B.B.B.B.B.B.B.B.B.B.B.B.B.B.B.B.B.B.B.B.B.B.B.B.B.B.B.B.B.B.B.B.B.B.B.B.B.B.B.B.B.B.B.B.B.B.B.B.B.B.B.B.B.B.B.B.B.B.B.B.B.B.B.B.B.B.B.B.B.B.B.B.B.B.B.B.B.B.B.B.B.B.B.B.B.B.B.B.B.B.B.B.B.B.B.B.B.B.B.B.B.B.B.B.B.B.B.B.B.B.B.B.B.B.B.B.B.B.B.B.B.B.B.B.B.B.B.B.B.B.B.B.B.B.B.B.B.B.B.B.B.B.B.B.B.B.B.B.B.B.B.B.B.B.B.B.B.B.B.B.B.B.B.B.B.B.B.B.B.B.B.B.B.B.B.B.B.B.B.B.B.B.B.B.B.B.B.B.B.B.B.B.B.B.B.B.B.B.B.B.B.B.B.B.B.B.B.B.B.B.B.B.B.B.B.B.B.B.B.B.B.B.B.B.B.B.B.B.B.B.B.B.B.B.B.B.B.B.B.B.B.B.B.B.B.B.B.B.B.B.B.B.B.B.B.B.B.B.B.B.B.B.B.B.B.B.B.B.B.B.B.B.B.B.B.B.B.B.B.B.B.B.B.B.B.B.B.B.B.B.B.B.B.B.B.B.B.B.B.B.B.B.B.B.B.B.B.B.B.B.B.B.B.B.B.B.B.B.B.B.B.B.B.B.B.B.B.B.B.B.B.B.B.B.B.B.B.B.B.B.V.B.B.B.B.B.B.B.B.B.B.B.B.B.B.B.B.B.B.B.B.B.B.B.B.B.B.N.N.B.B.B.B.B.B.B.B.B.B.B.B.B.B.B.B.B.B.B.B.B.B.B.B.B.B.B.B.B.B.B.B.B.B.B.B.B.B.B.B.B.B.B.N.B.B.B.B.B.B.B.B.B.B.B.B.B.B.B.B.B.B.B.B.B.B.B.B.B.B.B.B.B.B.B.B.B.B.B.B.B.B.B.B.B.B.B.B.B.B.B.B.B.B.B.B.B.B.B.B.B.B.B.B.B.B.B.B.B.B.B.B.B.B.B.N.B.B.B.B.B.B.B.B.B.B.B.B.B.B.B.B.B.B.B.B.B.B.B.B.B.B.B.B.B.B.B.B.B.B.B.B.B.B.B.B.V.V.B.B.K.K.4 4 . . . . + O Z Z V A A S B.B.I.I.K.B.d.d.b.b.M.M.d.h.V.M.4 5 . . . . N.m.                                            ",
"                                                . . $ $ $ $ 7 5 m m j i j b d.m.U.U.m.M.H.G.].].E.E.XXXX[.[.R.R.T.T.].].[.[.'.[.].].].].].].].].R.E.R.R.[.E.E.E.oX.X X).<X<XB.B.+ + . . . . $ $ h h Z V d.d.Z A d.d.Z Z # # # # + + . .                     $ $ . . . o A Z Z.A.P.L.g.f.g.Z.J.K.M.M.S i.Z A A A h j X O X % & 9 U K lXlXyXpXiXiX0XwXqXqXqXwXqXiXsXsXsXsXsXsXsXsXsXsXsXsXsXsXsXiXsXsXiXqXiXqXwX0XwXqXwX0X0X0XuXiXhXhXhXhXhXhXhXhXhXhXhXsXsXsXsXsXsXsXsXiXiXsXhXhXsXsXsXsXsXsXsXsXiXiXfXfXfXfXsXfXfXfXdXlXt.t.y.y.!.F.C.C.n.B.B.B.B.B.B.B.V.V.V.V.B.B.B.B.B.B.B.B.B.B.B.B.B.B.B.B.B.B.B.B.B.B.B.B.B.B.B.B.B.B.B.B.B.B.B.B.B.B.B.B.B.B.B.B.B.B.B.B.B.B.B.B.B.B.B.B.B.B.B.B.B.B.B.B.B.B.B.B.B.B.B.B.B.B.B.B.B.B.B.B.B.B.B.B.B.B.B.B.B.B.B.B.B.B.B.B.B.B.B.B.B.B.B.B.B.B.B.B.B.B.B.B.B.B.B.B.B.B.B.B.B.B.B.B.B.B.B.B.B.B.B.B.B.B.B.B.B.B.B.B.B.B.B.B.B.B.B.B.B.B.B.B.B.B.B.B.B.B.B.B.B.B.B.B.B.B.B.B.B.B.B.B.B.B.B.B.B.B.B.B.B.B.B.B.B.B.B.B.B.B.B.B.B.B.B.B.B.B.B.B.B.B.B.B.B.B.B.B.B.B.B.B.B.B.B.B.B.B.B.B.B.B.B.B.B.B.B.B.B.B.B.B.B.B.B.B.B.B.B.B.B.B.B.B.B.B.B.B.B.B.B.B.B.B.B.B.B.B.B.B.B.B.B.B.B.B.B.B.B.B.B.B.B.B.B.B.B.B.B.B.B.B.B.B.B.B.B.B.B.B.B.B.B.B.B.B.B.B.B.B.B.B.B.B.B.B.B.B.B.B.B.B.B.B.B.B.B.N.N.N.B.B.B.B.B.B.B.B.B.B.V.V.B.B.B.B.B.B.B.B.B.B.B.B.B.B.B.B.B.B.B.B.B.B.B.B.B.B.B.B.B.B.B.B.B.B.B.B.B.B.B.B.B.B.B.B.B.B.B.B.B.B.B.B.B.B.B.B.B.B.B.B.B.B.B.B.B.B.B.B.B.B.B.B.B.B.B.B.B.B.B.B.B.B.B.B.B.B.B.B.B.B.B.B.B.B.B.B.B.B.B.B.B.B.B.B.B.B.B.B.B.B.B.B.B.B.B.B.B.B.B.B.B.B.B.B.B.B.B.B.B.B.B.B.B.B.B.B.B.B.B.B.B.B.B.B.B.B.B.B.B.B.B.B.N.N.B.B.B.B.B.B.B.B.B.B.B.B.B.B.B.B.B.B.B.B.B.B.B.B.B.B.B.B.B.B.B.B.B.B.B.B.B.B.B.B.B.B.B.B.B.B.B.B.B.B.B.B.B.B.B.B.B.B.B.B.B.B.B.B.B.B.B.B.B.B.B.B.B.B.B.B.B.B.B.B.B.B.B.B.B.B.B.B.B.B.B.B.B.B.B.B.B.B.B.B.B.B.B.B.B.B.B.B.B.B.B.B.B.B.B.B.B.B.B.B.B.B.B.B.B.B.B.B.B.B.B.B.B.B.B.B.B.B.B.B.B.B.B.B.B.B.B.B.B.B.B.B.B.B.B.B.B.B.B.B.B.B.B.B.B.B.B.B.B.B.B.B.B.B.B.B.B.B.B.B.B.B.B.B.B.B.B.B.B.B.B.B.B.B.B.B.B.B.B.B.B.B.B.B.B.B.B.B.B.B.B.B.B.B.B.B.B.B.B.B.B.B.B.B.B.B.B.B.B.B.B.B.B.B.B.B.B.B.B.B.B.B.B.B.B.B.B.B.B.B.B.B.B.B.B.B.B.B.B.B.B.B.B.B.B.B.B.B.B.B.B.B.B.B.B.B.B.B.B.B.B.B.B.B.B.B.B.B.B.B.B.B.B.B.B.B.B.B.B.B.B.B.B.B.B.B.B.B.B.B.B.B.B.B.B.B.B.B.B.B.B.B.B.B.B.B.B.B.B.B.B.B.B.B.B.B.B.B.B.B.B.B.B.B.B.B.B.B.B.B.B.B.B.B.B.B.B.B.B.B.B.B.B.B.B.B.B.B.B.B.B.B.B.B.B.B.B.B.B.B.B.B.B.B.B.B.B.B.B.B.B.B.B.N.B.B.B.B.B.B.B.B.B.B.B.B.B.B.B.B.B.B.B.B.B.B.B.B.B.B.B.B.B.B.B.B.B.B.B.B.B.B.B.B.V.V.B.B.K.K.4 4 + + . . O O Z Z V A Z S B.B.I.G.B.B.d.d.d.b.M.M.m.m.V.M.5 5 . . . . N.V.                                            ",
"                                                + . $ $ $ $ 7 5 S S A Z S i.G.U.XXXXW.W.U.G.R.T.R.[.&X%XoX[.R.T.R.R.[.[.[..X].].].].].'.[.[.[.[.oXoX[.[.oXoXXXOXoXXX;XOXBXBXK.S.O $ . X $ # 5 2 b h S A B.T.B.H.b.d.V V O O O O + + . .                     $ $ . . . . A Z B.Z.Z.Z.a.f.n.n.Z.M.M.M.S S A A A A h j X O X % & 9 U T lXlXtXuXiXiX0X0X0X0XwXwXqXiXhXhXhXjXjXjXjXjXhXhXjXjXhXhXhXhXhXsXiXsXhXsXiXwXqXqXwXwXwXqXiXsXhXhXhXhXjXjXhXhXhXhXhXhXhXsXiXiXhXhXhXhXsXhXhXhXfXfXfXfXfXfXfXfXsXiXfXfXiXfXsXsXfXfXdXlXt.t.y.y.!.F.C.C.B.B.B.B.B.B.B.B.V.V.V.V.B.B.B.B.B.B.B.B.B.B.B.B.B.B.B.B.B.B.B.B.B.B.B.B.B.B.B.B.B.B.B.B.B.B.B.B.B.B.B.B.B.B.B.B.B.B.B.B.B.B.B.B.B.B.B.B.B.B.B.B.B.B.B.B.B.B.B.B.B.B.B.B.B.B.B.B.B.B.B.B.B.B.B.B.B.B.B.B.B.B.B.B.B.B.B.B.B.B.B.B.B.B.B.B.B.B.B.B.B.B.B.B.B.B.B.B.B.B.B.B.B.B.B.B.B.B.B.B.B.B.B.B.B.B.B.B.B.B.B.B.B.B.B.B.B.B.B.B.B.B.B.B.B.B.B.B.B.B.B.B.B.B.B.B.B.B.B.B.B.B.B.B.B.B.B.B.B.B.B.B.B.B.B.B.B.B.B.B.B.B.B.B.B.B.B.B.B.B.B.B.B.B.B.B.B.B.B.B.B.B.B.B.B.B.B.B.B.B.B.B.B.B.B.B.B.B.B.B.B.B.B.B.B.B.B.B.B.B.B.B.B.B.B.B.B.B.B.B.B.B.B.B.B.B.B.B.B.B.B.B.B.B.B.B.B.B.B.B.B.B.B.B.B.B.B.B.B.B.B.B.B.B.B.B.B.B.B.B.B.B.B.B.B.B.B.B.B.B.B.B.B.B.B.B.B.N.B.B.B.B.B.B.B.B.B.B.B.B.B.B.B.B.B.B.B.B.B.B.B.B.B.B.B.B.B.B.B.B.B.B.B.B.B.B.B.B.N.B.B.B.B.V.B.B.B.B.B.B.B.B.B.B.B.B.B.B.B.B.B.B.B.B.B.B.B.B.B.B.B.B.B.B.B.B.B.B.B.B.B.B.B.B.B.B.B.B.B.B.B.B.B.B.B.B.B.B.B.B.B.B.B.B.B.B.B.B.B.B.B.B.B.B.B.B.B.B.B.B.B.B.B.B.B.B.B.B.B.B.B.B.B.B.B.B.B.B.B.B.B.B.B.B.B.B.B.B.B.B.B.B.B.B.B.B.B.B.B.B.B.B.B.B.B.B.B.B.B.B.B.B.B.B.B.B.B.B.B.B.B.B.B.B.B.B.B.B.B.B.B.B.B.B.B.B.B.B.B.B.B.B.B.B.B.B.B.B.B.B.B.B.B.B.V.B.B.B.B.B.B.B.B.B.B.B.B.B.B.B.B.B.B.B.B.B.B.B.B.B.B.B.B.B.B.B.B.B.B.B.B.B.B.B.B.B.B.B.B.B.B.B.B.B.B.B.B.B.B.B.B.B.B.B.B.B.B.B.B.B.B.B.B.B.B.B.B.B.B.B.B.B.B.B.B.B.B.B.B.B.B.B.B.B.N.B.B.B.B.B.B.B.B.B.B.B.B.B.B.B.B.B.B.B.B.B.B.B.B.B.B.B.B.B.B.B.B.B.B.B.B.B.B.B.B.B.B.B.B.B.B.B.B.B.B.B.B.B.B.B.B.B.B.B.B.B.B.B.B.B.B.B.B.B.B.B.B.B.B.B.B.B.B.B.B.B.B.B.B.B.B.B.B.B.B.B.B.B.B.B.B.B.B.B.B.B.B.B.B.B.B.B.B.B.B.B.B.B.B.B.B.B.B.B.B.B.B.B.B.B.B.B.B.B.B.B.B.B.B.B.B.B.B.B.B.B.B.B.B.B.B.B.B.B.B.B.B.B.B.B.B.B.B.B.B.B.B.B.B.B.B.B.B.B.B.B.B.B.B.B.B.B.B.B.B.B.B.B.B.B.B.B.B.B.B.B.B.B.B.B.N.N.N.N.B.B.B.B.B.B.B.B.B.B.B.B.B.B.B.B.B.B.B.B.B.B.B.B.B.B.B.B.B.B.B.B.B.B.B.B.B.B.B.B.B.B.B.B.B.B.B.B.B.B.B.B.B.B.B.B.B.B.B.B.B.B.B.B.B.B.B.N.B.B.B.B.B.B.B.B.B.B.B.B.V.V.B.B.B.B.B.B.B.B.B.B.B.B.B.B.B.B.B.B.B.B.B.B.B.B.B.B.V.V.B.B.K.K.4 4 . + . . O $ A A Z A V Z B.B.B.B.V.V.d.d.d.d.N.M.m.m.V.M.4 5 . . . . B.V.                                            ",
"                                                . . $ $ $ $ 7 7 S A S A i.i.m.N.'.XXW.W.W.W.E.].E.].&X&XXX].].R.].].[.XX.XoX[.[.].].].[.[..X.X[..X.X[..XoXOX.XoXXXXX>X;XBXNXK.S.O # . + # $ 6 5 h i d.d.B.K.m.b.m.V.V A O O O O + + . .                     $ $ . + . . Z Z B.J.M.M.a.d.n.h.H.M.M.M.S i.Z Z V V h j X O X % & 9 U ( lXlXtXuXiXiXwXwXwX0XwXqXiXiXhXjXjXjXjXjXjXjXhXjXjXjXhXhXhXhXhXhXhXjXjXhXhXiXqXiXwXwXiXiXqXiXhXhXhXhXjXhXhXhXhXhXhXhXhXhXhXhXhXhXhXhXhXhXhXhXfXfXfXfXfXfXfXfXhXiXfXfXfXfXfXfXfXfXdXlXt.t.y.y.!.F.C.C.B.B.B.B.B.B.B.B.V.B.B.B.B.B.B.B.B.B.B.B.B.B.B.B.B.B.B.B.B.B.B.B.B.B.B.B.B.B.B.B.B.B.B.B.B.B.B.B.B.B.B.B.B.B.B.B.B.B.B.B.B.B.B.B.B.B.B.B.B.B.B.B.B.B.B.B.B.B.B.B.B.B.B.B.B.B.B.B.B.B.B.B.B.B.B.B.B.B.B.B.B.B.B.B.B.B.B.B.B.B.B.B.B.B.B.B.B.B.B.B.B.B.B.B.B.B.B.B.B.B.B.B.B.B.B.B.B.B.B.B.B.B.B.B.B.B.B.B.B.B.B.B.B.B.B.B.B.B.B.B.B.B.B.B.B.B.B.B.B.B.B.B.B.B.B.B.B.B.B.B.B.B.B.B.B.B.B.B.B.B.B.B.B.B.B.B.B.B.B.B.B.B.B.B.B.B.B.B.B.B.B.B.B.B.B.B.B.B.B.B.B.B.B.B.B.B.B.B.B.B.B.B.B.B.B.B.B.B.B.B.B.B.B.B.B.B.B.B.B.B.B.B.B.B.B.B.B.B.B.B.B.B.B.B.B.B.B.B.B.B.B.B.B.B.B.B.B.B.B.B.B.B.B.B.B.B.B.B.B.B.B.B.B.B.B.B.B.B.B.B.B.B.B.B.B.B.B.B.B.B.B.B.B.B.B.B.N.N.B.B.B.B.B.B.B.B.B.B.B.B.B.B.B.B.B.B.B.B.B.B.B.B.B.B.B.B.B.B.B.B.B.B.B.B.B.B.B.B.B.B.B.B.B.B.B.B.B.B.B.B.B.B.B.B.B.B.B.B.B.B.B.B.B.B.B.B.B.B.B.B.B.B.B.B.B.B.B.B.B.B.B.B.B.B.B.B.B.B.B.B.B.B.B.B.B.B.B.B.B.B.B.B.B.B.B.B.B.B.B.B.B.B.B.B.B.B.B.B.B.B.B.B.B.B.B.B.B.B.B.B.B.B.B.B.B.B.B.B.B.B.B.B.B.B.B.B.B.B.B.B.B.B.B.B.B.B.B.B.B.B.B.B.B.B.B.B.B.B.B.B.B.B.B.B.B.B.B.B.B.B.B.B.B.B.B.B.B.B.B.B.B.B.B.B.B.B.B.B.B.B.B.B.B.B.B.B.B.B.B.B.B.B.B.B.B.B.B.B.B.B.B.B.B.B.B.B.B.B.B.B.B.B.B.B.B.B.B.B.B.B.B.B.B.B.B.B.B.B.B.B.B.B.B.B.B.B.B.B.B.B.B.B.B.B.B.B.B.B.B.B.B.B.B.B.B.B.B.B.B.B.B.B.B.B.B.B.B.B.B.B.B.B.B.B.B.B.B.B.B.B.B.B.B.B.N.B.B.B.B.B.B.B.B.B.B.B.B.B.B.B.B.B.B.B.B.B.B.B.B.B.B.B.B.B.B.B.B.B.B.B.B.B.B.B.B.B.B.B.B.B.B.B.B.B.B.B.B.B.B.B.B.B.B.B.B.B.B.B.B.B.B.B.B.B.B.B.B.B.B.B.B.B.B.B.B.B.B.B.B.B.B.B.B.B.B.B.B.B.B.B.B.B.B.B.B.B.B.B.B.B.B.B.B.B.B.B.B.B.B.B.B.B.B.B.B.B.B.B.B.B.B.B.B.B.B.B.B.B.B.B.B.B.B.B.B.B.B.B.B.B.B.B.B.B.B.B.B.B.B.B.B.B.B.B.B.B.B.B.B.B.B.B.B.B.B.B.B.B.B.B.B.B.B.B.B.B.B.B.B.B.B.B.B.B.B.B.B.B.B.B.N.N.N.N.B.B.B.B.B.B.B.B.B.B.B.B.B.B.B.B.B.B.B.B.B.B.B.B.B.B.B.B.B.B.B.B.B.B.B.B.B.B.B.B.B.B.B.B.B.B.B.B.B.B.B.B.B.B.B.B.B.B.B.B.B.B.B.B.B.B.B.N.B.B.B.B.B.B.B.B.B.B.B.B.V.V.V.B.B.B.B.B.B.B.B.B.B.B.B.B.B.B.B.B.B.B.B.B.B.B.B.B.B.V.B.B.K.K.4 4 . + . . $ $ A A A A V V m.m.B.B.V.V.d.d.i.i.m.m.h.h.V.V.4 4 . . . . B.                                              ",
"                                                + + $ # $ $ 7 7 V.b.V.b.B.m.m.m.p.D l l h l f i i i b b b b d.d.U.U.].[..XXX[.[.'.].'.[..X.X.X X[..XXXoX X[.G.G.B.B.S A b.b.k V 4 2 # # 7 4 V V V m B.B.b.V.V.V.B.B.Z S $ O $ O + $ . .                     $ $ + + . . V Z J.J.M.M.A A 0.S V.M.d.d.A S A A S S j j X O X % & 9 U L lXaXyXpXiXjXwXwXwXwXwXiXiXhXhXhXhXjXhXhXhXhXhXhXhXhXhXhXhXhXhXhXhXhXjXjXhXhXhXhXiXiXjXjXhXjXhXhXhXhXhXhXhXhXsXsXhXhXhXhXhXhXhXhXhXhXhXhXfXfXfXfXfXfXfXfXfXfXfXfXfXfXfXfXfXfXfXdXzXlX1.t.y.y.F.F.C.C.B.B.B.B.B.B.B.B.V.B.B.B.B.B.B.B.B.B.B.B.B.B.B.B.B.B.B.B.B.B.B.B.B.B.B.B.B.B.B.B.B.B.B.B.B.B.B.B.B.B.B.B.B.B.B.B.B.B.B.B.B.B.B.B.B.B.B.B.B.B.B.B.B.B.B.B.B.B.B.B.B.B.B.B.B.B.B.B.B.B.B.B.B.B.B.B.B.B.B.B.B.B.B.B.B.B.B.B.B.B.B.B.B.B.B.B.B.B.B.B.B.B.B.B.B.B.B.B.B.B.B.B.B.B.B.B.B.B.B.B.B.B.B.B.B.B.B.B.B.B.B.B.B.B.B.B.B.B.B.B.B.B.B.B.B.B.B.B.B.B.B.B.B.B.B.B.B.B.B.B.B.B.B.B.B.B.B.B.B.B.B.B.B.B.B.B.B.B.B.B.B.B.B.B.B.B.B.B.B.B.B.B.B.B.B.B.B.B.B.B.B.B.B.B.B.B.B.B.B.B.B.B.B.B.B.B.B.B.B.B.B.B.B.B.B.B.B.B.B.B.B.B.B.B.B.B.B.B.B.B.B.B.B.B.B.B.B.B.B.B.B.B.B.B.B.B.B.B.B.B.B.B.B.B.B.B.B.B.B.B.B.B.B.B.B.B.B.B.B.B.B.B.B.B.B.B.B.B.B.B.B.B.B.B.B.B.B.B.B.B.B.B.B.B.B.B.B.B.B.B.B.B.B.B.B.B.B.B.B.B.B.B.B.B.B.B.B.B.B.B.B.B.B.B.B.B.B.B.B.B.V.V.B.B.B.B.B.B.B.B.B.B.B.B.B.B.B.B.B.B.B.B.B.B.B.B.B.B.B.B.B.B.B.B.B.B.B.B.B.B.B.B.B.B.B.B.B.B.B.B.B.B.B.B.B.B.B.B.B.B.B.B.B.B.B.B.B.B.B.B.B.B.B.B.B.B.B.B.B.B.B.B.B.B.B.B.B.B.B.B.B.B.B.B.B.B.B.B.B.B.B.B.B.B.B.B.B.B.B.B.B.B.B.B.B.B.B.B.B.B.B.B.B.B.B.B.B.B.B.B.B.B.B.B.B.B.B.B.B.B.B.B.B.B.B.B.B.B.B.B.B.B.B.B.B.B.B.B.B.B.B.B.B.B.B.B.B.B.B.B.B.B.B.B.B.B.B.B.B.B.B.B.B.B.B.B.B.B.B.B.B.B.B.B.B.B.B.B.B.B.B.B.B.B.B.B.B.B.B.B.B.B.B.B.B.B.B.B.B.B.B.B.B.B.B.B.B.B.B.B.B.B.B.B.B.B.B.B.B.B.B.B.B.B.B.B.B.B.B.B.B.B.B.B.B.B.B.B.B.B.B.B.B.B.B.B.B.B.B.B.B.B.B.B.B.B.B.B.B.B.B.B.B.B.B.B.B.B.B.B.B.B.B.B.B.B.B.B.B.B.B.B.B.B.B.B.B.B.B.B.B.B.B.B.B.B.B.B.B.B.B.B.B.B.B.B.B.B.B.B.B.B.B.B.B.B.B.B.B.B.B.B.B.B.B.B.B.B.B.B.B.B.B.B.B.B.B.B.B.B.B.B.B.B.B.B.B.B.B.B.B.B.B.B.B.B.B.B.B.B.B.B.B.B.B.B.B.B.B.B.B.B.B.B.B.B.B.B.B.B.B.B.B.B.B.B.B.B.B.B.B.B.B.B.B.B.B.B.B.B.B.B.B.B.B.B.B.B.B.B.B.B.B.B.B.B.B.B.B.B.B.B.B.B.B.B.B.B.B.B.B.B.B.B.B.B.B.B.B.B.B.B.B.B.B.B.B.B.B.B.B.B.B.B.B.B.B.B.B.B.B.B.B.B.B.B.B.B.B.B.B.B.B.B.B.B.B.B.B.B.B.B.B.B.B.B.B.B.B.B.B.B.B.B.B.B.B.B.B.B.B.B.B.B.B.B.N.N.B.B.B.B.B.B.B.B.B.B.B.B.B.B.B.B.V.V.B.B.B.B.B.B.B.B.B.B.B.B.B.B.B.B.B.B.B.B.B.B.B.B.B.B.B.B.B.B.K.U.2 2 . . . . $ $ A A Z A V V b.i.m.B.V.b.S A A A i.i.d.d.m.V.4 4 . . . . B.                                              ",
"                                                + + # # # $ 7 2 V.b.V.V.B.m.b.v.v.p.h h l b h h f u b b k b b.d.T.U.[.].oX.X[.[.[.[.[.[..X.X.X X].[.XXoX[.[.K.K.V.B.A S d.S Z V 2 5 # # 5 7 Z V k m U.U.S S b.V.B.B.A S O O $ O + + . .                     $ $ + + . . Z Z K.K.M.H.i.i.d.S M.m.h.h.A S Z A A A j j o O X % & 9 I L t.aXyXpXjXxXiXwXwX0XwXiXiXhXhXjXjXjXjXhXhXhXhXhXjXhXhXhXjXjXhXhXhXjXjXjXjXjXhXkXiXiXkXkXhXjXhXhXhXsXhXhXhXsXsXsXsXsXhXfXhXfXhXfXhXfXhXfXfXfXfXfXfXfXfXfXfXfXfXfXfXfXfXfXfXfXfXdXzXlX1.t.y.y.!.F.C.C.M.B.B.B.B.B.B.B.V.B.B.B.B.B.B.B.B.B.B.B.B.B.B.B.B.B.B.B.B.B.B.B.B.B.B.B.B.B.B.B.B.B.B.B.B.B.B.B.B.B.B.B.B.B.B.B.B.B.B.B.B.B.B.B.B.B.B.B.B.B.B.B.B.B.B.B.B.B.B.B.B.B.B.B.B.B.B.B.B.B.B.B.B.B.B.B.B.B.B.B.B.B.B.B.B.B.B.B.B.B.B.B.B.B.B.B.B.B.B.B.B.B.B.B.B.B.B.B.B.B.B.B.B.B.B.B.B.B.B.B.B.B.B.B.B.B.B.B.B.B.B.B.B.B.B.B.B.B.B.B.B.B.B.B.B.B.B.B.B.B.B.B.B.B.B.B.B.B.B.B.B.B.B.B.B.B.B.B.B.B.B.B.B.B.B.B.B.B.B.B.B.B.B.B.B.B.B.B.B.B.B.B.B.B.B.B.B.B.B.B.B.B.B.B.B.B.B.B.B.B.B.B.B.B.B.B.B.B.B.B.B.B.B.B.B.B.B.B.B.B.B.B.B.B.B.B.B.B.B.B.B.B.B.B.B.B.B.B.B.B.B.B.B.B.B.B.B.B.B.B.B.B.B.B.B.B.B.B.B.B.B.B.B.B.B.B.B.B.B.B.B.B.B.B.B.B.B.B.B.B.B.B.B.B.B.B.B.B.B.B.B.B.B.B.B.B.B.B.B.B.B.B.B.B.B.B.B.B.B.B.B.B.B.B.B.B.B.B.B.B.B.B.B.B.B.B.B.B.B.B.V.V.B.B.B.B.B.B.B.B.B.B.B.B.B.B.B.B.B.B.B.B.B.B.B.B.B.B.B.B.B.B.B.B.B.B.B.B.B.B.B.B.B.B.B.B.B.B.B.B.B.B.B.B.B.B.B.B.B.B.B.B.B.B.B.B.B.B.B.B.B.B.B.B.B.B.B.B.B.B.B.B.B.B.B.B.B.B.B.B.B.B.B.B.B.B.B.B.B.B.B.B.B.B.B.B.B.B.B.B.B.B.B.B.B.B.B.B.B.B.B.B.B.B.B.B.B.B.B.B.B.B.B.B.B.B.B.B.B.B.B.B.B.B.B.B.B.B.B.B.B.B.B.B.B.B.B.B.B.B.B.B.B.B.B.B.B.B.B.B.B.B.B.B.B.B.B.B.B.B.B.B.B.B.B.B.B.B.B.B.B.B.B.B.B.B.m.B.B.B.B.B.B.B.B.B.B.B.B.B.B.B.B.B.B.B.B.B.B.B.B.B.B.B.B.B.B.B.B.B.B.B.B.B.B.B.B.B.B.B.B.B.B.B.B.B.B.B.B.B.B.B.B.B.B.B.B.B.B.B.B.B.B.B.B.B.B.B.B.B.B.B.B.B.B.B.B.B.B.B.B.B.B.B.B.B.B.B.B.B.B.B.B.B.B.B.B.B.B.B.B.B.B.B.B.B.B.B.B.B.B.B.B.B.B.B.B.B.B.B.B.B.B.B.B.B.B.B.B.B.B.B.B.B.B.B.B.B.B.B.B.B.B.B.B.B.B.B.B.B.B.B.B.B.B.B.B.B.B.B.B.B.B.B.B.B.B.B.B.B.B.B.B.B.B.B.B.B.B.B.B.B.B.B.B.B.B.B.B.B.B.B.B.B.B.B.B.B.B.B.B.B.B.B.B.B.B.B.B.B.B.B.N.B.B.B.B.B.B.B.B.B.B.B.B.B.B.B.B.B.B.B.B.B.B.B.B.B.B.B.B.B.B.B.B.B.B.B.B.B.B.B.B.B.B.B.B.B.B.B.B.B.B.B.B.B.B.B.B.B.B.B.B.B.B.B.B.B.B.B.B.B.B.B.B.B.B.B.B.B.B.B.B.B.B.B.B.B.B.B.B.B.B.B.B.B.B.B.B.B.B.B.B.B.B.B.B.B.B.B.B.B.B.B.B.B.N.N.B.B.B.B.B.B.B.B.B.B.B.B.B.B.B.B.V.V.B.B.B.B.B.B.B.B.B.B.B.B.B.B.B.B.B.B.B.B.B.B.B.B.B.B.B.B.B.B.U.U.2 5 . . . + $ $ A Z Z A Z V S S b.B.B.V.A A A A i.S S d.b.V.4 4 . . . . B.                                              ",
"                                                . . # $ # # 2 7 m.B.U.U.B.B.V V l f 2 2 : 8 # # O # # # o O 4 5 R.T.*X;X&X*X>X*X.X.XXX.XoXoX[.[.OXoX;X*XE.R.i u $ O . . . . + . O @ @ . 8 8 u f 6 7 m k m m b.b.B.B.A S . . O O + + . .                     + + + @ + . S A U.T.m.M.A i.i.d.h.b.h.d.A A S S i.S h j o * % % & 9 U T t.lXdXpXiXiXiXiXwXuXiXiXkXkXjXkXkXkXkXkXjXjXjXjXjXjXkXkXkXkXhXhXhXhXhXhXsXsXhXhXfXfXhXjXxXxXfXfXhXfXfXfXfXfXfXfXfXfXfXfXsXiXsXfXsXfXfXsXsXfXfXfXfXfXfXfXfXfXiXiXsXfXfXfXsXiXfXdXdXlXt.t.y.y.!.F.F.Z.S.B.B.B.B.B.B.B.B.B.B.B.B.B.B.B.B.B.B.B.B.B.B.B.B.B.B.B.B.B.B.B.B.B.B.B.B.B.B.B.B.B.B.B.B.B.B.B.B.B.B.B.B.B.B.B.B.B.B.B.B.B.B.B.B.B.B.B.B.B.B.B.B.B.B.B.B.B.B.B.B.B.B.B.B.B.B.B.B.B.B.B.B.B.B.B.B.B.B.B.B.B.B.B.B.B.B.B.B.B.B.B.B.B.B.B.B.B.B.B.B.B.B.B.B.B.B.B.B.B.B.B.B.B.B.B.B.B.B.B.B.B.B.B.B.B.B.B.B.B.B.B.B.B.B.B.B.B.B.B.B.B.B.B.B.B.B.B.B.B.B.B.B.B.B.B.B.B.B.B.B.B.B.B.B.B.B.B.B.B.B.B.B.B.B.B.B.B.B.B.B.B.B.B.B.B.B.B.B.B.B.B.B.B.B.B.B.B.B.B.B.B.B.B.B.B.B.B.B.B.B.B.B.B.B.B.B.B.B.B.B.B.B.B.B.B.B.B.B.B.B.B.B.B.B.B.B.B.B.B.B.B.B.B.B.B.B.B.B.B.B.B.B.B.B.B.B.B.B.B.B.B.B.B.B.B.B.B.B.B.B.B.B.B.B.B.B.B.B.B.B.B.B.B.B.B.B.B.B.B.B.B.B.B.B.B.B.B.B.B.B.B.B.B.B.B.B.B.B.B.B.B.B.B.B.B.B.B.B.B.B.B.B.B.B.B.B.B.B.B.B.B.B.B.B.B.B.B.B.B.B.B.B.B.B.B.B.B.B.B.B.B.B.B.B.B.B.B.B.B.B.B.B.B.B.B.B.B.B.B.B.B.B.B.B.B.B.B.B.B.B.B.B.V.B.B.B.B.B.B.B.B.B.B.B.B.B.B.B.B.B.B.B.B.B.B.B.B.B.B.B.B.B.B.B.B.B.B.B.B.B.B.B.B.B.B.B.B.B.B.B.B.B.B.B.B.B.B.B.B.B.B.B.B.B.B.B.B.B.B.B.B.B.B.B.B.B.B.B.B.B.B.B.B.B.B.B.B.B.B.B.B.B.B.B.B.B.B.B.B.B.B.B.B.B.B.B.B.B.B.B.B.B.B.B.B.B.B.B.B.B.B.B.B.B.B.B.B.B.B.B.B.B.B.B.B.B.B.B.B.B.B.B.B.B.B.B.B.B.B.B.B.B.B.B.B.B.B.B.B.B.B.B.B.B.B.B.B.B.B.B.B.B.B.B.B.B.B.B.B.B.B.B.B.B.B.B.B.B.B.B.B.B.B.B.B.B.B.B.B.B.B.B.B.B.B.B.B.B.B.B.B.B.B.B.B.B.B.B.B.B.B.B.B.B.B.B.B.B.B.B.B.B.B.B.B.B.B.B.B.B.B.B.B.B.B.B.B.B.B.B.B.B.B.B.B.B.B.B.B.B.B.B.B.B.B.B.B.B.B.B.B.B.B.B.B.B.B.B.B.B.B.B.B.B.B.B.B.B.B.B.B.B.B.B.B.B.B.B.B.B.B.B.B.B.B.B.B.B.B.B.B.B.B.B.B.B.B.B.B.B.B.B.B.B.B.B.B.B.B.B.B.B.B.B.B.B.B.B.B.B.B.B.B.B.B.B.B.B.B.B.B.B.B.B.B.B.B.B.B.B.B.B.B.V.B.B.B.B.B.B.B.V.B.B.B.B.B.B.B.B.B.B.B.B.B.B.B.B.B.B.B.B.B.B.B.B.B.B.B.B.B.B.B.B.B.B.B.B.B.B.B.B.B.B.B.B.B.B.B.B.B.B.B.B.B.B.B.B.B.B.B.B.B.B.B.B.B.B.B.B.B.B.B.B.B.B.B.B.B.B.B.B.B.B.B.B.B.B.B.B.B.B.B.B.B.B.B.B.B.B.B.B.B.B.B.B.B.B.B.B.B.B.B.B.B.B.B.B.B.B.B.B.B.B.B.B.B.B.B.B.B.B.B.V.B.B.B.B.B.B.B.B.B.B.B.B.B.B.B.B.B.B.B.B.B.B.B.B.B.B.B.B.B.B.B.T.U.7 7 + . . . $ # A A A A A Z m.N.E.E.V.V.Z A V V S S S i.M.V.5 4 . . . . V.                                              ",
"                                                + + $ $ $ $ 2 2 B.B.U.U.B.B.F V l G 7 7 8 2 # $ O # O # . O 4 5 T.T.;X>XOXOX>X;X.X X.X X.X.X[.[.oXoX*X;XE.[.i i O @ . . . . # $ O @ $ @ 8 8 7 u 7 7 k k m k V.V.B.B.A S + + O O + + . .                     + + . + + . i.S T.R.m.M.p.i.d.m.b.V.h.d.A A A A i.S j j o * X % & 9 U T 1.aXaXpXiXiXiXiXqXiXiXfXxXxXkXkXkXkXkXkXkXkXkXkXkXkXkXkXkXkXjXjXjXjXjXjXjXhXfXfXfXfXjXjXjXxXjXjXjXfXfXfXfXfXfXfXfXpXfXfXfXfXfXfXfXfXfXfXfXfXfXdXfXdXfXfXfXfXpXpXfXfXfXdXdXdXdXdXdXlXt.t.y.y.F.F.C.Z.S.B.B.B.B.B.B.B.B.B.B.B.B.B.B.B.B.B.B.B.B.B.B.B.B.B.B.B.B.B.B.B.B.B.B.B.B.B.B.B.B.B.B.B.B.B.B.B.B.B.B.B.B.B.B.B.B.B.B.B.B.B.B.B.B.B.B.B.B.B.B.B.B.B.B.B.B.B.B.B.B.B.B.B.B.B.B.B.B.B.B.B.B.B.B.B.B.B.B.B.B.B.B.B.B.B.B.B.B.B.B.B.B.B.B.B.B.B.B.B.B.B.B.B.B.B.B.B.B.B.B.B.B.B.B.B.B.B.B.B.B.B.B.B.B.B.B.B.B.B.B.B.B.B.B.B.B.B.B.B.B.B.B.B.B.B.B.B.B.B.B.B.B.B.B.B.B.B.B.B.B.B.B.B.B.B.B.B.B.B.B.B.B.B.B.B.B.B.B.B.B.B.B.B.B.B.B.B.B.B.B.B.B.B.B.B.B.B.B.B.B.B.B.B.B.B.B.B.B.B.B.B.B.B.B.B.B.B.B.B.B.B.B.B.B.B.B.B.B.B.B.B.B.B.B.B.B.B.B.B.B.B.B.B.B.B.B.B.B.B.B.B.B.B.B.B.B.B.B.B.B.B.B.B.B.B.B.B.B.B.B.B.B.B.B.B.B.B.B.B.B.B.B.B.B.B.B.B.B.B.B.B.B.B.B.B.B.B.B.B.B.B.B.B.B.B.B.B.B.B.B.B.B.B.B.B.B.B.B.B.B.B.B.B.B.B.B.B.B.B.B.B.B.B.B.B.B.B.B.B.B.B.B.B.B.B.B.B.B.B.B.B.B.B.B.B.B.B.B.B.B.B.B.B.B.B.B.B.B.B.B.B.B.B.B.B.B.B.B.B.B.B.B.B.B.B.B.B.B.B.B.B.B.B.B.B.B.B.B.B.B.B.B.B.B.B.B.B.B.B.B.B.B.B.B.B.B.B.B.B.B.B.B.B.B.B.B.B.B.B.B.B.B.B.B.B.B.B.B.B.B.B.B.B.B.B.B.B.B.B.B.B.B.B.B.B.B.B.B.B.B.B.B.B.B.B.B.B.B.B.B.B.B.B.B.B.B.B.B.B.B.B.B.B.B.B.B.B.B.B.B.B.B.B.B.B.B.B.B.B.B.B.B.B.B.B.B.B.B.B.B.B.B.B.B.B.B.B.B.B.B.B.B.B.B.B.B.B.B.B.B.B.B.B.B.B.B.B.B.B.B.B.B.B.B.B.B.B.B.B.B.B.B.B.B.B.B.B.B.B.B.B.B.B.B.B.B.B.B.B.B.B.B.B.B.B.B.B.B.B.B.B.B.B.B.B.B.B.B.B.B.B.B.B.B.B.B.B.B.B.B.B.B.B.B.B.B.B.B.B.B.B.B.B.B.B.B.B.B.B.B.B.B.B.B.B.B.B.B.B.B.B.B.B.B.B.B.B.B.B.B.B.B.B.B.B.B.B.B.B.B.B.B.B.B.B.B.B.B.B.B.B.B.B.B.B.B.B.B.B.B.B.B.B.B.B.B.B.B.B.B.B.B.B.B.B.B.B.B.B.B.B.B.B.B.B.B.B.B.B.B.B.B.B.B.B.B.B.B.B.B.B.B.B.B.B.B.B.B.B.B.B.B.B.B.B.B.B.B.B.B.B.B.B.B.B.B.B.B.B.B.B.B.B.B.B.B.B.B.B.B.B.B.B.B.B.B.B.B.B.B.B.B.B.B.B.B.B.B.B.B.B.B.B.B.B.B.B.B.B.B.B.B.B.B.B.B.B.B.B.B.B.B.B.B.B.B.B.B.B.B.B.B.B.B.B.B.B.B.B.B.B.B.B.B.B.B.B.B.B.B.B.B.B.B.B.B.B.B.B.B.B.B.B.B.B.B.B.B.B.B.B.B.B.B.B.B.B.B.B.B.B.B.B.B.B.B.B.B.B.B.B.B.B.B.B.B.B.B.B.B.B.B.B.B.B.B.B.B.B.B.B.B.B.V.V.B.B.B.B.B.B.B.B.B.B.B.B.B.B.B.B.B.B.B.B.B.B.B.B.B.B.B.B.B.B.T.U.7 2 + . . . $ # A A Z V V V B.B.E.E.B.B.Z A V V A A i.i.V.m.5 5 . . . . V.                                              ",
"                                                . . $ $ # # 7 6 B.B.T.U.b.b.8 8 @ @ # # 8 2 2 2 # # # O X O 5 e A S ].[.H.B.E.E. X XoX.X.XXX XXX>X;X;X,XR.E.4 , , # . . . . . . + + + . > # # > . . . . + $ A S V.B.Z A + + O @ + + . .                     + + . . . . b.d.E.E.U.U.b.b.d.d.i.i.d.d.A A A A i.i.j k o * X % & 9 I L 1.aXyXuXpXpX0X0X9X0XqXqXiXiXsXsXsXsXsXsXsXsXsXsXsXsXsXsXsXsXsXfXsXfXsXfXsXsXsXsXiXiXiXiXiXuXsXsXsXsXsXfXfXfXfXfXfXdXfXfXfXfXdXdXdXdXfXfXfXfXfXdXdXdXfXdXdXfXfXfXdXdXzXdXdXdXzXzXlXlXt.t.y.y.F.F.C.C.B.B.B.B.B.B.B.B.B.B.B.B.B.B.B.B.B.B.B.B.B.B.B.B.B.B.B.G.B.B.B.B.B.B.B.B.B.B.B.B.B.B.B.B.B.B.B.B.B.B.B.B.B.B.B.B.B.B.B.B.B.B.B.B.B.B.B.B.B.B.B.B.B.B.B.B.B.B.B.B.B.B.B.B.B.B.B.B.B.B.B.B.B.B.B.B.B.B.B.B.B.B.B.B.B.B.B.B.B.B.B.B.B.B.B.B.B.B.B.B.B.B.B.B.B.B.B.B.B.B.B.B.B.B.B.B.B.B.B.B.B.B.B.B.B.B.B.B.B.B.B.B.B.B.B.B.B.B.B.B.B.B.B.B.B.B.B.B.B.B.B.B.B.B.B.B.B.B.B.B.B.B.B.B.B.B.B.B.B.B.B.B.B.B.B.B.B.B.B.B.B.B.B.B.B.B.B.B.B.B.B.B.B.B.B.B.B.B.B.B.B.B.B.B.B.B.B.B.B.B.B.B.B.B.B.B.B.B.B.B.B.B.B.B.B.B.B.B.B.B.B.B.B.B.B.B.B.B.B.B.B.B.B.B.B.B.B.B.B.B.B.B.B.B.B.B.B.B.B.B.B.B.B.B.B.B.B.B.B.B.B.B.B.B.B.B.B.B.B.B.B.B.B.B.B.B.B.B.B.B.B.B.B.B.B.B.B.B.B.B.B.B.B.B.B.B.B.B.B.B.B.B.B.B.B.B.B.B.B.B.B.B.B.B.B.B.B.B.B.B.B.B.B.B.B.B.B.B.B.B.B.B.B.B.B.B.B.B.B.B.B.B.B.B.B.B.B.B.B.B.B.B.B.B.B.B.B.B.B.B.B.B.B.B.B.B.B.B.B.B.B.B.B.B.B.B.B.B.B.B.B.B.B.B.B.B.B.B.B.B.B.B.B.B.B.B.B.B.B.B.B.B.B.B.B.B.B.B.B.B.B.B.B.B.B.B.B.B.B.B.B.B.B.B.B.B.B.B.B.B.B.B.B.B.B.B.B.B.B.B.B.B.B.B.B.B.B.B.B.B.B.B.B.B.B.B.B.B.B.B.B.B.B.B.B.B.B.B.B.B.B.B.B.B.B.B.B.B.B.B.B.B.B.B.B.B.B.B.B.B.B.B.B.B.B.B.B.B.B.B.B.B.B.B.B.B.B.B.B.B.B.B.B.B.B.B.B.B.B.B.B.B.B.B.B.B.B.B.B.B.B.B.B.B.B.B.B.B.B.B.B.B.B.B.B.B.B.B.B.B.B.B.B.B.B.B.B.B.B.B.B.B.B.B.B.B.B.B.B.B.B.B.B.B.B.B.B.B.B.B.B.B.B.B.B.B.B.B.B.B.B.B.B.B.B.B.B.B.B.B.B.B.B.B.B.B.B.B.B.B.B.B.B.B.B.B.B.B.B.B.B.B.B.B.B.B.B.B.B.B.B.B.B.B.B.B.B.B.B.B.B.B.B.B.B.B.B.B.B.B.B.B.B.B.B.B.B.B.B.B.B.B.B.B.B.B.B.B.B.B.B.B.B.B.B.B.B.B.B.B.B.B.B.B.B.B.B.B.B.B.B.B.B.B.B.B.B.B.B.B.B.B.B.B.B.B.B.B.B.B.B.B.B.B.B.B.B.B.B.B.B.B.B.B.B.B.B.B.B.B.B.B.B.B.B.B.B.B.B.B.B.B.B.B.B.B.B.B.B.B.B.B.B.B.B.B.B.B.B.B.B.B.B.B.B.B.B.B.B.B.B.B.B.B.B.B.B.B.B.B.B.B.B.B.B.B.B.B.B.B.B.B.B.B.B.B.B.B.B.B.B.B.B.B.B.B.B.B.B.B.B.B.B.B.B.B.B.B.B.B.B.V.B.B.B.B.B.B.B.B.B.B.B.B.B.B.B.B.B.B.B.B.B.B.B.B.B.B.B.B.B.B.B.B.B.B.B.N.N.N.B.B.B.B.B.B.B.B.B.B.B.B.B.B.V.V.V.V.B.B.B.B.B.B.B.B.B.B.B.B.B.B.B.B.B.B.B.B.B.B.B.B.B.B.B.B.T.Y.7 5 + . . . $ # A A A S A A U.U.E.E.B.B.Z Z V V Z C 0.S M.b.5 5 . . . . V.                                              ",
"                                                . . $ $ # # 7 6 B.B.U.U.S b.# 8 . . # $ 2 = 2 = = = O O O O 5 5 A S E.[.M.M.[.].E.E..X.X[.[.[.XX>X;X>X,XR.E.5 4 , # . . . . X X X X X + # # @ @ . . . . + O S S B.B.Z A . + O O + + . .                     $ + . . . . b.b.].].U.U.b.b.d.d.d.d.d.d.A A A Z S S k k o O X % & 9 I L 1.;.yXuXpXpXuXuX7X8XuXuXfXfXfXfXfXdXdXdXdXdXdXdXdXdXdXdXdXsXfXfXfXfXfXfXfXfXfXfXfXdXdXdXdXdXdXfXfXfXfXdXdXdXdXdXdXdXdXdXdXdXzXzXdXdXdXdXdXdXdXdXdXdXdXdXdXdXdXdXdXzXzXzXdXdXdXzXlXlXt.t.y.y.F.C.C.Z.B.B.B.B.B.B.B.B.B.B.B.B.B.B.B.B.B.B.B.B.B.B.B.B.B.B.B.B.B.B.B.B.B.B.B.B.B.B.B.B.B.B.B.B.B.B.B.B.B.B.B.B.B.B.B.B.B.B.B.B.B.B.B.B.B.B.B.B.B.B.B.B.B.B.B.B.B.B.B.B.B.B.B.B.B.B.B.B.B.B.B.B.B.B.B.B.B.B.B.B.B.B.B.B.B.B.B.B.B.B.B.B.B.B.B.B.B.B.B.B.B.B.B.B.B.B.B.B.B.B.B.B.B.B.B.B.B.B.B.B.B.B.B.B.B.B.B.B.B.B.B.B.B.B.B.B.B.B.B.B.B.B.B.B.B.B.B.B.B.B.B.B.B.B.B.B.B.B.B.B.B.B.B.B.B.B.B.B.B.B.B.B.B.B.B.B.B.B.B.B.B.B.B.B.B.B.B.B.B.B.B.B.B.B.B.B.B.B.B.B.B.B.B.B.B.B.B.B.B.B.B.B.B.B.B.B.B.B.B.B.B.B.B.B.B.B.B.B.B.B.B.B.B.B.B.B.B.B.B.B.B.B.B.B.B.B.B.B.B.B.B.B.B.B.B.B.B.B.B.B.B.B.B.B.B.B.B.B.B.B.B.B.B.B.B.B.B.B.B.B.B.B.B.B.B.B.B.B.B.B.B.B.B.B.B.B.B.B.B.B.B.B.B.B.B.B.B.B.B.B.B.B.B.B.B.B.B.B.B.B.B.B.B.B.B.B.B.B.B.B.B.B.B.B.B.B.B.B.B.B.B.B.B.B.B.B.B.B.B.B.B.B.B.B.B.B.B.B.B.B.B.B.B.B.B.B.B.B.B.B.B.B.B.B.B.B.B.B.B.B.B.B.B.B.B.B.B.B.B.B.B.B.B.B.B.B.B.B.B.B.B.B.B.B.B.B.B.B.B.B.B.B.B.B.B.B.B.B.B.B.B.B.B.B.B.B.B.B.B.B.B.B.B.B.B.B.B.B.B.B.B.B.B.B.B.B.B.B.B.B.B.B.B.B.B.B.B.B.B.B.B.B.B.B.B.B.B.B.B.B.B.B.B.B.B.B.B.B.B.B.B.B.B.B.B.B.B.B.B.B.B.B.B.B.B.B.B.B.B.B.B.B.B.B.B.B.B.B.B.B.B.B.B.B.B.B.B.B.B.B.B.B.B.B.B.B.B.B.B.B.B.B.B.B.B.B.B.B.B.B.B.B.B.B.B.B.B.B.B.B.B.B.B.B.B.B.B.B.B.B.B.B.B.B.B.B.B.B.B.B.B.B.B.B.B.B.B.B.B.B.B.B.B.B.B.B.B.B.B.B.B.B.B.B.B.B.B.B.B.B.B.B.B.B.B.B.B.B.B.B.B.B.B.B.B.B.B.B.B.B.B.B.B.B.B.B.B.B.B.B.B.B.B.B.B.B.B.B.B.B.B.B.B.B.B.B.B.B.B.B.B.B.B.B.B.B.B.B.B.B.B.B.B.B.B.B.B.B.B.B.B.B.B.B.B.B.B.B.B.B.B.B.B.B.B.B.B.B.B.B.B.B.B.B.B.B.B.B.B.B.B.B.B.B.B.B.B.B.B.B.B.B.B.B.B.B.B.B.B.B.B.B.B.B.B.B.B.B.B.B.B.B.B.B.B.B.B.B.B.B.B.B.B.B.B.B.B.B.B.B.B.B.B.B.B.B.B.B.B.B.B.B.B.B.B.B.B.B.B.B.B.B.B.B.B.B.B.B.B.B.B.B.B.B.B.B.B.B.B.B.B.B.B.B.B.B.B.B.B.B.B.B.B.B.B.B.B.B.B.B.B.B.B.B.B.B.B.B.B.B.B.B.B.B.B.B.B.B.B.B.B.B.B.B.B.B.B.B.B.B.B.B.B.B.B.B.B.B.B.B.B.B.B.B.B.B.B.B.B.B.B.B.B.B.B.B.B.N.N.N.B.B.B.B.B.B.B.B.B.B.B.B.B.B.V.V.V.V.B.B.B.B.B.B.B.B.B.B.B.B.B.B.B.B.B.B.B.B.B.B.B.B.B.B.B.B.T.Y.7 7 + . . . $ # A A Z A Z Z U.U.E.E.U.K.Z Z m m C C d.S M.b.6 5 . . . . V.                                              ",
"                                                + + # $ # $ 2 2 b.b.T.E.B.G.2 , $ @ # # 2 = = = O O X O X X , , # # f g 4 4 b k [. X%X*XoXOX&X%XoX.XE.R.m.G.m A # $ + . . . . X . X . X # # O # . . . . O O S S K.K.S S + + # # + + . .                     $ + + + . . b.b.[.[.T.K.b.b.d.d.i.d.i.d.A A A V A A j k o O X % & 9 I J <.;.rXtXpXpX8X8X9X7X8X7XuXuXgXgXgXgXuXgXgXgXgXgXgXgXgXgXgXuXuXuXuXuXuXuXuX8X8X8X8X8XtXtXuXgXgXuXuXtXtX8X8X8XtX8XtXtXtXyX8XrXeXeXeXeX6X6X6XeXtXuXdXdXdXdXuXtXyXyXyXyXyXyXrXrXeXeX=.;.#.<.r.e.!.C.C.Z.B.B.B.B.B.B.B.B.B.B.B.B.B.B.B.B.B.B.B.B.B.B.B.B.B.B.B.B.B.B.B.B.B.B.B.B.B.B.B.B.B.B.B.B.B.B.B.B.B.B.B.B.B.B.B.B.B.B.B.B.B.B.B.B.B.B.B.B.B.B.B.B.B.B.B.B.B.B.B.B.B.B.B.B.B.B.B.B.B.B.B.B.B.B.B.B.B.B.B.B.B.B.B.B.B.B.B.B.B.B.B.B.B.B.B.B.B.B.B.B.B.B.B.B.B.B.B.B.B.B.B.B.B.B.B.B.B.B.B.B.B.B.B.B.B.B.B.B.B.B.B.B.B.B.B.B.B.B.B.B.B.B.B.B.B.B.B.B.B.B.B.B.B.B.B.B.B.B.B.B.B.B.B.B.B.B.B.B.B.B.B.B.B.B.B.B.B.B.B.B.B.B.B.B.B.B.B.B.B.B.B.B.B.B.B.B.B.B.B.B.B.B.B.B.B.B.B.B.B.B.B.B.B.B.B.B.B.B.B.B.B.B.B.B.B.B.B.B.B.B.B.B.B.B.B.B.B.B.B.B.B.B.B.B.B.B.B.B.B.B.B.B.B.B.B.B.B.B.B.B.B.B.B.B.B.B.B.B.B.B.B.B.B.B.B.B.B.B.B.B.B.B.B.B.B.B.B.B.B.B.B.B.B.B.B.B.B.B.B.B.B.B.B.B.B.B.B.B.B.B.B.B.B.B.B.B.B.B.B.B.B.B.B.B.B.B.B.B.B.B.B.B.B.B.B.B.B.B.B.B.B.B.B.B.B.B.B.B.B.B.B.B.B.B.B.B.B.B.B.B.B.B.B.B.B.B.B.B.B.B.B.B.B.B.B.B.B.B.B.B.B.B.B.B.B.B.B.B.B.B.B.B.B.B.B.B.B.B.B.B.B.B.B.B.B.B.B.B.B.B.B.B.B.B.B.B.B.B.B.B.B.B.B.B.B.B.B.B.B.B.B.B.B.B.B.B.B.B.B.B.B.B.B.B.B.B.B.B.B.B.B.B.B.B.B.B.B.B.B.B.B.B.B.B.B.B.B.B.B.B.B.B.B.B.B.B.B.B.B.B.B.B.B.B.B.B.B.B.B.B.B.B.B.B.B.B.B.B.B.B.B.B.B.B.B.B.B.B.B.B.B.B.B.B.B.B.B.B.B.B.B.B.B.B.B.B.B.B.B.B.B.B.B.B.B.B.B.B.B.B.B.B.B.B.B.B.B.B.B.B.B.B.B.B.B.B.B.B.B.B.B.B.B.B.B.B.B.B.B.B.B.B.B.B.B.B.B.B.B.B.B.B.B.B.B.B.B.B.B.B.B.B.B.B.B.B.B.B.B.B.B.B.B.B.B.B.B.B.B.B.B.B.B.B.B.B.B.B.B.B.B.B.B.B.B.B.B.B.B.B.B.B.B.B.B.B.B.B.B.B.B.B.B.B.B.B.B.B.B.B.B.B.B.B.B.B.B.B.B.B.B.B.B.B.B.B.B.B.B.B.B.B.B.B.B.B.B.B.B.B.B.B.B.B.B.B.B.B.B.B.B.B.B.B.B.B.B.B.B.B.B.B.B.B.B.B.B.B.B.B.B.B.B.B.B.B.B.B.B.B.B.B.B.B.B.B.B.B.B.B.B.B.B.B.B.B.B.B.B.B.B.B.B.B.B.B.B.B.B.B.B.B.B.B.B.B.B.B.B.B.B.B.B.B.B.B.B.B.B.B.B.B.B.B.B.B.B.B.B.B.B.B.B.B.B.B.B.B.B.B.B.B.B.B.B.B.B.B.B.B.B.B.B.B.B.B.B.B.B.B.B.B.B.B.B.B.B.B.B.B.B.B.B.B.B.B.B.B.B.B.B.B.B.B.B.B.B.B.B.B.B.B.B.B.B.B.B.B.B.B.B.B.B.B.B.B.B.B.B.B.B.B.B.B.N.N.N.N.B.B.B.B.B.B.B.B.B.B.B.B.B.B.B.B.B.B.V.V.B.B.B.B.B.B.B.B.B.B.B.B.B.B.B.B.B.B.B.B.B.B.B.B.B.B.B.B.T.U.7 7 + + . . $ # A A m V V V T.T.'. XT.K.V V m m C C a.a.M.V.i i . . . . b.                                              ",
"                                                + + # $ # $ 2 2 S b.T.E.G.B.4 : . . O $ = = = = * * * - O O , = 3 4 e e 4 4 k k '.'.%X*XoXOX&X%XOX&XE.E.B.B.A A # # * X X X X X X X . X O # + + . + . . + O S b.B.B.A A + + # # + + . .                     + + + + . . d.b.].'.T.T.b.b.i.S A A d.d.S A A V A Z j k o O X % & 9 I J t.;.rXyXtXuXuXtX8X8XtXtXuXuXgXgXgXgXgXgXgXgXgXgXgXgXdXdXgXgXuXuXuXtXtXtXtXtXtXtX8XtXtXtXgXgXtXtXtXtXtXtX8XtXtXtXtXtXtXyXyXyXrXrXrXrXrXrXeXeXyXyXuXdXuXtXyXeXuXtXyXyXyXyXrXrXeXeX=.;.#.r.y.y.!.C.C.Z.B.B.B.B.B.B.B.B.B.B.B.B.B.B.B.B.B.B.B.B.B.B.B.B.B.B.B.B.B.B.B.B.B.B.B.B.B.B.B.B.B.B.B.B.B.B.B.B.B.B.B.B.B.B.B.B.B.B.B.B.B.B.B.B.B.B.B.B.B.B.B.B.B.B.B.B.B.B.B.B.B.B.B.B.B.B.B.B.B.B.B.B.B.B.B.B.B.B.B.B.B.B.B.B.B.B.B.B.B.B.B.B.B.B.B.B.B.B.B.B.B.B.B.B.B.B.B.B.B.B.B.B.B.B.B.B.B.B.B.B.B.B.B.B.B.B.B.B.B.B.B.B.B.B.B.B.B.B.B.B.B.B.B.B.B.B.B.B.B.B.B.B.B.B.B.B.B.B.B.B.B.B.B.B.B.B.B.B.B.B.B.B.B.B.B.B.B.B.B.B.B.B.B.B.B.B.B.B.B.B.B.B.B.B.B.B.B.B.B.B.B.B.B.B.B.B.B.B.B.B.B.B.B.B.B.B.B.B.B.B.B.B.B.B.B.B.B.B.B.B.B.B.B.B.B.B.B.B.B.B.B.B.B.B.B.B.B.B.B.B.B.B.B.B.B.B.B.B.B.B.B.B.B.B.B.B.B.B.B.B.B.B.B.B.B.B.B.B.B.B.B.B.B.B.B.B.B.B.B.B.B.B.B.B.B.B.B.B.B.B.B.B.B.B.B.B.B.B.B.B.B.B.B.B.B.B.B.B.B.B.B.B.B.B.B.B.B.B.B.B.B.B.B.B.B.B.B.B.B.B.B.B.B.B.B.B.B.B.B.B.B.B.B.B.B.B.B.B.B.B.B.B.B.B.B.B.B.B.B.B.B.B.B.B.B.B.B.B.B.B.B.B.B.B.B.B.B.B.B.B.B.B.B.B.B.B.B.B.B.B.B.B.B.B.B.B.B.B.B.B.B.B.B.B.B.B.B.B.B.B.B.B.B.B.B.B.B.B.B.B.B.B.B.B.B.B.B.B.B.B.B.B.B.B.B.B.B.B.B.B.B.B.B.B.B.B.B.B.B.B.B.B.B.B.B.B.B.B.B.B.B.B.B.B.B.B.B.B.B.B.B.B.B.B.B.B.B.B.B.B.B.B.B.B.B.B.B.B.B.B.B.B.B.B.B.B.B.B.B.B.B.B.B.B.B.B.B.B.B.B.B.B.B.B.B.B.B.B.B.B.B.B.B.B.B.B.B.B.B.B.B.B.B.B.B.B.B.B.B.B.B.B.B.B.B.B.B.B.B.B.B.B.B.B.B.B.B.B.B.B.B.B.B.B.B.B.B.B.B.B.B.B.B.B.B.B.B.B.B.B.B.B.B.B.B.B.B.B.B.B.B.B.B.B.B.B.B.B.B.B.B.B.B.B.B.B.B.B.B.B.B.B.B.B.B.B.B.B.B.B.B.B.B.B.B.B.B.B.B.B.B.B.B.B.B.B.B.B.B.B.B.B.B.B.B.B.B.B.B.B.B.B.B.B.B.B.B.B.B.B.B.B.B.B.B.B.B.B.B.B.B.B.B.B.B.B.B.B.B.B.B.B.B.B.B.B.B.B.B.B.B.B.B.B.B.B.B.B.B.B.B.B.B.B.B.B.B.B.B.B.B.B.B.B.B.B.B.B.B.B.B.B.B.B.B.B.B.B.B.B.B.B.B.B.V.B.B.B.B.B.B.V.B.B.B.B.B.B.B.B.B.B.B.B.B.B.B.B.B.B.B.B.B.B.B.B.B.B.B.B.B.B.B.B.B.B.B.B.B.B.B.B.B.B.B.B.B.B.B.B.B.B.B.B.B.B.B.B.B.B.B.B.B.B.B.B.B.B.B.B.B.B.B.B.B.B.B.B.B.B.B.B.B.B.B.B.B.B.B.B.B.B.B.B.B.B.B.B.B.B.B.B.B.B.B.B.B.B.B.B.B.B.B.B.B.B.B.B.B.B.B.B.B.B.B.B.B.B.B.B.B.B.B.B.B.B.V.B.B.B.B.B.B.B.B.B.B.B.B.B.B.B.B.B.B.B.B.B.B.B.B.B.B.B.B.B.T.U.6 7 + + . . # # A A V A Z Z U.U.'. XU.K.V V m m C A 0.0.M.M.i i . . . . b.                                              ",
"                                                + + # $ # # 7 6 m k V m k k , 2 # # = = * * * - - - - 3 = = 3 3 = = # # # # u 6  X X;X>XOX*X;X;X&XXXm h # , , 4 O O - - - 3 - - - - * - * * . . . . + # 8 # S S V.B.V Z . + $ $ + + . .                     + + . . . . d.d.R.R.M.H.i.d.d.d.d.d.d.d.A A A V A Z h k o * X % & 9 R J t.;.=.yXeXtX6X6X6X6X6X5X8X7X8X8X6X6X6X6X6X6X7X7X7X8X8X8X6X6X6X6X7X6X6X6X6X6X7X6X6X6X6X6X6X6X6X6X6X6X6X6X6X6X6XX.X.X.] X.] ] ] ' ] ' ' ] ] ] yXyXyXyXyXyXeX6X6X6XX.{ ] ' ' [ ] [ [ +.| / r.e.!.F.Z.M.B.B.B.N.B.B.B.B.B.B.B.H.B.B.B.B.B.B.B.B.B.B.B.B.B.B.B.B.B.B.B.B.B.B.B.B.B.B.B.B.B.B.B.B.Q.Q.B.B.B.B.B.B.B.B.B.B.B.B.B.B.B.B.B.B.B.B.B.B.B.B.B.B.B.B.B.B.B.B.B.B.B.B.B.B.B.B.B.B.B.B.B.B.B.B.B.B.B.B.B.B.B.B.B.B.B.B.B.B.B.B.B.B.B.B.B.B.B.B.B.B.B.B.B.B.B.B.B.B.B.B.B.B.B.B.B.B.B.B.B.B.B.B.B.B.B.B.B.B.B.B.B.B.B.B.B.B.B.B.B.B.B.B.B.B.B.B.B.B.B.B.B.B.B.B.B.B.B.B.B.B.B.B.B.B.B.B.B.B.B.B.B.B.B.B.B.B.B.B.B.B.B.B.B.B.B.B.B.B.B.B.B.B.B.B.B.B.B.B.B.B.B.B.B.B.B.B.B.B.B.B.B.B.B.B.B.B.B.B.B.B.B.B.B.B.B.B.B.B.B.B.B.B.B.B.B.B.B.B.B.B.B.B.B.B.B.B.B.B.B.B.B.B.B.B.B.B.B.B.B.B.B.B.B.B.B.B.B.B.B.B.B.B.B.B.B.B.B.B.B.B.B.B.B.B.B.B.B.B.B.B.B.B.B.B.B.B.B.B.B.B.B.B.B.B.B.B.B.B.B.B.B.B.B.B.B.B.B.B.B.B.B.B.B.B.B.B.B.B.B.B.B.B.B.B.B.B.B.B.B.B.B.B.B.B.B.B.B.B.B.B.B.B.B.B.B.B.B.B.B.B.B.B.B.B.B.B.B.B.B.B.B.B.B.B.B.B.B.B.B.B.B.B.B.B.B.B.B.B.V.B.B.B.B.B.B.B.B.B.B.B.B.B.B.B.B.B.B.B.B.B.B.B.B.B.B.B.B.B.B.B.B.B.B.B.B.B.B.B.B.B.B.B.B.B.B.B.B.B.B.B.B.B.B.B.B.B.B.B.B.B.B.B.B.B.B.B.B.B.B.B.B.B.B.B.B.B.B.B.B.B.B.B.B.B.B.B.B.B.B.B.B.B.B.B.B.B.B.B.B.B.B.B.B.B.B.B.B.B.B.B.B.B.B.B.B.B.B.B.B.B.B.B.B.B.B.B.B.B.B.B.B.B.B.B.B.B.B.B.B.B.B.B.B.B.B.B.B.B.B.B.B.B.B.B.B.B.B.B.B.B.B.B.B.B.B.B.B.B.B.B.B.B.B.B.B.B.B.B.B.B.B.B.B.B.B.B.B.B.B.B.B.B.B.B.B.B.B.B.B.B.B.B.B.B.B.B.B.B.B.B.B.B.B.B.B.B.B.B.B.B.B.B.B.B.B.B.B.B.B.B.B.B.B.B.B.B.B.B.B.B.B.B.B.B.B.B.B.B.B.B.B.B.B.B.B.B.B.B.B.B.B.B.B.B.B.B.B.B.B.B.B.B.B.B.B.B.B.B.B.B.B.B.B.B.B.B.B.B.B.B.B.B.B.B.B.B.B.B.B.B.B.B.B.B.B.B.B.B.B.B.B.B.B.B.B.B.B.B.B.B.B.B.B.B.B.B.B.B.B.B.B.B.B.B.B.B.B.B.B.B.B.B.B.B.B.B.B.B.B.B.B.B.B.B.B.B.B.B.B.B.B.B.B.B.B.B.B.B.B.B.B.B.B.B.B.B.B.B.B.B.B.B.B.B.B.B.B.B.B.B.B.B.B.B.B.B.B.B.B.B.B.B.B.B.B.B.B.B.B.B.B.B.B.B.B.B.B.B.B.B.B.B.B.B.B.B.B.B.B.B.B.B.B.B.B.B.B.B.B.B.B.B.B.B.B.B.B.B.B.B.B.B.B.B.B.B.B.B.B.B.B.B.B.B.B.B.B.B.B.B.B.B.B.B.B.B.B.B.B.B.B.B.B.B.B.B.B.B.B.B.B.B.B.B.B.B.B.B.B.B.B.B.B.B.B.B.B.B.B.B.B.B.B.B.B.B.B.B.B.B.B.B.B.B.B.B.T.T.6 6 + + . X # # A A A V V V m.V.T.T.B.B.A A V V C C S A M.M.i 6 . . . . V.                                              ",
"                                                + + # $ # # 7 6 k k V V k k 4 2 @ # # , O * * ; ; - 0 0 - ; 3 3 , , O O # # 5 5 .X X;X>XOX*X>X>XOXOXk m : , , , O O 3 3 - 0 & & 0 0 % ; * * . . + + $ $ # 2 S S b.V.V V . . $ $ + + . .                     + + . . . . d.i.R.R.M.H.d.h.d.d.S S d.d.A A A Z A Z h k o * X % & 9 R J t.;.=.eX6X6X7X7X6X6X6X6X8X6X6X6X6X6X6X6X6X6XrXrXrXrXrX6X6X6X6X6X6X6X6X6X6XeX6X6XrXrXeX6X6X] 6X6X6X6XX.X.6X6XeX6XX.X.X.X.X.X.X.{ ' [ ] ] ] ' yXyXyXyXeX6X6X6XyXeXX.X.[ [ ' [ &.%._ +.~ / y.y.!.F.Z.M.B.B.B.N.B.B.B.B.B.B.B.H.B.B.B.B.B.B.B.B.B.B.B.B.B.B.B.G.B.B.B.B.B.B.B.B.B.B.B.B.B.B.B.B.Q.Q.B.B.B.B.B.B.B.B.B.B.B.B.B.B.B.B.B.B.B.B.B.B.B.B.B.B.B.B.B.B.B.B.B.B.B.B.B.B.B.B.B.B.B.B.B.B.B.B.B.B.B.B.B.B.B.B.B.B.B.B.B.B.B.B.B.B.B.B.B.B.B.B.B.B.B.B.B.B.B.B.B.B.B.B.B.B.B.B.B.B.B.B.B.B.B.B.B.B.B.B.B.B.B.B.B.B.B.V.B.B.B.B.B.B.B.B.B.B.B.B.B.B.B.B.B.B.B.B.B.B.B.B.B.B.B.B.B.B.B.B.B.B.B.B.B.B.B.B.B.B.B.B.B.B.B.B.B.V.B.B.B.B.B.B.B.B.B.B.B.B.B.B.B.B.B.B.B.B.B.B.B.B.B.B.B.B.B.B.B.B.B.B.B.B.B.B.B.B.B.B.B.B.B.B.B.B.B.B.B.B.B.B.B.B.B.B.B.B.B.B.B.B.B.B.B.B.B.B.B.B.B.B.B.B.B.B.B.B.B.B.B.B.B.B.B.B.B.B.B.B.B.B.B.B.B.B.B.B.B.B.B.B.B.B.B.B.B.B.B.B.B.B.B.B.B.B.B.B.B.B.B.B.B.B.B.B.B.B.B.B.B.B.B.B.B.B.B.B.B.B.B.B.B.B.B.B.B.B.B.B.B.B.B.B.B.B.B.B.B.B.B.B.B.B.B.B.B.B.B.B.B.B.B.B.B.B.B.B.B.B.B.B.B.B.B.B.B.B.B.B.B.B.B.B.B.B.B.B.B.B.B.B.V.B.B.B.B.B.B.B.B.B.B.B.B.B.B.B.B.B.B.B.B.B.B.B.B.B.B.B.B.B.B.B.B.B.B.B.B.B.B.B.B.B.B.B.B.B.B.B.B.B.B.B.B.B.B.B.B.B.B.B.B.B.B.B.B.B.B.B.B.B.B.B.B.B.B.B.B.B.B.B.B.B.B.B.B.B.B.B.B.B.B.B.B.B.B.B.B.B.B.B.B.B.B.B.B.B.B.B.B.B.B.B.B.B.B.B.B.B.B.B.B.B.B.B.B.B.B.B.B.B.B.B.B.B.B.B.B.B.B.B.B.B.B.B.B.B.B.B.B.B.B.B.B.B.B.B.B.B.B.B.B.B.B.B.B.B.B.B.B.B.B.B.B.B.B.B.B.B.B.B.B.B.B.B.B.B.B.B.B.B.B.B.B.B.B.B.B.B.B.B.B.B.B.B.B.B.B.B.B.B.B.B.B.B.B.B.B.B.B.B.B.B.B.B.B.B.B.B.B.B.B.B.B.B.B.B.B.B.B.B.B.B.B.B.B.B.B.B.B.B.B.B.B.B.B.B.B.B.B.B.B.B.B.B.B.B.B.B.B.B.B.B.B.B.B.B.B.B.B.B.B.B.B.B.B.B.B.B.B.B.B.B.B.B.B.B.B.B.B.B.B.B.B.B.B.B.B.B.B.B.B.B.B.B.B.B.B.B.B.B.B.B.B.B.B.B.B.B.B.B.B.B.B.B.B.B.B.B.B.B.B.B.B.B.B.B.B.B.B.B.B.B.B.B.B.B.B.B.B.B.B.B.B.B.B.B.B.B.B.B.B.B.B.B.B.B.B.B.B.B.B.B.B.B.B.B.B.B.B.B.B.B.B.B.B.B.B.B.B.B.B.B.B.B.B.B.B.B.B.B.B.B.B.B.B.B.B.B.B.B.B.B.B.B.B.B.B.B.B.B.B.B.B.B.B.B.B.B.B.B.B.B.B.B.B.B.B.B.B.B.B.B.B.B.B.B.B.B.B.B.B.B.B.B.B.B.B.B.B.B.B.B.B.B.B.B.B.B.B.B.B.B.B.B.B.B.B.B.B.B.B.B.B.B.B.B.B.B.B.B.B.B.B.B.B.B.B.B.B.B.B.B.B.B.B.B.B.B.B.B.B.B.B.B.B.B.B.B.T.Y.6 6 + + . . # # A A A Z Z m d.d.T.T.V.B.A S A m C C C C n.n.i 6 . . . . V.                                              ",
"                                                + + # # $ O 6 5 6 u o # : # # O # # , , X * % % & ; v v q.q.r r * O . O , 4 u 6 R.].%X*XOXoX;X;X*XoXi i o o # # * ; p s 7.7.t E t E y r 0 - X X . . $ + O $ 5 6 6 5 f i O o O O + $ . .                     + + . + . . b.i.T.T.J.M.d.d.A d.S S d.d.S Z A Z S S k k X X X % & 9 R J <.;.=.X.6X6X8X8X6X6X6X6X6X6X6X6XX.X.6X6X6XX.{ { { 6X{ { { { ] ] ] ] ] ] ] ] ] { X.X.{ { X.X.' ' ' ' [ [ ' ' ' ' ' ..X...' ' [ [ [ ' ' ' ] { rXyXyXyXrXrXeX6XrXeX&.[ ' ' [ [ _ _  .| ~ / r.e.F.F.F.M.B.B.B.B.B.B.B.B.B.B.B.B.B.B.B.B.B.B.B.B.B.B.B.B.B.B.B.B.B.B.B.B.B.B.B.B.B.B.B.B.B.B.B.B.B.B.B.B.B.B.B.B.B.B.B.B.B.B.B.B.B.B.B.B.B.B.B.B.B.B.B.B.B.B.B.B.B.B.B.B.B.B.B.B.B.B.B.B.B.B.B.B.B.B.B.B.B.B.B.B.B.B.B.B.B.B.B.B.B.B.B.B.B.B.B.B.B.B.B.B.B.B.B.B.B.B.B.B.B.B.B.B.B.B.B.B.B.B.B.B.B.B.B.B.B.B.B.B.B.B.B.B.B.B.B.B.B.B.B.B.B.B.B.B.B.B.B.B.B.B.B.B.B.B.B.B.B.B.B.B.B.B.B.B.B.B.B.B.B.B.B.B.B.B.B.B.B.B.B.B.B.B.B.B.B.B.B.B.B.B.B.B.B.B.B.B.B.B.B.B.N.N.B.B.B.B.B.B.B.B.B.B.B.B.B.B.B.B.B.B.B.B.B.B.B.B.B.B.B.B.B.B.B.B.B.B.B.B.B.B.B.B.B.B.B.B.B.B.B.B.B.B.B.B.B.B.B.B.B.B.B.B.B.B.B.B.B.B.B.B.B.B.B.B.B.B.B.B.B.B.B.B.B.B.B.B.B.B.B.B.B.B.B.B.B.B.B.B.B.B.B.B.B.B.B.B.B.B.B.B.B.B.B.B.B.B.B.B.B.B.B.B.B.B.B.B.B.B.B.B.B.B.B.B.B.B.B.B.B.B.B.B.B.B.B.B.B.B.B.B.B.B.B.B.B.B.B.B.B.B.B.B.B.B.B.B.B.B.B.B.B.B.B.B.B.B.B.B.B.B.B.B.B.B.B.B.B.B.B.B.B.B.B.B.B.B.B.B.B.B.B.B.B.B.B.B.B.B.B.B.B.B.B.B.B.B.B.B.B.B.B.B.B.B.B.B.B.B.B.B.B.B.B.B.B.B.B.B.B.B.B.B.B.B.B.B.B.B.B.B.B.B.B.B.B.B.B.B.B.B.B.B.B.B.B.B.B.B.B.B.B.B.B.B.B.B.B.B.B.B.B.B.B.B.B.B.B.B.B.B.B.B.B.B.B.B.B.B.B.B.B.B.B.B.B.B.B.B.B.B.B.B.B.B.B.B.B.B.B.B.B.B.B.B.B.B.B.B.B.B.B.B.B.B.B.B.B.B.B.B.B.B.B.B.B.B.B.B.B.B.B.B.B.B.B.B.B.B.B.B.B.B.B.B.B.B.B.B.B.B.B.B.B.B.B.B.B.B.B.B.B.B.B.B.B.B.B.B.B.B.B.B.B.B.B.B.B.B.B.B.B.B.B.B.B.B.B.B.B.B.B.B.B.B.B.B.B.B.B.B.B.B.B.B.B.B.B.B.B.B.B.B.B.B.B.B.B.B.B.B.B.B.B.B.B.B.B.B.B.N.B.N.B.N.B.N.B.N.B.N.B.N.B.B.B.B.B.B.B.B.B.B.B.B.B.B.B.B.B.B.B.B.B.B.B.B.B.B.B.B.B.B.B.B.B.B.B.B.B.B.B.B.B.B.B.B.B.B.B.B.B.B.B.B.B.B.B.B.B.B.B.B.B.B.B.B.B.B.B.B.B.B.B.B.B.B.B.B.B.B.B.B.B.B.B.B.B.B.B.B.B.B.B.B.B.B.B.B.B.B.B.B.B.B.B.B.B.B.B.B.B.B.B.B.B.B.B.B.B.B.B.B.B.B.B.B.B.B.B.B.B.B.B.B.B.B.B.B.B.B.B.B.B.B.B.B.B.B.B.B.B.B.B.B.B.B.B.B.B.B.B.B.B.B.B.B.B.B.B.B.B.B.B.B.B.B.B.B.B.B.B.B.B.B.B.B.B.B.B.B.B.B.B.B.B.B.B.B.B.B.B.B.B.B.B.B.B.B.B.B.B.B.V.V.V.V.B.B.B.B.V.V.V.B.B.B.B.B.B.B.B.B.B.B.B.B.B.B.B.B.B.B.B.B.B.B.B.B.B.B.B.B.B.B.B.B.U.U.7 6 . . + + $ # S S A A m Z i.h.h.b.d.i.Z m m m M B M C A A 5 7 . . . . V.                                              ",
"                                                + + # # O O 5 4 u u # # : # # o > # , , X % ; & & 9 E >.e.e.t r * O . # 2 2 6 4 E.].%X%XOXOX,X,X*XOXh i # O O o = - s v 7.3.E E Q E 0 y 0 - X X . . $ $ # # 5 6 6 6 f f o o o . $ $ . .                     + + + . . . d.S T.T.M.M.d.d.p.d.p.d.d.d.C C A Z S S k k X O X % & 9 I J <.-.=.&.rX7X8X7X6X6X6XX.X.X.X.X.X.X.X.X.X.] { { { { { { { { ] ] ] ] ] { X.X.X.X.X.X.X.X.....' ' [ [ [ [ [ [ [ [ [ ......' ' ' [ ' [ ' ' ' ] yXyXyXyXyXrXrXrX6X&.X.[ ' ' [ [  ._ | | ~ ^ r.3.F.F.F.M.B.B.B.B.B.B.B.B.B.B.B.B.B.B.B.B.B.B.B.B.B.B.B.B.B.B.B.B.B.B.B.B.B.B.B.B.B.B.B.B.B.B.B.B.B.B.B.B.B.B.B.B.B.B.B.B.B.B.B.B.B.B.B.B.B.B.B.B.B.B.B.B.B.B.B.B.B.B.B.B.B.B.B.B.B.B.B.B.B.B.B.B.B.B.B.B.B.B.B.B.B.B.B.B.B.B.B.B.B.B.B.B.B.B.B.B.B.B.B.B.B.B.B.B.B.B.B.B.B.B.B.B.B.B.B.B.B.B.B.B.B.B.B.B.B.B.B.B.B.B.B.B.B.B.B.B.B.B.B.B.B.B.B.B.B.B.B.B.B.B.B.B.B.B.B.B.B.B.B.B.B.B.B.B.B.B.B.B.B.B.B.B.B.B.B.B.B.B.B.B.B.B.B.B.B.B.B.B.B.B.B.B.B.B.B.B.B.B.B.B.N.B.B.B.B.B.B.B.B.B.B.B.B.B.B.B.B.B.B.B.B.B.B.B.B.B.B.B.B.B.B.B.B.B.B.B.B.B.B.B.B.B.B.B.B.B.B.B.B.B.B.B.B.B.B.B.B.B.B.B.B.B.B.B.B.B.B.B.B.B.B.B.B.B.B.B.B.B.B.B.B.B.B.B.B.B.B.B.B.B.B.B.B.B.B.B.B.B.B.B.B.B.B.B.B.B.B.B.B.B.B.B.B.B.B.B.B.B.B.B.B.B.B.B.B.B.B.B.B.B.B.B.B.B.B.B.B.B.B.B.B.B.B.B.B.B.B.B.B.B.B.B.B.B.B.B.B.B.B.B.B.B.B.B.B.B.B.B.B.B.B.B.B.B.B.B.B.B.B.B.B.B.B.B.B.B.B.B.B.B.B.B.B.B.B.B.B.B.B.B.B.B.B.B.B.B.B.B.B.B.B.B.B.B.B.B.B.B.B.B.B.B.B.B.B.B.B.B.B.B.B.B.B.B.B.B.B.B.B.B.B.B.B.B.B.B.B.B.B.B.B.B.B.B.B.B.B.B.B.B.B.B.B.B.B.B.B.B.B.B.B.B.B.B.B.B.B.B.B.B.B.B.B.B.B.B.B.B.B.B.B.B.B.B.B.B.B.B.B.B.B.B.B.B.B.B.B.B.B.B.B.B.B.B.B.B.B.B.B.B.B.B.B.B.B.B.B.B.B.B.B.B.B.B.B.B.B.B.B.B.B.B.B.B.B.B.B.B.B.B.B.B.B.B.B.B.B.B.B.B.B.B.B.B.B.B.B.B.B.B.B.B.B.B.B.B.B.B.B.B.B.B.B.B.B.B.B.B.B.B.B.B.B.B.B.B.B.B.B.B.B.B.B.B.B.B.B.B.B.B.B.B.B.B.B.B.B.B.B.B.B.B.B.B.B.B.B.B.B.B.B.B.B.B.B.B.B.B.B.B.B.B.B.B.B.B.B.B.B.N.N.N.N.N.N.N.N.N.N.N.N.N.N.B.B.B.B.B.B.B.B.B.B.B.B.B.B.B.B.B.B.B.B.B.B.B.B.B.B.B.B.B.B.B.B.B.B.B.B.B.B.B.B.B.B.B.B.B.B.B.B.B.B.B.B.B.B.B.B.B.B.B.B.B.B.B.B.B.B.B.B.B.B.B.B.B.B.B.B.B.B.B.B.B.B.B.B.B.B.B.B.B.B.B.B.B.B.B.B.B.B.B.B.B.B.B.B.B.B.B.B.B.B.B.B.B.B.B.B.B.B.B.B.B.B.B.B.B.B.B.B.B.B.B.B.B.B.B.B.B.B.B.B.B.B.B.B.B.B.B.B.B.B.B.B.B.B.B.B.B.B.B.B.B.B.B.B.B.B.B.B.B.B.B.B.B.B.B.B.B.B.B.B.B.B.B.B.B.B.B.B.B.B.B.B.V.B.B.B.B.B.B.B.B.B.B.B.B.B.B.B.B.V.V.V.B.B.B.B.B.B.B.B.B.B.B.B.B.B.B.B.B.B.B.B.B.B.B.B.B.B.B.B.B.B.B.B.B.B.B.B.B.B.B.B.B.U.U.6 6 . . + + # # S S A Z m Z p.d.d.d.d.S Z Z N N M M M M Z A 7 7 . . . . V.                                              ",
"                                                + + # # $ + 4 4 5 u O @ : # # # # o # * * * 0 0 2.E 2.>.e.e.2.v - = O = 4 2 5 4 H.H.'.'.'.[.oXOX.X[.i i # O # O O * r t 2.2.E W Q Q 0 0 0 0 X X . . $ $ $ @ # # @ $ 7 6 . o O O $ $ . .                     + + . . . . V m L.Z.8.s.8.d.a.d.d.a.h.h.S S 0.Z 0.S b k O O X % & 9 I H #.$.=.&.rXtX7X6X6X6X6XX.{ { X.X.] ] ] ] ] ] X.X.{ { { { { { ] ] ] ] ] ] ] [ [ [ [ [ [ [ ' ' ' ' ' ' [ [ [ [ ............' ' [ [ [ [ [ [ [ [ &.&.X.X.X.X.X.X.eXX.X...' _ _ _  ._ | Y ! ! 3.3.F.F.D.M.B.B.B.B.B.B.B.B.B.B.B.B.B.B.B.B.B.B.B.B.B.B.B.B.B.B.B.B.B.B.B.B.B.B.B.B.B.B.B.B.B.B.B.B.B.B.B.B.B.B.B.B.B.B.B.B.B.B.B.B.B.B.B.B.B.B.B.B.B.B.B.B.B.B.B.B.B.B.B.B.B.B.B.B.B.B.B.B.B.B.B.B.B.B.B.B.B.B.B.B.B.B.B.B.B.B.B.B.B.B.B.B.B.B.B.B.B.B.B.B.B.B.B.B.B.B.B.B.B.B.B.B.B.B.B.B.B.B.B.B.B.B.B.B.B.B.B.B.B.B.B.B.B.B.B.B.B.B.B.B.B.B.B.B.B.B.B.B.B.B.B.B.B.B.B.B.B.B.B.B.B.B.B.B.B.B.B.B.B.B.B.B.B.B.B.B.B.B.B.B.B.B.B.B.B.B.B.B.B.B.B.B.B.B.B.B.B.B.B.B.B.B.B.B.B.B.B.B.B.B.B.B.B.B.B.B.B.B.B.B.B.B.B.B.B.B.B.B.B.B.B.B.B.B.B.B.B.B.B.B.B.B.B.B.B.B.B.B.B.B.B.B.B.B.B.B.B.B.B.B.B.B.B.B.B.B.B.B.B.B.B.B.B.B.B.B.B.B.B.B.B.B.B.B.B.B.B.B.B.B.B.B.B.B.B.B.B.B.B.B.B.B.B.B.B.B.B.B.B.B.B.B.B.B.B.B.B.B.B.B.B.B.B.B.B.B.B.B.B.B.B.B.B.B.B.B.B.B.B.B.B.B.B.B.B.B.B.B.B.B.B.B.B.B.B.B.B.B.B.B.B.B.B.B.B.B.B.B.B.B.B.B.B.B.B.B.B.B.B.B.B.B.B.B.B.B.B.B.B.B.B.B.B.B.B.B.B.B.B.B.B.B.B.B.B.B.B.B.B.B.B.B.B.B.B.B.B.B.B.B.B.B.B.B.B.B.B.B.B.B.B.B.B.B.B.B.B.B.B.B.B.B.B.B.B.B.B.B.B.B.B.B.B.B.B.B.B.B.B.B.B.B.B.B.B.B.B.B.B.B.B.B.B.B.B.B.B.B.B.B.B.B.B.B.B.B.B.B.B.B.B.B.B.B.B.B.B.B.B.B.B.B.B.B.B.B.B.B.B.B.B.B.B.B.B.B.B.B.B.B.B.B.B.B.B.B.B.B.B.B.B.B.B.B.B.B.B.B.B.B.B.B.B.B.B.B.B.B.B.B.B.B.B.B.B.B.B.B.B.B.B.B.B.B.B.B.B.B.B.B.B.B.B.B.B.B.B.B.B.B.B.B.B.B.B.B.B.B.B.B.B.B.B.B.B.B.B.B.B.B.B.B.B.B.B.B.B.B.B.B.B.B.B.B.B.B.B.B.B.B.B.B.B.B.B.B.B.B.B.B.B.B.B.B.B.B.B.B.B.B.B.B.B.B.B.B.B.B.B.B.B.B.B.B.B.B.B.B.B.B.B.B.B.B.B.B.B.B.B.B.B.B.B.B.B.B.B.B.B.B.B.B.B.B.B.B.B.B.B.B.B.B.B.B.B.B.B.B.B.B.B.B.B.B.B.B.B.B.B.B.B.B.B.B.B.B.B.B.B.B.B.B.B.B.B.B.B.B.B.B.B.B.B.B.B.B.B.B.B.B.B.B.B.B.B.B.B.B.B.B.B.B.B.B.B.B.B.B.B.B.B.B.B.B.B.B.B.B.B.B.B.B.B.B.B.B.B.B.B.B.B.B.B.B.B.B.B.B.B.B.B.B.B.B.B.B.B.B.B.B.B.B.B.B.B.B.B.B.B.B.B.B.B.B.B.B.B.B.B.B.B.B.B.B.B.B.B.B.B.B.B.B.B.B.B.B.B.B.B.B.B.B.B.B.B.B.B.B.B.B.B.B.B.B.V.V.B.B.B.B.B.B.B.B.B.B.B.B.B.B.B.B.B.B.B.B.B.B.B.B.B.B.B.B.B.B.B.B.B.B.B.B.B.B.B.B.B.B.B.B.B.B.B.B.B.B.B.B.B.B.B.B.B.B.B.B.U.U.6 6 . . + + # # S S S A Z Z a.a.A A a.8.C C N N M M M B M C 2 7 . . . . V.                                              ",
"                                                . + # # $ O 4 4 5 5 # # # o O o O o # # * ; r t E E E >.3.3.2.2.- - * = , 2 7 4 G.B.[.[.[..XoXOX[.[.f f # O # O * - r t 2.2.>.>.Q Q w 0 0 - X X . . $ $ # $ : $ @ @ 6 u o O O + $ $ . .                     + + @ @ O o m m Z.n.M C C s.a.d.a.d.h.h.S S 8.C S S k k O O X % & 9 I H #.$.%.X.yXrX6X6X6X6XX.X.X.X.] ] ] ] ] ] ] ] 6XX.{ { { { { X.] ] ' ] ] [ [ [ [ [ [ [ [ ' [ [ ' ' ' ' [ [ [ [ ............' ' [ [ [ [ [ [ [ [ &.&.&.X.X.X.X.X.X.X.X...[ _ _ _  .) | J ! ! 3.e.F.F.D.Z.B.B.B.B.B.B.B.B.B.B.B.B.B.B.B.B.B.B.B.B.B.B.B.B.B.B.B.B.B.B.B.B.B.B.B.B.B.B.B.B.B.B.B.B.B.B.B.B.B.B.B.B.B.B.B.B.B.B.B.B.B.B.B.B.B.B.B.B.B.B.B.B.B.B.B.B.B.B.B.B.B.B.B.B.B.B.B.B.B.B.B.B.B.B.B.B.B.B.B.B.B.B.B.B.B.B.B.B.B.B.B.B.B.B.B.B.B.B.B.B.B.B.B.B.B.B.B.B.B.B.B.B.B.B.B.B.B.B.B.B.B.B.B.B.B.B.B.B.B.B.B.B.B.B.B.B.B.B.B.B.B.B.B.B.B.B.B.B.B.B.B.B.B.B.B.B.B.B.B.B.B.B.B.B.B.B.B.B.B.B.B.B.B.B.B.B.B.B.B.B.B.B.B.B.B.B.B.B.B.B.B.B.B.B.B.B.B.B.B.B.B.B.B.B.B.B.B.B.B.B.B.B.B.B.B.B.B.B.B.B.B.B.B.B.B.B.B.B.B.B.B.B.B.B.B.B.B.B.B.B.B.B.B.B.B.B.B.B.B.B.B.B.B.B.B.B.B.B.B.B.B.B.B.B.B.B.B.B.B.B.B.B.B.B.B.B.B.B.B.B.B.B.B.B.B.B.B.B.B.B.B.B.B.B.B.B.B.B.B.B.B.B.B.B.B.B.B.B.B.B.B.B.B.B.B.B.B.B.B.B.B.B.B.B.B.B.B.B.B.B.B.B.B.B.B.B.B.B.B.B.B.B.B.B.B.B.B.B.B.B.B.B.B.B.B.B.B.B.B.B.B.B.B.B.B.B.B.B.B.B.B.B.B.B.B.B.B.B.B.B.B.B.B.B.B.B.B.B.B.B.B.B.B.B.B.B.B.B.B.B.B.B.B.B.B.B.B.B.B.B.B.B.B.B.B.B.B.B.B.B.B.B.B.B.B.B.B.B.B.B.B.B.B.B.B.B.B.B.B.B.B.B.B.B.B.B.B.B.B.B.B.B.B.B.B.B.B.B.B.B.B.B.B.B.B.B.B.B.B.B.B.B.B.B.B.B.B.B.B.B.B.B.B.B.B.B.B.B.B.B.B.B.B.B.B.B.B.B.B.B.B.B.B.B.B.B.B.B.B.B.B.B.B.B.B.B.B.B.B.B.B.B.B.B.B.B.B.B.B.B.B.B.B.B.B.B.B.B.B.B.B.B.B.B.B.B.B.B.B.B.B.B.B.B.B.B.B.B.B.B.B.B.B.B.B.B.B.B.B.B.B.B.B.B.B.B.B.B.B.B.B.B.B.B.B.B.B.B.B.B.B.B.B.B.B.B.B.B.B.B.B.B.B.B.B.B.B.B.B.B.B.B.B.B.B.B.B.B.B.B.B.B.B.B.B.B.B.B.B.B.B.B.B.B.B.B.B.B.B.B.B.B.B.B.B.B.B.B.B.B.B.B.B.B.B.B.B.B.B.B.B.B.B.B.B.B.B.B.B.B.B.B.B.B.B.B.B.B.B.B.B.B.B.B.B.B.B.B.B.B.B.B.B.B.B.B.B.B.B.B.B.B.B.B.B.B.B.B.B.B.B.B.B.B.B.B.B.B.B.B.B.B.B.B.B.B.B.B.B.B.B.B.B.B.B.B.B.B.B.B.B.B.B.B.B.B.B.B.B.B.B.B.B.B.B.B.B.B.B.B.B.B.B.B.B.B.B.B.B.B.B.B.B.B.B.B.B.B.B.B.B.B.B.B.B.B.B.B.B.B.B.B.B.B.B.B.B.B.B.B.B.B.B.B.B.B.B.B.B.B.B.B.B.B.B.B.B.B.B.B.B.B.B.B.B.B.B.B.B.B.B.B.B.B.B.B.B.B.B.B.B.B.B.B.B.B.B.B.B.B.B.B.B.B.B.B.B.B.B.B.B.B.B.B.B.B.B.B.B.B.B.B.B.B.B.B.B.B.B.B.B.B.B.B.B.B.B.B.B.B.B.B.B.B.B.B.B.B.B.B.B.B.B.B.B.B.B.B.B.B.B.B.B.B.B.B.T.T.6 6 . . + + # # Z A S A Z Z S 8.N M 0.8.C C N N M M M B m M 4 5 . . . . V.                                              ",
"                                                . + # # $ O 5 5 Z Z h i 4 , : : # O # * * ; t t e.3.E W 2.>.t t ; ; * O O $ 2 4 V.m.[.[.[.[.[.[.T.R.i i O O # = O X - 0 y q Q I >.W t t t t % X . . + + $ @ # $ . @ 6 i O O O + $ $ . .                     + + @ o o . j j f.s.M N 8.a.f.f.s.a.a.a.C C C C A Z k b O * X % % 9 I H @.#.%.X.eX6X6X6X6X6XX.&.&.X.X.X.X.X.X.X.{ { { { ] ] ] ] ] ] X.X.X.X.X.X.X.%.......%.........[ [ [ [ [ [ ............[ [ [ [ _ _ [ [ [ [ [ [ %.%.........X.X.] ........_ +.+. . .| ~ / ^ r.e.!.F.Z.Z.B.B.B.B.B.B.B.B.B.B.B.B.B.B.B.B.B.B.B.B.B.B.B.B.B.B.B.B.B.B.B.B.B.B.B.B.B.B.B.B.B.B.B.B.B.B.B.B.B.B.B.B.B.B.B.B.B.B.B.B.B.B.B.B.B.B.B.B.B.B.B.B.B.B.B.B.B.B.B.B.B.B.B.B.B.B.B.B.B.B.B.B.B.B.B.B.B.B.B.B.B.B.B.B.B.B.B.B.B.B.B.B.B.B.B.B.B.B.B.B.B.B.B.B.B.B.B.B.B.B.B.B.B.B.B.B.B.B.B.B.B.B.B.B.B.B.B.B.B.B.B.B.B.B.B.B.B.B.B.B.B.B.B.B.B.B.B.B.B.B.B.B.B.B.B.B.B.B.B.B.B.B.B.B.B.B.B.B.B.B.B.B.B.B.B.B.B.B.B.B.B.B.B.B.B.B.B.B.B.B.B.B.B.B.B.B.B.B.B.B.B.B.B.B.B.B.B.B.B.B.B.B.B.B.B.B.B.B.B.B.B.B.B.B.B.B.B.B.B.B.B.B.B.B.B.B.B.B.B.B.B.B.B.B.B.B.B.B.B.B.B.B.B.B.B.B.B.B.B.B.B.B.B.B.B.B.B.B.B.B.B.B.B.B.B.B.B.B.B.B.B.B.B.B.B.B.B.B.B.B.B.B.B.B.B.B.B.B.B.V.B.B.B.B.B.B.B.B.B.B.B.B.B.B.B.B.B.B.B.B.B.B.B.B.B.B.B.B.B.B.B.B.B.B.B.B.B.B.B.B.B.B.B.B.B.B.B.B.B.B.B.B.B.B.B.B.B.B.B.B.B.B.B.B.B.B.B.B.B.B.B.B.B.B.B.B.B.B.B.B.B.B.B.B.B.B.B.B.B.B.B.B.B.B.B.B.B.B.B.B.B.B.B.B.B.B.B.B.B.B.B.B.B.B.B.B.B.B.B.B.B.B.B.B.B.B.B.B.B.B.B.B.B.B.B.B.B.B.B.B.B.B.B.B.B.B.B.B.B.B.B.B.B.B.B.B.B.B.B.B.B.B.B.B.B.B.B.B.B.B.B.B.B.B.B.B.B.B.B.B.B.B.B.B.B.B.B.B.B.B.B.B.B.B.B.B.B.B.B.B.B.B.B.B.B.B.B.B.B.B.B.B.B.B.B.B.B.B.B.B.B.B.B.B.B.B.B.B.B.B.B.B.B.B.B.B.B.B.B.B.B.B.B.B.B.B.B.B.B.B.B.B.B.B.B.B.B.B.B.B.B.B.B.B.B.B.B.B.B.B.B.B.B.B.B.B.B.B.B.B.B.B.B.B.B.B.B.B.B.B.B.B.B.B.B.B.B.B.B.B.B.B.B.B.B.B.B.B.B.B.B.B.B.B.B.B.B.B.B.B.B.B.B.B.B.B.B.B.B.B.B.B.B.B.B.B.B.B.B.B.B.B.B.B.B.B.B.B.B.B.B.B.B.B.B.B.B.B.B.B.B.B.B.B.B.B.B.B.B.B.B.B.B.B.B.B.B.B.B.B.B.B.B.B.B.B.B.B.B.B.B.B.B.B.B.B.B.B.B.B.B.B.B.B.B.B.B.B.B.B.B.B.B.B.B.B.B.B.B.B.B.B.B.B.B.B.B.B.B.B.B.B.B.B.B.B.B.B.B.B.B.B.B.B.B.B.B.B.B.B.B.B.B.B.B.B.B.B.B.B.B.B.B.B.B.B.B.B.B.B.B.B.B.B.B.B.B.B.B.B.B.B.B.B.B.B.B.B.B.B.B.B.B.B.B.B.B.B.B.B.B.B.B.B.B.B.B.B.B.B.B.B.B.B.B.B.B.B.B.B.B.B.N.N.B.B.B.B.B.B.B.B.B.B.B.B.B.B.B.B.B.B.B.B.B.B.B.B.B.B.B.B.B.B.B.B.B.B.B.B.B.B.B.B.B.B.B.B.B.B.B.B.B.B.B.B.B.B.B.B.B.B.B.B.B.B.B.B.B.B.B.B.B.B.B.B.B.B.B.B.B.B.B.B.B.B.B.B.B.B.B.B.B.B.B.U.T.T.6 6 . . + + # # A A Z C m M 8.8.8.C 0.8.8.8.8.5.N M M B B M 3 5 . . . . V.                                              ",
"                                                . + $ # $ $ 6 6 m b j b : , : , o o * O * % t t 3.3.Q Q E E E v ; ; % X X X = 4 V.m..X.X X.X].[.K.R.u i O O # , O O - 0 0 y Q Q W W Q E t t % X X . @ + + + # # . @ 5 u O O O + $ $ . .                     + . . o . . k j 8.8.B M 8.8.s.s.f.s.a.a.C C C M Z Z k b O * X % % & I H @.#.*.%.eX6X6X6X6XX.&.&.&.&.X.X.X.X.X.X.X.X.{ { ] ] ] ] { { X.X.X.........%.[ [ [ [ [ [ ....[ [ [ [ [ _  ._  . . .....[ [ [ [ _ _ [ [ [ [ [ ......[ [ [ ............[ _  . . .| O.~ / ^ e.e.!.F.Z.Z.B.B.B.B.B.B.B.B.B.B.B.B.B.B.B.B.B.B.B.G.B.B.B.B.B.B.B.B.B.B.B.B.B.B.B.B.B.B.B.B.B.B.B.B.B.B.B.B.B.B.B.B.B.B.B.B.B.B.B.B.B.B.B.B.B.B.B.B.B.B.B.B.B.B.B.B.B.B.B.B.B.B.B.B.B.B.B.B.B.B.B.B.B.B.B.B.B.B.B.B.B.B.B.B.B.B.B.B.B.B.B.B.B.B.B.B.B.B.B.B.B.B.B.B.B.B.B.B.B.B.B.B.B.B.B.B.B.B.B.B.B.B.B.B.B.B.B.B.B.B.B.B.B.B.B.B.B.B.B.B.B.B.B.B.B.B.B.B.B.B.B.B.B.B.B.B.B.B.B.B.B.B.B.B.B.B.B.B.B.B.B.B.B.B.B.B.B.B.B.B.B.B.B.B.B.B.B.B.B.B.B.B.B.B.B.B.B.B.B.B.B.B.B.B.B.B.B.B.B.B.B.B.B.B.B.B.B.B.B.B.B.B.B.B.B.B.B.B.B.B.B.B.B.B.B.B.B.B.B.B.B.B.B.B.B.B.B.B.B.B.B.B.B.B.B.B.B.B.B.B.B.B.B.B.B.B.B.B.B.B.B.B.B.B.B.B.B.B.B.B.B.B.B.B.B.B.B.B.B.B.B.B.B.B.B.B.B.B.B.B.B.B.B.B.B.B.B.B.B.B.B.B.B.B.B.B.B.B.B.B.B.B.B.B.B.B.B.B.B.B.B.B.B.B.B.B.B.B.B.B.B.B.B.B.B.B.B.B.B.B.B.B.B.B.B.B.B.B.B.B.B.B.B.B.B.B.B.B.B.B.B.B.B.B.B.B.B.B.B.B.B.B.B.B.B.B.B.B.B.B.B.B.B.B.B.B.B.B.B.B.B.B.B.B.B.B.B.B.B.B.B.B.B.B.B.B.B.B.B.B.B.B.B.B.B.B.B.B.B.B.B.B.B.B.B.B.B.B.B.B.B.B.B.B.B.B.B.B.B.B.B.B.B.B.B.B.B.B.B.B.B.B.B.B.B.B.B.B.B.B.B.B.B.B.B.B.B.B.B.B.B.B.B.B.B.B.B.B.B.B.B.B.B.B.B.B.B.B.B.B.B.B.B.B.B.B.B.B.B.B.B.B.B.B.B.B.B.B.B.B.B.B.B.B.B.B.B.B.B.B.B.B.B.B.B.B.B.B.B.B.B.B.B.B.B.B.B.B.B.B.B.B.B.B.B.B.B.B.B.B.B.B.B.B.B.B.B.B.B.B.B.B.B.B.B.B.B.B.B.B.B.B.B.B.B.B.B.B.B.B.B.B.B.B.B.B.B.B.B.B.B.B.B.B.B.B.B.B.B.B.B.B.B.B.B.B.B.B.B.B.B.B.B.B.B.B.B.B.B.B.B.B.B.B.B.B.B.B.B.B.B.B.B.B.B.B.B.B.B.B.B.B.B.B.B.B.B.B.B.B.B.B.B.B.B.B.B.B.B.B.B.B.B.B.B.B.B.B.B.B.B.B.B.B.B.B.B.B.B.B.B.B.B.B.B.B.B.B.B.B.B.B.B.B.B.B.B.B.B.B.B.B.B.B.B.B.B.B.B.B.B.B.B.B.B.B.B.B.B.B.B.B.B.B.B.B.B.B.B.B.B.B.B.B.B.B.B.B.B.B.B.B.B.B.B.B.B.B.B.B.B.B.B.B.B.B.B.B.B.B.B.B.B.B.B.B.B.B.B.B.B.B.B.B.B.B.B.B.B.B.B.B.B.B.B.B.B.B.B.B.B.B.B.B.B.B.B.B.B.B.B.B.B.B.B.B.B.B.B.B.B.B.N.N.B.B.B.B.B.B.B.B.B.B.B.B.B.B.B.B.B.B.B.B.B.B.B.B.B.B.B.B.B.B.B.B.B.B.B.B.B.B.B.B.B.B.B.B.B.B.B.B.B.B.B.B.B.B.B.B.V.B.B.B.B.B.B.B.B.B.B.B.B.B.B.B.B.B.B.B.B.B.B.B.B.B.B.B.B.B.B.B.B.B.B.U.T.T.6 6 . . + + # # A S A C V M 8.0.8.8.q.8.q.8.6.5.N M M M M C 4 5 . . . . V.                                              ",
"                                                + + $ $ # # i i &XoX].E.5 5 O O . . O X * % v v w.y.3.3.3.3.t t ; * X X X X : , m.m.XX.X.X.XE.[.oXOXk j # O O O . . % & 9 0 Q Q 3.3.3.e.2.2.; * . . # $ # 2 6 f 7 7 h f $ $ $ + $ $ . .                     + . o # . o M M s.f.x n 5.5.8.8.s.s.s.s.0.8.C M A A j m # = X % % & I H @.$.-.%.&.X.eXeX6XX.&.%.%.%...X.X.X.X.X.X.X.X.X.X.X.X.X.X.X.X.X...[ [ [  . ._ _ _ _ _ _ _ _ [ _ _ _ ` ` ` ( ` ` _ _ ......%.%...[ ..%.%.%.%.=.=.=.%.%.%.%.&.X.o.%... ._ _ ) ( | O.~ / ^ r.e.!.F.Z.M.B.B.B.B.B.B.B.B.B.B.B.G.B.B.B.B.B.B.B.G.B.B.B.B.B.B.B.B.B.B.B.B.B.B.B.B.B.B.B.B.B.B.B.B.B.B.B.B.B.B.B.B.B.B.B.B.B.B.B.B.B.B.B.B.B.B.B.B.B.B.B.B.B.B.B.B.B.B.B.B.B.B.B.B.B.B.B.B.B.B.B.B.B.B.B.B.B.B.B.B.B.B.B.B.B.B.B.B.B.B.B.B.B.B.B.B.B.B.B.B.B.B.B.B.B.B.B.B.B.B.B.B.B.B.B.B.B.B.B.B.B.B.B.B.B.B.B.B.B.B.B.B.B.B.B.B.B.B.B.B.B.B.B.B.B.B.B.B.B.B.B.B.B.B.B.B.B.B.B.B.B.B.B.B.B.B.B.B.B.B.B.B.B.B.B.B.B.B.B.B.B.B.B.B.B.B.B.B.B.B.B.B.B.B.B.B.B.B.B.B.B.B.B.B.B.B.B.B.B.B.B.B.B.B.B.B.B.B.B.B.B.B.B.B.B.B.B.B.B.B.B.B.B.B.B.B.B.B.B.B.B.B.B.B.B.B.B.B.B.B.B.B.B.B.B.B.B.B.B.B.B.B.B.B.B.B.B.B.B.B.B.B.B.B.B.B.B.B.B.B.B.B.B.B.B.B.B.B.B.B.B.B.B.B.B.B.B.B.B.B.B.B.B.B.B.B.B.B.B.B.B.B.B.B.B.B.B.B.B.B.B.B.B.B.B.B.B.B.B.B.B.B.B.B.B.B.B.B.B.B.B.B.B.B.B.B.B.B.B.B.B.B.B.B.B.B.B.B.B.B.B.B.B.B.B.B.B.B.B.B.B.B.B.B.B.B.B.B.B.B.B.B.B.B.B.B.B.B.B.B.B.B.B.B.B.B.B.B.B.B.B.B.B.B.B.B.B.B.B.B.B.B.B.B.B.B.B.B.B.B.B.B.B.B.B.B.B.B.B.B.B.B.B.B.B.B.B.B.B.B.B.B.B.B.B.B.B.B.B.B.B.B.B.B.B.B.B.B.B.B.B.B.B.B.B.B.B.B.B.B.B.B.B.B.B.B.B.B.B.B.B.B.B.B.B.B.B.B.B.B.B.B.B.B.B.B.B.B.B.B.B.B.B.B.B.B.B.B.B.B.B.B.B.B.B.B.B.B.B.B.B.B.B.B.B.B.B.B.B.B.B.B.B.B.B.B.B.B.B.B.B.B.B.B.B.B.B.B.B.B.B.B.B.B.B.B.B.B.B.B.B.B.B.B.B.B.B.B.B.B.B.B.B.B.B.B.B.B.B.B.B.B.B.B.B.B.B.B.B.B.B.B.B.B.B.B.B.B.B.B.B.B.B.B.B.B.B.B.B.B.B.B.B.B.B.B.B.B.B.B.B.B.B.B.B.B.B.B.B.B.B.B.B.B.B.B.B.B.B.B.B.B.B.B.B.B.B.B.B.B.B.B.B.B.B.B.B.B.B.B.B.B.B.B.B.B.B.B.B.B.B.B.B.B.B.B.B.B.B.B.B.B.B.B.B.B.B.B.B.B.B.B.B.B.B.B.B.B.B.B.B.B.B.B.B.B.B.B.B.B.B.B.B.B.B.B.B.B.B.B.B.B.B.B.B.B.B.B.B.B.B.B.B.B.B.B.B.B.B.B.B.B.B.B.B.B.B.B.B.B.B.B.B.B.B.B.B.B.B.B.B.B.B.B.B.B.B.B.B.B.B.B.B.B.B.B.B.B.B.B.B.B.B.B.B.B.B.B.B.B.B.B.B.B.B.B.B.B.B.B.B.B.B.B.B.B.B.B.B.B.B.B.B.B.B.B.B.B.B.B.B.B.B.B.B.B.B.B.B.B.B.B.B.B.B.B.B.B.B.B.B.B.B.B.B.B.B.B.B.B.B.B.B.B.B.B.B.B.B.B.B.B.B.B.B.B.B.B.B.B.B.B.B.B.B.B.B.B.B.B.B.B.B.B.B.B.B.B.B.B.B.B.B.B.B.B.B.B.B.B.B.B.B.B.B.B.B.B.B.B.B.B.B.B.B.B.T.T.6 6 + . + + # = S S S A C C 0.9.q.q.4.5.5.5.5.5.4.M n M C C 5 5 . . . . V.                                              ",
"                                                + + $ $ $ # i i oXXX[.[.4 5 # O . . O X % % v v w.w.3.2.2.2.t t & * X X @ @ # O V.m.oXXX.XXX[..XoXoXj h : # O O . . * % & 9 Q W ,.3.3.e.2.2.& * X + # $ # # 6 f 6 6 f f + + $ + $ $ . .                     + . . O . . M B 0.s.x n 5.N 8.5.s.s.0.s.8.8.N M A S j m # = X X % & Q I @.$.+...&.eXeXeX=.=.&.%.%.%...%.%.%.%.%.X.X.X.X.X.X.X.X.X.&.&.&.%...[ _ _ _ _  ._ _ _ _ _ _  ._ _ _ _ ( ( ( ( ( ( _  ...%.%.%.%.....%.%.%.%.&.&.&.%.%.....X.o.o.%... .) ) | | | O./ / W 3.e.!.D.Z.M.B.B.B.B.B.B.B.B.B.B.G.G.B.B.B.B.B.B.B.G.B.B.B.B.B.B.B.B.B.B.B.B.B.B.B.B.B.B.B.B.B.B.B.B.B.B.B.B.B.B.B.B.B.B.B.B.B.B.B.B.B.B.B.B.B.B.B.B.B.B.B.B.B.B.B.B.B.B.B.B.B.B.B.B.B.B.B.B.B.B.B.B.B.B.B.B.B.B.B.B.B.B.B.B.B.B.B.B.B.B.B.B.B.B.B.B.B.B.B.B.B.B.B.B.B.B.B.B.B.B.B.B.B.B.B.B.B.B.B.B.B.B.B.B.B.B.B.B.B.B.B.B.B.B.B.B.B.B.B.B.B.B.B.B.B.B.B.B.B.B.B.B.B.B.B.B.B.B.B.B.B.B.B.B.B.B.B.B.B.B.B.B.B.B.B.B.B.B.B.B.B.B.B.B.B.B.B.B.B.B.B.B.B.B.B.B.B.B.B.B.B.B.B.B.B.B.B.B.B.B.B.B.B.B.B.B.B.B.B.B.B.B.B.B.B.B.B.B.B.B.B.B.B.B.B.B.B.B.B.B.B.B.B.B.B.B.B.B.B.B.B.B.B.B.B.B.B.B.B.B.B.B.B.B.B.B.B.B.B.B.B.B.B.B.B.B.B.B.B.B.B.B.B.B.B.B.B.B.B.B.B.B.B.B.B.B.B.B.B.B.B.B.B.B.B.B.B.B.B.B.B.B.B.B.B.B.B.B.B.B.B.B.B.B.B.B.B.B.B.B.B.B.B.B.B.B.B.B.B.B.B.B.B.B.B.B.B.B.B.B.B.B.B.B.B.B.B.B.B.B.B.B.B.B.B.B.B.B.B.B.B.B.B.B.B.B.B.B.B.B.B.B.B.B.B.B.B.B.B.B.B.B.B.B.B.B.B.B.B.B.B.B.B.B.B.B.B.B.B.B.B.B.B.B.B.B.B.B.B.B.B.B.B.B.B.B.B.B.B.B.B.B.B.B.B.B.B.B.B.B.B.B.B.B.B.B.B.B.B.B.B.B.B.B.B.B.B.B.B.B.B.B.B.B.B.B.B.B.B.B.B.B.B.B.B.B.B.B.B.B.B.B.B.B.B.B.B.B.B.B.B.B.B.B.B.B.B.B.B.B.B.B.B.B.B.B.B.B.B.B.B.B.B.B.B.B.B.B.B.B.B.B.B.B.B.B.B.B.B.B.B.B.B.B.B.B.B.B.B.B.B.B.B.B.B.B.B.B.B.B.B.B.B.B.B.B.B.B.B.B.B.B.B.B.B.B.B.B.B.B.B.B.B.B.B.B.B.B.B.B.B.B.B.B.B.B.B.B.B.B.B.B.B.B.B.B.B.B.B.B.B.B.B.B.B.B.B.B.B.B.B.B.B.B.B.B.B.B.B.B.B.B.B.B.B.B.B.B.B.B.B.B.B.B.B.B.B.B.B.B.B.B.B.B.B.B.B.B.B.B.B.B.B.B.B.B.B.B.B.B.B.B.B.B.B.B.B.B.B.B.B.B.B.B.B.B.B.B.B.B.B.B.B.B.B.B.B.B.B.B.B.B.B.B.B.B.B.B.B.B.B.B.B.B.B.B.B.B.B.B.B.B.B.B.B.B.B.B.B.B.B.B.B.B.B.B.B.B.B.B.B.B.B.B.B.B.B.B.B.B.B.B.B.B.B.B.B.B.B.B.B.B.B.B.B.B.B.B.B.B.B.B.B.B.B.B.B.B.B.B.B.B.B.B.B.B.B.B.B.B.B.B.B.B.B.B.B.B.B.B.B.B.B.B.B.B.B.B.B.B.B.B.B.B.B.B.B.B.B.B.B.B.B.B.B.B.B.B.B.B.B.B.B.B.B.B.B.B.B.B.B.B.B.B.B.B.B.B.B.B.B.B.B.B.B.B.B.V.B.B.B.B.B.B.B.B.B.B.B.B.B.B.B.B.B.B.B.B.B.B.B.B.B.B.B.B.B.B.B.B.B.B.B.B.B.B.B.B.B.B.B.B.B.B.B.B.B.B.B.B.B.B.B.B.B.B.B.B.B.B.B.B.B.B.B.B.T.T.u 6 X . + + # # S S S A C 0.9.f.9.q.4.4.q.q.5.4.5.5.n M C S 5 5 . . . . b.                                              ",
"                                                + + # # O $ i i *X;X[.oX5 6 $ O . . * * * ; r r e.e.e.e.t t 0 0 * * O o # # 2 4 V.B.E..XE.E.XX.X[..Xf k 7 6 . o . . * - & 0 2.>.e.y.y.w.2.v X X . . O O # # T.U. XXXS S + . $ $ + @ . .                     . + o # . X m m a.s.M N 5.5.5.q.5.9.8.8.4.M M M C Z k b O O X X % & q H @.@.$.%.=.&.=.rX=.=.....` ` _ _ _ _ _ _ [ [ [ ..X.&.&.&.&.&.=.=.....( ( ( ) ) ( L ( ( ( ( (  .+.+.-.( ( L L ( ( ( ( +.+.%.%.%.&.&.&.&.&.&.&.&.&.&.&.&.&.&.&.=.=.*.*._ _ ) ( | | O./ ! Q 3.e.F.D.D.M.B.B.B.B.B.B.B.B.B.B.B.B.G.B.B.B.B.B.B.B.B.B.B.B.B.B.B.B.B.B.B.B.B.B.B.B.B.B.B.B.B.B.B.B.B.B.B.B.B.B.B.B.B.B.B.B.B.B.B.B.B.B.B.B.B.B.B.B.B.B.B.B.B.B.B.B.B.B.B.B.B.B.B.B.B.B.B.B.B.B.B.B.B.B.B.B.B.B.B.B.B.B.B.B.B.B.B.B.B.B.B.B.B.B.B.B.B.B.B.B.B.B.B.B.B.B.B.B.B.B.B.B.B.B.B.B.B.B.B.B.B.B.B.B.B.B.B.B.B.B.B.B.B.B.B.B.B.B.B.B.B.B.B.B.B.B.B.B.B.B.B.B.B.B.B.B.B.B.B.B.B.B.B.B.B.B.B.B.B.B.B.B.B.B.B.B.B.B.B.B.B.B.B.B.B.B.B.B.B.B.B.B.B.B.B.B.B.B.B.B.B.B.B.B.B.B.B.B.B.B.B.B.N.B.B.B.B.B.B.B.B.B.B.B.B.B.B.B.B.B.B.B.B.B.B.B.B.B.B.B.B.B.B.B.B.B.B.B.B.B.B.B.B.B.B.B.B.B.B.B.B.B.B.B.B.B.B.B.B.B.B.B.B.B.B.B.B.B.B.B.B.B.B.B.B.B.B.B.B.B.B.B.B.B.B.B.B.B.B.B.B.B.B.B.B.B.B.B.B.B.B.B.B.B.B.B.B.B.B.B.B.B.B.B.B.B.B.B.B.B.B.B.B.B.B.B.B.B.B.B.B.B.B.B.B.B.B.B.B.B.B.B.B.B.B.B.B.B.B.B.B.B.B.B.B.B.B.B.B.B.B.B.B.B.B.B.B.B.B.B.B.B.B.B.B.B.B.B.B.B.B.B.B.B.B.B.B.B.B.B.B.B.B.B.B.B.B.B.B.B.B.B.B.B.B.B.B.B.B.B.B.B.B.B.B.B.B.B.B.B.B.B.B.B.B.B.B.B.B.B.B.B.B.B.B.B.B.B.B.B.B.B.B.B.B.B.B.B.B.B.B.B.B.B.B.B.B.B.B.B.B.B.B.B.B.B.B.B.B.B.B.B.B.B.B.B.B.B.B.B.B.B.B.B.B.B.B.B.B.B.B.B.B.B.B.B.B.B.B.B.B.B.B.B.B.B.B.B.B.B.B.B.B.B.B.B.B.B.B.B.B.B.B.B.B.B.B.B.B.B.B.B.B.B.B.B.B.B.B.B.B.B.B.B.B.B.B.B.B.B.B.B.B.B.B.B.B.B.B.B.B.B.B.B.B.B.B.B.B.B.B.B.B.B.B.B.B.B.B.B.B.B.B.B.B.B.B.B.B.B.B.B.B.B.B.B.B.B.B.B.B.B.B.B.B.B.B.B.B.B.B.B.B.B.B.B.B.B.B.B.B.B.B.B.B.B.B.B.B.B.B.B.B.B.B.B.B.B.B.B.B.B.B.B.B.B.B.B.V.B.B.B.B.B.B.B.B.B.B.B.B.B.B.B.B.B.B.B.B.B.B.B.B.B.B.B.B.B.B.B.B.B.B.B.B.B.B.B.B.B.B.B.B.B.B.B.B.B.B.V.B.B.B.B.B.B.B.B.B.B.B.B.B.B.B.B.B.B.B.B.B.B.B.B.B.B.B.B.B.B.B.B.B.B.B.B.B.B.B.B.B.B.B.B.B.B.B.B.B.B.B.B.B.B.B.B.B.B.B.B.B.B.B.B.B.B.B.B.B.B.B.B.B.B.B.B.B.B.B.B.B.B.B.B.B.B.B.B.B.B.B.B.B.B.B.B.B.B.B.B.B.B.B.B.B.B.B.B.B.B.B.B.B.B.B.B.B.B.B.B.B.B.B.B.B.B.B.B.B.B.B.B.B.B.B.B.B.B.B.B.B.B.B.B.B.B.B.B.B.B.B.B.B.B.B.B.B.B.B.B.B.B.B.B.B.B.B.B.B.B.B.B.B.B.B.B.B.B.B.B.B.B.B.B.B.B.B.B.B.B.B.B.B.B.B.B.B.B.B.B.B.B.B.B.B.B.T.T.6 6 + . @ $ # , S S 0.0.C q.9.9.q.q.4.5.q.9.n 4.n M z B 8.Z 4 5 . . . . V.                                              ",
"                                                + . # # O $ i i *X*X[.XX6 5 O . . . # * * - r r 2.2.e.e.d d 0 < * * # @ , O 6 7 B.B.[. XE.E.oX.XXXR.k f 4 f . + . . * * 0 0 2.2.3.3.w.w.2.v % X X . O O , : W.U.XXXXS S . . + + + @ . .                     + $ . o . o m m d.a.M 5.5.5.5.q.6.9.8.q.M M M M C Z k k O * X X % & q H / @.+.*.=.&.=.=.=.;...+.` ` _ ` ` _ ` _ _ [ [ ..%.&.&.&.&.=.&.%... .( ) ( ( ) K K L L ( ( (  .+. .+.L L L L K T ( ( +.+.%.%.%.%.%.%.%.&.%.%.&.&.&.&.&.&.o.o.=.=.*.*._ } ( ) | Y O.~ ! Q 3.e.F.D.S.B.B.B.B.B.B.B.B.B.B.B.G.B.G.G.G.B.B.B.B.B.B.B.B.B.B.B.B.B.B.B.B.B.B.B.B.B.B.B.B.B.B.B.B.B.B.B.B.B.B.B.B.B.B.B.B.B.B.B.B.B.B.B.B.B.B.B.B.B.B.B.B.B.B.B.B.B.B.B.B.B.B.B.B.B.B.B.B.B.B.B.B.B.B.B.B.B.B.B.B.B.B.B.B.B.B.B.B.B.B.B.B.B.B.B.B.B.B.B.B.B.B.B.B.B.B.B.B.B.B.B.B.B.B.B.B.B.B.B.B.B.B.B.B.B.B.B.B.B.B.B.B.B.B.B.B.B.B.B.B.B.B.B.B.B.B.B.B.B.B.B.B.B.B.B.B.B.B.B.B.B.B.B.B.B.B.B.B.B.B.B.B.B.B.B.B.B.B.B.B.B.B.B.B.B.B.B.B.B.B.B.B.B.B.B.B.B.B.B.B.B.B.B.B.B.B.B.B.B.B.B.B.B.N.B.B.B.B.B.B.B.B.B.B.B.B.B.B.B.B.B.B.B.B.B.B.B.B.B.B.B.B.B.B.B.B.B.B.B.B.B.B.B.B.B.B.B.B.B.B.B.B.B.B.B.B.B.B.B.B.B.B.B.B.B.B.B.B.B.B.B.B.B.B.B.B.B.B.B.B.B.B.B.B.B.B.B.B.B.B.B.B.B.B.B.B.B.B.B.B.B.B.B.B.B.B.B.B.B.B.B.B.B.B.B.B.B.B.B.B.B.B.B.B.B.B.B.B.B.B.B.B.B.B.B.B.B.B.B.B.B.B.B.B.B.B.B.B.B.B.B.B.B.B.B.B.B.B.B.B.B.B.B.B.B.B.B.B.B.B.B.B.B.B.B.B.B.B.B.B.B.B.B.B.B.B.B.B.B.B.B.B.B.B.B.B.B.B.B.B.B.B.B.B.B.B.B.B.B.B.B.B.B.B.B.B.B.B.B.B.B.B.B.B.B.B.B.B.B.B.B.B.B.B.B.B.B.B.B.B.B.B.B.B.B.B.B.B.B.B.B.B.B.B.B.B.B.B.B.B.B.B.B.B.B.B.B.B.B.B.B.B.B.B.B.B.B.B.B.B.B.B.B.B.B.B.B.B.B.B.B.B.B.B.B.B.B.B.B.B.B.B.B.B.B.B.B.B.B.B.B.B.B.B.B.B.B.B.B.B.B.B.B.B.B.B.B.B.B.B.B.B.B.B.B.B.B.B.B.B.B.B.B.B.B.B.B.B.B.B.B.B.B.B.B.B.B.B.B.B.B.B.B.B.B.B.B.B.B.B.B.B.B.B.B.B.B.B.B.B.B.B.B.B.B.B.B.B.B.B.B.B.B.B.B.B.B.B.B.B.B.B.B.B.B.B.B.B.B.B.B.B.B.B.B.B.B.B.B.B.B.B.B.B.B.B.B.B.B.B.B.B.B.B.B.B.B.B.B.B.B.B.B.B.B.B.B.B.B.B.B.B.B.B.B.B.B.B.B.B.B.B.B.B.B.B.B.B.B.B.B.B.B.B.B.B.B.B.B.B.B.B.B.B.B.B.B.B.B.B.B.B.B.B.B.B.B.B.B.B.B.B.B.B.B.B.B.B.B.B.B.B.B.B.B.B.B.B.B.B.B.B.B.B.B.B.B.B.B.B.B.B.B.B.B.B.B.B.B.B.B.B.B.B.B.B.B.B.B.B.B.B.B.B.B.B.B.B.B.B.B.B.B.B.B.B.B.B.B.B.B.B.B.B.B.B.B.B.B.B.B.B.B.B.B.B.B.B.B.B.B.B.B.B.B.B.B.B.B.B.B.B.B.B.B.B.B.B.B.B.B.B.B.B.B.B.B.B.B.B.B.B.B.B.B.B.B.B.B.B.B.B.B.B.B.B.B.B.B.B.B.B.B.B.B.B.B.B.B.B.B.B.B.B.B.B.B.B.B.B.B.B.B.B.B.B.B.B.B.B.B.B.B.B.B.B.B.B.B.B.B.B.B.B.B.B.B.B.B.B.B.B.B.B.B.B.B.B.B.B.B.B.B.B.B.B.B.T.T.6 6 . . @ $ # 2 S S 0.0.0.q.8.8.q.9.4.4.5.q.n 4.n M z z N N 4 6 . . . . b.                                              ",
"                                                . . # # O $ i i oXoX.X&Xd.d.A V 5 7 6 7 * X X % ; 0 t t 0 < % % * # 4 : k h I.T.V.V.K.B.S V A V Z S U.R.V.b.# # 7 5 e 3 r 0 t y t t 2.2.2.v - * X O 5 4 , O U.G.,X>Xb.b.O O $ O + $ . .                     + $ O # o # S A Z.n.M N M M 4.7.6.9.4.4.x x x n N M k b O O X X % & q H / @.$.+.*.&.=.=.*.;.+.+.) ) ( ( ( ( ` ` _ _ ....%.&.&.&.%.%.%.%. .+.L ) K K K K K K K T K (  .+.| +.L K T T J L ( ( +.+.*.%.%.%.%.%.%.%...%.%.%.%.%.%.%.&.&.o.=.%.-.) } ) ) O.Y ~ U R Q 3.e.F.D.D.S.B.B.B.B.B.B.B.B.B.B.G.G.G.G.G.G.B.B.B.B.B.B.B.B.B.B.B.B.B.B.B.B.B.G.B.B.B.B.B.B.B.B.B.B.B.B.B.B.B.B.B.B.B.B.B.B.B.B.B.B.B.B.B.B.B.B.B.B.B.B.B.B.B.B.B.B.B.B.B.B.B.B.B.B.B.B.B.B.B.B.B.B.B.B.B.B.B.B.B.B.B.B.B.B.B.B.B.B.B.B.B.B.B.B.B.B.B.B.B.B.B.B.B.B.B.B.B.B.B.B.B.B.B.B.B.B.B.B.B.B.B.B.B.B.B.B.B.B.B.B.B.B.B.B.B.B.B.B.B.B.B.B.B.B.B.B.B.B.B.B.B.B.B.B.B.B.B.B.B.B.B.B.B.B.B.B.B.B.B.B.B.B.B.B.B.B.B.B.B.B.B.B.B.B.B.B.B.B.B.B.B.B.B.B.B.B.B.B.B.B.B.B.B.B.B.B.B.B.B.B.B.B.N.B.B.B.B.B.B.B.B.B.B.B.B.B.B.B.B.B.B.B.B.B.B.B.B.B.B.B.B.B.B.B.B.B.B.B.B.B.B.B.B.B.B.B.B.B.B.B.B.B.B.B.B.B.B.B.B.B.B.B.B.B.B.B.B.B.B.B.B.B.B.B.B.B.B.B.B.B.B.B.B.B.B.B.B.B.B.B.B.B.B.B.B.B.B.B.B.B.B.B.B.B.B.B.B.B.B.B.B.B.B.B.B.B.B.B.B.B.B.B.B.B.B.B.B.B.B.B.B.B.B.B.B.B.B.B.B.B.B.B.B.B.B.B.B.B.B.B.B.B.B.B.B.B.B.B.B.B.B.B.B.B.B.B.B.B.B.B.B.B.B.B.B.B.B.B.B.B.B.B.B.B.B.B.B.B.B.B.B.B.B.B.B.B.B.B.B.B.B.B.B.B.B.B.B.B.B.B.B.B.B.B.B.B.B.B.B.B.B.B.B.B.B.B.B.B.B.B.B.B.B.B.B.B.B.B.B.B.B.B.B.B.B.B.B.B.B.B.B.B.B.B.B.B.B.B.B.B.B.B.B.B.B.B.B.B.B.B.B.B.B.B.B.B.B.B.B.B.B.B.B.B.B.B.B.B.B.B.B.B.B.B.B.B.B.B.B.B.B.B.B.B.B.B.B.B.B.B.B.B.B.B.B.B.B.B.B.B.B.B.B.B.B.B.B.B.B.B.B.B.B.B.B.B.B.B.B.B.B.B.B.B.B.B.B.B.B.B.B.B.B.B.B.B.B.B.B.B.B.B.B.B.B.B.B.B.B.B.B.B.B.B.B.B.B.B.B.B.B.B.B.B.B.B.B.B.B.B.B.B.B.B.B.B.B.B.B.B.B.B.B.B.B.B.B.B.B.B.B.B.B.B.B.B.B.B.B.B.B.B.B.B.B.B.B.B.B.B.B.B.B.B.B.B.B.B.B.B.B.B.B.B.B.B.B.B.B.B.B.B.B.B.B.B.B.B.B.B.B.B.B.B.B.B.B.B.B.B.B.B.B.B.B.B.B.B.B.B.B.B.B.B.B.B.B.B.B.B.B.B.B.B.B.B.B.B.B.B.B.B.B.B.B.B.B.B.B.B.B.B.B.B.B.B.B.B.B.B.B.B.B.B.B.B.B.B.B.B.B.B.B.B.B.B.B.B.B.B.B.B.B.B.B.B.B.B.B.B.B.B.B.B.B.B.B.B.B.B.B.B.B.B.B.B.B.B.B.B.B.B.B.B.B.B.B.B.B.B.B.B.B.B.B.B.B.B.B.B.B.B.B.B.B.B.B.B.B.B.B.B.B.B.B.B.B.B.B.B.B.B.B.B.B.B.B.B.B.B.B.B.B.B.B.B.B.B.B.B.B.B.B.B.B.B.B.B.B.B.B.B.B.B.B.B.B.B.B.B.B.B.B.B.B.B.B.B.B.B.B.B.B.B.B.B.B.B.B.B.B.B.B.B.B.B.B.B.B.B.B.B.B.B.B.B.B.B.B.B.B.B.B.B.B.B.B.B.B.B.B.B.B.B.B.B.U.U.6 6 . . + $ # 2 S S S 0.A 0.8.8.q.9.9.9.9.9.4.5.5.5.5.M N A 5 u . . . . b.                                              ",
"                                                . . # # O $ i u &XoX.X[.b.d.Z m 5 6 5 5 * O X X * ; s s r r X X O # 5 2 V k T.T.B.B.B.K.V A A A i.S E.T.b.i.: # 5 6 3 r r r r t 0 0 2.v 2.t 0 * . # 4 5 , : U.T.,X,Xb.b.+ . + . $ $ . .                     $ $ . . . o S Z Z.Z.N N n n 7.7.6.6.7.4.x x x n N N j k O O X X % & q H ^ @.$.+.*.%.%.=.*.-. .+.) ( ) ) ) ) ) ( ( ` +...%.%.%.%.%.%.%.+. . .L K K K K J J J K K T T | | | +.L J J J J J K T +.+.%.%.%.%.%.%.%.%.%.%.%.%.%.%.%.%.%.%.o.=.%.-.) } ) ) ) K ~ U R Q e.e.F.D.D.S.B.B.B.B.B.B.B.B.G.G.G.G.I.G.G.G.B.B.B.B.B.B.B.B.B.B.B.B.B.B.B.B.B.B.B.B.B.B.B.B.B.B.B.B.B.B.B.B.B.B.B.B.B.B.B.B.B.B.B.B.Q.B.B.B.B.B.B.B.B.B.B.B.B.B.B.B.B.B.B.B.B.B.B.B.B.B.B.B.B.B.B.B.B.B.B.B.B.B.B.B.B.B.B.B.B.B.B.B.B.B.B.B.B.B.B.B.B.B.B.B.B.B.B.B.B.B.B.B.B.B.B.B.B.B.B.B.B.B.B.B.B.B.B.B.B.B.B.B.B.B.B.B.B.B.B.B.B.B.B.B.B.B.B.B.B.B.B.B.B.B.B.B.B.B.B.B.B.B.B.B.B.B.B.B.B.B.B.B.B.B.B.B.B.B.B.B.B.B.B.B.B.B.B.B.B.B.B.B.B.B.B.B.B.B.B.B.B.B.B.B.B.B.B.B.B.B.B.B.B.B.B.B.B.B.B.B.B.B.B.B.B.B.B.B.B.B.B.B.B.B.B.B.B.B.B.B.B.B.B.B.B.B.B.B.B.B.B.B.B.B.B.B.B.B.B.B.B.B.B.B.B.B.B.B.B.B.B.B.B.B.B.B.B.B.B.B.B.B.B.B.B.B.B.B.B.B.B.B.B.B.B.B.B.B.B.B.B.B.B.B.B.B.B.B.B.B.B.B.B.B.B.B.B.B.B.B.B.B.B.B.B.B.B.B.B.B.B.B.B.B.B.B.B.B.B.B.B.B.B.B.B.B.B.B.B.B.B.B.B.B.B.B.B.B.B.B.B.B.B.B.B.B.B.B.B.B.B.B.B.B.B.B.B.B.B.B.B.B.B.B.B.B.B.B.B.B.B.B.B.B.B.B.B.B.B.B.B.B.B.B.B.B.B.B.B.B.B.B.B.B.B.B.B.B.B.B.B.B.B.B.B.B.B.B.B.B.B.B.B.B.B.B.B.B.B.B.B.B.B.B.B.B.B.B.B.B.B.B.B.B.B.B.B.B.B.B.B.B.B.B.B.B.B.B.B.B.B.B.B.B.B.B.B.B.B.B.B.B.B.B.B.B.B.B.B.B.B.B.B.B.B.B.B.B.B.B.B.B.B.B.B.B.B.B.B.B.B.B.B.B.B.B.B.B.B.B.B.B.B.B.B.B.B.B.B.B.B.B.B.B.B.B.B.B.B.B.B.B.B.B.B.B.B.B.B.B.B.B.B.B.B.B.B.B.B.B.B.B.B.B.B.B.B.B.B.B.B.B.B.B.B.B.B.B.B.B.B.B.B.B.B.B.B.B.B.B.B.B.B.B.B.B.B.B.B.B.B.B.B.B.B.B.B.B.B.B.B.B.B.B.B.B.B.B.B.B.B.B.B.B.B.B.B.B.B.B.B.B.B.B.B.B.B.B.B.B.B.B.B.B.B.B.B.B.B.B.B.B.B.B.B.B.B.B.B.B.B.B.B.B.B.B.B.B.B.B.B.B.B.B.B.B.B.B.B.B.B.B.B.B.B.B.B.B.B.B.B.B.B.B.B.B.B.B.B.B.B.B.B.B.B.B.B.B.B.B.B.B.B.B.B.B.B.B.B.B.B.B.B.B.B.B.B.B.B.B.B.B.B.B.B.B.B.B.B.B.B.B.B.B.B.B.B.B.B.B.B.B.B.B.B.B.B.B.B.B.B.B.B.B.B.B.B.B.B.B.B.B.B.B.B.B.B.B.B.B.B.B.B.B.B.B.B.B.B.B.B.B.B.B.B.B.B.B.B.B.B.B.B.B.B.B.B.B.B.B.B.B.B.B.B.B.B.B.B.B.B.B.B.B.B.B.B.B.B.B.B.B.B.B.B.B.B.B.B.B.B.B.B.B.B.B.B.B.B.B.B.B.B.B.B.B.B.B.B.B.B.B.B.B.B.B.B.B.B.B.B.B.B.B.B.B.B.B.B.B.B.B.B.B.B.B.B.B.B.B.B.B.B.B.B.B.B.B.B.B.B.B.B.B.B.B.B.B.B.B.B.B.B.B.B.B.B.B.B.B.U.U.6 6 . . + @ # # S S S A A A 0.8.q.q.q.q.5.5.M M 5.5.M M M A 5 u . . . . V.                                              ",
"                                                . . # # O $ u u XXXXOX&XoXOX*X%Xi 6 : # + O X X * * z z v g , = . . > @ Z Z XXXXE.E.B.B.2 2 @ O 6 6 Z A i.B.B.T.+XoXb.0.p r * ; & % r r g v C.Z.-XXXM.h.i u H.M.,X,Xd.b.O # # $ $ $ . .                     $ $ $ $ $ # d.d.R.Y.8.8.n 4.6.6.9.9.7.7.x n 4.N 8.C j j O O . X X % q H / @.$.+.*.%.*.=.%.*.+. .) ) ) ) ) ) ( ) ) (  .+.%.%.%.%.%.%.*.*. .+.L K J J J J Y Y Y J J T | O.O.$.Y Y J J J J K T +.+.%.%.%.%.%.%.%.%.%.%.%.%.%.%.%.%.%.%.%.&.%.*.) } K K P J ~ ! R Q 3.e.!.D.S.S.B.B.B.B.G.G.G.G.G.G.G.G.G.B.B.B.B.B.B.B.B.B.B.B.B.B.B.G.B.B.B.B.B.B.B.B.B.B.B.B.B.B.B.G.B.B.B.B.B.B.B.B.B.B.B.B.B.B.B.B.Q.B.B.B.B.B.B.B.B.B.B.B.B.B.B.B.B.B.B.B.B.B.B.B.B.B.B.B.B.B.B.B.B.B.B.B.B.B.B.B.B.B.B.B.B.B.B.B.B.B.B.B.B.B.B.B.B.B.B.B.B.B.B.B.B.B.B.B.B.B.B.B.B.B.B.B.B.B.B.B.B.B.B.B.B.B.B.B.B.B.B.B.B.B.B.B.B.B.B.B.B.B.B.B.B.B.B.B.B.B.B.B.B.B.B.B.B.B.B.B.B.B.B.B.B.B.B.B.B.B.B.B.B.B.B.B.B.B.B.B.B.B.B.B.B.B.B.B.B.B.B.B.B.B.B.B.B.B.B.B.B.B.B.B.B.B.B.B.B.B.B.B.B.B.B.B.B.B.B.B.B.B.B.B.B.B.B.B.B.B.B.B.B.B.B.B.B.B.B.B.B.B.B.B.B.B.B.B.B.B.B.B.B.B.B.B.B.B.B.B.B.B.B.B.B.B.B.B.B.B.B.B.B.B.B.B.B.B.B.B.B.B.B.B.B.B.B.B.B.B.B.B.B.B.B.B.B.B.B.B.B.B.B.B.B.B.B.B.B.B.B.B.B.B.B.B.B.B.B.B.B.B.B.B.B.B.B.B.B.B.B.B.B.B.B.B.B.B.B.B.B.B.B.B.B.B.B.B.B.B.B.B.B.B.B.B.B.B.B.B.B.B.B.B.B.B.B.B.B.B.B.B.B.B.B.B.B.B.B.B.B.B.B.B.B.B.B.B.B.B.B.B.B.B.B.B.B.B.B.B.B.B.B.B.B.B.B.B.B.B.B.B.B.B.B.B.B.B.B.B.B.B.B.B.B.B.B.B.B.B.B.B.B.B.B.B.B.B.B.B.B.B.B.B.B.B.B.B.B.B.B.B.B.B.B.B.B.B.B.B.B.B.B.B.B.B.B.B.B.B.B.B.B.B.B.B.B.B.B.B.B.B.B.B.B.B.B.B.B.B.B.B.B.B.B.B.B.B.B.B.B.B.B.B.B.B.B.B.B.B.B.B.B.B.B.B.B.B.B.B.B.B.B.B.B.B.B.B.B.B.B.B.B.B.B.B.B.B.B.B.B.B.B.B.B.B.B.B.B.B.B.B.B.B.B.B.B.B.B.B.B.B.B.B.B.B.B.B.B.B.B.B.B.B.B.B.B.B.B.B.B.B.B.B.B.B.B.B.B.B.B.B.B.B.B.B.B.B.B.B.B.B.B.B.B.B.B.B.B.B.B.B.B.B.B.B.B.B.B.B.B.B.B.B.B.B.B.B.B.B.B.B.B.B.B.B.B.B.B.B.B.B.B.B.B.B.B.B.B.B.B.B.B.B.B.B.B.B.B.B.B.B.B.B.B.B.B.B.B.B.B.B.B.B.B.B.B.B.B.B.B.B.B.B.B.B.B.B.B.B.B.B.B.B.B.B.B.B.B.B.B.B.B.B.B.B.B.B.B.B.B.B.B.B.B.B.B.B.B.B.B.B.B.B.B.B.B.B.B.B.B.B.B.B.B.B.B.B.B.B.B.B.B.B.B.B.B.B.B.B.B.B.B.B.B.B.B.B.B.B.B.B.B.B.B.B.B.B.B.B.B.B.B.B.B.B.B.B.B.B.B.B.B.B.B.B.B.B.B.B.B.B.B.B.B.B.B.B.B.B.B.B.B.B.B.B.B.B.B.B.B.B.B.B.B.B.B.B.B.B.B.B.B.B.B.B.B.B.B.B.B.B.B.B.B.B.B.B.B.B.B.B.B.B.B.B.B.B.B.B.B.B.B.B.B.B.B.B.B.B.B.B.B.B.B.B.V.V.B.B.B.B.B.B.B.B.B.B.B.B.B.B.B.B.B.B.B.B.B.B.B.B.B.B.B.B.B.B.B.B.B.B.B.B.B.B.B.B.B.B.B.B.B.B.B.B.U.U.6 6 . . + + $ # S S S A C A s.s.0.q.9.9.q.8.q.8.C.k.P.L.Z.J.6 6 . . . . b.                                              ",
"                                                + . # # O $ i i &XoXOX.XOXoXOXOXf 6 # O O X . . O O g z j z , = . . # > V i. XoXE.).B.B.4 5 + $ f k S A B.i.K.U.+XOXb.b.i p * < X % r r z z Z.S.oXXXM.M.u h H.H.,X,Xi.b.. O @ @ $ $ . .                     $ $ $ + + + d.d.R.T.s.s.n 4.6.6.w.9.7.7.4.4.4.4.q.C h h o o . X X % y q ^ / $.+.*.%.*.*.*.-.| | K K K K K ) ) ( ) )  .+.+.%.%.%.%.%.-.-.+.+.L K J J J J Y J J J J J | O.O.$.Y Y J J J J K K +.+.+.+.%.%.%.%.%.%.%.%.%.*.%.*.%.*.%.%.%.%.%.*.) } K K P J ~ / ! Q 3.e.!.D.S.S.B.B.B.B.B.G.G.G.G.G.G.G.B.B.B.B.B.B.B.B.B.B.G.B.B.B.B.B.B.B.B.B.B.B.B.B.B.B.B.B.B.B.B.G.B.B.B.B.B.B.B.B.B.B.B.B.B.B.B.B.B.B.B.B.B.B.B.B.B.B.B.B.B.B.B.B.B.B.B.B.B.B.B.B.B.B.B.B.B.B.B.B.B.B.B.B.B.B.B.B.B.B.B.B.B.B.B.B.B.B.B.B.B.B.B.B.B.B.B.B.B.B.B.B.B.B.B.B.B.B.B.B.B.B.B.B.B.B.B.B.B.B.B.B.B.B.B.B.B.B.B.B.B.B.B.B.B.B.B.B.B.B.B.B.B.B.B.B.B.B.B.B.B.B.B.B.B.B.B.B.B.B.B.B.B.B.B.B.B.B.B.B.B.B.B.B.B.B.B.B.B.B.B.B.B.B.B.B.B.B.B.B.B.B.B.B.B.B.B.B.B.B.B.B.B.B.B.B.B.B.B.B.B.B.B.B.B.B.B.B.B.B.B.B.B.B.B.B.B.B.B.B.B.B.B.B.B.B.B.B.B.B.B.B.B.B.B.B.B.B.B.B.B.B.B.B.B.B.B.B.B.B.B.B.B.B.B.B.B.B.B.B.B.B.B.B.B.B.B.B.B.B.B.B.B.B.B.B.B.B.B.B.B.B.B.B.B.B.B.B.B.B.B.B.B.B.B.B.B.B.B.B.B.B.B.B.B.B.B.B.B.B.B.B.B.B.B.B.B.B.B.B.B.B.B.B.B.B.B.B.B.B.B.B.B.B.B.B.B.B.B.B.B.B.B.B.B.B.B.B.B.B.B.B.B.B.B.B.B.B.B.B.B.B.B.B.B.B.B.B.B.B.B.B.B.B.B.B.B.B.B.B.B.B.B.B.B.B.B.B.B.B.B.B.B.B.B.B.B.B.B.B.B.B.B.B.B.B.B.B.B.B.B.B.B.B.B.B.B.B.B.B.B.B.B.B.B.B.B.B.B.B.B.B.B.B.B.B.B.B.B.B.B.B.B.B.B.B.B.B.B.B.B.B.B.B.B.B.B.B.B.B.B.B.B.B.B.B.B.B.B.B.B.B.B.B.B.B.B.B.B.B.B.B.B.B.B.B.B.B.B.B.B.B.B.B.B.B.B.B.B.B.B.B.B.B.B.B.B.B.B.B.B.B.B.B.B.B.B.B.B.B.B.B.B.B.B.B.B.B.B.B.B.B.B.B.B.B.B.B.B.B.B.B.B.B.B.B.B.B.B.B.B.B.B.B.B.B.B.B.B.B.B.B.B.B.B.B.B.B.B.B.B.B.B.B.B.B.B.B.B.B.B.B.B.B.B.B.B.B.B.B.B.B.B.B.B.B.B.B.B.B.B.B.B.B.B.B.B.B.B.B.B.B.B.B.B.B.B.B.B.B.B.B.B.B.B.B.B.B.B.B.B.B.B.B.B.B.B.B.B.B.B.B.B.B.B.B.B.B.B.B.B.B.B.B.B.B.B.B.B.B.B.B.B.B.B.B.B.B.B.B.B.B.B.B.B.B.B.B.B.B.B.B.B.B.B.B.B.B.B.B.B.B.B.B.B.B.B.B.B.B.B.B.B.B.B.B.B.B.B.B.B.B.B.B.B.B.B.B.B.B.B.B.B.B.B.B.B.B.B.B.B.B.B.B.B.B.B.B.B.B.B.B.B.B.B.B.B.B.B.B.B.B.B.B.B.B.B.B.B.B.B.B.B.B.B.B.B.B.B.B.B.B.B.B.B.B.B.B.B.B.B.B.B.B.B.B.B.B.B.B.B.B.B.B.B.B.B.B.B.B.B.B.B.B.B.B.B.B.B.B.B.B.B.B.B.B.B.B.B.B.B.B.B.B.B.B.B.B.B.B.B.B.B.B.B.B.B.B.B.B.B.B.B.B.B.B.B.B.B.B.B.B.B.B.B.B.B.B.B.B.B.B.B.B.B.B.B.B.B.B.B.B.B.B.B.B.B.B.B.B.B.B.B.B.B.B.B.B.B.B.B.B.B.B.B.B.B.B.B.B.B.B.B.B.U.U.6 6 . . + + $ # A S S A C C a.f.9.9.0.8.4.4.5.5.A.Z.L.L.L.K.5 5 . . . . m.                                              ",
"                                                . . # # O $ i i XXXX[.[.oXoXOXOXS S D S m.m.b.d.d.0.R.R.B.S.c k f f V V b.i.S Z k k f k . + . . @ . . $ B.U.;X;X>X,XT.R.m m 5 i j p z z C C ).).nXmX*X*XA A ].[.NXNXB.H.O : # # $ $ . .                     $ $ # # $ $ V.b.).R.0.s.n n 6.5.l.s.7.4.x 4.4.M 8.M g h . o . X X % y q ^ / O.+.%.+.*.*.-.-.| O.K K K P P K K ( ( ( +.+.+.+.%.%.%.%.-.-.+.+.L K J J U ! J J J U Y J O.O.O.$.Y Y U J J J K K +.+.+.+.%.%.%.%.%.%.%.%.*.*.*.*.*.*.*.*...%.%.-.} } P K P P ~ / ! Q 3.e.~.D.S.S.B.B.B.B.B.B.G.G.G.B.B.B.B.B.B.B.B.B.G.G.G.G.G.G.B.B.B.G.B.B.B.B.B.B.B.B.B.B.B.B.B.B.B.B.B.B.B.B.B.B.B.B.B.B.B.B.B.B.B.B.B.B.B.B.B.B.B.B.B.B.B.B.B.B.B.B.B.B.B.B.B.B.B.B.B.B.B.B.B.B.B.B.B.B.B.B.B.B.B.B.B.B.B.B.B.B.B.B.B.B.B.B.B.B.B.B.B.B.B.B.B.B.B.B.B.B.B.B.B.B.B.B.B.B.B.B.B.B.B.B.B.B.B.B.B.B.B.B.B.B.B.B.B.B.B.B.B.B.B.B.B.B.B.B.B.B.B.B.B.B.B.B.B.B.B.B.B.B.B.B.B.B.B.B.B.B.B.B.B.B.B.B.B.B.B.B.B.B.B.B.B.B.B.B.B.B.B.B.B.B.B.B.B.B.B.B.B.B.B.B.B.B.B.B.B.B.B.B.B.B.B.B.B.B.B.B.B.B.B.B.B.B.B.B.B.B.B.B.B.B.B.B.B.B.B.B.B.B.B.B.B.B.B.B.B.B.B.B.B.B.B.B.B.B.B.B.B.B.B.B.B.B.B.B.B.B.B.B.B.B.B.B.B.B.B.B.B.B.B.B.B.B.B.B.B.B.B.B.B.B.B.B.B.B.B.B.B.B.B.B.B.B.B.B.B.B.B.B.B.B.B.B.B.B.B.B.B.B.B.B.B.B.B.B.B.B.B.B.B.B.B.B.B.B.B.B.B.B.B.B.B.B.B.B.B.B.B.B.B.B.B.B.B.B.B.B.B.B.B.B.B.B.B.B.B.B.B.B.B.B.B.B.B.B.B.B.B.B.B.B.B.B.B.B.B.B.B.B.B.B.B.B.B.B.B.B.B.B.B.B.B.B.B.B.B.B.B.B.B.B.B.B.B.B.B.B.B.B.B.B.B.B.B.B.B.B.B.B.B.B.B.B.B.B.B.B.B.B.B.B.B.B.B.B.B.B.B.B.B.B.B.B.B.B.B.B.B.B.B.B.B.B.B.B.B.B.B.B.B.B.B.B.B.B.B.B.B.B.B.B.B.B.B.B.B.B.B.B.B.B.B.B.B.B.B.B.B.B.B.B.B.B.B.B.B.B.B.B.B.B.B.B.B.B.B.B.B.B.B.B.B.B.B.B.B.B.B.B.B.B.B.B.B.B.B.B.B.B.B.B.B.B.B.B.B.B.B.B.B.B.B.B.B.B.B.B.B.B.B.B.B.B.B.B.B.B.B.B.B.B.B.B.B.B.B.B.B.B.B.B.B.B.B.B.B.B.B.B.B.B.B.B.B.B.B.B.B.B.B.B.B.B.B.B.B.B.B.B.B.B.B.B.B.B.B.B.B.B.B.B.B.B.B.B.B.B.B.B.B.B.B.B.B.B.B.B.B.B.B.B.B.B.B.B.B.B.B.B.B.B.B.B.B.B.B.B.B.B.B.B.B.B.B.B.B.B.B.B.B.B.B.B.B.B.B.B.B.B.B.B.B.B.B.B.B.B.B.B.B.B.B.B.B.B.B.B.B.B.B.B.B.B.B.B.B.B.B.B.B.B.B.B.B.B.B.B.B.B.B.B.B.B.B.B.B.B.B.B.B.B.B.B.B.B.B.B.B.B.B.B.B.B.B.B.B.B.B.B.B.B.B.B.B.B.B.B.B.B.B.B.B.B.B.B.B.B.B.B.B.B.B.B.B.B.B.B.B.B.B.B.B.B.B.B.B.B.B.B.B.B.B.B.B.B.B.B.B.B.B.B.B.B.B.B.B.B.B.B.B.B.B.B.B.B.B.B.B.B.B.B.B.B.B.B.B.B.B.B.B.B.B.B.B.B.B.B.B.B.B.B.B.B.B.B.B.B.B.B.B.B.B.B.B.B.B.B.B.B.B.B.B.B.B.B.B.V.B.B.B.B.B.B.B.B.B.B.B.B.B.B.B.B.B.B.B.B.B.B.B.B.B.B.B.B.B.B.B.B.B.B.B.B.B.B.B.B.B.B.B.B.B.B.B.B.B.B.U.U.6 6 . . + + # # A A A A C C 0.f.s.f.n.g.8.8.8.8.P.P.{.{.).).6 5 + . . . m.                                              ",
"                                                . . $ # O # f h oXoX.X[.oXoXoXOXS S D Z m.b.d.S S S T.R.V.B.k V f f V Z d.b.S S k k k h + . . . O O . O U.T.*X%X,X1XT.T.m m i i j i j z M C ).R.nXmX*X&Xi.A [.].BXNXB.B.o # O $ $ $ . .                     $ $ # @ # $ V.h.E.T.8.s.n n 6.5.l.l.7.7.n 4.4.N C M g h . o . . X % y w ^ / O.O.+.+.-.*.$.#.O.O.K K P P K K K K ) ) +.+.+.+.*.*.*.*.-.$.+.$.L K J J U J J J J J Y Y $.$.O.$.Y Y U J J J J K $.+.$.+.+.+.+.+.+.+.+.+.*.+.*.+.*.+.+.+...%.+.-.} } K P O.P ~ ! R Q 3.e.~.D.S.S.B.B.B.B.B.B.G.G.G.G.B.B.B.B.B.B.B.B.G.G.G.G.G.G.B.B.B.G.G.B.B.B.B.G.B.B.B.B.B.B.B.B.B.B.B.B.B.B.B.B.B.B.B.B.B.B.B.B.B.B.B.B.B.B.B.B.B.B.B.B.B.B.B.B.B.B.B.B.B.B.B.B.B.B.B.B.B.B.B.B.B.B.B.B.B.B.B.B.B.B.B.B.B.B.B.B.B.B.B.B.B.B.B.B.B.B.B.B.B.B.B.B.B.B.B.B.B.B.B.B.B.B.B.B.B.B.B.B.B.B.B.B.B.B.B.B.B.B.B.B.B.B.B.B.B.B.B.B.B.B.B.B.B.B.B.B.B.B.B.B.B.B.B.B.B.B.B.B.B.B.B.B.B.B.B.B.B.B.B.B.B.B.B.B.B.B.B.B.B.B.B.B.B.B.B.B.B.B.B.B.B.B.B.B.B.B.B.B.B.B.B.B.B.B.B.B.B.B.B.B.B.B.B.B.B.B.B.B.B.B.B.B.B.B.B.B.B.B.B.B.B.B.B.B.B.B.B.B.B.B.B.B.B.B.B.B.B.B.B.B.B.B.B.B.B.B.B.B.B.B.B.B.B.B.B.B.B.B.B.B.B.B.B.B.B.B.B.B.B.B.B.B.B.B.B.B.B.V.B.B.B.B.B.B.B.B.B.B.B.B.B.B.B.B.B.B.B.B.B.B.B.B.B.B.B.B.B.B.B.B.B.B.B.B.B.B.B.B.B.B.B.B.B.B.B.B.B.B.B.B.B.B.B.B.B.B.B.B.B.B.B.B.B.B.B.B.B.B.B.B.B.B.B.B.B.B.B.B.B.B.B.B.B.B.B.B.B.B.B.B.B.B.B.B.B.B.B.B.B.B.B.B.B.B.B.B.B.B.B.B.B.B.B.B.B.B.B.B.B.B.B.B.B.B.B.B.B.B.B.B.B.B.B.B.B.B.B.B.B.B.B.B.B.B.B.B.B.B.B.B.B.B.B.B.B.B.B.B.B.B.B.B.B.B.B.B.B.B.B.B.B.B.B.B.B.B.B.B.B.B.B.B.B.B.B.B.B.B.B.B.B.B.B.B.B.B.B.B.B.B.B.B.B.B.B.B.B.B.B.B.B.B.B.B.B.B.B.B.B.B.B.B.B.B.B.B.B.B.B.B.B.B.B.B.B.B.B.B.B.B.B.B.B.B.B.B.B.B.B.B.B.B.B.B.B.B.B.B.B.B.B.B.B.B.B.B.B.B.B.B.B.B.B.B.B.B.B.B.B.B.B.B.B.B.B.B.B.B.B.B.B.B.B.B.B.B.B.B.B.B.B.B.B.B.B.B.B.B.B.B.B.B.B.B.B.B.B.B.B.B.B.B.B.B.B.B.B.B.B.B.B.B.B.B.B.B.B.B.B.B.B.B.B.B.B.B.B.B.B.B.B.B.B.B.B.B.B.B.B.B.B.B.B.B.B.B.B.B.B.B.B.B.B.B.B.B.B.B.B.B.B.B.B.B.B.B.B.B.B.B.B.B.B.B.B.B.B.B.B.B.B.B.B.B.B.B.B.B.B.B.B.B.B.B.B.B.B.B.B.B.B.B.B.B.B.B.B.B.B.B.B.B.B.B.B.B.B.B.B.B.B.B.B.B.B.B.B.B.B.B.B.B.B.B.B.B.B.B.B.B.B.B.B.B.B.B.B.B.B.B.B.B.B.B.B.B.B.B.B.B.B.B.B.B.B.B.B.B.B.B.B.B.B.B.B.B.B.B.B.B.B.B.B.B.B.B.B.B.B.B.B.B.B.B.B.B.B.B.B.B.B.B.B.B.B.B.B.B.B.B.B.B.B.B.B.B.B.B.B.B.B.B.B.B.B.B.B.B.B.B.B.B.B.B.B.B.B.B.B.B.B.B.B.B.B.B.B.B.B.B.B.B.B.B.B.V.V.B.B.B.B.B.B.V.B.B.B.B.B.B.B.B.B.B.B.B.B.B.B.B.B.B.B.B.B.B.B.B.B.B.B.B.B.B.B.B.B.B.B.B.B.B.B.B.B.B.K.K.6 6 . . + + # # A A A A M C d.f.f.g.n.f.8.C s.s._.Y.{.{.).).5 5 @ + . . N.                                              ",
"                                                . . # # + o i f XXXXK.K.K.H.[.E. X[.XXoXMXNXvXMXoXXX.X.XXXOX;X,X&XoXvXnX[.OX, 2 . . $ + + + . . . O . + b.d.OXoXOXOXXXXX*X*XoXoX-X-X].[.oX{.{.}.-X:X[.[.J.M.[.[.<X,XM.V.$ $ , # # $ $ .                     $ $ # # # # b.m.R.[.g.k.5.6.6.6.6.6.7.4.d d v x N C h h . X . . X % 0 w ^ ^ ~ O.$.+.;.-.$.+.O.Y K J K K K K K K P O.O.O.O.O.O.O.O.O.$.O.O.K J J J J J J J J J J J J ~ O.Y Y Y J J J J J J Y Y Y O.O.| ) | ) | ) | ) ) ) | |  .| ) ) ) ) ) } } ) ) } } P P ! R Q e.e.!.D.S.S.B.B.B.B.B.B.B.B.B.B.B.B.B.B.B.B.B.B.B.B.B.B.B.B.G.G.B.B.G.G.G.B.B.B.B.B.B.B.B.B.B.B.B.B.G.B.B.B.B.B.B.B.B.B.B.B.B.B.B.B.B.B.B.B.B.B.B.B.B.B.B.B.M.M.M.M.B.B.B.B.B.B.B.M.B.B.B.B.B.B.B.B.B.B.B.B.V.B.B.B.B.B.B.B.B.B.B.B.B.B.B.B.B.B.B.B.B.B.B.B.B.B.B.B.B.B.B.B.B.B.B.B.B.B.B.B.B.B.B.B.B.B.B.B.B.B.B.B.B.B.B.B.B.B.B.B.B.B.B.B.B.B.B.B.B.B.B.B.B.B.B.B.B.B.B.B.B.B.B.B.B.B.B.B.B.B.B.B.B.B.B.B.B.B.B.B.B.B.B.B.B.B.B.B.B.B.B.B.B.B.B.B.B.B.B.B.B.M.V.V.B.B.B.B.B.B.B.B.B.B.B.B.B.B.B.B.B.B.B.B.B.B.B.B.B.B.B.B.B.B.B.B.B.B.B.B.B.B.B.B.B.B.B.B.B.B.B.B.B.B.B.B.B.B.B.B.B.B.B.B.B.B.B.B.B.B.B.B.B.B.B.B.B.B.B.B.B.B.B.B.B.B.B.B.B.B.B.B.V.B.B.B.B.B.B.B.B.B.B.B.B.B.B.B.B.B.B.B.B.B.B.B.B.B.N.N.B.B.B.B.B.B.B.B.B.B.B.B.B.B.B.B.B.B.B.B.B.B.B.B.B.B.B.B.B.B.B.B.B.B.B.B.B.B.B.B.B.B.B.B.M.M.M.B.B.B.V.M.M.M.V.V.V.M.M.B.B.B.B.B.B.B.B.B.B.B.B.B.B.B.B.B.B.B.B.B.B.B.B.B.B.B.B.B.B.B.B.B.B.B.B.B.B.B.B.B.B.B.B.B.B.B.B.B.B.B.B.B.B.B.B.B.B.B.B.B.B.B.B.B.B.B.B.B.B.B.B.B.B.B.B.B.B.B.B.B.B.B.B.B.B.B.B.B.B.B.B.B.B.B.B.B.B.B.B.B.B.B.B.B.B.B.B.B.B.B.B.B.B.B.B.B.B.B.B.B.B.B.B.B.B.B.B.B.B.B.B.B.B.B.B.B.B.B.B.B.B.B.B.B.B.B.B.B.B.B.B.B.B.B.B.B.B.B.B.B.B.B.B.B.B.B.B.B.B.B.B.B.B.B.B.B.B.B.B.B.B.B.B.B.B.B.B.B.B.B.B.B.B.B.B.B.B.B.B.B.B.B.B.B.B.B.B.B.B.B.B.B.B.B.B.B.B.B.B.B.B.B.B.B.B.B.B.B.B.B.B.B.B.B.B.B.B.B.B.B.B.B.B.B.B.B.B.B.V.V.V.V.V.V.B.B.B.B.B.B.B.B.B.B.B.B.B.B.B.B.B.B.B.B.B.B.B.B.B.B.B.B.B.B.B.B.B.B.B.B.B.B.B.B.B.B.B.B.B.B.B.B.B.B.B.B.B.B.B.B.B.B.N.N.B.B.B.B.B.N.B.B.B.B.B.B.B.B.B.B.B.B.B.B.B.B.B.B.B.B.B.B.B.B.B.B.B.B.B.B.B.B.B.B.B.B.B.B.B.B.B.B.B.B.B.B.B.B.B.B.B.B.B.B.B.B.B.B.B.B.B.B.B.B.B.B.B.B.B.B.B.B.B.B.B.B.B.B.B.B.B.B.B.B.B.B.B.B.B.B.B.B.B.B.B.B.B.B.B.B.B.B.N.m.B.B.B.B.B.B.B.B.B.B.B.B.B.B.B.B.B.B.B.B.B.B.B.B.B.B.B.B.B.B.B.B.B.B.B.B.B.B.B.B.B.B.B.B.B.B.B.B.B.B.B.B.B.B.B.B.B.B.V.V.V.V.V.V.V.V.V.V.V.V.V.V.V.V.B.B.B.B.B.B.B.B.B.B.B.N.B.B.B.B.B.B.B.B.B.N.B.B.B.B.B.B.B.B.V.V.V.V.V.m.m.V.m.V.V.V.G.B.5 7 . . . . $ O A A A A Z A a.s.f.f.f.n.8.8.8.C R.R.{.E.Y.K.6 6 o + + . V.                                              ",
"                                                . . # # o O i i XXXXK.K.K.H.[.[.[.[.oXOXVXNXvXnXOXoXXX.XoXOX*X*X%X;XvXnXXXoX4 6 . . + + + O . . . $ . O b.d.+XoX+XOXXXXX*X*XOXoX-X-X[.[.|.{.}.}.:X:X[.].J.H.[.[.,X,XB.B.$ # # # 2 2 . .                     $ # # # # # b.V.R.E.g.g.5.6.6.s.6.6.x x d x M M 0.A h h . X . . X % 0 w W ^ / O.$.+.$.+.+.$.O.Y Y Y J K K K K J P ~ O.O.O.O.O.O.} } ~ ~ K J J J J J J J J J J J J J Y Y Y Y Y Y Y J J J J J Y ~ ~ Y | | | | | | | | ) ) ) O.| O.) ) | | O.O.} } ) } } P P ! R Q e.e.!.D.S.S.B.B.B.B.B.B.B.B.B.B.N.N.B.B.B.B.B.B.B.B.B.B.B.B.G.G.B.B.G.G.B.B.B.B.B.B.B.B.B.B.B.B.B.B.B.B.B.B.B.B.B.B.B.B.B.B.B.B.B.B.B.B.B.B.B.B.B.B.B.B.B.M.M.M.M.M.B.B.B.B.B.B.B.B.B.B.B.B.B.B.B.B.B.B.B.B.V.V.B.B.B.B.B.B.B.B.B.B.B.B.B.B.B.B.B.B.B.B.B.B.B.B.B.B.B.B.B.B.B.B.B.B.B.B.B.B.B.B.B.B.B.B.B.B.B.B.B.B.B.B.B.B.B.B.B.B.B.B.B.B.B.B.B.B.B.B.B.B.B.B.B.B.B.B.B.B.B.B.B.B.B.B.B.B.B.B.B.B.B.B.B.B.B.B.B.B.B.B.B.B.B.B.B.B.B.B.B.B.B.B.B.B.B.B.B.B.B.B.B.B.B.B.B.B.B.B.B.B.B.B.B.B.B.B.B.B.B.B.B.B.B.B.B.B.B.B.B.B.B.B.B.B.B.B.B.B.B.B.B.B.B.B.B.B.B.B.M.B.B.B.B.B.B.B.B.B.B.B.B.B.B.B.B.B.B.B.B.B.B.B.B.B.B.B.B.B.B.B.B.B.B.B.B.B.B.B.B.B.B.B.B.B.B.B.B.B.B.B.B.B.B.B.B.B.B.B.B.B.B.B.B.B.B.B.N.N.B.B.B.B.N.N.N.B.B.B.B.B.B.B.B.B.B.B.B.B.B.B.B.B.B.B.B.B.B.B.B.B.B.B.B.B.B.B.B.B.B.B.B.B.M.M.B.B.B.B.V.V.V.V.B.B.B.B.M.M.B.B.B.B.B.B.B.B.B.B.B.B.B.B.B.B.B.B.B.B.B.B.B.B.B.B.B.B.B.B.B.B.B.B.B.B.B.B.B.B.B.B.B.B.B.B.B.B.B.B.B.B.B.B.B.B.B.B.B.B.B.B.B.B.B.B.B.B.B.B.B.B.B.B.B.B.B.B.B.B.B.B.B.B.B.B.B.B.B.B.B.B.B.B.B.B.B.B.B.B.B.B.B.B.B.B.B.B.B.B.B.B.B.B.B.B.B.B.B.B.B.B.B.B.B.B.B.B.B.B.B.B.B.B.B.B.B.B.B.B.B.B.B.B.B.B.B.B.B.B.B.B.B.B.B.B.B.B.B.B.B.B.B.B.B.B.B.B.B.B.B.B.B.B.B.B.B.B.B.B.B.B.B.B.B.B.B.B.B.B.B.B.B.B.B.B.B.B.B.B.B.B.B.B.B.B.B.B.B.B.B.B.B.B.B.B.B.B.B.B.B.B.B.B.B.B.B.B.B.B.B.B.B.B.B.B.B.B.B.B.B.B.B.B.B.B.B.B.V.V.V.V.V.V.B.B.B.B.B.B.B.B.B.B.B.B.B.B.B.B.B.B.B.B.B.B.B.B.B.B.B.B.B.B.B.B.B.B.B.B.B.B.B.B.B.B.B.B.B.B.B.B.B.B.B.B.B.B.B.B.B.B.B.N.B.B.B.B.B.N.B.B.B.B.B.B.B.B.B.B.B.B.B.B.B.B.B.B.B.B.B.B.B.B.B.B.B.B.B.B.B.B.B.B.B.B.B.B.B.B.B.B.B.B.B.B.B.B.B.B.B.B.B.B.B.B.B.B.B.B.B.B.B.B.B.B.B.B.B.B.B.B.B.B.B.B.B.B.B.B.B.B.B.B.B.B.B.B.B.B.B.B.B.B.B.B.B.B.B.B.B.B.B.N.B.B.B.B.B.B.B.B.B.B.B.B.B.B.B.B.B.B.B.B.B.B.B.B.B.B.B.B.B.B.B.B.B.B.B.B.B.B.B.B.B.B.B.B.B.B.B.B.B.B.B.B.B.B.B.B.B.B.B.B.V.V.V.V.V.V.V.V.V.V.V.V.V.V.M.V.V.V.M.M.B.B.B.B.N.N.N.N.B.B.B.B.V.V.V.V.B.B.B.B.B.B.B.B.V.V.V.V.V.V.m.V.V.V.V.V.K.K.7 6 . . . . # # A A S A Z Z a.a.a.a.M.M.S S 0.S R.T.R.R.R.T.u 6 o O + + B.                                              ",
"                                                . . O $ o # i f E.E.M.M.B.B.[.[.R.R.'.[.;X>X*X;XXX.X XXXOX;X,X,X,X,X.XoXXXoX4 , . . + + $ $ + + . + . . A A XXOX,X,X;X;XnXnX>X-X:X:X&X&X-X-XoX|.&X-XoXoXXX[.oXXXnXnXK.B.# # : 2 $ + $                       $ # $ $ # # m.V.R.R.n.g.5.5.6.s.d n 7.7.x M M M M m h h . . . . X X 0 w ^ ^ / ~ $.+.+.+.O.O.O.Y Y Y J P P J J J ~ ~ ~ ~ J J J J K J Y Y J J J J Y Y U U U U U J J J Y U U U Y U J J J J J J Y Y Y Y J K K K ( K ( K ( K K K ( ) ) ) | | K K K K K K } P P ! Q Q e.e.!.D.S.S.B.B.B.B.B.B.B.G.G.G.G.H.B.B.G.B.B.B.B.B.B.B.B.B.G.B.B.B.B.B.B.B.B.B.B.B.B.B.B.B.B.B.B.B.B.B.B.B.B.B.B.B.B.B.B.B.B.B.B.B.B.B.B.B.B.B.B.B.B.B.M.M.M.M.M.M.B.B.B.B.B.B.B.B.B.B.B.B.B.B.B.B.B.B.B.B.B.B.B.B.B.B.B.B.B.B.B.B.B.B.B.B.B.B.B.B.B.B.B.B.B.B.B.B.B.B.B.B.B.B.B.B.B.B.B.B.B.B.B.B.B.B.B.B.B.B.B.B.B.B.B.B.B.B.B.B.B.B.B.B.B.B.B.B.B.B.B.B.B.B.B.B.B.B.B.B.B.B.B.B.B.B.B.B.B.B.B.B.B.B.B.B.B.B.B.B.B.B.B.B.B.B.B.B.B.B.B.B.B.B.B.B.B.B.B.B.B.B.B.B.B.B.B.B.B.B.B.B.B.B.B.B.B.B.B.B.B.B.B.B.B.B.B.B.B.B.B.B.B.B.B.B.B.B.B.B.B.B.B.B.B.B.B.B.B.B.B.B.B.B.B.B.B.B.B.B.B.V.B.B.B.B.B.B.B.B.B.B.B.B.B.B.B.B.B.B.B.B.B.B.B.B.B.B.B.B.B.B.B.B.B.B.B.B.B.B.B.B.B.B.B.B.B.B.B.B.B.B.B.B.B.B.B.B.N.N.B.B.B.B.B.B.B.N.B.B.B.B.B.B.B.B.B.B.B.B.B.B.B.B.B.B.B.B.B.B.B.B.B.B.B.B.B.B.B.B.B.B.B.B.B.B.B.B.B.B.B.B.B.B.B.B.B.B.B.B.B.B.B.B.B.B.B.B.B.B.B.B.B.B.B.B.B.B.B.B.B.B.B.B.B.B.B.B.B.B.B.B.B.B.B.B.B.B.B.B.B.B.B.B.B.B.B.B.B.B.B.B.B.B.B.B.B.B.B.B.B.B.B.B.B.B.B.B.B.B.B.B.B.B.B.B.B.B.B.B.B.B.B.B.B.B.B.B.B.B.B.B.B.B.B.B.B.B.B.B.B.B.N.N.B.B.B.B.N.B.B.B.B.B.B.B.B.B.B.B.B.B.B.B.B.B.B.B.B.B.B.B.B.B.B.B.B.B.B.B.B.B.B.B.B.B.B.B.B.B.B.B.B.B.B.B.B.B.B.B.B.B.B.B.B.B.B.B.B.B.B.B.B.B.B.B.B.B.B.B.B.B.B.B.B.B.B.B.B.B.B.B.B.B.B.B.B.B.B.B.B.B.B.B.B.B.B.B.B.B.B.B.B.B.B.B.B.B.B.B.B.B.B.B.B.B.B.B.B.B.B.B.B.B.B.B.B.B.B.B.B.B.B.B.B.B.B.B.B.B.B.B.V.B.B.B.B.B.B.B.B.B.B.B.B.B.B.B.B.B.B.B.B.B.B.B.B.B.B.B.B.B.B.B.B.B.B.B.B.B.B.B.B.B.B.B.B.B.B.B.B.B.B.B.N.B.B.B.B.B.B.N.B.B.B.B.B.B.N.N.B.B.B.B.B.B.B.B.B.B.B.B.B.B.B.B.B.B.B.B.B.B.B.B.B.B.B.B.B.B.B.B.B.B.B.B.B.B.B.B.B.B.B.B.B.B.B.B.B.B.B.B.B.B.B.B.B.B.B.B.B.B.B.B.B.B.B.B.B.B.B.B.V.V.B.B.B.B.B.B.B.B.B.B.B.B.B.B.B.B.B.B.B.B.B.B.B.B.B.B.B.B.B.N.B.B.B.B.B.B.B.B.B.B.B.B.B.B.B.B.B.B.B.B.B.B.B.B.B.B.B.B.B.B.B.B.B.B.B.B.B.B.B.B.B.B.B.B.B.B.B.B.B.B.B.B.B.B.B.B.B.B.B.B.B.B.V.V.V.V.V.V.V.V.B.B.M.V.V.V.V.V.B.B.B.B.B.B.B.B.N.N.B.B.B.B.V.V.V.V.B.B.B.B.V.m.V.V.V.V.V.V.V.V.V.V.V.V.V.V.K.K.5 6 . . . . $ $ A A S A C C d.d.S S S S m V Z C S.M.J.K.R.R.i i O O $ $ B.                                              ",
"                                                . . + O . O i i E.E.G.K.G.K.[. XR.R.].[.*X;X,X,XoXXXXXoXOX*X;X>X,X<XoXoXoXOX5 6 . . + + $ $ + O O O . . S S oXOX,X<X>X,XnXvX;X*X-X:X-X-X-X-XoXoX:X-X&X.X[.[..X[.nXvXK.B.: 2 # 2 $ #                         $ # # # # # V.V.R.R.M.g.a.5.s.s.d x 4.4.x M M C A Z g h . . . . X X 0 w W ^ / ~ $.+.O.O.O.O.O.Y Y Y Y P P J J J P ~ J J J J L J J J J J J J J J U ~ J U U U U J U J J J J J U Y J J Y J J J J J J J L J J J J J K L K K K K K K K K K K K K K K K K } P ~ ! R Q e.7.~.D.S.S.B.B.B.B.B.B.G.G.G.G.G.G.B.B.G.G.B.B.G.B.B.B.B.B.B.B.B.B.B.B.B.B.B.B.B.B.B.B.B.B.B.B.B.B.B.B.B.B.B.B.B.B.B.B.B.B.B.B.B.B.B.B.B.B.B.B.B.B.M.M.M.M.M.M.M.M.B.B.B.B.B.B.B.B.B.B.B.B.B.B.N.N.B.B.B.B.B.B.B.B.B.B.B.B.B.B.B.B.B.B.B.B.B.B.B.B.B.B.B.B.B.B.B.B.B.B.B.B.B.B.B.B.B.B.B.B.B.B.B.B.B.B.B.B.B.B.B.B.B.B.B.B.B.B.B.B.B.B.B.B.B.B.B.B.B.B.B.B.B.B.B.B.B.B.B.B.B.B.B.B.B.B.B.B.B.B.B.B.B.B.B.B.B.B.B.B.B.B.B.B.B.B.B.B.B.B.B.B.B.B.B.B.B.B.B.B.B.B.B.B.B.B.B.B.B.B.B.B.B.B.B.B.B.B.B.B.B.B.B.B.B.B.B.B.B.B.B.B.B.B.B.B.B.B.B.B.B.B.B.B.B.B.B.B.B.B.B.B.B.B.B.B.B.B.B.B.B.B.B.B.B.B.B.B.B.B.B.B.B.B.B.B.B.B.B.B.B.B.B.B.B.B.B.B.B.B.B.B.B.B.B.B.B.B.B.B.B.B.B.B.B.B.B.B.B.B.B.B.B.B.B.B.B.B.N.B.B.B.B.B.B.B.B.B.B.B.B.B.B.B.B.B.B.B.B.B.B.B.B.B.B.B.B.B.B.B.B.B.B.B.B.B.B.B.B.B.B.B.B.B.B.B.B.B.B.B.B.B.B.B.B.B.B.B.B.V.B.B.B.B.B.B.B.B.B.B.B.B.B.B.B.B.B.B.B.B.B.B.B.B.B.B.B.B.B.B.B.B.B.B.B.B.B.B.B.B.B.B.B.B.B.B.B.B.B.B.B.B.B.B.B.B.B.B.B.B.B.B.B.B.B.B.B.B.B.B.B.B.B.B.B.B.B.B.B.B.B.B.B.B.B.B.B.B.B.B.B.B.B.B.B.B.B.B.B.B.B.N.N.N.B.B.B.B.N.B.B.B.B.B.B.B.B.B.B.B.B.B.B.B.B.B.B.B.B.B.B.B.B.B.B.B.B.B.B.B.B.B.B.B.B.B.B.B.B.B.B.B.B.B.B.B.B.B.B.B.B.B.B.B.B.B.B.B.B.B.B.B.B.B.B.B.B.B.B.B.B.B.B.B.B.B.B.B.B.B.B.B.B.B.B.B.B.B.B.B.B.B.B.B.B.B.B.B.B.B.B.B.B.B.B.B.B.B.B.B.B.B.B.B.B.B.B.B.B.B.B.B.B.B.B.B.B.B.B.B.B.B.B.B.B.B.B.B.B.B.B.B.B.B.B.B.B.B.B.B.B.B.B.B.B.B.B.B.B.B.B.B.B.B.B.B.B.B.B.B.B.B.B.B.B.B.B.B.B.B.B.B.B.B.B.B.B.B.B.B.B.B.B.B.N.N.N.N.N.N.B.B.B.B.B.B.B.B.B.B.B.B.B.B.B.B.B.B.B.B.B.B.B.B.B.B.B.B.B.B.B.B.B.B.B.B.B.B.B.B.B.B.B.B.B.B.B.B.B.B.B.B.B.B.B.B.B.B.B.B.B.B.B.B.B.B.B.B.B.B.B.B.B.B.B.B.B.B.B.B.B.B.B.B.B.B.B.B.B.B.B.B.B.B.B.B.B.B.B.B.B.B.B.B.B.B.B.B.B.B.B.B.B.B.B.B.B.B.B.B.B.B.B.B.B.B.B.B.B.B.B.B.B.B.B.B.B.B.B.B.B.B.B.B.B.B.B.B.B.B.B.B.B.B.B.B.B.B.B.B.B.B.B.B.B.B.B.B.B.B.B.B.B.B.B.B.V.V.B.V.V.V.V.B.B.B.M.V.V.V.V.B.B.B.B.B.B.B.B.B.N.B.B.B.B.B.B.B.B.B.B.B.B.B.B.B.B.V.V.V.V.V.V.V.V.V.m.V.V.V.B.B.7 6 . . . . # $ A A S A V V S S A A S S Z Z A C M.M.M.J.R.R.i i O O O O B.                                              ",
"                                                . . O + . . 5 5 T.T.B.B.M.V.K.K.H.M.m.b.G.K.T.T.R.E.E.].'.[.XXXX*X;X*X*X,X,X5 6 . . + + + + . O . + O O V.V.oXoXOX%XOX&X,X>X&X&X[.[.{.{.{.{.[.].T.T.].[.R.T.M.h.B.K.m V O # . .                             # # # # # , V.V.T.T.d.f.f.s.f.k.5.s.j.g.C C B m c c g h . X . . X X 0 w Q ^ / ~ O.$.$.O.O.~ ~ Y Y J Y Y Y Y Y Y Y Y Y Y Y ~ Y U Y U U U U J U U U U U J U J U J U J J U J U ! ~ ! ! U U U U J J J J P J J J J J J J J P P J P P P P | Y K } } } P } P P ~ ! Q q e.2.~.D.D.S.B.B.B.B.B.B.B.G.G.G.G.H.B.B.B.G.B.B.B.B.B.B.B.B.B.B.B.B.B.B.B.B.B.M.B.B.B.B.B.B.B.B.B.B.B.B.B.B.B.B.B.B.B.B.B.B.B.B.B.B.B.B.B.B.B.B.B.B.B.B.B.M.M.M.V.V.B.B.B.B.B.B.B.B.B.B.B.B.B.B.B.N.B.B.B.B.B.B.B.B.B.B.B.B.B.B.B.B.B.B.B.B.B.B.B.B.B.B.B.B.B.B.B.G.B.B.B.B.B.B.B.B.B.B.B.B.B.B.B.B.B.B.B.B.B.B.B.B.B.B.B.B.B.B.B.B.B.B.B.B.B.B.B.B.B.B.B.B.B.B.B.B.B.B.B.B.B.B.B.B.B.B.B.B.B.B.B.B.B.B.B.B.B.B.B.B.B.B.B.B.B.B.B.B.B.B.B.B.B.B.B.B.B.B.B.B.B.B.B.B.B.B.B.B.B.B.B.B.B.B.B.B.B.B.B.B.B.B.B.B.B.B.B.B.B.B.B.B.B.B.B.B.B.B.B.B.B.B.B.B.B.B.B.B.B.B.B.B.B.B.B.B.B.B.B.B.B.B.B.B.B.B.B.B.B.B.B.B.B.B.B.B.B.B.B.B.B.B.B.B.B.B.B.B.B.B.B.B.B.B.B.B.B.B.B.B.B.B.B.B.B.B.B.B.B.B.B.B.B.B.B.B.B.B.B.B.B.B.B.B.B.B.B.B.B.B.B.B.B.B.B.B.B.B.B.B.B.B.B.N.B.B.B.B.B.B.B.B.B.B.B.B.B.B.B.B.B.B.B.B.B.B.B.B.B.B.B.B.B.B.B.B.B.B.B.B.B.B.B.B.B.B.B.B.B.B.B.B.B.B.B.N.B.B.B.B.B.B.B.B.B.B.B.B.B.B.B.B.B.B.B.B.B.B.B.B.B.B.B.B.B.B.B.B.B.B.B.B.B.B.B.B.B.B.B.B.B.B.B.B.B.B.B.B.B.B.B.B.B.B.B.B.B.B.B.B.B.B.B.B.B.B.B.B.B.B.B.B.B.B.B.B.B.B.B.B.B.B.B.B.N.B.B.B.B.B.B.B.B.B.B.B.B.B.B.B.B.B.B.B.B.B.B.B.B.B.B.B.B.B.B.B.B.B.B.B.B.B.B.B.B.B.B.B.B.B.B.B.B.B.B.B.B.B.B.B.B.B.B.B.B.B.B.B.B.B.B.B.B.B.B.B.B.B.B.B.B.B.B.B.B.B.B.B.B.B.B.B.B.B.B.B.B.B.B.B.B.B.B.B.B.B.B.B.B.B.B.B.B.B.B.B.B.B.B.B.B.B.B.B.B.B.B.B.B.B.B.B.B.B.B.B.B.B.V.B.B.B.B.B.B.B.B.B.B.B.B.B.B.B.B.B.B.B.B.B.B.B.B.B.B.B.B.B.B.B.B.B.B.B.B.B.B.B.B.B.B.B.B.B.B.B.B.B.B.B.B.B.B.B.B.B.B.B.B.B.B.B.B.B.B.B.B.B.B.B.B.B.B.B.B.B.B.B.B.B.B.B.B.B.B.B.B.B.B.B.B.B.B.B.B.B.B.B.B.B.B.B.B.B.B.B.B.B.B.B.B.B.B.B.B.B.B.B.B.B.B.B.B.B.B.B.B.B.B.B.B.B.B.B.B.B.B.B.B.B.B.B.B.B.B.B.B.B.B.B.B.B.B.B.B.B.B.B.B.B.B.B.B.B.B.B.B.B.B.B.B.B.B.B.B.B.B.B.B.B.B.B.B.B.B.B.B.B.B.B.B.B.B.B.B.B.B.B.B.B.B.B.B.B.B.B.B.B.B.B.B.B.B.B.B.B.B.B.B.B.B.B.B.B.B.B.B.B.B.B.B.B.B.B.B.B.B.B.B.B.B.B.B.B.B.B.B.B.B.V.V.B.B.B.B.B.M.M.B.B.B.B.B.B.B.B.B.B.B.B.B.B.B.B.B.B.B.B.B.B.B.B.B.B.B.B.B.B.m.m.V.V.V.m.V.V.b.V.V.m.B.K.7 6 . . . . # $ A A A A V V A A Z A a.a.d.S S V n.h.B.S.K.K.i i O o + + B.                                              ",
"                                                . . + . . . 4 4 T.T.G.G.G.B.G.B.K.H.V.b.B.B.T.T.T.R.E.].'.'. XXX*XOXOX&X,X<Xi u . . + . . + . . . . O $ B.B.oXoX*X;X*X*X>X;X&X-X[.[.oXoXoXoX}.[.[.E.[.[.T.R.M.m.V.V.V m 2 : . .                             # # $ # # , V.V.T.R.d.h.f.f.s.f.8.a.g.g.N C c m m V f f . . . . X X 0 0 W ^ ^ / @.O.O.O.~ ~ Y Y Y U Y Y Y Y Y Y Y ~ Y ~ ~ ~ ~ ! ~ ~ Y Y U U U U U U U U U U U U J U J J U U J J U U U U U U U U J P P P J P J P P P P P P P P P P P Y Y P P P } P P P P ! ! Q q e.7.~.D.S.S.B.B.B.B.B.B.G.G.B.B.G.G.B.B.B.G.B.B.B.B.B.B.B.B.B.B.B.B.B.B.B.B.M.M.M.B.B.B.B.B.B.B.B.B.B.B.B.B.B.B.B.B.B.B.B.B.N.N.B.B.B.B.B.B.B.B.B.B.B.B.M.M.M.V.V.m.M.M.B.B.B.B.B.B.B.B.B.B.B.B.B.N.B.B.B.B.B.B.B.B.B.B.B.B.B.B.B.B.B.B.B.B.B.B.B.B.B.B.B.B.B.B.B.B.B.B.B.B.B.B.B.B.B.B.B.B.B.B.B.B.B.B.B.B.B.B.B.B.B.B.B.B.V.V.V.V.B.B.B.B.B.B.B.B.B.B.B.B.B.B.B.B.B.B.B.B.B.B.B.B.B.B.B.B.B.B.B.B.V.B.B.B.B.B.M.M.B.B.B.B.B.B.B.B.B.B.V.V.B.B.B.B.B.B.B.B.B.B.B.B.B.B.B.B.B.B.B.B.B.B.B.B.B.B.B.B.B.B.B.B.B.B.B.B.B.B.B.B.B.B.B.B.B.B.B.M.B.V.V.V.B.B.B.B.B.B.B.B.B.B.B.B.B.B.B.B.B.B.B.B.B.B.B.B.B.B.B.B.B.B.B.B.B.B.B.B.B.B.B.B.B.B.B.B.B.B.B.B.B.B.B.B.B.B.B.B.B.B.B.B.B.B.B.B.B.B.B.B.B.B.B.B.B.B.B.B.B.B.B.B.B.B.B.B.B.B.B.B.B.B.B.B.B.B.B.B.B.B.B.N.N.B.B.B.B.B.B.B.B.B.B.B.B.B.B.B.B.B.B.B.B.B.B.B.B.B.B.B.B.B.B.M.B.B.B.B.B.B.B.B.B.B.B.B.B.B.B.B.N.B.N.B.B.B.B.B.B.B.B.B.B.B.B.B.B.B.B.B.B.B.B.B.B.B.B.B.B.B.B.B.B.B.B.B.B.B.B.B.B.B.B.B.B.B.B.B.B.B.B.B.B.B.B.B.B.B.B.B.B.B.B.B.B.B.B.B.B.B.B.V.B.B.B.B.B.B.B.B.B.B.B.B.N.N.B.B.B.B.B.B.B.B.B.B.B.B.B.B.B.B.B.B.B.B.B.B.B.B.B.B.B.B.B.B.B.B.B.B.B.B.B.B.B.B.B.B.B.B.B.B.B.B.B.B.B.B.B.B.B.B.B.B.B.B.B.B.B.B.B.B.B.B.B.B.B.B.B.B.B.B.B.B.B.B.B.B.B.B.B.B.B.B.B.B.B.B.B.B.B.B.B.B.B.B.B.B.B.B.B.B.B.B.B.B.B.B.B.B.B.B.B.B.B.B.B.B.B.B.B.B.B.B.B.B.B.B.B.B.B.B.B.B.B.B.V.V.B.B.B.B.B.B.B.B.B.B.B.B.B.B.B.B.B.B.B.B.B.B.B.B.B.B.B.B.B.B.B.B.B.B.B.B.B.B.B.B.B.B.B.B.B.B.B.B.B.B.B.B.B.B.B.B.B.B.B.B.B.B.B.B.B.B.B.B.B.B.B.B.B.B.B.B.B.B.B.B.B.B.B.B.B.B.B.B.B.B.B.B.B.B.B.B.B.B.B.B.B.B.B.B.B.B.B.B.B.B.B.B.B.B.B.B.B.B.B.B.B.B.B.B.B.B.B.B.B.B.B.B.B.B.B.B.B.B.B.B.B.B.B.B.B.B.B.B.B.B.B.B.B.V.B.B.B.B.B.B.B.B.B.B.B.B.B.B.B.B.B.B.B.B.B.B.B.B.B.B.B.B.B.B.B.B.B.B.B.B.B.B.B.B.B.B.B.B.B.B.B.B.B.B.B.B.B.B.B.B.B.B.B.B.B.B.B.B.B.B.B.B.B.B.B.B.B.B.B.B.B.B.B.B.B.B.B.B.B.B.B.B.B.B.B.B.B.B.B.B.B.B.B.B.B.B.M.M.B.B.V.B.B.B.B.B.B.B.B.B.B.B.B.B.B.B.B.B.B.B.V.V.m.B.B.B.B.B.V.m.V.V.V.V.V.V.b.V.V.m.B.B.5 7 . . . . # $ A Z Z A V V Z A A S 8.8.a.A Z V h.n.J.S.J.J.i i O o + + B.                                              ",
"                                                  . . . . . 2 4 k k k b V V m k f h h j m V M.B.T.T.T.T.K.H.H.H.T.T.R.R.U.T.6 6 . . . . . . . . $ O # # K.T.*X*X.X.XR.T.R.R.K.T.T.K.].].E.].T.K.M.M.K.K.A Z , , 4 4 , , . . . +                             # 2 O # # # M.V.R.R.h.h.d.h.m M C C Z.S.8.S j k j k f f . . . . . X 0 0 E Q / / / / / ~ ~ ~ Y U U U U U ~ ~ ~ ~ ~ ! U U U U U ! U U ! ! U U U U U U ! ! ! U ! U U J J J U J J J J J U U ! ! U ! ! ! ~ ~ U U J P P ~ P P P P P P P P Y K K J P P P P P P ! ! R Q e.e.D.L.S.B.B.G.B.B.B.B.B.B.B.B.G.G.B.B.B.B.B.B.B.B.B.B.B.B.B.B.B.B.B.B.B.B.B.V.V.V.B.B.B.B.M.B.B.B.B.B.B.B.B.B.B.B.B.B.B.B.N.N.B.B.B.B.B.B.M.M.V.V.B.B.B.B.V.V.V.V.M.B.B.B.B.B.B.B.B.B.B.B.B.B.B.B.B.B.B.B.B.B.B.B.B.B.B.B.B.B.B.B.B.N.N.N.N.N.N.N.N.N.N.N.N.N.N.N.B.B.B.B.B.B.B.B.B.B.B.B.B.B.B.B.V.V.V.V.V.V.V.V.V.V.V.V.V.V.V.V.B.B.B.B.B.B.B.B.N.B.B.B.B.B.B.B.B.B.B.B.B.B.B.B.B.B.B.B.B.B.B.B.V.V.M.B.B.V.V.m.V.V.V.V.V.V.V.B.B.B.B.B.B.B.B.B.B.B.B.B.B.B.B.B.B.N.N.N.N.N.N.N.N.N.N.N.N.N.N.N.N.N.N.N.N.N.N.N.N.N.N.N.N.N.N.N.B.B.B.B.B.B.B.B.B.B.B.B.B.B.N.N.B.B.B.B.B.B.B.B.B.B.B.B.B.B.B.B.B.B.B.B.B.B.B.B.V.B.B.B.B.B.B.B.B.B.B.B.B.B.B.B.B.B.B.N.B.B.B.B.B.B.B.B.B.B.B.B.B.B.B.B.B.B.B.B.B.B.B.B.N.N.B.B.B.N.B.N.N.N.B.B.N.N.N.N.N.N.N.N.N.N.N.N.N.N.N.B.B.B.B.B.B.B.B.B.B.B.B.B.B.B.B.B.B.B.B.B.B.B.B.B.B.B.B.m.N.B.B.B.N.N.N.N.N.N.N.N.N.N.N.N.N.N.N.N.V.m.m.B.B.B.B.M.V.V.V.V.V.V.V.V.B.B.B.B.B.B.B.B.B.B.B.B.B.B.B.B.B.B.B.B.B.B.B.B.B.N.N.B.B.B.B.B.B.B.B.B.B.B.B.B.N.N.B.B.B.B.B.B.B.B.B.B.B.B.B.B.B.B.B.B.B.B.V.V.N.N.N.B.N.N.B.B.N.N.N.B.B.B.B.B.B.B.B.B.B.B.B.B.B.B.B.B.B.B.B.B.B.B.B.B.B.B.B.B.B.B.B.B.B.B.B.B.B.B.B.B.B.B.B.B.B.B.B.B.B.B.B.B.B.B.B.B.B.B.B.B.B.B.B.B.B.B.B.B.B.B.B.B.N.B.N.N.N.N.B.B.B.B.B.B.B.N.B.B.B.B.N.N.B.B.B.B.B.B.B.B.B.B.B.B.B.B.B.B.B.B.B.B.B.B.N.N.B.B.B.B.B.B.B.B.B.B.B.B.B.B.B.B.B.N.N.N.N.N.N.N.N.N.N.N.N.N.m.m.N.N.N.N.N.N.N.N.N.N.N.N.N.N.N.N.N.N.N.N.N.N.N.N.N.N.N.N.N.N.N.N.B.N.N.N.N.N.N.m.B.B.B.B.B.B.B.B.B.B.B.B.B.B.N.N.B.B.B.B.B.B.B.B.B.B.B.B.B.B.B.B.B.B.B.B.B.B.B.B.B.B.B.B.B.B.B.B.B.B.B.B.B.B.B.B.B.B.B.B.B.B.B.B.B.B.B.B.B.B.B.B.B.N.N.N.N.N.N.N.N.N.N.N.N.N.N.N.B.N.B.B.B.B.B.B.B.B.N.B.B.B.B.B.N.B.B.B.B.B.B.B.B.B.B.B.B.B.B.B.B.B.B.B.B.N.B.B.B.B.B.B.B.B.B.B.B.B.B.B.B.B.B.B.B.B.B.B.B.B.B.B.N.N.N.N.N.N.N.N.N.N.N.N.N.N.N.N.B.B.B.B.B.B.B.B.B.B.B.B.B.B.N.B.B.B.V.V.V.V.B.V.B.B.B.V.V.V.B.V.M.B.V.V.m.V.B.B.B.B.N.N.N.N.B.B.B.B.B.B.B.B.B.B.V.V.V.V.N.N.N.B.V.V.V.V.V.V.V.V.V.V.m.m.B.B.7 7 . . . . # $ Z V A A m m A A A S C C 8.8.a.a.B.J.K.J.J.J.u i O o + + B.                                              ",
"                                                  . . . . . 4 , k k k b V V m k f h k b m m m.V.T.T.T.K.K.G.B.B.R.T.K.R.K.U.f 6 . . . . . . . . . . # 2 T.R.*X*XOXoXR.T.R.R.T.R.R.K.].].E.[.T.T.J.J.K.T.Z A , , : , 2 2 $ . . .                             2 2 O $ # # m.M.R.E.M.M.d.h.m m d.S V.M.A S j k j m f f . . . . . X 0 0 E W ^ ^ / / / / ! U U U U ! U U ! ! ! ! ! ! ! ! ! ! ! ! ! ! ! ! ! ! U U R R ! ! ! ! ! ! R R R ! ! ! R I J J J U U ! ! ! ! ! ! ~ U ~ ~ P ~ ~ ~ ~ ~ ~ ~ P P ~ ~ ~ ~ P P P P P P ~ / R Q Q e.e.D.L.S.B.B.G.B.B.B.B.B.B.B.B.B.B.B.B.B.B.B.B.B.B.G.B.B.B.B.B.B.B.B.B.B.B.V.V.V.V.B.B.B.V.V.V.B.B.B.B.B.B.B.B.B.B.B.B.B.B.B.B.B.B.B.B.B.M.M.M.M.V.M.B.B.V.V.V.V.V.M.B.B.B.B.B.B.B.B.B.N.N.B.B.B.B.B.B.B.B.B.B.B.B.B.B.B.B.V.V.V.N.N.N.N.N.N.N.N.N.N.N.N.N.N.N.N.m.B.B.B.B.B.B.B.V.B.B.B.B.B.B.B.B.V.V.V.V.V.V.V.V.V.V.V.V.V.V.V.V.N.N.B.B.B.B.N.N.m.m.N.N.B.B.B.B.B.B.V.V.B.B.B.B.B.B.B.B.B.B.B.B.m.V.V.V.V.m.m.m.m.m.m.m.m.V.V.V.V.V.B.B.B.B.B.V.m.m.B.B.B.B.B.B.B.N.N.N.N.N.N.N.N.N.N.N.N.N.N.N.N.N.N.N.N.N.N.N.N.N.N.N.N.N.N.N.N.N.B.B.B.B.B.B.N.B.B.B.B.B.N.m.B.B.B.B.B.B.B.B.B.B.B.B.B.B.B.B.B.B.B.B.B.B.B.B.V.V.B.B.V.V.B.B.N.N.B.B.B.B.B.B.B.B.B.N.N.N.B.B.B.B.B.B.B.B.B.B.B.B.B.B.B.B.B.B.B.B.B.N.m.V.m.B.N.N.N.N.N.N.N.B.N.N.N.N.N.N.N.N.N.N.N.N.N.N.N.N.B.B.B.B.B.B.B.B.B.B.B.B.B.B.B.B.B.B.B.B.B.B.N.N.B.B.m.m.V.m.N.B.m.m.N.N.N.N.N.N.m.m.m.N.N.N.N.N.m.m.m.m.V.V.V.V.V.V.V.V.V.V.V.V.N.N.N.N.N.N.N.N.B.B.B.B.B.B.B.B.N.N.B.B.B.B.N.N.B.B.N.B.B.B.N.N.B.B.N.N.N.N.N.B.N.N.B.B.B.B.B.B.V.V.B.B.B.B.B.B.B.B.B.B.B.B.V.V.N.N.N.N.N.N.N.N.N.N.N.B.B.B.N.N.N.N.B.B.B.B.B.B.B.B.B.B.B.B.B.B.B.B.B.B.B.B.B.B.B.B.B.B.B.B.B.B.B.B.B.B.B.B.B.B.B.B.B.B.B.B.B.B.B.B.B.B.B.B.B.B.B.B.B.B.B.B.B.B.B.B.B.B.N.N.m.m.m.N.N.B.B.B.B.B.N.N.B.B.B.B.N.m.B.B.N.N.N.B.B.B.B.B.B.B.B.B.B.B.N.N.B.B.B.B.N.N.B.B.B.B.B.B.B.B.B.B.B.B.B.B.B.B.B.N.N.N.N.N.N.N.N.N.N.m.m.m.m.m.N.N.N.N.N.N.N.N.N.N.N.N.N.N.N.N.N.N.N.N.N.N.N.N.N.N.N.N.N.N.N.N.B.B.N.N.B.B.N.m.B.B.B.B.B.B.N.N.B.B.B.B.B.B.B.N.N.N.B.B.B.B.B.B.B.B.B.B.B.B.B.B.B.B.B.B.B.B.B.B.B.B.B.B.B.B.B.B.B.B.B.B.B.B.B.B.B.B.B.B.B.B.B.B.B.B.B.B.B.B.B.B.B.N.N.N.N.N.N.N.N.N.N.N.N.N.N.N.B.B.B.B.B.B.B.B.m.m.m.N.N.N.N.N.m.N.N.B.N.B.B.B.B.B.B.B.B.B.B.B.B.B.B.B.B.B.B.B.B.B.B.B.N.B.B.B.B.B.B.B.B.B.B.B.N.B.B.B.B.B.B.B.N.N.N.N.N.N.N.N.N.N.N.N.N.N.N.N.B.B.B.B.B.N.N.B.B.B.B.B.N.N.N.N.V.V.V.V.V.V.V.V.B.B.V.V.V.V.B.V.V.V.m.m.m.m.B.B.B.B.N.N.N.N.N.N.V.V.V.V.V.V.N.N.V.V.V.V.V.V.V.V.V.V.V.V.V.V.V.V.V.B.B.B.B.B.7 7 . . . . # $ Z V A Z m m A S S S C N 8.C p.d.S.J.K.K.J.J.u i O O + + B.                                              ",
"                                                        ,X,X+ # : # f u f f f f 6 5 h i m k U.U.[.'.XXXXK.T.T.T. X'.G.B.f h . . . . . . + . . . . @ # O B.V.>X;XXX'.T.T.K.K.E.R.E.]..XoX}.[.R.E.K.K.T.K.m m # : $ , $ # O , .                               2 2 $ # , : m.M.R.E.J.J.m m j h m m V.m.S S m m V V f 6 . . . . . X 0 0 E >.Q ^ ^ ! / ! ! ! I I I I U U I R I I I I R R R R R R R R R R I R R R R R R R R R R R R R I I I I I R ! ! I ! ! ! ! ! ! ! ! ! ! ~ ! ! ! ~ ! ! ~ ! ~ ~ ~ ~ ~ ~ ~ P ~ ~ ~ ~ ~ / ! ^ Q Q w.e._.Y.L.K.K.U.I.I.G.G.B.B.G.G.G.G.U.I.I.G.B.B.B.B.B.B.B.G.B.B.B.B.G.G.B.B.B.B.B.B.B.B.B.B.B.V.B.B.B.B.B.B.B.B.B.B.B.B.B.B.B.B.B.B.B.B.B.B.B.B.B.B.B.B.B.B.B.B.B.B.B.B.B.B.B.B.B.B.B.B.B.B.B.B.B.B.B.B.B.B.B.B.B.B.B.B.B.B.B.B.B.B.B.B.B.B.B.B.B.B.B.B.B.B.B.B.B.B.B.B.B.B.B.B.B.B.B.B.B.B.B.B.B.B.B.B.B.B.B.B.B.B.B.B.B.V.V.B.B.B.B.B.B.B.B.B.B.B.B.B.B.B.B.B.B.B.B.B.B.B.B.B.B.B.B.B.B.B.B.B.B.B.B.B.B.G.B.B.B.B.B.B.B.B.B.B.B.B.B.B.B.B.B.B.B.B.B.B.B.B.B.B.B.N.B.B.N.N.N.B.B.B.B.B.N.N.N.B.N.N.N.N.B.N.N.N.B.B.N.N.B.B.B.B.N.N.B.B.B.B.B.B.B.B.B.B.B.B.B.B.B.B.B.B.B.B.B.B.B.B.B.B.B.B.B.B.B.B.B.B.B.B.B.B.B.B.B.B.B.B.B.B.B.B.B.B.B.B.B.B.B.B.B.B.B.B.B.B.B.B.B.B.B.B.B.B.B.B.B.B.B.B.B.B.B.B.B.B.B.B.B.B.B.B.B.B.B.B.B.B.B.B.N.N.N.N.N.N.N.N.N.N.N.N.N.N.N.B.B.B.B.B.B.B.B.B.B.B.B.B.B.B.B.B.B.B.B.B.B.B.B.B.B.B.B.B.B.B.B.B.N.N.N.N.N.N.N.N.N.N.N.N.N.N.N.N.V.V.V.V.V.m.m.m.V.V.m.m.m.m.V.m.V.V.m.m.N.N.N.N.m.m.m.m.N.B.B.B.N.N.N.m.N.B.B.B.B.B.B.B.B.B.B.B.B.B.B.B.B.B.B.B.B.B.B.B.B.B.B.B.B.B.B.B.B.B.B.B.B.B.B.B.B.B.B.B.B.B.B.B.B.B.B.N.N.B.B.B.B.B.B.B.N.B.N.N.B.B.B.B.N.N.B.N.m.V.m.N.B.B.B.B.B.V.B.B.B.B.B.B.B.B.B.B.B.B.B.B.B.B.B.B.B.B.B.B.B.B.B.B.B.B.B.B.B.B.B.B.B.B.B.B.B.B.B.B.B.B.B.B.B.B.B.B.B.B.B.B.B.B.B.B.B.B.B.B.B.B.B.B.B.B.B.B.B.B.B.G.B.B.B.B.B.B.B.B.N.N.B.B.B.B.B.B.B.B.B.B.B.N.B.B.B.B.B.B.B.B.B.B.B.N.B.B.N.N.N.N.B.B.B.N.N.N.N.N.N.N.N.N.N.N.N.N.B.B.N.N.N.N.N.N.N.N.N.N.N.N.N.N.N.N.N.N.N.N.N.N.B.B.B.B.B.B.B.B.B.B.B.N.N.B.B.B.B.B.B.B.N.B.B.B.B.N.m.m.m.N.B.B.B.B.B.B.B.B.B.B.B.B.B.B.B.B.B.B.B.B.B.B.B.B.B.B.B.B.B.B.B.B.B.B.B.B.B.B.B.B.B.B.B.B.B.B.B.B.B.B.B.B.B.B.B.B.B.N.N.N.B.B.N.B.B.B.B.B.B.B.B.B.B.B.G.B.B.B.B.B.B.B.B.B.B.B.B.B.B.B.B.B.B.B.B.B.B.B.B.B.B.B.B.B.B.B.B.B.B.B.B.B.B.B.B.B.B.B.B.B.B.B.B.B.B.B.B.B.B.B.B.B.B.B.B.B.B.B.N.N.N.B.N.N.N.N.B.B.B.B.B.B.B.B.B.B.B.B.B.B.B.B.B.B.B.B.B.B.B.B.B.B.B.B.B.B.B.B.V.V.B.B.B.B.B.B.B.B.N.N.B.B.B.B.B.B.B.B.V.V.V.V.B.B.N.V.V.V.B.B.B.B.N.V.V.V.V.V.V.V.B.B.B.U.2 2 . + . . $ O V V A Z Z V M.M.h.M.C A N M a.C R.K.T.T.R.R.6 6 O O + + U.                                              ",
"                                                          <X$ $ 2 # 6 f f k f f 5 5 f f m m T.T.E.E.XXoXT.T.T.U. X XK.K.i f . o . . $ . . . . . . . O O B.V.:X>X[.'.T.T.T.K.R.K.].[.oXoX}.[.R.E.R.R.J.J.m b , , # # # $ # $ .                               2 2 $ # , , M.M.R.R.M.J.m m j h m m V.m.S S m m Z Z f f . . . . . X 0 0 E 2.Q Q W W W Q Q R R R R R R R R R R R R R R R R R R Q R R R R R R R R R R Q R R Q Q Q Q Q R Q R R R R R R R R R ! R ! R ! ! ! ! / / / ! / ! / / / / / / / ! ! ! ! / ! / / ! ^ R ^ Q E w.e._.Y.K.K.K.K.I.I.G.G.B.B.G.G.G.G.I.I.I.G.B.B.B.B.G.G.I.G.B.G.G.G.B.B.B.B.B.B.B.B.B.B.B.B.B.B.B.B.B.B.B.B.B.B.B.B.B.B.B.B.B.B.B.B.B.B.B.B.B.B.B.B.B.B.B.B.B.B.B.B.B.B.B.B.B.B.B.B.B.B.B.B.B.B.B.B.B.B.B.B.B.B.B.B.B.B.B.B.B.B.B.B.B.B.B.B.B.B.B.B.B.B.B.B.B.B.B.B.B.B.B.B.B.B.B.B.B.B.B.B.B.B.B.B.B.B.B.B.B.B.B.B.B.B.B.B.B.B.B.B.B.B.B.B.B.B.B.B.B.B.B.B.B.B.B.B.B.B.B.B.B.B.B.B.B.B.B.B.B.B.B.B.G.G.B.G.G.G.G.G.H.H.B.B.B.B.B.B.B.B.B.B.B.B.B.B.B.B.B.B.B.B.B.B.B.B.B.B.B.B.B.B.B.B.B.B.B.B.B.N.B.B.B.B.B.B.B.G.N.N.N.N.N.N.N.N.B.B.G.G.B.B.B.B.B.B.B.B.B.B.B.B.B.B.B.B.B.B.B.B.B.B.B.B.B.B.B.B.B.B.B.B.B.B.B.B.B.B.B.B.B.B.B.B.B.B.B.B.B.B.B.B.B.B.B.B.B.B.B.B.B.B.B.B.B.B.B.B.B.B.B.B.B.B.B.B.N.B.B.B.B.B.B.B.B.B.B.B.B.B.B.B.B.B.B.B.B.B.B.B.B.B.G.B.B.B.B.B.B.B.B.B.B.B.B.B.B.B.B.B.B.B.B.B.B.B.B.B.B.B.B.B.B.G.G.B.B.B.B.B.N.N.N.N.N.N.N.N.N.N.N.N.N.N.N.N.m.m.m.m.m.m.V.V.m.m.m.m.m.m.m.m.V.V.V.m.m.m.N.V.m.m.N.B.B.B.B.B.B.B.B.B.B.B.B.B.B.B.B.B.B.B.B.B.B.B.B.B.B.B.B.B.B.B.B.B.B.B.B.B.B.B.B.B.B.B.B.B.B.B.B.B.B.B.B.B.B.B.B.B.B.B.B.B.B.B.B.B.B.B.B.B.B.B.B.N.B.B.B.B.N.N.B.N.m.m.N.N.B.V.B.B.B.B.B.V.B.B.B.B.B.B.B.B.B.B.B.B.B.B.B.B.B.B.B.B.B.B.B.B.B.B.B.B.B.B.B.B.B.B.B.B.B.B.B.B.B.G.G.G.B.B.B.B.B.B.B.B.B.B.B.B.B.B.B.B.B.B.B.B.B.B.B.B.B.B.B.B.B.B.B.B.B.B.B.B.B.B.B.B.B.B.B.B.B.B.B.B.B.B.B.B.B.B.B.B.B.B.B.B.B.B.B.B.B.B.B.B.B.B.B.N.N.N.N.N.N.N.N.N.N.N.N.N.B.B.N.N.N.N.N.N.N.N.N.N.N.N.N.N.N.N.N.N.N.N.N.N.B.B.B.B.B.B.B.B.B.B.B.B.B.B.B.B.B.B.B.B.B.B.B.B.B.B.B.B.N.B.B.B.B.B.B.B.B.B.B.B.B.B.B.B.B.B.B.B.B.B.B.B.B.B.B.B.B.B.B.B.B.B.B.B.B.B.B.B.B.B.B.B.B.B.B.B.B.B.B.B.B.B.B.B.B.B.B.B.B.B.B.B.B.B.B.B.B.B.B.B.B.B.B.B.B.B.B.B.B.B.B.B.B.B.B.B.B.B.B.B.B.B.B.B.B.B.B.B.B.B.B.B.B.B.B.B.B.B.B.B.B.B.B.B.B.B.B.B.B.B.B.B.B.B.B.B.B.B.B.B.B.G.G.G.B.B.B.B.B.B.B.B.B.B.B.B.G.B.B.B.B.B.G.B.B.G.B.B.B.B.B.B.B.B.B.B.B.B.B.B.B.B.B.B.B.B.B.B.B.B.B.B.B.B.B.B.B.B.B.B.B.B.B.N.B.B.B.V.V.V.V.N.B.B.N.V.V.B.B.B.B.B.B.N.B.B.V.V.B.B.B.B.B.B.7 7 . + . . # O m m Z Z A A S.J.M.M.C N M M a.8.R.K.T.K.R.R.u u O @ + + U.                                              ",
"                                                            . . + . f 2 6 2 h k h h h f h h A A m.b.B.H.B.K..X.X*X*XR.R.u i . . . . k k f 6 # # O . O . b.m.,X<X&XoXT.K.R.R.T.R.d.h.M.J.n.M.d.d.Z A Z i.j h , # O # V Z E.U.                                2 2 O # : , M.M.T.K.h.h.j h i i h h S S m V j b V V f i . . . . . X 0 y 2.2.>.E W >.W W W Q Q Q W W Q Q Q Q Q Q Q Q Q Q Q Q Q Q Q Q W W W Q W Q W Q W E Q Q Q Q Q Q Q Q Q Q W W W W W W Q Q W Q W Q W ^ ^ ^ ^ ^ ^ ^ ^ ^ ^ ^ ^ ^ ^ ^ ^ ^ ^ ^ ^ ^ ^ ^ ^ ,.^ 3.u.2.w.w.Z.Z.M.V.m.m.N.N.m.m.V.V.V.m.b.b.V.V.V.V.V.V.V.V.b.b.b.b.b.b.b.b.b.b.b.b.b.b.b.b.b.b.b.b.b.b.b.b.b.b.V.V.V.V.b.V.b.b.V.V.b.V.V.V.b.b.b.b.b.b.V.V.V.V.V.V.b.b.b.b.b.b.b.b.b.b.b.b.b.b.d.S i.i.S i.S S S S S S S S S S S S S S S S i.i.i.i.S i.i.i.v.v.v.v.v.v.v.v.b.b.b.b.d.d.b.b.b.b.b.b.b.S S S d.d.d.d.d.d.d.d.d.d.d.d.d.d.d.d.b.b.b.b.b.b.b.b.b.b.b.b.b.b.b.b.b.b.b.b.b.b.S S b.S S v.S b.v.b.d.i.i.i.i.i.d.d.i.i.i.i.i.i.i.i.d.S S S S S S S 4XS S S b.b.S S v.v.v.i.i.i.i.i.v.i.i.i.v.v.S S S S i.S S i.i.v.i.v.v.b.b.v.v.v.i.i.v.v.i.i.i.i.b.b.b.b.b.b.b.b.S S S 4XS S S S S S S S b.b.b.b.d.d.b.b.b.b.b.b.b.b.b.b.S 0.b.b.v.v.i.v.v.v.i.i.i.i.v.v.i.S i.i.b.b.b.v.b.b.b.b.S S S S b.b.S S S i.i.i.i.i.i.i.i.i.b.b.b.b.b.b.i.i.v.v.i.i.i.i.v.b.b.b.b.i.i.i.b.b.S S b.b.S v.b.b.b.b.b.b.v.b.b.b.b.b.b.b.b.b.b.b.b.b.v.v.v.v.v.v.v.b.b.b.b.b.b.b.v.v.b.b.b.i.d.d.d.d.d.i.i.i.S S S S S S S S S S S S S S S S S S S i.v.v.v.i.v.i.i.S S i.v.v.v.v.i.i.i.v.i.i.i.v.v.v.b.b.b.v.v.v.i.i.v.v.v.b.b.d.b.b.b.b.b.b.b.b.b.b.b.b.b.b.b.b.b.b.b.b.b.b.b.b.b.b.b.v.v.b.v.v.v.v.v.v.i.v.i.v.v.v.i.i.v.b.d.d.d.d.4X4X4X4X4Xv.b.b.b.b.b.b.b.b.b.b.b.b.d.S b.b.b.b.b.b.b.b.d.d.b.b.b.b.b.b.v.b.b.b.b.b.0.b.v.v.b.b.b.v.i.i.b.b.b.b.b.b.b.b.b.b.b.b.b.v.b.b.b.b.b.b.v.v.b.b.v.v.v.v.v.v.v.v.S i.i.v.v.v.v.v.i.b.b.b.v.v.v.b.v.i.i.v.b.b.b.b.v.v.v.v.v.v.v.v.b.b.b.v.b.b.b.b.b.b.b.b.b.b.b.b.b.b.b.b.b.b.v.v.b.b.b.b.b.b.b.b.v.v.b.b.b.b.i.S i.v.b.b.i.i.i.i.i.i.i.i.i.i.i.i.i.i.i.i.i.i.i.i.i.i.i.i.i.i.S S S S S S i.v.v.b.S S S i.v.v.i.S S S b.b.b.b.0.d.b.b.b.b.b.b.0.d.b.b.b.b.b.b.d.d.S b.b.b.b.b.b.S i.S S S i.v.v.v.i.i.i.v.i.i.v.v.i.i.S S S S S S v.v.v.v.i.i.i.i.S S S S S i.i.i.v.i.S S S i.i.i.i.i.S i.v.v.v.v.S S i.i.i.v.i.v.S S S S S S i.i.b.b.v.v.i.i.i.i.S i.v.v.i.v.i.i.i.i.i.i.v.v.v.v.b.b.v.v.b.b.b.b.b.b.b.i.i.v.b.b.i.b.b.b.b.b.d.S b.b.b.b.b.S S S i.i.i.i.i.v.v.v.S i.b.S S S S S S S S S S S S S S S S S S S S S S S S S S S S S S S S b.V.V.2 2 . . . . # # m m m m m C S.J.h.g.B B B B 8.8.K.K.K.K.R.R.u u # O + + U.                                              ",
"                                                            . . . + 2 7 7 u h k f f h k k b Z A b.b.U.T.T.K..X'.>X,XR.R.u u . . # + m k 6 i # , . . . . d.M.,XnX&XoXT.K.[.].K.K.M.M.M.M.d.b.d.h.d.S S Z h h 4 , # $ V V                                     2 7 O $ : , M.M.T.K.h.h.h h i i j j S S V Z j b V Z u i . . + . . . r r v 2.>.>.>.>.>.E E E E E E E E E E E E E E E E E E E E E E E E E E E E E E E E E E E E t t E E E E E E E E E >.E E E W W W W W W >.>.>.>.>.W >.W >.>.,.>.,.W W 2.W u.u.u.W u.2.2.2.2.2.2.6.q.C.M.M.M.V.m.N.N.N.N.B.m.V.V.b.b.V.V.N.N.V.V.V.V.V.V.V.V.V.V.b.b.d.b.b.b.b.b.b.b.b.b.b.b.b.b.b.b.V.V.V.V.V.V.V.V.V.V.V.V.V.V.V.V.m.m.V.b.b.b.V.V.V.V.V.V.V.V.b.b.b.b.V.V.b.b.b.b.b.b.b.b.b.b.b.d.b.b.b.b.b.b.b.b.b.b.b.b.b.b.b.b.b.b.b.b.v.v.b.b.b.b.b.b.b.b.b.b.V.b.b.b.b.b.b.b.b.b.b.b.b.b.b.b.b.b.b.b.b.b.b.b.b.b.b.b.b.b.b.b.b.b.b.b.b.b.b.b.V.V.V.V.V.b.b.b.b.V.V.V.b.b.b.b.b.b.b.b.b.b.b.b.b.b.d.d.b.b.b.d.d.b.b.b.b.b.b.b.b.b.b.d.b.b.b.b.b.b.b.b.b.b.b.v.b.b.b.b.b.b.b.b.b.b.b.b.b.b.b.v.i.b.b.b.b.v.b.b.S S S i.i.i.S S b.b.b.b.b.b.b.b.b.v.i.v.v.b.b.v.b.b.b.b.b.b.b.b.b.b.b.b.b.b.V.V.b.b.b.V.V.V.V.b.b.b.b.b.b.b.b.b.b.b.b.b.b.b.b.b.b.b.b.b.b.b.b.b.v.v.S S S S S S S S S S S S S S S S S S S S S S i.i.i.i.v.v.b.b.v.b.b.b.b.b.b.b.b.b.b.b.b.b.b.b.b.b.b.b.b.b.b.b.b.b.b.V.V.b.b.b.V.V.V.V.b.V.V.V.V.b.b.b.b.b.b.b.i.i.i.i.i.i.i.i.v.v.i.i.i.i.i.i.S S i.i.S S S S S S S S S S S S S S S S S S S S S S S S S S S S b.b.b.b.b.b.b.b.b.b.b.b.b.b.b.b.b.b.b.b.b.b.b.b.b.b.b.b.b.b.b.b.b.b.b.b.b.b.b.b.S S v.b.b.b.b.0.v.v.v.v.v.i.i.i.b.b.b.v.v.v.i.v.v.v.i.i.i.i.S S i.i.i.i.i.i.v.v.d.d.d.d.4X4XS 4XS S S S S b.d.d.V.b.V.V.V.V.b.b.b.b.V.V.V.V.V.b.b.b.b.V.b.b.V.b.b.b.b.b.b.b.b.b.b.b.b.b.b.b.b.b.b.b.b.b.b.b.b.v.i.i.i.i.v.v.v.v.v.v.i.i.i.i.i.v.i.v.i.i.i.i.i.i.S S S S S S S S i.v.v.v.i.i.i.i.S S S i.v.b.b.b.b.b.b.b.b.b.b.b.v.v.v.v.b.b.b.b.v.v.b.b.b.b.i.i.b.b.b.b.b.v.v.v.i.i.b.b.b.v.v.v.i.i.v.b.v.i.S S S i.v.v.i.i.S S i.i.S S S S S S S S S i.S S S S i.i.i.i.S S S S S S S S S S i.i.b.b.b.b.b.b.b.b.b.b.b.b.b.b.b.b.b.V.V.V.b.b.b.b.b.b.b.b.b.b.b.b.b.b.b.b.b.V.b.b.b.b.b.b.b.b.b.b.b.b.b.b.b.b.b.b.b.b.v.v.v.v.v.v.S S S S S i.S S b.b.v.v.v.v.v.v.S S S S S S S S S S S S S S S S b.v.v.b.b.b.b.b.b.b.b.b.b.b.b.b.b.b.b.b.b.b.b.b.v.v.b.b.b.b.b.b.b.b.b.b.b.b.b.b.V.b.b.b.b.V.b.b.V.b.b.b.b.b.b.b.S S i.i.S S S S S S S S S S S S i.i.S S S S S S S S S S S S S S S S S S S S S S S S S S S S S S S S S S S S S S b.d.b.b.b.S 2 2 . . . . 4 , m m c m V Z K.K.n.g.z z B B 8.8.K.K.K.K.R.R.u u O @ + . U.                                              ",
"                                                            7 7 D D f G 8 : 4 4 5 6 6 u 6 5 , , 4 5 Z i.m.b.E.R.oXOXT.R.m V i f f f B.V.S S u 6 5 5 i 6 V.V.oXoX[.{.].].-X-XT.K.b j i i 4 4 5 5 5 4 h f 6 u . . . .                                         2 7 $ $ # : M.M.Y.Y.g.g.j j g h m m d.b.0.S j j m m g h X . . . . . . X % % % & % & % % % % % % % & % % % % & & % % % % % % % % % % % & % % % % % % & & % % % % % % & & & & & & & & & & & 9 9 9 9 9 9 9 9 9 9 9 9 9 9 9 9 9 9 9 9 9 9 9 9 9 9 9 9 9 9 9 9 9 & & - - * O O O $ @ @ @ $ $ $ $ O + @ @ + + + + + + + + + + + + + + + . . . . . . . + @ + + . . + + + + + + + + + + + + + + . . . . . . + . . . . . . + + + . + + + . . . + + + . . . . . . . . . . . . . . + + + + + . . + . + . . . . + + . . . . . . . . . . . . . . + + + + . + + + + + . . + + + + + + + . . + . . + + + + . . . + . . . . . . . . . . . . + . . . . + + + + + . . . . + + . . . . . . . . @ @ . . . . . . . . . . + . + . . . . . + + + + + + . . . + + + + + + + . . . + + + + . . . + . + + + + + + + + + + + + . + + + + + + + @ @ + + @ @ @ @ + + + + . . . . + . . . + . . . . + . + + + . . + + + + . . . + + + . . . . + . + + . . . . + . + + + + + + + + + + + + + + + + + + @ @ @ + + + + + + + + + + + . . . + + + . . + + + + . + . . + + . . . . . . . . . + + + . . . . . . . . . . + . . . . . . @ + + + + + + + + + + + + + + + + @ @ @ + + + . . @ + + + @ @ + + + + + + + + + + + + + + + + + + . . . . . . . . . . . . . + + . . . . . . . . . . . . . . . + + . . + + . . . . + + + + + + + + + + + + + + + + + + + + + + + + + + + + + + + + + + + + + + + + + + + + + + + + + + + + + + + + . + + + + + . . + + + . + + + + + + + + + . . . + + + + . . . . . . . . + + + + @ @ @ @ @ @ @ @ @ @ @ @ @ @ @ @ @ + @ @ + + + @ @ @ @ @ @ @ @ @ @ @ @ @ @ @ @ @ + @ + @ + + + . + . . + + @ @ @ . . + . + + . + @ @ + + + + + + + + + + + + + + + + + + @ + + $ + + + + + + + + + + + + + + + + + + + O + + + + $ @ $ + + + + + @ @ @ @ @ @ @ @ @ @ @ @ @ @ @ @ + + + + + + + + + + + . . . + + + + + . . . + + + + . . . . . . + + + + . . . . . . . . + + + + + . . . + + + + . . . . . . . + + + . . . . . . @ @ @ @ @ @ @ @ . . . . . . . . @ @ @ + . + + + @ @ @ + + + + @ . . . . . . . . . . . . . . . . . . . . . . . . . . + + + + + + + + + + + + + + . + . . + + + + + + + . . . . . + + + + + + + + + + + + + + + . @ . @ @ @ + + . . + + + . . . . + . . . . . . . . . . . . . . . . . . . . . . . . . . . + $ . + + . # O h h 8.A M C 8.a.R.R.J.Z.M M 8.N a.8.J.K.J.J.T.T.u u O o + + U.                                              ",
"                                                                  4X2 6 8 @ 4 5 4 4 5 6 u u , 4 6 u d.d.m.m.R.R.*XOXT.K.Z m h i k k b.B.b.S i 4 , 4 i h m.B..X.X[.{.'.[.:X:XR.T.b j i i , , 5 5 5 4 j i u 5 # O + $                                         7 7 + $ # : M.M.T.Y.h.f.j h h h m m d.b.d.S j h j c i e . . . . . . X X X X % * % % % % % * % % % % X X % % % % % % % % % % % % % % % % % % % % % % % % % % % % % % % % % % % & & & & & & & & & & ; ; ; & & & ; 9 9 & & & & ; & 9 9 ; ; ; ; & & & 9 9 9 9 & ; ; - ; * O * # # # # # # # # # $ O O O $ $ $ $ $ $ $ $ + + + + + + + + + + + + + @ @ @ @ @ @ @ @ @ @ @ $ $ $ O $ $ @ + + + + + + + + + O @ + + . . + + + + + + + + + + + + + + + . . . . . . . . . . . + + + + + + + + + + + + + + + + @ + + . . . + + + + + + + + + + + + + + + + + + + + + + + + + + + + + + + + + + + + + + . . + + @ @ @ @ @ @ @ @ @ @ @ @ @ @ @ + . . + + + + + + + + + + + + + + . . . @ @ @ o . . o @ @ @ . . . + + + + + + + + + + + + + + + + + + + + + + + + . + + + @ @ + + + + + + + + + + . . . . . . . . + @ @ @ + + + @ . . . . . . . . + + + + + + + + + + + + + + + + + + + + + . . . + + + + + + + + @ + + + + + + + + + + + + + + + . . . . . . + + + . . . + . . . . . + + . . . . + . . . . . . . . + + + + + + + + + . . + + + + + + + + + + . . . . + + + + + + . + + + . + + + + + + + + @ @ @ + + + . . . . . . . . . . . . . @ + + + + + + . + . . . . + . . + . . . . . . . . + . . . . . . . . . . . + + + . . . . + + + + . . . . . . + + . . . . + + + + + . + . + + + + . . . . . . . . . . . . . . . . . . . . . . . . . . . . . . . . . . . . + + + . + + . . . . . + . . . . . . . . + + + + + + + . + + + + + + + + + + + + + + + + + + + + + + + + + + + @ + + @ @ . . . . . . . . . . + + + + . . + . . . + + . . + + . . . . . . . . . . . . . . . . . . . . . . . . . . . + . . . . $ $ $ $ $ $ . . . + + + . . + + + + . . . . . . . . + + + + . + . + . . . . + + + + . . . . . + + + . . . . + + + + . . . . . . . . . . . . + + + . . + + + + + + + + + . . + + + + . + + + + + + + + + + + + + + + + + + + + + + + + + . . + + + + + + + + + + + + + + + + + + + . . + + + + @ + + . . @ + . . . + + + + + @ + + + . . + + . . . . . . . . . . . . . . . . + + + + . . . + + + + + + + + . . . . . + + @ @ + + + + + + + + + + + + + + + + . + . . + @ + + + @ @ @ + + . . + + . . . . . + . . . . . . . . . . . . . . . . . . . . . . . . . . . . . . . . . . . . . . . . . . . . . . . . + + . . . . . . . . O X C A 8.A C C 8.8.Y.R.J.J.B B 8.5.s.8.H.K.J.J.T.T.u 6 O o + + U.                                              ",
"                                                                      S + @ . . . . . . # # . . , 4 b.V.V.m.b.d.m.m.V.H.R.E.*X*XOXXXB.B.V.B.H.T.-XOXXX[.E.R.E.[.[.[.].R.OXoXT.T.i i 4 5 , , 5 5 , : : O # , f k V.V.                                        7 7 @ $ # , V.M.L.L.g.g.z z j c Z C b.n.0.d.m c m m i i i i j h , = . . . . . X X X . . . . . . X . . . . . . . . . . . . . X . X . X . X . . . . . . . . . . . . . X X X X X X X X X X X X % % % % % % % % X % % % % % % % X % % % % % % % % % % % % % % X % X X X X X . . + o . . . . + + . . . . . . . . . . . . + + . . . . . . . . . . . . . . . . . . . . . . . . . . . . . . . . . . . . . . . . . . . . . . . . . . . . . . . . + . . . . . . . . . . . . . . . . . . . . . . . . + . . + + + + . . . . . . . . . . . . . . . . + + . . . + . . . . . . + + + . . . . . . + . . . . . . . . . . . . . . . . . . . . . . . . . . . . . . . . . . . . . . . . . . . . . . . . . . . . . . . . . . . . . . . . . . . . . . . . . . . . . . . . . . . . + + . . . . . . . . . . + + + + + + + + . . . . . . . . + . . + @ @ + + . . + . . . . . + + . . . . . . . . . + . . . . . . + + . . . . + + . . . . . . + + . . . + + . + + + . + + + + + + . . + + + + + + + + + . + + @ + + + + . + + . . . . . + . . . . . . + + + . + . . . . . . . . . . . . . . . . . . + + + + @ . . . . . . . . + + + + + + + + + + + + + + + + . . . . . . . . @ + . . . + + + + + + . + + + + . + + . . . . . . . . . . . . . . . . . . . . . . . . . . . . . . . . . . . + . . . . . . . . . + + + + + + + + + + + + + + + + + . . . @ @ + . + + + + + + + + . . . . + + + + + + + . . + + + + + + + . + + + . . . + + + . . + + . . . . . . . . . . . . . . + + + + + + + + . . . . . + + + + + + + + + + + + + @ @ @ @ + + @ @ + + @ @ + . + + + . . . . . . + + + + + + . + + + + + + . . + + + + + + + + . . + + . . . . $ $ + + + + + + + + + + + + + + + + + + + + + + + + + + + + + + + + + + + + + + + + + + + + + + + + + + + + + + . . . . . . . . . + + + + + + + + + + + + + + . . . . . . . . + . . . + + . . . . . . . . + + . + . . . . . . . + + . . . . + + . . . . + + + . . . . . . . . . . . . . . . . . + + + + . + + + . . . . . . . . + + + + . + + + + + + + . . . + . . . . . . . . + . . . . + . . . . . . . . . . + . . . . . . . + + . . . . . . . . . . . + + + . . + + + . . . + + + + + + + + + + + + . . . . + . . . . . . . . . . . . . . . . . . . . . . . . . . . . . . . . . . . . . . . . . . . + . + . X X , , L.L.n.n.M M N N J.L.Z.Z.a a M M 8.a.H.J.J.J.T.T.u 6 @ @ + + U.                                              ",
"                                                                      Z + . . . . . . . # # + # 4 4 m.V.m.B.d.d.V.m.H.M.E.T.;X*X+XOXB.B.B.B.K.K.OX&XoXoXE.E.R.E.].'.[.].OXOXR.E.i i 4 5 , , 5 4 # , O O # O k k                                               7 @ O # , M.M.K.J.f.f.j z j c Z m b.b.0.a.m B m j i e 5 e h k , , . . . . . X . . . . . . . . . . . . . . . . . . . . . . . . . . . . . . . . . . . . . . . . . . . . . . . . X X X X X X X X X X X X X X X X X X % X X X X X X % X % % % % X % X % % % X X X . X X X . . @ o + . + + + + + + + + + + + . . . . + + + . . . . . . . . . . . . . . + + . . + + + + + . . . . + . . . . . . . . . . . . . . . . . . . . . . . . . . . . + + . . . . . . . . . . . . . . . . . . . . . . . . . . + + + + . . . . . . . . . . . . . . . . + + . . . . . . . . . . . . + . . . . . . + . . . + . . . . . . . . . . . . . . . . . . . . . . . . . . . . . . . . . . . . . . . . . . . . . o @ @ . . . . + + + . + . . . . . + + . . . . . . . . . . . . . . . . . . . . . . . . . . . . . . . . . . . . . . . . . . + + . . . . . + + . . + + + . . . . + + . . . . . + . . + . . . . + . . . + . . . . + + . . . . . . + + . . . . + . . . . . . . + + + . . . . + + + + + + + . . + + + . . . . . . . . . . . . + + + . . . + + + + . + + + . . . . . . . . . . . . + . . . . + + + + . . + + + . . . + + + + . . . . + + + + + + + . . . . . . . . . @ . . . . + + . + . . . . . . . . . . . . . . . . . . . . . . . . . . . . . + . . . . . . . . + . . . . . + + + + . . . + + + . . + + + + + + + + + + + . . + + + . . . . . . . . . . . . . . . . . . . . + + + + . . . . . + . . . . . . . . . . . + + + + . . + + . . . . . . . . . . . . . . + + + + + + + . + . . . . . + + . . . . . . . . . + + + + + + . + . . + + . . . . . . . . . . . . . . . . . . . . . . . . . . . + + . + . . . . . $ $ $ . . . . + . + + + + . . . . + + + + . . + . . . . . . . . . . . . . . . . + + + + . . . + . + + . . . . . . . . + . + + . . . . . . . . . . . + + + + . . . . . + . . . . . . + + . . . . . . + + . . . . . . . + + + + + . . . . . . . + + . . . . + + . . . . . + + . . . . . . . . . . . . . . . . . + + . . . . . . . . . . . . . . . . . . . . + + + + + + . . . . + + + . . . . . + . . + + + . . . . . . . . . . + + . . . . + + + + . . . . . . . . . . . + + . . . + + + + + + . + + + + + . . + . . . . . . . + . . . . . . . . . . . . . . . . . . . . . . . . . . . . . . . . . . . . . . . . . . . . . + . . . , 1 R.Y.f.f.M M N M J.L.Z.J.s p M M s.a.J.J.J.J.T.T.u 6 O @ + + U.                                              ",
"                                                                        + . . . . . + . $ + 2 # 5 6 A A d.d.Z Z i.S V.b.E.R.OXOXoXE.V.V.m A K.B.OX*X*X;X'.'.B.H.J.J.T.K.J.M.J.J.i i u 6 5 5 # # . O + . + . f f                                               7 O o # , H.J.T.K.M.d.m m j c A C d.d.C N M z M B g j h h d.S 4 4 . . . . X . . . . . . . . . . . . . . . . . . . . . . . . . . . . . . . . . . . . . . . . . . . . . . . . . . . X X X X X X X X X X X X X X % % X X X X X X X X X X X X X X X X X % % % X X X X X X . . . . . . . . . . . . . . . . . . . . . + . . . . . . . . + . . . . . . . . . . . . . . . . . . . . . . . . . . . . . . . . . . . . . . . . . . . . . . . . . . . . . . . . . . . . . . . . . . . . . . . . . . . . . . . . . . . . . . . . . . . . . . . . . . . . . . . . . . . . . . . . . . . . . . . . . . . . . . . . . . . . . . . . . . . + + . . . . . . . . . . . . . . . . . . . . . . . . . . . . . . . . . . . . . . . . . . . . . . . . . . . . . . . . . . . . . . . . . . . . . . . . . . . . . . . . . . . . . . . . . . . . . . . . . . . . . . . . . . . . . + . . . . . . . . . . . . . . . . . . . . . . . . . . . . . . . . . . . . . . . . . . . . . . . . . . . . . . . . . . . . . . . . . . . . . . . . . . . . . . . . . . + + + . + . . . . . . . . . . . . . . . . . . . . . . . . . . . . . . . . . . . . . . . . . . . . . . . . . . . . . . . . . . . . . . . . . . . . . . . . . . . . . . . . . . . . . . . . . . . . . . . . . . . . . . . . . . . . . . . . . . . . . . . . . . . . . . . . . . . . . . . . . . . . . . . . . . . . . . . . . . . . . . . . . . . . . . . . . . . . . . . . . . . . . + . . + . . . . . . . . . . . . . . . . . . . . . . . . . . . . . . . . . . . . . . . . . . . . . . . . . . . . . . . . . . . . . . . . . . . . . . . . . . . . . . . . . . . . . . . . . . . . . . . . . . . . . . . . . . . . . . . . . . . . . . . . . . . . . . . . . . . . . . . . . . . . . . . . . . . . . . . . . . . . . . . . . . . . . . . . . . . . . . . . . . . . . . . . . . . . . . . . + $ . . . . . . . . . . . . . . . . . . . . . . . . . . . . . . . . . . . . . . . . . . . . . . . . . . . . . . . . . . . . . . . . . . . . . . . . . . . . . . . . . . . . . . . . . . . . . . . . . . . . . . . . . . . . . . . . . . . . . . . . . . . . . . . . . . . . X + X . X . X . . . . . . . . . + . . . . . . . . . . . . . . . . . . . . . . . . . . . . . . . . . . . . . . . . . . . . . . . $ O n.n.a.s.M M n z f.k.s.z.s s p a M M K.J.K.T.T.T.i u O O + + T.                                              ",
"                                                                          + . . . . + + $ . 2 , 6 u A S b.b.A A d.d.B.m.E.R.OX&X[.].B.V.A A B.K.OX*X;X;XE.E.H.K.K.K.R.T.M.M.M.M.i i u u 5 5 # # $ . + + . + k                                                 2 O o : , H.K.T.K.V.b.m c k k A Z 0.s.M M B z N M j j j f A V 4 4 . . . . X . . . . . . . . . + . . . . . . . . . . . . . . . . . . . . . . . . . . . . . . . . . . . . . . . . . . . . . . . . X X X X X X X X X X X X X X X X X X X X X X X X X X X % % X X X X . . . . . . . . . . . . . . . . . . . . . . . . . . . . . . . . . . . . . . . . . . . . . . . . . . . . . . . . . . . . . . . . . . . . . . . . . . . . . . . . . . . . . . . . . . . . . . . . . . . . . . . . . . . . . . . . . . . . . . . . . . . . . . . . . . . . . . . . . . . . . . . . . . . . . . . . . . . . . . . . . . . . . . . . . . . . . . . . . . . . . . . . . . . . . . . . . . . . . . . . . . . . . . . . . . . . . . . . . . . . . . . . . . . . . . . . . . . . . . . . . . . . . . . . . . . . . . . . . . . . . . . . . . . . . . . . . . . . . . . . . . . . . . . . . . . . . . . . . . . . . . . . . . . . . . . . . . . . . . . . . . . . . . . . . . . . . . . . . . . . . . . . . . . . . . . . . . . . . . . . . . . . . . . + . . . . . + . . . . . . . . . . . . . . . . . . . . . . . . . . . . . . . . . . . . . . . . . . . . . . . . . . . . . . . . . . . . . . . . . . . . . . . . . . . . . . . . . . . . . . . . . . . . . . . . . . . . . . . . . . . . . . . . . . . . . . . . . . . . . . . . . . . . . . . . . . . . . . . . . . . . . . . . . . . . . . . . . . . . . . . . . . . . . . . . . . . . . . . . . . . . . . . . . . . . . . . . . . . . . . . . . . . . . . . . . . . . . . . . . . . . . . . . . . . . . . . . . . . . . . . . . . . . . . . . . . . . . . . . . . . . . . . . . . . . . . . . . . . . . . . . . . . . . . . . . . . . . . . . . . . . . . . . . . . . . . . . . . . . . . . . . . . . . . . . . . . . . . . . . . . . . . . . . . . . . . . . . . . . . . . . . . . . . . . + . . . . . . . . . . . . . . . . . . . . . . . . . . . . . . . . . . . . . . . . . . . . . . . . . . . . . . . . . . . . . . . . . . . . . . . . . . . . . . . . . . . . . . . + . . . . . . . . . . . . . . . . . . . . . . . . . . . . . . . . . . . . . . . . . . . . . . X X X X X . . . . . . . . . . . . . . . . . . . . . . . . . . . . . . . . . . . . . . . . . . . . . . . . . . . . . . . . . # = d.d.0.s.M n n x k.k.s.s.s s p p M M J.J.K.T.T.T.u 5 O X + + T.                                              ",
"                                                                            2X;X;XOXb.S + + # $ 6 6 b k V V m m A A d.A B.M.[.[..X.XK.K.B.M.K.K..X[..XXXK.T.B.B.R.E.R.R.i.i.A S u 5 4 , , , . . T.T.                                                          5 O @ : , B.B.T.K.d.d.B c C A n.Z.f.f.N N N M s.0.f.a.0.Z d.d.h h , = , = 3 = 3 2 7 7 5 5 5 6 6 6 e e e e e e e e e e e e i i e e i i i i i i f f f f g g g g g g j j k k z z c c z z c c c c c c z x x c n n M B m B B B c m m m M M M m M M M M m M C C C M M M A A A A A C A A A A Z Z Z Z Z Z D D Z Z V V Z Z V Z Z Z Z Z Z Z V V V V V V V V Z Z Z Z V V V V Z V V V Z Z Z Z V Z Z Z Z V V V V m k k k m V m m k k m V V V m V V V V V V V V Z V V V V V V V V V V V V V V V V V V V V V V V V V V V V V V Z Z D S S S S S S S S S S S S S S Z D S S S S S S D Z Z Z D D Z Z D D D Z Z V V Z V V V V m m m m Z V V V V m m k Z V V Z Z Z Z V Z Z A A Z Z Z V Z Z Z A Z Z Z Z A S S S S S S S S Z S S Z S D D S S S S S S S S S S A A Z Z A A S S S S S A A A S S S S S S S S S S S S S S S S Z Z V V V V V Z A A Z Z Z Z Z Z A A S S S S S S S S S S S 0.b.d.b.v.4X4XS v.v.S b.b.b.b.b.b.b.b.b.b.b.V.V.V.V.V.V.V.V.V.V.V.V.B.V.b.b.b.b.b.V.V.d.b.b.b.b.b.b.b.V.V.b.b.b.b.V.V.b.b.b.b.b.b.b.b.b.b.b.b.b.b.b.b.S S b.V.V.b.v.S b.S V.V.b.V.V.V.b.b.b.V.b.b.b.b.b.b.b.V.V.V.b.b.m.m.m.m.V.m.V.V.V.V.V.V.V.V.V.V.V.V.V.V.V.V.V.V.b.b.b.b.b.b.V.V.V.V.V.b.b.b.b.b.V.V.V.V.V.V.V.b.b.V.V.V.B.V.V.b.b.b.b.b.b.d.d.d.d.d.b.d.S S S S d.d.0.0.d.b.b.b.0.0.d.d.d.d.b.b.b.b.b.b.v.b.b.b.4Xb.b.b.b.b.b.b.S 4Xb.b.b.b.b.b.b.v.4X4Xb.b.b.b.d.d.0.0.d.d.b.b.b.b.b.b.b.d.d.d.b.b.b.b.b.b.b.b.b.V.V.V.b.b.4XS S S S S S S S d.b.S S d.d.b.b.d.b.b.b.b.d.b.b.b.b.b.b.b.b.b.b.V.V.V.V.V.V.V.V.V.V.V.V.V.V.V.V.V.V.V.V.V.V.V.V.V.V.V.V.V.V.b.b.b.b.b.V.V.V.V.V.m.b.b.V.V.V.V.b.b.b.V.V.V.V.V.V.V.V.V.V.V.V.V.b.b.b.b.b.b.b.b.b.b.b.b.b.b.b.b.b.b.b.b.V.V.V.V.V.V.m.V.V.b.b.b.b.V.V.V.V.V.b.b.b.V.b.b.b.b.b.b.b.d.d.d.b.b.b.b.b.d.b.b.b.b.b.b.V.V.b.b.b.b.b.b.V.V.b.b.b.b.b.b.b.b.V.V.V.V.b.V.V.V.V.V.N.B.V.V.V.b.b.b.b.b.b.b.b.b.B.V.B.V.b.b.b.b.V.m.B.B.B.B.B.B.V.V.b.V.V.V.b.b.b.V.V.V.b.b.m.V.V.V.M.b.M.M.V.V.V.V.V.b.V.V.b.b.V.V.V.V.V.V.V.V.B.B.B.B.B.B.B.V.V.V.B.B.B.B.V.V.m.m.m.m.V.V.V.V.b.b.b.b.b.b.v.0.b.S b.S S d.S d.i.d.S S d.d.d.d.S S S 0.S v.b.b.b.b.b.d.d.S S S S S S S S S S S S S S A A A Z Z 0.0.S A A C C M q.C C C C C C Z Z Z Z Z D S S S V V m m c m m B j c c m m m m k b b m k k k k k h h h h k k k l l l h h f f f h 5 7 h h n.n.Z.Z.4.5.5.8.^.^.k.k.s.s.n d M B K.P.T.T.K.K.i 6 O O + + T.                                              ",
"                                                                                  ;XV.b.. . # $ 6 i b j m m m Z i.i.S A m.m.[.XXR.E.T.T.K.H.T.K.oX.X.X[.K.T.B.B.[.[.R.R.Z A Z A u 5 4 , , , . . U.T.                                                          7 O O , , B.B.K.J.d.d.c j A 0.g.Z.f.f.4.4.4.4.f.s.f.8.8.C C Z k k = = , = 3 , 5 3 7 7 5 5 5 5 5 5 5 5 5 5 e e e e e e e 6 e 6 e i 6 e e e i i i i f f g g g g g g g j j j j j z z z z z z c z v z z z z z v n c c c c c c c c c c B B B B m M M M M M C C C C M M C C C C C C V Z A A Z Z A S S A Z Z Z V V V V V V Z Z Z Z Z Z V V V V V V V V V V V V V V V V V V V V V V V V V V V V Z V V V V V V V V m V V V V m k m V V V V m V m m m V V V V V V V m m V V V V V F F m m m V V V V Z Z C C V V V V V V Z Z Z Z D S S D S Z S S Z Z Z Z S S Z D S S D Z Z Z S D Z Z D S D Z Z D Z Z Z Z V V V V V V V m m k V V V V k k V k Z V V V V Z V V Z Z Z Z Z Z Z V A A A A Z Z Z Z Z A A S S A Z Z S Z S S D S S S S S S S S S Z S A A Z Z V V Z Z S S S A A A A A S S S S S S S S S S S S S S S S A Z Z Z Z Z Z Z A S Z Z Z Z A A A S S S S S S S S S S S S S S S 4X4XS 4XS v.S S b.b.b.b.b.b.b.b.b.b.b.b.b.b.V.V.b.b.b.b.b.b.V.V.b.b.d.d.b.b.b.b.b.b.V.V.m.V.b.b.b.b.b.b.b.b.b.b.b.b.b.b.b.b.b.4XS 4Xb.b.b.b.S S S b.V.V.V.V.v.S S S V.V.V.V.V.V.b.b.V.V.b.b.b.b.b.b.b.b.b.b.b.b.m.m.m.V.V.V.b.b.V.V.V.V.V.V.V.V.V.V.V.V.b.b.b.b.b.b.b.b.b.b.V.V.V.b.b.b.b.b.b.b.V.V.V.V.V.V.b.b.b.b.V.V.B.V.b.b.b.V.V.V.b.b.d.S b.b.b.d.S S S S S S S S 0.b.0.0.S S 0.S S S S 0.b.b.b.b.b.b.b.b.b.b.b.b.V.b.b.b.b.b.b.b.b.b.b.b.b.b.b.b.b.b.b.b.d.d.d.b.b.b.b.b.b.b.b.b.b.b.b.d.V.V.b.b.V.V.V.V.V.V.V.V.b.b.b.b.d.0.S S S S S S A Z S S d.d.b.d.V.b.b.b.d.d.b.b.b.b.b.b.b.b.b.b.b.b.V.V.V.V.V.V.V.V.V.V.V.V.V.V.b.b.b.b.b.b.b.b.b.b.b.b.b.b.b.b.b.b.b.V.V.V.V.V.b.b.V.V.V.V.b.b.V.V.V.V.V.V.V.V.V.V.V.V.V.V.b.b.b.b.b.b.b.b.b.b.b.b.b.b.b.b.b.b.b.b.b.b.V.V.V.b.b.b.b.b.b.b.b.b.b.b.b.b.b.b.b.b.V.V.V.V.V.V.b.b.b.b.b.V.V.V.b.b.b.b.b.b.b.b.V.V.b.b.b.b.b.b.V.V.V.V.V.V.V.V.V.V.V.V.B.B.B.B.B.B.V.V.B.B.B.V.V.b.b.b.b.V.V.V.b.d.V.V.B.V.b.b.d.b.V.V.V.V.V.B.B.B.V.m.b.b.b.b.d.d.b.b.b.b.b.b.V.B.V.V.M.b.b.b.V.V.M.n.V.b.b.b.b.b.V.V.m.V.M.M.V.V.V.B.B.B.V.V.V.V.V.V.V.V.V.V.V.V.V.V.V.V.V.V.V.V.b.b.b.b.b.b.S S d.S d.S S d.S d.d.d.S d.d.d.S S S S S 0.v.d.d.b.b.b.d.0.S S S S S S S S S S S S S 0.S A A A A A 0.0.A q.q.q.4.M 8.q.8.C N N C C Z Z Z Z Z S S A V Z m m m m z z c c m m m m m c m b m k k k k f j h k k k k l l l l h f h h f i 6 u j k 0.a.Z.Z.4.5.9.s.^.^.k.k.s.9.d s n M J.T.K.K.K.K.i u # O + + T.                                              ",
"                                                                                    BXBX. $ . $ 5 i m V S A S d.d.d.A V d.d.[. X;X>XnX<X.XE.oXXXoXOX;X*XE.[.[.OXOXOX[.[.m A Z A i 6 5 4 4 4 . . ,X                                                            7 @ O , , M.V.S.B.8.8.z j 0.0.Z.A.j.s.4.4.4.4.s.f.g.s.s.0.a.d.d.d.a.8.n.n.Z.S.Y.Y.Y.Y.Y.Y.Y.Y.Y.K.Y.L.K.K.L.L.L.L.Y.Y.L.K.Y.T.W.R.R.R.R.R.R.Y.L.L.L.L.Y.R._.).).)._._._._._._././././././././.(./.(././._.R.R.R.R.R.R.R._.E.E.E.).)././.).}.}.}.{.).).).).).).).).).).).).).[.).E.Y.T.T.Y.R.R.R.Y.E.E.E.E.E.E.E.E.E.E.E.E.E.E.R.W.T.R.R.E.E.E.E.E.E.E.E.R.R.E.E.E.E.E.R.T.R.R.R.R.R.E.E.E.E.E.E.E.E.E.[.[.R.R.E.[.[.'.].].[.[.[.[.[.).[.[.[.[.[.[.[.[.[.[.[.[.[.[..X X).E.).E.E.E.W.Y.Y.Y._.).).R.R.).).).[.).[.[..X.X.X X X[.E.E. X X X X[. X X X X X X X X[. X X X X[.[.[. X[.).E.[.[.[.[.E.E.E.[.E.E.[.[. XE.E.T.T.R.E.T.T.[.E.XX X[.[. X.XXX.X X X X X X.X.X.XXXXX.X.X.X.X.X.X[. X X X X X'.E. X[.+X+XXX+XXXXXOXoXOXXX.X.XE.E. X[.E.E.E.E.[. X X X[.[.[.[.[.[. X X X X[.[.[.[. X X X X.X.X.X X.X X X X.XXX.X XE.E.R.E.E.E.XXXX.X.XXX.X.X.X.XXXOX+X+XoX X).).E.XXXX+XOXOXOXOXOXOXOXOX2X;X;X;X2X2XOXOX2X;X;X2X2XOXOXOXOXOXOXOX;XOXOXOXOXOXOXOX*X+X+X+X+X+X+XoXoXOXOXOXOXOXOXOXOXOXOXOX2X2XOXOXOX+XOXOX*X*XOX+XXX X[.E.E.E.E.E.'.;X;X<X<X,X,X,X,X<X<X,X,X;X;X2X2X;X;X;X;X;X;X;X>X;X;X;X;X;X2X2X2X;X;X;X;X;X;X;X;X;X;X;X;X;X;X;X;X*X*X;X;X;X;X;X;X;X*X*X*X*X*X*XOX;X;X;X;X;X;X;X;X;XOXOXOX;X;X>X>X,X,X,X,X>X;X*XOXOXOX*XOX;X;XOX*XoXXX#X#X;X;XOXOX;X;X;X*XOX+X+XoX+X+X+X+X+X+X+XOX+X+X+X+X+X+X+X+X+X+X+X+X+X+X+X+X+XXXXXXX+X+X+X+XoXXXoXoXoXoX+X+X+X+XoXoXoX+XoXoX+X+X+XoXoX+X+X+XoX+X+X+XoXXXXXXXOX+XXXXX.X[.E.T.T.R.oXOX;X;X<X<X,X,X,X>X;X;X;X>X;X;X;X;X*X*X*X*X;X;X;X;X;X;X;X;XOXOXOX2X2X2X2X2X2X2X;XOXOXOXOXOX;X;X;X;X;X;X;X;X2X2X;X;XOX%X2X2X;X;X;X;X;X;X;X;X;X;X;X;X;X;X;X;X;X;X;X;X;X;X;X;X*XOXOXOX*X#X*X*XOXOXOXOX*X*X*X*X*X*X*X*X*X*X*X*XOXOXOXOXOXOXOXOXOXOXOXOXOXOXOXOX+XoXoXoXoXoXoXoX+X+X+X+X+X+X+X+XOXOXOXOXOXOX*X*XOXOX*X*X*X*X;X;XOXOX+X+XOXOXoXXX+X+X+XOXOXOXOXOX;X;X>X>X>X;X;X2X*X;X>X,X,X,X;X*XOX*X;X;X;X*X;X;X<X,X,X>X>X,X<XMX<X,X*X;X+X*XOXOX,X;X*X*X*X*X;X;X<X<X<X,X:X,X,X<X,X,X:X:X:X:X:X:X;X;X;X;X,X,X,X,X,X,X,X,X>X>X>X>X;X;X;X;X*X;X;X;X;X;X;X;X;X;X;X;X;X;X,X,X,X>X#XOX+XOX;X,X<X<X;X;X:X:X;X;X;X;X*X*X*X;X;X>X>X>X>X;X;X-X*X*X*X*X*X*X;X*X*X*X-X*X*XOX.X.X.X.X.XoX@X@X@X@X$X|.$X|.$X|.|.|.$X|.$X|.$X$XoXoXXX.X X[.[.]..X{.[.}.R.R.L.S.R.R.Y.K.K.J.K.G.R.R.R.E.E.E.E.E.R.R.R.T.U.I.B.N.N.B.B.G.R.U.V.d.M.M.n.a.0.8.0.0.5.9.j.j.^.^.!.~.^.~.6.4.s.6.Z.Z.J.J.M.S.6 6 O X + + T.                                              ",
"                                                                                    CXBX+ . . . 6 i k m A A i.d.b.b.A V i.d.E.'.;X*XnX<XXX].OXXX;X*X*XoX.X[.E.[.&XoX[.[.m Z Z A 6 6 5 4 , , . . +X                                                            7 @ @ , , V.b.M.M.M M z z 0.0.P.A.j.l.7.7.7.4.w.s.9.9.9.0.s.f.f.h.0.A n.n.M.Z.R.Y.L.L.L.L.L.S.S.S.Y.L.K.S.L.K.K.K.K.K.S.K.Y.Y.Y.R.).R.R.R.R.Y.L.L.L.L.Y.Y._._.).)._._./._._._._._././././././.(.(.(./._._._.Y.R.R.R.R.P.R.R.R.R.R._._._.).).).}.}.}.).).).}.}.}.).)._._._.).}.).R.R.R.R.R.).).).).R.R.W.W.R.E.R.R.E.R.T.T.E.E.W.T.T.T.R.R.R.R.R.E.R.R.R.W.T.R.R.E.T.T.T.T.T.T.T.T.T.T.R.R.E.E.E.E.E.]..X[.E.R.].[.R.E.'.[.[.[.[.[.[.[.[.[.[.[.[.[.[.[.[.[.[.[.[.)..X X).E.E.E.E.R.R.R.R.R.)./././.Y.R.).).).).).)..XXX.X.X X[.E.E. X X X X[. X X X.X X X X X X X X[. X[.E.E.E.).).E.E.[.[.E.E.E.E.E.E.E.[. X XE.E.T.R.U.T.U.U.[.[.XX.X X X X X.X.X X X X.X.X.XXXoXXXXXXXXXXXXXXX.X X X[. X X'.E.E. X XOXOX+X+XoXoXOXoXOX+XoXoXE.E. XE.E.E.E.E. X X X X[. X X X X[. X X X X X X X X X X.XXXXXXX.X.X X X X X.X.X.X.XE.E.T.E.E.E.oXoXoXoXXXXXXXXXXXXXOX+XOXoX).E.E.E. XXXXX+X+XOXOXOXOXOXOXOX2X2XOXOXOXOXOXOXOXOXOXOXOXOXOX+XOXOXOXOXOXOXOXOXOXOXOXOXOXOXOX+XOXOXOXOXOXOX+XOXOXOXOXOXOXOXOXOXOXOXOXOX+XOX#X*X*XOXoXXX.X XE.E.E.E.E.E.;X;X<X<X,X,X,X,X<X<X<X1X;X;X;X;X;X2X;X2X;X;X;X;X2X2X;X;X2X2X%X%X;XOX2X;X;X;X;X2X;X;X;X;X;X;X;X2X*X*X;X*X*X*XOXOX*XOXOXOXOXOXOXOX;XOXOXOXOXOXOXOX+XOXOX;X;X>X>X>X,X,X,X,X,X>X;X*XOX+X*XOX;X,XOXOX.X.X*X*X;X>XOX#X;X;X;X*XOX+XoXoXOXOXOXOXOXOXOXOXOX+X+X+XOXOXOXOX+X+X+X+X+X+X+X+X+X+X+X+X+X+X+X+X+X+X+X+X+X+X+X+XOX+XXXoX+X+X+X+X+X+X+X+X+X+X+X+X+X+X+X+X+XoXoXoXOX+XXXXXXX XE.U.U.T.oX+X;X*X<X<X,X,X,X,X;X;X;X>X;X;X;X*XOXOXOXOXOXOX2XOXOXOXOXOXOXOXOXOXOXOXOXOXOXOXOXOXOXOXOXOXOXOXOXOX2X;X2XOX2X2X2XOXOXOXOXOX2X2XOXOXOXOX2X2X;X;X2XOXOXOX;X;X;X2X2X2X;X;X;XOXOXOXOXOXOXOXOXOX+XOXOXOXOX*XOXOXOXOXOXOXOXOXOXOXOXOXOXOX+X+XOXOXOXOXOXOXOXOXOXOXOX+X+X+X+X+XOXOXOXOXOX+XOXOXOXOXOXOX+X+X+X+XOXOXOXOXOXOXOXOXOXOX*XOXOXOXOXOX+XoX+X+XOXOXOXOXOX;X;X;X;X>X;X;X2XOX#X;X>X,X,X>X;X;XOX*XOXOX%XOX;X;XnX<X<X,X>X,X<XMXnX<X;X;XoXOX+XOX>X;X&XOX-X*X;X>X<X<X<X,X,X,X<X<X,X,X,X,X,X,X:X:X;X;X;X;X:X,X,X>X,X,X,X,X>X>X>X;X;X;X;X;X;X;X;X;X;X;X;X;X;X;X;X;X;X;X>X>X>X;X#XOXoXoX;X,X,X<X;X;X;X;X;X;X;X-XOXoXOX#X;X;X>X;X;X-X*X*X-X*X&X&X*X&X;X*X-X*X*X*X-XOX.X.X.X[..XoX@X#X@X$X$X$X$X|.$X$X|.|.|.$X$X|.|.|.@XoX.X{.[.[.}.).}.{.}.}.P.L.Z.Z._.Y.L.K.J.J.K.K.R.R.R.R.E.E.E.Y.R.E.E.R.T.I.B.B.G.G.B.H.R.T.M.h.S.M.a.a.0.0.9.q.q.q.A.k.A.A.^.^.x.l.7.7.9.9.J.Z.Z.M.M.B.6 6 $ O + + T.                                              ",
"                                                                                    <XMX. . $ , k h h h m V d.d.A S j j m m B.M.K.B.E.E.E.[.oXoXR.T.K.T.oX*X.X.XR.T.T.R.V S d.d.i i i 6 2 4 . . OX                                                            7 . @ , , n.b.n.n.M B z p N n j.j.9.9.7.7.2.d 7.7.6.q.4.8.0.8.8.8.C m 8.8.0.8.Z.Z.Z.S.S.S.S.D.Z.C.Z.Z.Z.Z.Z.Z.Z.n.n.M.Z.S.S.K.L.L.L.L.L.L.L.P.P.P.L.L.L.L.L.L.P.Y.P.P.~.P.L.L.L.L.~.~.~.~.~.~.~.~.P.P.L.L.P.P.P.P.P.L.P.P.L.L.L.L.L.L.L.L.P.P.Y._.P.P.P.P.P.P.P.P.L.L.L.L.R.R.Y.L.K.K.K.K.L.L.L.L.Y.Y.Y.Y.W.R.W.W.W.T.T.Y.R.R.R.T.T.T.R.R.R.R.R.R.T.R.T.T.T.T.T.T.T.T.T.T.T.T.T.R.T.T.T.T.T.T.T.T.S.S.K.J.V.M.M.M.S.K.R.E.E.R.R.R.R.R.Y.Y.R.R.R.R.Y.Y.R.R.Y.T.K.K.T.T.T.T.T.T.K.L.Z.Z.Z.Z.Z.C.C.C.D.L._._._._.R.R.).).E.E.E.E.E.R.E.E.E.E.E.E.E.E.E.E.E.E.E.E.E.E.E.E.E.E.E.E.E.E.E.E.E.E.E.E.E.E.E.E.E.E.E.E.E.E.E.E.B.B.B.B.E.E.E.E.E.E.R.R.R.R.E.E.E.'.[.[.[.[.[.).E.E.E.E.E.E.E.E.R.R.R.T.U.K.E.E.oXoX X X X X[.E.oX.X.X.XT.R.T.T.U.U.T.R.E.[.E.E.E.E.E.E.E.E.E.E.E.E.E.E.E.E.E.E.'.[.[.[.[.[.[.[.[.[.[.[. X XE.[.T.R.R.R.XX.X X X X X[.).).).E.E.E.W.S.S.T.R.*X*X*X*X*X*X*X*X*XOXOXOX*X;X*XOXOXOXOXOX*XOXOX*XOXOXOXOXOXOXOXOXOXOXOXOXOXOXOXOXOXOX+X+XOXOXOXOXOXOXOXOXOXOXOXOXOX#X*X*X*X*X*X*X*X*X;X;X;X*XOXOXOXOX+XoXXX.X X X*X;X<X<X,X,X,X,X,X<X<X<X,X,X;X;X;X;X;X;X;X;X;X;X;X;X;X;X;X;X;X*X;X;X;X;X;X;X;X;X;X;X;X;X>X>X;X;X;X;X;X;X*X*X*X#X;X*X*X*X;X;X*X*XOXOXOXOXOXOXOXOXXX+X;X,X<X<X,X>X,X<X<X<X<X,X;X;X>X*X,X,X,X<XOX+X X.X;X;X>X,X*X;X*X;X;X;X*XOXOXOX+XOXOXOXOXOXOXOX+XoXoXoX+XOX+XoXoXoXoXoXoXoX+X+XXXXXXXoX+X+X+XXX+X+XoXoXoXoXoXoXoXXXXXXXoXoXXXXXXXXXXXXXXXXXXXXXoXXXXXXXXXXXXXXXoXoX+X+X+XXX[.E.E.E.OXoX*XOX<X<X>X,X,X,X>X;X;X;X;X;X;X;X;X;X*X*X;X;X;X;X;X*X*X*X*X*X*X*X;X;X;X;X*X*X;X;X*X*X;X;X;X;X;X;X;X;X;X;X;X;X;X*X*X%X%X%X%X;X*X*X*X*X*X*X*X*X*XOX*X;X;X;X;X;X;X;X;X;X;X*X*X*X*X*X*X*XOXOXOXOXOX*X*X*X*X*XOXOXOX*X*X*XOXOX*X*X*XOXOXOX*X*X*X*X*X*X*XOXOXOXOX+XoXoX+XOXOXOXOX+X+XoX+X+XOXOXOXOXOXOXOXOXOXOX%X*X*XOXOXOXOXOXOXOXOXOXOXOX+XoXoX+X+X+X+XOX*X*X;X;X>X>X>X;X;X;X*X;X>X,X,X>X;X>X,X,XOXOXOXOX,X>X<X<X<X,X>X>X,X<X,X,XOX;X.XoX[..XOXoXoXoXOX-X-X:X-X-X-X-X-X-X:X-X*X*X-X-X=X=X-X*X*X-X*X-X=X:X;X;X;X;X;X;X-X*X*X*X*X*X*X*X*X*X*X*X*X*X*X*X*X*X*X*X-X-X-X;X;X*XOXoXOXOX*X*X-X;X-X;X#X-X*X-X-X#X.X[..XoX#X=X;X-X-X-XOXOXOXOXOXOXOXOXOXOXoXOXOXOXoX.X[.).).R._.).}.{.}.{.{.{.(.(.(.(.^.(.`.`.`.(.(.(.(./.)._.R.R.R.R./././.P.A.Z.Z.A.A.Z.n.f.f.n.S.J.R.T.L.L.L.L.L.S.M.M.J.H.M.m.b.b.V.V.d.S V.M.d.h.Z.Z.0.8.8.8.M v x d 9.9.7.6.l.l.^.^.6.6.4.M k.g.L.L.S.S.5 5 # # + + T.                                              ",
"                                                                                      <X+ . # $ k h f f m V i.S S i.k b V m m.b.B.K.E.R.[.[.XXOXR.R.T.T.*X*X].E.R.K.R.R.A S d.S i i i u 5 4 . . +X                                                            7 . @ , , n.d.n.n.c x x s M x C.k.z.l.7.7.2.d 7.4.7.q.4.4.s.0.0.8.C m 8.0.C 0.Z.Z.n.Z.Z.S.S.Z.Z.C.Z.Z.Z.S.S.Z.M.n.f.n.Z.S.K.L.K.L.R.L.L.S.L.L.P.P.L.L.P.L.L.L.P.R.L.P.~.~.P.L.L.A.~.~.~.~.~.~.~.~.~.P.~.P.P.P.L.L./.P.P.J.L.L.L.P.P.L.L.D.D.P.P.Y.L.P.L.L.~.P.L.L.P.P.L.P.Y.Y.Y.Y.L.Y.Y.K.L.L.L.Y.Y.Y.Y.Y.T.Y.T.T.Y.T.T.T.T.T.T.T.T.T.R.R.R.T.T.T.T.T.R.T.T.T.U.K.Y.Y.Y.Y.Y.T.T.R.T.T.T.Y.Y.Y.Y.T.K.K.K.J.V.M.M.M.M.K.E.[.E.R.R.R.E.R.R.R.R.R.R.R.R.R.R.R.R.T.K.K.T.T.T.T.Y.T.L.K.Z.Z.Z.Z.C.C.C.C.D.D._./._.R.Y.Y.).).E.E.E.E.E.R.E.E.E.E.E.E.E.E.E.E.E.E.E.E.).).E.E.E.E.E.E.E.).E.E.E.E.E.E.E.).E.E.[.E.E.E.E. X[.E.V.V.B.B.E.E.E.E.E.E.E.R.W.W.E.E.[. X X X[.[.[.[.).).E.E.E.E.[.E.R.R.T.T.U.K.E.[.+X+X.X X XXX[.E.+XXX.XXXT.R.U.U.K.K.T.R.E. XE.E.E.E.E.E.E.E.E.E.E.E.E.E.'.'.E.'.'.'.].].[..X X X X[.E.). X XE.E.U.T.T.T.XX.X.XXXXX.X X X[.).E.E.E.T.B.B.R.).OXOXOXOXOXOX*X*X*X#XOXOX*X;X*XOXOXOXOXOXOXOX*XOXOXOXOXOXOXOXOXOXOXOXOXOXOXOXOX+XOXOX+XOXOXOXOX+X+X+X+X+XOXOXOXOX*XOX*X*X*X*X*X*X#X*X*X*X*XOXOXOX*XOX+XXX.X X X X*X;X<X<X,X,X,X<X,X<X<X<X<X,X;X%X*X;X;X;X;X;X;X*X*X;X;X;X;X;X*X*X;X2X2X2X2X;X;X;X2XOX;X;X;X>X;X;X*X*X*XOXOXOXOXOX;X;X*X*X;X;X*XOXOXOXOXOXOXOX+X+XXX+X*X,X<X<X<X,X,X<X<X<X<X,X>X;X;XOX,X,X,X<X+X+X[. X;X;X>X<X;X>X*X;X;X;X*XOX+X+XOXOXOX#XOXOXOXOXOXOXOXOXOXOXOXoXoXoXoXoX+X+X+X+XXXoXoX+XOXOX+X+X+X+X+XoXoXoXoXoXoXXXXXXXoXoXXX.XXXXXXXXXXXXXXXXX+XXXXXXXoXoXoXXXXXoX+X+XXX.X X[. XE.+X.XOXOX<X<X;X,X,X<X,X;X;X*X*X*X;X;X;X;X*X*X;X;X;X;X*X*XOX%XOXOXOXOX*X*X;X;X*X*X;X;X;X*X;X;X*X*X*X*X*X*X*X*X*X*X*XOXOXOX%X%XOXOX#X;X*X*X*X#XOXOXOXOXOX%X;X;X;X*X*X*X;X*X*X*XOX*X*X*X*X*XOX+XOXOXOXOX*XOXOXOXOXOXOXOXOXOXOXOXOXOXOXOXOXOXOX*X*X*X*X*XOXOXOXOXOX+X+XOXOXOXOXOX+X+X+X+X+XOXOXOXOXOXOXOXOXOXOX+X*X*XOXOXOXOXOXOX+X+XOXOXOXOX+XoX+X+X+XoX+XOX*X;X;X;X;X;X;X;X;X;X*X;X>X>X;X;X;X,X<X,XoXXXoXOX,X,X<X<X<X<X,X,X,X<X,X,X*X;XXX+X[. XoXoXOXOXOX-X-X:X-X-X-X-X-X-X:X:X@X*X-X=X=X=X=X*X-X-X-X=X:X:X;X;X;X-X;X-X-X*X*X*X*X*X*X-X-X*X*X*X*X*X*X*X*X*X-X-X;X-X*X*X*X*XOXOXoXoX*X-X-X:X-X;XOXOX-X-X*XOX.X[..XoX#X-X-X-X-X-XOXoXoXoXoXOXOXoXOXoXoXoXOXOXoX.X[.E.R.R.R./.}.{.(.{.|.|.`.(.`.`.^.(.`.`.`.`.(.(.(.(.(./._.~.~._._._.~.L.j.k.k.A.A.Z.n.f.f.n.S.L.T.K.K.K.K.K.L.S.Z.L.K.J.M.m.b.b.V.B.d.S M.n.a.f.Z.S.8.a.0.8.x v x d 9.9.7.7.k.k.^.!.s.s.4.M k.k.L.L.J.B.5 5 O # $ + T.                                              ",
"                                                                                      BX. . # O m b f f i f k k j h Z V K.T.j j o . k h AXBX,X,Xh i f i ].[.b.d.h h m m i.S S S 5 4 7 5 4 5 . . +X                                                            7 . . , , M.n.Z.Z.N C z v x x j.l.l.l.7.7.7.7.6.6.9.9.9.f.g.f.f.f.B M j j j j 0.a.s.s.g.s.0.8.8.0.0.0.0.0.C C M c c m C 0.0.a.f.f.8.8.C M M N C 0.8.0.8.C C C C C M 4.5.5.8.8.q.q.9.9.9.9.q.4.4.4.4.4.6.q.q.q.q.q.q.8.q.5.N N N 8.0.q.q.4.q.q.9.9.j.j.A.A.C.C.j.j.s.s.f.g.n.Z.n.n.f.d.0.0.0.d.f.f.n.n.f.d.a.a.d.d.d.d.d.d.0.0.d.d.S S S S S 0.0.S 0.0.d.d.0.S S S S S 0.0.S S S S S S S S S d.n.M.B.B.S S c m i h V S K.K.K.Y.M.J.M.M.M.n.M.M.V.M.M.V.M.M.n.n.M.M.b.m.M.V.M.M.L.L.Z.Z.s.0.0.8.9.9.0.s.g.n.C.C.n.M.n.M.n.M.V.n.M.V.V.b.b.m.V.V.V.M.V.V.M.M.M.M.M.M.V.V.V.V.V.V.V.V.V.V.V.n.b.b.b.n.b.b.m.V.V.V.m.m.d.d.S A A S i.d.d.d.d.S A Z Z A h.b.V.M.M.V.V.V.b.n.V.V.m.b.m.V.b.b.h.d.i.i.d.b.d.b.M.M.V.m.V.M.B.M.M.M.M.M.d.i.S S S 0.d.d.b.b.d.d.d.b.b.b.b.b.d.d.b.b.b.b.b.d.d.d.d.d.d.b.b.n.d.d.b.b.m.M.V.V.V.d.S A A S d.d.d.b.m.V.b.b.b.V.m.V.b.d.S 0.b.V.T.T.T.T.T.U.U.U.K.K.K.U.U.U.U.U.U.U.K.K.K.K.K.K.S.K.K.K.K.S.K.K.K.S.S.S.K.K.K.K.K.K.K.K.K.K.K.K.B.B.B.B.K.K.K.B.B.B.B.B.B.B.B.B.M.B.B.S.B.B.M.V.K.H.V.m.V.m.b.d.V.B.B.K.B.B.B.B.G.U.T.T.T.U.B.m.d.V.B.B.B.B.B.B.B.B.B.B.B.B.B.B.B.B.B.B.B.B.B.B.B.B.B.B.B.Q.B.B.G.H.B.M.B.B.G.K.K.K.H.B.B.M.V.V.V.m.V.V.V.V.b.d.S d.V.K.T.T.T.U.B.B.K.K.B.B.B.B.V.B.B.U.K.B.b.d.d.d.d.b.V.M.V.b.b.m.m.b.b.b.b.b.b.m.B.B.B.B.B.B.V.B.B.B.B.B.B.B.B.B.B.B.B.B.B.B.B.B.B.K.K.K.B.B.B.B.B.B.B.K.U.U.K.K.U.U.U.U.K.K.H.K.K.K.K.K.K.K.K.K.U.U.K.K.K.K.B.B.S.S.B.B.B.S.S.B.m.b.V.B.B.S.B.B.U.K.B.B.B.B.K.B.B.V.V.V.V.V.B.B.B.B.B.B.B.B.B.B.S.K.K.B.B.B.K.U.U.U.U.U.K.K.B.K.K.K.B.B.B.B.S.S.K.U.U.U.U.U.U.K.U.U.U.U.Y.Y.K.U.U.U.U.U.U.U.U.U.U.U.U.U.K.G.B.B.U.U.U.K.B.B.B.B.B.B.B.B.B.K.B.B.B.B.B.B.B.B.B.B.B.B.B.B.B.B.B.B.B.K.U.U.U.U.B.B.K.K.U.U.U.U.K.K.K.K.K.K.K.K.K.K.H.H.K.K.T.T.R.R.E.T.T.U.U.T.U.U.T.T.T.U.U.K.B.B.B.B.G.U.T.T.T.T.T.T.T.U.K.B.B.B.K.U.U.U.U.U.B.B.B.V.V.B.B.U.U.T.T.T.K.B.B.B.B.V.b.b.b.b.b.b.V.V.H.V.R.T.OX-XOXOXR.R.E.R.{.).}.}.}.}.)._._._.).}.[.[.[.}.}.}.).).E.E.E.).).[.R.E.E.E.E.R.R.R.K.Y.R.R.R.Y.Y.Y.K.K.T.T.K.J.J.M.Y.R.{.{.).).R.).R.L.L.L.R.L.L.n.n.Z.S.L.Y.Y.K.K.K.R.[.[.[.[.R.E.R.R.E.E.].].E.R.M.n.f.f.n.Z.S.L.A.A.L.L.~.!.A.A.x.x.!.^.^.^.^.^.~.L.C.C.A.A.L.A.^.^.L.A.9.9.z.j.D.Z.0.0.0.s.n.n.n.Z.L.K.L.S.S.Z.f.f.0.a.f.h.Z.M.K.K.S.M.8.8.C 0.8.8.a.0.8.8.x z s s 4.n z.9.z.s.x.!.z.9.4.n f.s.g.f.h.M.4 5 X O + . T.                                              ",
"                                                                                      MX. . # # V m h f f f j j m k A Z B.K.b m . . k j NXNX;X,Xi f 6 u .X[.b.d.h f m m d.d.d.d.5 4 5 4 4 2 . . OX                                                            7 . . , : V.V.M.Z.0.0.z v v n j.j.l.l.6.7.6.6.9.6.6.9.f.f.f.s.f.f.M M j j z z 0.0.0.s.f.s.0.8.8.0.0.0.0.0.C C M c M C A 0.0.d.f.f.8.8.C C C C 0.8.0.8.8.0.0.8.C C M M 4.5.5.5.8.q.q.9.9.9.q.q.4.4.7.7.7.6.5.q.q.q.q.q.q.4.N M N 8.q.q.q.q.q.q.q.q.j.j.A.A.C.C.j.Z.f.g.g.g.n.n.n.n.d.a.0.0.0.0.f.f.n.n.n.f.d.d.d.d.d.d.d.d.d.d.d.d.d.0.S S 0.0.S S S 0.0.d.d.0.S S A A S S S S S S S S S S 0.d.b.V.S.B.S S m m i i S 0.J.K.K.K.M.M.M.M.M.M.V.V.M.M.V.V.M.M.M.M.n.M.n.M.M.M.M.M.S.L.n.n.0.0.8.8.9.0.s.s.g.n.C.n.n.n.n.n.b.n.V.n.M.B.M.V.V.V.V.V.V.V.M.M.M.M.M.M.M.M.V.V.V.V.V.M.V.V.V.V.V.V.n.n.V.V.b.b.b.V.m.m.b.b.d.d.i.S S S S i.d.d.d.S A Z Z Z b.b.m.V.V.V.V.m.b.n.V.V.m.b.m.V.M.b.b.h.d.d.b.b.b.m.V.V.m.b.m.V.M.M.M.M.M.V.b.d.S S S S 0.d.b.b.b.b.b.b.b.b.b.b.b.b.b.n.b.b.b.b.d.d.d.d.d.b.b.b.b.b.b.m.m.V.V.V.b.d.S A S i.d.d.b.b.m.m.V.b.b.V.b.b.b.b.d.d.b.V.U.T.T.T.T.U.U.U.K.K.K.K.K.U.U.U.U.U.K.K.K.K.K.K.S.K.K.K.U.K.U.U.K.K.K.K.K.K.K.K.K.K.K.K.K.K.K.K.K.B.B.B.K.K.K.B.B.B.B.B.B.B.B.B.B.B.B.B.B.M.M.M.H.B.V.V.M.V.m.m.B.B.B.B.B.B.B.B.G.I.U.U.U.U.B.B.b.V.B.B.B.B.B.B.B.B.B.B.B.B.B.B.B.B.B.B.B.B.B.B.B.B.B.B.B.B.B.B.H.B.B.M.M.B.B.G.H.H.B.B.B.B.V.V.V.V.V.V.V.V.b.d.d.b.B.B.U.U.U.K.B.B.B.B.B.B.B.B.V.B.B.B.B.B.V.b.b.d.d.b.n.V.n.b.b.m.V.V.m.m.V.V.m.V.B.B.B.V.B.B.B.B.B.B.B.B.B.B.B.B.B.B.B.B.B.B.B.B.B.K.K.K.K.K.K.K.K.K.K.K.K.U.K.U.U.U.U.U.U.U.B.B.H.J.H.H.K.K.K.K.U.U.K.K.K.K.B.B.S.B.B.B.B.S.B.B.V.V.V.B.B.B.B.K.U.K.B.B.B.K.B.B.B.B.B.B.V.V.B.B.B.B.B.B.B.B.S.K.K.K.K.B.B.B.S.K.K.K.K.K.K.S.K.U.K.K.B.B.K.K.K.K.U.U.U.U.U.U.U.U.K.K.U.U.U.U.K.K.B.B.U.U.U.U.K.K.K.U.K.K.G.B.B.B.K.K.K.K.B.B.B.B.B.B.B.B.B.B.B.B.B.B.B.B.B.B.B.B.B.B.B.B.B.B.B.B.B.G.K.K.B.B.B.B.B.K.B.B.B.B.K.K.K.K.K.K.K.K.K.K.K.K.K.T.T.R.T.T.R.R.T.U.U.U.K.K.U.U.U.U.U.K.K.B.B.B.B.K.T.T.U.T.T.T.U.U.K.G.B.B.K.U.U.U.U.U.B.B.B.V.V.V.B.B.K.U.T.U.B.B.B.B.V.V.b.b.V.V.b.b.V.M.M.M.T.T.OX#XOXOXR.E.E.R.{.).}.}.}.}.)./.).).R.).).}.}.}.).).E.E.E.E.E.E.E.).R.R.E.E.R.R.R.Y.K.K.Y.R.Y.Y.R.R.Y.T.T.K.K.J.J.J.R.R.{.{.}.).R.R.L.L.L.L.L.L.L.Z.Z.Z.S.K.K.K.K.J.K.Y.[.[.[.[.E.).R.R.E.E.].].E.E.Z.M.n.n.n.Z.A.S.A.A.L.~.L.!.!.!.l.l.!.!.^.^.^.^.~.~.A.A.A.A.~.A.^.^.A.A.w.9.j.f.Z.Z.s.s.0.a.n.n.n.Z.L.L.L.S.S.Z.g.g.8.0.d.f.Z.M.L.K.Z.M.8.0.C 8.8.0.0.0.8.8.M x z v 5.4.s.s.z.w.k.k.9.9.5.M s.0.a.a.d.n.5 6 O O . . T.                                              ",
"                                                                                        + . + . f i 6 6 u u h h i i A b..X.Xj i O o j m AXZX,X>X, : O O V A B.B.u 5 m m V.B.B.V.7 5 7 5 2 5 . +                                                               7 + + # # b.h.a.d.M B e r p s 4.4.7.6.4.x 7.x x x x 4.q.0.0.0.a.a.m j e i i i z z p g z z j p p g g g j g j p i i i i p g g j z z z z j j j z z x x z z z z j j j s s z x n n M M x n M M n x v v v v x x x x n n n x x z z x M M v v n v z g p p v v v v v v z x z z z z g g j j j j p p g g g j g j j j g p p p g h h h h h h h h h g f i i i i i i i f g f f f g g g g g h h h g g g g g h k c j c f j h c g h i i j j c m h h j j j z j j z z j j j z z z z j j j j j z z c B x z p p p p g p p p p p g p g g g j p g g h m m k k j h h h h h j j j j j j j j h h h h j j k k h h j h h h j k j k k k k j k k k b j j j h h h h h h h h f f f h f f h h h h h h h h h h h h h h h h f f f h h h h h h f f h h h h j j j j h h j h h f g g h h g g g h h h h g h h h h g g g f j j j j h h h h h h h j j j j h j h h h h j h h f g h h h g g h f g h h h h k c h j k b k j j k j j j j j j j j k k k h h h h j j h j k k k k k k k k h h h h h j h h j j j k h h h h h h j h h k b b b k k k k c c k k k k k k k b j j b k j j h h h h h h h j k k k b b b k k k k k k k k k k h h k k k k k h k k k k k k k k k h h h k k k k k k j j h j k k k k k k k j h h h h h h h h h f h h k b m m m m m m m m m m m m m m m m m m m m m c k k c c k k h j k k k k m m k c m c k k k k k k k k k k j h h h h h h h h h h h h j j j j j k k j j j j h h j j k k k j j k j j j j j j k b j j k j j j j j k k k k k k k k k k j j j j j h h h h h h h h h h j j j k k j h h h h h h h f f k k k k h h f f h k k h h k h h k k k k k k k k h h h h j h h h h h h h h h j j k j h h j k k k k k b b b k j j j j k k j j j j j j j h j j j j j j j j j j j j j j j j j j j j j j j j k k j j j j j j j j j j h h h h h h j j h h h h h j k m k k m m m k j h j j j k k k k k b k j j j k b m b b m m m m b b b b m m m m m m m m m m k b m b j k k k j j j j j k h h k k j k V m m h m j S A Z Z j z z j B z x c B M B B c x M M C C A A C C C C C V m m m m m m V m m m B m B B c c B m m M M m m m M M C C N M a.a.C C M B M B M M B B B z z z z z z z z j j c Z Z Z A C Z Z A A A C V m m m B c c x B B B z x n x x x x x 4.4.7.7.7.7.6.6.7.7.4.4.7.7.9.q.q.9.4.4.n n n x M q.M M c x M C C C 0.8.A C C C 8.C c B C 0.f.d.a.d.0.0.c x z z x z c x x x p a a p n v 4.M 4.4.4.4.x x z s M z M M A d.5 6 + . . . T.                                              ",
"                                                                                        . . $ # h f i 5 u 5 i u u i i.S .XoXi h o . j m BXCX,X;X# # O # A m B.m.5 5 m Z K.K.K.M.7 5 5 5 4 2 . +                                                               7 O O , : b.b.0.a.C M p p z v M M n 4.M 4.7.4.4.x n N 8.8.0.a.a.d.m k p p p p j p p g z z z z z j g g j j j p p p g g g g g z v n x x z z z z x B B B c c x z z j a a s z z z x x x M M M M x x v x x x x x x n n x n x z x x M N v z v v z v s s s s v z z v v x z z z j g g j z j g g p p g g g g j j j g g p p i g h j j j j h j h h g g i i i i i f g h h h h f f i i f g g g j j h h h j c m h h i h j c i p h g j j j c g g g j z z z j j j g j j j z z z j j j j j z z z c z z p p p p z g p p g p p p p p p g i p f h m m c k k j j j h h j j j j j j j j h h h h j k k c j j j j j j k k j k k k j j j k m m m b k j j j h f h h h h h h f f f h h h h h h h h h h h h h h h h h h h h h j h h h f f f h h h h h j j h h k k h g f g g h g h h j h h h h j h h h h h h h k j j j h h h h k k j j j j j j j j h j j j h h g h h h h g g g f g h h k c c m h h j j j j h j j j j j h j h j h h h h h h h h j h h j k c k k k k k k k j h h j h j h j j h h j h h h h j h j j k k k k j j k k k k k k k k b j k j j b b k b j j j h h h h j h h h h k k k k k k k h h k k h f h h h h h h h f f h h k k k k h h f f h k k k k k j j h j j j j j h k k k j j h h h j j j h h k k k k k b m m m m m m m m m m m m b b m m m m m m k k k k k j j k k b b b m m m m m c k k k k k j j j j j h h h h h h h h h h h h h j j j j j j j j j j j j h j j k k k k k k h j j j h j j j j j j j j j j j h h k k j k k k k k j j j h h h h h h h j j h h h h j j k k j h k k h h h h h h k k k h f f f h h h h h f f h k f k k k k k k k h h h h h h h h h h h h h h h j j h f f h j j j j j k k j j j h j h h h h h j j h h h h h h h h h h h h h h h h h h h h h h h h h h h h j h h h j j j h h h h h h h h h h h h h h h h h h j k k k k k b m k j h h h h h h j j k b k j h j j j k j k b m m m b k m m m m b m m m b b b b k k k k h h j j h h j j h j h h k b k b V m k h c j Z m V m z z z j z j x c M M M M M M B B m M C C C M m m m m m m m m m m m m m m m m m c z z c B m m m m m m M C C A 8.C a.a.8.C M B B B B B B B B B z z z j j j g g k m Z C A S Z A A S S A C m m V M m B c x c x x z c B M n x x n n n M 4.M 4.7.7.4.4.x 4.4.4.9.9.7.9.x n 4.4.M 4.M N M N M M C A A 8.8.S A C C C 8.C M M C 0.a.a.f.d.0.0.B M z z z z B c c c z j z a M B 5.M N M n n z n x z B j B m S d.6 u + + . . T.                                              ",
"                                                                                        . . $ # 5 4 4 5 i f m m b k T.T.ZXDXd.b.. o S S NXNX<XnXj h # : *X>X<XnXm.d.S m b.d.d.d.2 2 2 2 , , . .                                                               7 . . # = d.b.0.a.B m c c c x M M v x M 4.q.4.n M x x x c c z z j h h f g h g j j j z c c c x x x z c m c c j k k c c c c m M C q.M M M M M M N N 8.C C C C N N M M N N 8.8.8.8.0.8.q.8.8.8.8.N M M M 4.4.4.4.4.5.5.N M M B B M M N N M n v s s p z z n n M M x n c c c c z z c m j j k j j z z c z z z j j j j j g j j m m m m m m m m m m c k k c c m m m m m m C m m m m C C C C m m m m V Z A 0.0.A A A A m c m m m m m m k k c B B m m B B c z c B m M M m m m m c c c c m M B B z z z z c x c c c z j j z z g j g g j z M M m m m m m m m m m m m m m m m m m m m m m m m C m m m m m m m C m m V m m m m V V V V m m m m m k k j k k j h h h j k b k k k k k k c c k k k k k k k k k k k k b k j j j j j j j j j j j j b b m c k k k m m m c m m m m m m m V V m m m V V V Z V V V m m m V m m m m m m m m m m m b m k k j k k k k k k k k j j j k m m m m m m m b b m m m b b k k k k k k c c c c c m m m k k k m m m m m m m m m m m m m m m m m m m m m m m m m m m m m m m m m m m m m m m m m m m m m m m b b m m b m m m m b k k k b b b b b m V V V V m k k k c k k k k k k k m m m m m m m m m m m m m b m m m m m V V m m m m m m m m m m m V m m m m m V V V V V V V m m m V m V V V V V V V V V m m m m m m V V m m m m m m c k b m m m m m m m V V m m m b k b m m k m m m b k k k b b b k j j b m m m m m m m m m m m m m m m m m V V V V V V m m m m m m m m m m m m m m m m m m m m m m m V m m m c k k k c m b b b m m b k k k k m m m m b m V m k k k k m k k k k k k k m k k k k m m m m k k m m m c V V m m m m m m m m m m m b b m m m V m b b m m m m m m V V V V m m m m m b b m m V m m m m m m m m m m m m m m m m m m m m m m m m m m m m m m m m m m m m m m m m m m m m m m m m m m m m m m V V V V V V V V m m m m m m m V V V A Z V V V V V V V V V V A Z Z Z A Z Z V V V A A Z Z Z Z V V V V m m m m m V V V m m m m Z A Z A A A V m A A d.d.Z Z M M m B B c M C C 0.A A C A 8.8.a.d.d.d.d.d.d.d.d.d.0.S S S S S S 0.0.S S S 0.8.C C C 8.8.8.8.8.C C C 8.8.8.0.8.0.8.C 8.N M N C 8.8.C C C C C C N M B B B B B m A A A S Z A A C C Z C C A 0.a.8.A C C A A A A 8.0.0.8.8.8.8.q.8.0.9.9.9.s.s.9.9.8.q.q.q.9.9.9.f.q.N 0.8.8.8.0.0.8.0.a.a.f.f.n.n.n.n.f.f.f.f.a.s.8.0.0.8.d.d.n.d.8.8.M C x x c x M M M M B m B z M M C 8.8.8.B B B M B z M m m V S S 5 5 . . . . T.                                              ",
"                                                                                        + . # # 7 4 5 4 i i k k j h T.K.ZXZXb.d.o O d.d.nXVX<XnXj i , : oX;X>X<Xb.V.V V B.h.d.S 5 5 , , # # . .                                                               2 X O , 4 S d.0.0.z B M M B c c c z x M M 4.C n M M x z z z z h a h j j j h h j z z z c c c x x x c m V m m k c m c c c c m M C C C N M M M N N C 8.A C C C C C N M N N N C 5.8.8.0.0.8.8.q.8.N N N 5.5.5.5.5.8.C 5.N M M M M M M 8.8.M x v s s p g p z x x M z z x x z z z z k c k k c k c c c c z z j j g g g g j j c m m m m m m m m m m m m m m m m m m m m m m m m m m m m V Z Z C C C Z A S A A C C A A V m c m m m m k k k z c c B B c c z z z c B m m m B m m c j z c B m B m z c x x M B c c c z j j j z g j g j j j m m m m m m m m m m m m m m m m m m m m m m m m m m m m m m m m m C V V V V m m V V V V V m m m m m m b b b b k j h j j b b k j k k c k k c k k k k k k k k k k k k j j j j j j j j j j j j j j j b m m m m m m m V c m m m m m m m V V m V V V V V Z Z V V V V V V m m b b b m m m m m m m m m m k k k k k c k k k k k k k c m m m m b k k k k k b k j k k j j j j k k k k k k k k k k k k m m m m m m m m m m m m c c c m m m m m m m m m b m m m m m m m m m m m B B m m m m m m m m b b m m b b m m b b k k k k b b b m m V V m V m k k c m k k k k k k k m m m m m m m m m b b m m m m m m m m V m m m m m m m m m m m V V V V m m m V V V V V m m m m m m m m m m V V V m m m V m m m m V V V m m m m m m m c b b m m b b m m m m m m m b k k m m b m m m b k j j j j j j j j k k b m m m m b b b b b m m m m m m m m m m m m m m m m m m m m m m m m m m m m m m m m m m m m m m m c k k c c k k k k k k j j b b k m m m m b k k k k k k k k k k k k k k k k k k k k k k k k k k k k k k k k k c m m m m m m b b k b k b c c m m m b m m m m m m m m m m m m m m m b m m m m b m m m m m m m m m m m m m m m m b b b m m m m b m m m m m m m m m m m m m m m b b b m m m m m m m m m m m m m V m m m m m m k m m m m m V V V Z Z V V V V V V V V V V V V V V V V V V V V V Z A Z Z Z V Z Z Z m m m m V V V V m V m m Z A A A A A V V C V A A Z C M M M m m B C C 0.8.8.S A A 8.8.S a.d.d.d.d.0.0.0.0.S S S S S S S S S S S S 8.8.C C C C C 8.C C C C C C C C a.0.0.8.8.8.C C M N C C C C C N M M N M M B B B C C S A A S A S A A A C C A 0.0.0.8.A C A 8.8.S A A S 8.8.8.8.8.0.0.0.0.0.0.0.a.8.0.8.8.8.4.q.q.9.9.8.N 8.N 8.0.0.9.0.0.s.s.n.f.n.M.n.n.f.d.f.d.a.f.a.d.0.S d.d.d.d.A S C C B M M M N M M M B m m m N m Z A C C B m M B B m m m m C S A i 6 . o . . T.                                              ",
"                                                                                        . . f f 2 , 4 4 f f A Z h j K.V.nXVXnXCXoX[.nX<XZXZX,X;Xk m [.XXSXSXZXZXOXoXi 5 m m S b.6 6 , , # $ . .                                                               2 . . O O f h g g e i g g g i i p e e g p g g e g p p p p p a i i i i i i e e e i i i p p p p p p i i i i i i i i i i g g g g g g g p p p p p a j j j p p a h a a p a p p a a p a p p i i i i r r p a p a a a a a i i i i i i i i e e r r r e p i p i p p p j p p g g g g g g g g f f f f g g g g g g g g p i i i i i f g h j j j h h h j h h g g g h h j j j h h j j j j j j j c j j j j j j k k k k j h k k h h h j j k h g f f p g g g j j g g g g j j j j j j h h j j j j j j g j p g g g j p j h h g i i f h f g f g g g z z j j j h j j j j j j j j j j j j j j j j j j j c j j j j j j c m j j j j j j j j j j j h j h h h h h h h h h h h h h h h h h h h k k k h k k h h h h h h h h h h h h h h h h h h h h h h h h h h j j j h h h h h h h h j k k k j k k k k k k k k k k k h h h k k j j j h h j j j j h h h h h h h j h h h j j j h j j j j j k k k k k j j k k j j j j k k k k j j j k k k k k k j k k k c c m m m c c c m m m c k k k k k c m c c b b b k k b b m k k b b k k k b z z c c c k k b b m b k b b j b b b k k k k k k k k k k k k k k k k k k k k k k k k h h k k k k j j j j j h h h j j j j j j j j k k k k k k k k k k k j k k k k k k k k k k j j k k k j j j j j j k k b b k k j j j j j j j k k j j j k k j h h j j k j j j k b k k k k k k j j j j j j j j j j j j j j j j j j j k k b b b k k b b k k k k b b k b b b b m m m k b b b j j k b m m m m m b b k k k k k k k k k k k k j h h j j h j j j j j j j h j j j j j j j k k k k k k k k k k k k k k k k k k k k k k k k k k k k k k k k k k k k j k k k k k k k k k k k h h h h j h h h j j j j j j j j h h h h h j j j h h h h j j h h h h h h h h h h j h h h h h j j h h j j j j j j j j j j j j j j j j j j j j j j k k k k k k k k b b b b b b k k j j j j j k k k b k k k k k k k k k k k k k k b j k k k k k k k k j h h j j k k k k j j j j j j h j h h j j j b k k j k c k m m c z z z z z j j c c c m m B B B m m B B m m m m m m m m m m m m m m m m m m m m B B B B B B B B B B B B B B M M M z M B z B z x c c c B B B c c z z z z j j j j z j m k c m k m V c c c c c c c c c z z c m m m m b b c m B B B B B B B B B B B z z z z z z B x x z c z m j N M c n z z x z M m m m B B c z c z j j h j j h k k k k h k h j a p g g z g j j f h h f h h h j a h i i i i i i i f i i f i , , . . . . T.                                              ",
"                                                                                          . f f 4 , 4 , f f A A j h M.B.nXvXZXNXOXoXnXVXCXZX;X;Xb m [.[.SXSXZXZX*XOX6 4 V Z S b.6 6 , # $ O . .                                                               2 . . # # e f h g e i h g f i i g e i g i g g e g i i p g i i i i f i i i i i i i i i p p p p g g g f i i f f i i i i f g g g g g g p j j j j j h j h j a h h h h h a j a p p p p p p i i i i i i a a p p p i p i i i i i i i f f p i i e e e e e i i p i p j p g g g g g g f f f f f h g f f h g f i g f g i i i g f h h h j k k j j j j k j h g h j j j j j j h h j k k h j k k k k k k k k j j k k j h k j h j h k h j j f f i f f g f g h g g g g g h j h j h f g h j j h j h g h p h j h j h g h h g g f h h h h f f g f z j k j j h j j j j j j j j j j j j k j k k j j k k j k k k k k m m k k k j k k k j h h k h k h k h k h k h h h f h h h f f f h h h k h h h h k h f f h h h k k k h h h h h h f h h h h j h h h h j h j h h k k k j h h h h j k k k k k k k k k k k k k k k k k k k h h k j k h h h k h h h k j k h k h h h k j k j h h k h k h k k k j k k k k k j k j k k k j k h j k k k k k h h h k k k k k c m c k k c c k k k k k k k k c k c k k k k k k k m k b k k k k k b k k c c c c b m b m b k b b k b k k k j k j k k b b b b b b k k k k k k k k k k k k k k k k k k k k j j j h h h j j j j j k k k j j k k k k k j k k k j k j k k k k k j k j k h k j k j k j k j h j k k k k k j k k k j k k k b k k k k k j j h h h j j j j k b j j k k k k k j k k k k k j k j k j k j k j k j k j k k k k k j m b k k k k k k k k k k k k k m k k b b b k b m b b b b k k j j k k k k k k k k k k k k k h k h h h j h h j h j h h j j j k j j k k k k k h h h k k k k k k k k h k k k k k k k k k k k k k k k k k k j k j k k k k k j k j k h h j j j j h h h j j j j j j j j h h k j k j k j h h h h k j k j k h h h h h k h k h h h h h k j k j k j k j k j k j k j k j k j j j h h j j j j j j j k k k k k j j k k k k k j k k k k k k k k b b k k k k k k k k k k k k k b h j k k k k k k k k j j j k k k k k k k k k k j k k k h k k k m k m k m k k m c k k c z c c z k c c c m m m m m m m m m m m m m m m m m m m m m m m m m m m m m m m B m c c B m B m c c c m B m B z m m c B m B B B c c c c c c m m m j j h z j c k m k k m c m m c c c c m c k c k c c m m m m m k k k c m m m m m m m m m c m j z z z z j c z c z c c m j V c B M c z c j B m m m m k z z c c k k h j j h k j h h h k h j h h j j c j g h h h j h h h h j i g f i f i i i f h i i f i 4 4 . . . . T.                                              ",
"                                                                                                # # , 2 6 f h k i u p.A CXCXSXSXnXVXB.B.nXnXVXVXu 5 B.B.DXDXZXZXoX+X6 6 Z Z Z Z 2 2 $ $ . + + +                                                               2 . . . . . . . . . . . . . . . . . . . . . . . . . . . . . . . X . . . . . . . . o . . . . . . . . . . o o o o . o o o o O o O O X o o o X . . o X o X o O o O O O O O O o X . . . X O O O X . . . . . X . . . . . . . . . . . . . . . . . . . . . . . . . . . . . . . . . . . . . . . . . . . . . . . . + . . . + . . . . . . . . . . . . . . . . . . . . . . . + . . . . + . . . . . . . + . . . . . . . . . . . . . . . . + O + + X + X + X + + + . . . + X + . . . . . . . o . . . . . . . . o o o . o o o o o o o o X . . . o . . . . . . . . . . o + . + + + + + O O O + + . . . . + . . . . . + . + . + . + + + . + + + . + . + . + + + + . . + . + . + . . . . . . . . . + + + . . . + + X O + . . . + O . + + + + + + + . . + + O O O O O O + . . + + + + + + + + + + + + + + + + + + . + + + . + . + . + . + + O + + + + + $ + + . + . + + + + + + + . . . + + + . . . + . + + + + + + + + + + + + + + + + . . . + + + . . . . . . + + . . . + + + . . + + + + + + + + + . + . + . + + + + + + + + + + . . + + + + . . + + + O $ O $ O O + + + $ + + + + + + + + + + + + + + + + + + + . . . . . + + + O + + + O + + + + + + + + + + . + + + + + + + . + + + + $ O + + $ O + . + . + . + . + . + . + . . . + . + + + . + + . . . . . . + + . . . . . . . . . . + . . . + . + + + . + . + + + + + . + . $ + + + + + + . + . + . + . + . + + O O $ + + + + . . . . + O O . . + + + + . . . . + + + + + + . . + . + + + . . . . . . . . . . . . . . . . . . . . . + + + + + + + + + + + + . . . + + + + + + + + + + + + + + . . . . . + + + . + . + + + + . . . . . . . . . . + + . . + + + + + . + . + . + + $ + + . + O + + + + + + + + + + O O O . + . + + + . + . + . + . + + + + + . . . + + + . . . + + + + . . . . . . + . + . + . + . + + + + + . O + + . . + + O O O + + + + + . . . + O X + . . . + + . . . + + . . + . + + + . + . + . + . + . . . . . . . . . + . . . . . X O X + X + X . . . . . . . o o o o . . . . + + + . . . . . . . . + o o X . . . . . . . . . . . . . . . . . . . . . . . . . . . . . . . . . . . . . . . . . . . . . . . . . . . . . . . . . o o . . . . . . o . . . . . . . . . o o X o o X . . X X X o O O O o O o O o O o o o X o O O O O O O O O O O O O O O + + O O O O O O O # O O O O O O O O . . . . . . . . . . . . . . . . . . . . . . . . . . T.                                              ",
"                                                                                                O # : , 5 u h b h i i.i.NXCXSXSXNXBXB.K.nXvXNXVX4 5 H.T.ZXZXDXZX+X+Xf u k k V Z 7 2 # O + $ . .                                                               2 . . . . . . . . . . + . . . . + . . . . . . . . . . . . . . X X . . o o . . o . . . . . . . . . . . . o o o o . o o . . . . o o o o o o o o o o o o o o O O O O O O O O + + + + + X O O O + + + . . . . . . . . . . . . . . . . . . . . . . . . . . . . . . . . . . . . . . . . . . . . . . . . . . . . . . . . . . . . . . . . . . . . . . . . . . + + + + . . + + + + + + + + + + + + + + + + . . . . + + + + . . . . . . + O $ O O O $ $ + + + + + + + + + + . . . . . . o o . . . . . . . . O o o o o O O o . . . . . . o . . . . . . . . . + + + O O + + + + + + O $ $ $ + + + + + + + + + . . . . + + + . + + . . + + + . + + . . . + + + . . + + + + + + . . . . . . . . . . . . . . . . + + + + + + + + + + + + + + + + + + O O O O O O O O O + + + O O + + + + + + + + + + + + + + + + + + + + + + + + + + + O O X + + $ $ $ + + + + + O + + + $ + + + . . . + + + . . + + + + + + + + + + + + + + . . X + + + + + + X + + . . . . + + . . + X O + + . + + + + + + + + X X + + @ + $ O + + + + + $ $ $ O O $ O $ $ + + + + + + + + + + + + + + + + + + + + + + + + + + + + + + + + + + + + + + + + + + + + + + + + + + + + + + + + + . + + + + + + + + + + + + + + + + + + + + + . . . + + + + + + + + . . . + + + + + . . . . . . . . . . . . . . . . + + + + + + + + + + + + O X + + + + + + X + + + $ @ + + + + + + + + + + + + + + + + O O $ $ $ $ + + + + + + $ $ + + + + + + + + + + + + + + + + . . . . + + + + + + . . . . + + . . . . . + + . . . . . + + + + + + + + + + + + + + + + + + + + + + + + + + + + + + + + + + + + + + + + + + + + + + + + + + + . . + O O + . + + + + + + + + + + + $ $ + + + + O + + + + $ $ + + + + $ $ $ O + + $ + + + + + + + + + + + + + + + . . + + + + + + + + + + X + O + + + + + + + + + + + + + + + + + + + . . . . + + + . . . . . . . . . . . + . . . . . . . . . . . + . . . + + + + + + + + + + + + . . . . . . . . . . . . . . . . . . + + . . . . + + + . . . . . . . . . + + . . . . . . . + . + . + . . . . . . . . . . . . . . . . . . . . . . . . . . . . . . . . . . . . . . . . . . . . . . . . . . . . . . . . . . . . . . . . . . . . . . . . . . . . o o X X o . . . . X o O O O O O O O O O O O o o O O . . . o O O O O O O O X + . . . . O O O + + O $ $ O O O O O O O + + + + + . . . . . . . . . . . . . . . . . . . . . T.                                              ",
"                                                                                                + + , # 4 : f i u u Z Z {.{.,X:XR.R., 4 V m A V j h Z h d.A d.d.k Z 6 f f 7 + . + # V Z V.V.V Z                                                               $ . . . . . . . . . . . . . . . . . . . . . . . . . . . . . . . . . . . . . . . . . . . . . + + + . . . O O O O . O O O O + + + X . . . + + + + + . . . . . . + . . . . . . . . . . . . . + . . . . . . . . . . . . . . . . . . . . . . . . . . . . . . . . . . . . . . . . . . . . . . . . . . . . . . . . . . . . . . . . . . . . . . . . . . . . . . . . . . . . . . . . . . . . . . . . . . . . . . . . . . . . . . . . . . . . . . . . . . . . . . . . . . . . . . . . . . . . . . . . . . . . . . . . . . . . . . . . . . . . . . . . . . . . . . . . . . . . . . . . . . . . . . . . . . . . . . . . . . . . . . . . . . . . . . . . . . . . . . . . . . . . . . . . . . . . . . . . . . . . . . . . . . . . . . . . . . . . . . . . . . . . . . . . . . . . . . . . . . . . . . . . . . . . . . . . . . . . . . . . . . . . . . . . . . . . . . . . . . . . . . . . . . . . . . . . . . . . . . . . . . . . . . . . . . . . . . . . . . . . . . . . . . . . . . . . . . . . . . . . . . . . . . . . . . . . . . . . . . . . . . . . . . . . . . . . . . . . . . . . . . . . . . . . . . . . . . . . . . . . . . . . . . . . . . . . . . . . . . . . . . . . . . . . . . . . . . . . . . . . . . . . . . . . . . . . . . . . . . . . . . . . . . . . . . . . . . . . . . . . . . . . . . . . . . . . . . . . . . . . . . . . . . . . . . . . . . . . . . . . . . . . . . . . . . . . . . . . . . . . . . . . . . . . . . . . . . . . . . . . . . . . . . . . . . . . . . . . . . . . . . . . . . . . . . . . . . . . . . . . . . . . . . . . . . . . . . . . . . . . . . . . . . . . . . . . . . . . . . . . . . . . . . . . . . . . . . . . . . . . . . . . . . . . . . . . . . . . . . . . . . . . . . . . . . . . . . . . . . . . . . . . . . . . . . . . . . . . . . . . . . . . . . . . . . . . . . . . . . . . . . . . . . . . . . . . . . . . . . . . . . . . . . . . . . . . . . . . . . . . . . . . . . . . . . . . . . . . . . . . . . . . . . . . . . . . . . . . . . . . . . . . . . . . . . . . . . . . . . . . . . . . . . . . . . . . . . . . . . . . . . . . . . . . . . . . . . . . . . . . . . . . . . . . . . . . . . . . . + X X X X + O O + . . . + + O O O O $ $ $ $ $ $ O O O + + + O O $ O O O O $ O + + + . . . . . . . . . . . . . . . . . . . . . . . . . . . . . . R.                                              ",
"                                                                                                . @ O 2 : 2 i i u i Z i.].{.:X>X[.E.6 5 h b S d.i h m m A A V.M.Z V f f 2 2 . . # 2 S                                                                           . . . . . . . . . . . . . . . . . . . . . . . . . . . . . + . X + + + + . . . . . . . . . . . . . . . . . . . . + + + . . . . . . . . . . . . + . . . . . . . . . . . . . . . . . . . . . . . . . . . . . . . . . . . . . . . . . . . . . . . . . . . . . . . . . . . . . . . . . . . . . . . . . . . . . . . . . . . . . . . . . . . . . . . . . . . . . . . . . . . . . . . . . . . . . . . . . . . . . . . . . . . . . . . . . . . . . . . . . . . . . . . . . . . . . . . . . . . . . . . . . . . . . . . . . . . . . . . . . . . . . . . . . . . . . . . . . . . . . . . . . . . . . . . . . . . . . . . . . . . . . . . . . . . . . . . . . . . . . . . . . . . . . . . . . . . . . . . . . . . . . . . . . . . . . . . . . . . . . . . . . . . . . . . . . . . . . . . . . . . . . . . . . . . . . . . . . . . . . . . . . . . . . . . . . . . . . . . . . . . . . . . . . . . . . . . . . . . . . . . . . . . . . . . . . . . . . . . . . . . . . . . . . . . . . . . . . . . . . . . . . . . . . . . . . . . . . . . . . . . . . . . . . . . . . . . . . . . . . . . . . . . . . . . . . . . . . . . . . . . . . . . . . . . . . . . . . . . . . . . . . . . . . . . . . . . . . . . . . . . . . . . . . . . . . . . . . . . . . . . . . . . . . . . . . . . . . . . . . . . . . . . . . . . . . . . . . . . . . . . . . . . . . . . . . . . . . . . . . . . . . . . . . . . . . . . + . . . . . . . . . . . . . . . . . . . . . . . . . . . . . . . . . . . . . . . . . . . . . . . . . . . . . . . . . . . . . . . . . . . . . . . . . . . . . . . . . . . . . . . . . . . . . . . . . . . . . . . . . . . . . . . . . . . . . . . . . . . . . . . . . . . . . . . . . . . . . . . . . . . . . . . . . . . . . . . . . . . . . . . . . . . . . . . . . . . . . . . . . . . . . . . . . . . . . . . . . . . . . . . . . . . . . . . . . . . . . . . . . . . . . . . . . . . . . . . . . . . . . . . . . . . . . . . . . . . . . . . . . . . . . . . . . . . . . . . . . . . . . . . . . . . . . . . . . . . . . . . . . . . . . . . . . . . . . . . . . . . . . . . . . . . . . . . . . . . . . . . . . . . . . . . . . . . . . . . . . . . . . X + + O O . . . . + + + + + + O O O O O @ . . . + + . + + + + . + + O O O + + . . . . . . . . . . . . . . . . . . . . . . . . . . . + . . R.                                              ",
"                                                                                                # # f i h i 5 , 5 4 4 , , : 4 4 , 4 o # , , o . # , , 4 # . O . + . $ # $ # . . . .                                                                               . . . . . . . . . . . . . . . . . . . . . . . . . . . . . . . . . . . . . . . + + + + + + . . + + + + + + . . + + + + + + + + + + + + . + + + + + + + + + + + . . . . . . . . . . . . . . . . . . . . . . . . . . . . . . . . . . . . . . . . . . . . . . . . . . . . . . . . . . . . . . . . . . . . . . . . . . . . . . . . . . . . . . . . . . . . . . . . . . . . . . . . . . . . . . . . . . . . . . . . . . . . . . . . . . . . . . . . . . . . . . . . . . . . . . . . . . . . . . . . . . . . . . + . . . + + + . . . . . . . . . . . . . . . . . . . . . . . . . . . . . . . . . + + . . . . . . . . . . . . . . . . . . . . . . . . . . . . . . . . . . . . . . . . . . . . . . . . . . . . . . . . . . . . . . . . . . . . . . . . . . . . . . . . . . . . . . . . . . . . . . . . . . . . . . . . . . . . . . . . . . . . . . . . . . . . . . . . . . . . . . . . . . . . . . . . . . . . . . . . . . . . . . . . . . . . . . . . . . . . . . . . . . . . . . . . + + + + + + + + . . . . . . . . + . . . . . . . + . . . . . . . . . . . . . . . . . . . . . . . . . . . . . . . . . . . . . . . . . . . . . . . . . . . . . . . . . . . . . . . . . . . . . . . . . . . . . . . . . . . . . . . . . . . . . . . . . . . . . . . . . . . . . . . . . . . . . . . . . . . . . . . . . . . . . . . . . . . . . . . . . . . . . . . . . . . . . . . . . . . . . . . . . . . . . . + . . . . . . . . . . . . . . . . . . . . . . . . . . . . . . . . . . . . . . . . . . . . . . . . . . . . . . . . . . . . . . . . . . . . . . . . . . . . . . . . . . . . . . . . . . . . . . . . . . . . . . . . . . . . . . . . . . . . . . . . . . . . . . . . . . . . . . . . . . . . . . . . . . . . . . . . . . . . . . . . . . . . . + + + . . . + . . . . . . . . . . . . . . . . . . . . . . . . . . . . . . . . . . . . . . . . . . . . . . . . . . . . . . . . . . . . . . . . . . . . . . . . . . . . . . . . . . . . . . . . . . . . . . . . . . . . . . . . . . . . . . . . . . . . . . . . . . . . . . . . . . . . . . . . . . . . . . . . . . . . . . . . . . . . . . . . . . . . . . . . . . . . . . . + + + + + + + . . . . + + + + X X + + + + + + + + + + + $ + + + + + + + + + + . . . . . . . . . . . . + + + + + + . . . + . o . . . . . . + . . . . . . . . . . . + + + + .                                                   ",
"                                                                                                    f i k V , 4 4 , , , # # 4 4 4 , , : # , O # , , : , . . # $ # + # $ + $ . . . .                                                                                                                     . . . . . . . . . . . . + +                                                                                                                                                                                                                                                                                                                                                                                                                                                                                                                                                                                                                                                                                                                                                                                                                                                                                                                                                                                                                                                                                                                                                                                                                                                                                                                                                                                                                                                                                                                                                                                                                                                                                                                                                                                                                                                                                                                                                                                                                                                                                                                                                                                                                                                                                 ",
"                                                                                                            . . : , , , # # # : # $ # $ O O : # $ # # , # # $ # $ + $ $ $ $ . . + +                                                                                                                                                                                                                                                                                                                                                                                                                                                                                                                                                                                                                                                                                                                                                                                                                                                                                                                                                                                                                                                                                                                                                                                                                                                                                                                                                                                                                                                                                                                                                                                                                                                                                                                                                                                                                                                                                                                                                                                                                                                                                                                                                                                                                                                                                                                                                                                                                                 ",
"                                                                                                            . @ : , , # # O # , # # # # $ . 2 $ # # # $ O # @ # $ $ # $ $ + . . . +                                                                                                                                                                                                                                                                                                                                                                                                                                                                                                                                                                                                                                                                                                                                                                                                                                                                                                                                                                                                                                                                                                                                                                                                                                                                                                                                                                                                                                                                                                                                                                                                                                                                                                                                                                                                                                                                                                                                                                                                                                                                                                                                                                                                                                                                                                                                                                                                                                 ",
"                                                                                                            + + # # # , , 2 2 2 , , , , , , # # # # # $ # # # # $ $ $ + + + . . # $                                                                                                                                                                                                                                                                                                                                                                                                                                                                                                                                                                                                                                                                                                                                                                                                                                                                                                                                                                                                                                                                                                                                                                                                                                                                                                                                                                                                                                                                                                                                                                                                                                                                                                                                                                                                                                                                                                                                                                                                                                                                                                                                                                                                                                                                                                                                                                                                                                 ",
"                                                                                                            + . # # # # , 2 , , 2 , , , , , , # # # # $ # $ $ O $ $ $ + + . . . $ #                                                                                                                                                                                                                                                                                                                                                                                                                                                                                                                                                                                                                                                                                                                                                                                                                                                                                                                                                                                                                                                                                                                                                                                                                                                                                                                                                                                                                                                                                                                                                                                                                                                                                                                                                                                                                                                                                                                                                                                                                                                                                                                                                                                                                                                                                                                                                                                                                                 ",
"                                                                                                            + + # = 2 2 2 2 2 2 2 2 2 2 2 2 2 2 # # # # # $ $ $ $ $ $ + + . . . $ +                                                                                                                                                                                                                                                                                                                                                                                                                                                                                                                                                                                                                                                                                                                                                                                                                                                                                                                                                                                                                                                                                                                                                                                                                                                                                                                                                                                                                                                                                                                                                                                                                                                                                                                                                                                                                                                                                                                                                                                                                                                                                                                                                                                                                                                                                                                                                                                                                                 ",
"                                                                                                            + + # # # 2 2 2 2 2 2 2 : 2 2 8 8 8 # # # # # # $ $ @ @ + + + . . . $ +                                                                                                                                                                                                                                                                                                                                                                                                                                                                                                                                                                                                                                                                                                                                                                                                                                                                                                                                                                                                                                                                                                                                                                                                                                                                                                                                                                                                                                                                                                                                                                                                                                                                                                                                                                                                                                                                                                                                                                                                                                                                                                                                                                                                                                                                                                                                                                                                                                 ",
"                                                                                                            . + + + + + + + + + + + + + + + + + + + + + + + . . . . . . . . . . . .                                                                                                                                                                                                                                                                                                                                                                                                                                                                                                                                                                                                                                                                                                                                                                                                                                                                                                                                                                                                                                                                                                                                                                                                                                                                                                                                                                                                                                                                                                                                                                                                                                                                                                                                                                                                                                                                                                                                                                                                                                                                                                                                                                                                                                                                                                                                                                                                                                 ",
"                                                                                                            # . + + + + + + + + . . . . . . . . . . . . . . . . . . . . . . . . . $                                                                                                                                                                                                                                                                                                                                                                                                                                                                                                                                                                                                                                                                                                                                                                                                                                                                                                                                                                                                                                                                                                                                                                                                                                                                                                                                                                                                                                                                                                                                                                                                                                                                                                                                                                                                                                                                                                                                                                                                                                                                                                                                                                                                                                                                                                                                                                                                                                 ",
"                                                                                                                                  ZXZXCXZXCXCXCX                  BXBXBXBXBXBXCXZX                                                                                                                                                                                                                                                                                                                                                                                                                                                                                                                                                                                                                                                                                                                                                                                                                                                                                                                                                                                                                                                                                                                                                                                                                                                                                                                                                                                                                                                                                                                                                                                                                                                                                                                                                                                                                                                                                                                                                                                                                                                                                                                                                                                                                                                                                                                                                                                                                                  ",
"                                                                                                                                                                                                                                                                                                                                                                                                                                                                                                                                                                                                                                                                                                                                                                                                                                                                                                                                                                                                                                                                                                                                                                                                                                                                                                                                                                                                                                                                                                                                                                                                                                                                                                                                                                                                                                                                                                                                                                                                                                                                                                                                                                                                                                                                                                                                                                                                                                                                                                                                                                                                                    ",
"                                                                                                                                                                                                                                                                                                                                                                                                                                                                                                                                                                                                                                                                                                                                                                                                                                                                                                                                                                                                                                                                                                                                                                                                                                                                                                                                                                                                                                                                                                                                                                                                                                                                                                                                                                                                                                                                                                                                                                                                                                                                                                                                                                                                                                                                                                                                                                                                                                                                                                                                                                                                                    ",
"                                                                                                                                                                                                                                                                                                                                                                                                                                                                                                                                                                                                                                                                                                                                                                                                                                                                                                                                                                                                                                                                                                                                                                                                                                                                                                                                                                                                                                                                                                                                                                                                                                                                                                                                                                                                                                                                                                                                                                                                                                                                                                                                                                                                                                                                                                                                                                                                                                                                                                                                                                                                                    ",
"                                                                                                                                                                                                                                                                                                                                                                                                                                                                                                                                                                                                                                                                                                                                                                                                                                                                                                                                                                                                                                                                                                                                                                                                                                                                                                                                                                                                                                                                                                                                                                                                                                                                                                                                                                                                                                                                                                                                                                                                                                                                                                                                                                                                                                                                                                                                                                                                                                                                                                                                                                                                                    ",
"                                                                                                                                                                                                                                                                                                                                                                                                                                                                                                                                                                                                                                                                                                                                                                                                                                                                                                                                                                                                                                                                                                                                                                                                                                                                                                                                                                                                                                                                                                                                                                                                                                                                                                                                                                                                                                                                                                                                                                                                                                                                                                                                                                                                                                                                                                                                                                                                                                                                                                                                                                                                                    ",
"                                                                                                                                                                                                                                                                                                                                                                                                                                                                                                                                                                                                                                                                                                                                                                                                                                                                                                                                                                                                                                                                                                                                                                                                                                                                                                                                                                                                                                                                                                                                                                                                                                                                                                                                                                                                                                                                                                                                                                                                                                                                                                                                                                                                                                                                                                                                                                                                                                                                                                                                                                                                                    ",
"                                                                                                                                                                                                                                                                                                                                                                                                                                                                                                                                                                                                                                                                                                                                                                                                                                                                                                                                                                                                                                                                                                                                                                                                                                                                                                                                                                                                                                                                                                                                                                                                                                                                                                                                                                                                                                                                                                                                                                                                                                                                                                                                                                                                                                                                                                                                                                                                                                                                                                                                                                                                                    ",
"                                                                                                                                                                                                                                                                                                                                                                                                                                                                                                                                                                                                                                                                                                                                                                                                                                                                                                                                                                                                                                                                                                                                                                                                                                                                                                                                                                                                                                                                                                                                                                                                                                                                                                                                                                                                                                                                                                                                                                                                                                                                                                                                                                                                                                                                                                                                                                                                                                                                                                                                                                                                                    ",
"                                                                                                                                                                                                                                                                                                                                                                                                                                                                                                                                                                                                                                                                                                                                                                                                                                                                                                                                                                                                                                                                                                                                                                                                                                                                                                                                                                                                                                                                                                                                                                                                                                                                                                                                                                                                                                                                                                                                                                                                                                                                                                                                                                                                                                                                                                                                                                                                                                                                                                                                                                                                                    ",
"                                                                                                                                                                                                                                                                                                                                                                                                                                                                                                                                                                                                                                                                                                                                                                                                                                                                                                                                                                                                                                                                                                                                                                                                                                                                                                                                                                                                                                                                                                                                                                                                                                                                                                                                                                                                                                                                                                                                                                                                                                                                                                                                                                                                                                                                                                                                                                                                                                                                                                                                                                                                                    ",
"                                                                                                                                                                                                                                                                                                                                                                                                                                                                                                                                                                                                                                                                                                                                                                                                                                                                                                                                                                                                                                                                                                                                                                                                                                                                                                                                                                                                                                                                                                                                                                                                                                                                                                                                                                                                                                                                                                                                                                                                                                                                                                                                                                                                                                                                                                                                                                                                                                                                                                                                                                                                                    ",
"                                                                                                                                                                                                                                                                                                                                                                                                                                                                                                                                                                                                                                                                                                                                                                                                                                                                                                                                                                                                                                                                                                                                                                                                                                                                                                                                                                                                                                                                                                                                                                                                                                                                                                                                                                                                                                                                                                                                                                                                                                                                                                                                                                                                                                                                                                                                                                                                                                                                                                                                                                                                                    ",
"                                                                                                                                                                                                                                                                                                                                                                                                                                                                                                                                                                                                                                                                                                                                                                                                                                                                                                                                                                                                                                                                                                                                                                                                                                                                                                                                                                                                                                                                                                                                                                                                                                                                                                                                                                                                                                                                                                                                                                                                                                                                                                                                                                                                                                                                                                                                                                                                                                                                                                                                                                                                                    ",
"                                                                                                                                                                                                                                                                                                                                                                                                                                                                                                                                                                                                                                                                                                                                                                                                                                                                                                                                                                                                                                                                                                                                                                                                                                                                                                                                                                                                                                                                                                                                                                                                                                                                                                                                                                                                                                                                                                                                                                                                                                                                                                                                                                                                                                                                                                                                                                                                                                                                                                                                                                                                                    ",
"                                                                                                                                                                            XX X                                                                                                                                                                                                                                                                                                                                                                                                                                                                                                                                                                                                                                                                                                                                                                                                                                                                                                                                                                                                                                                                                                                                                                                                                                                                                                                                                                                                                                                                                                                                                                                                                                                                                                                                                                                                                                                                                                                                                                                                                                                                                                                                                                                                                                                                                                                                                                                                                                    ",
"                                                                                                                                                                                                                                                                                                                                                                                                                                                                                                                                                                                                                                                                                                                                                                                                                                                                                                                                                                                                                                                                                                                                                                                                                                                                                                                                                                                                                                                                                                                                                                                                                                                                                                                                                                                                                                                                                                                                                                                                                                                                                                                                                                                                                                                                                                                                                                                                                                                                                                                                                                                                                    ",
"                                                                                                                                                                                                                                                                                                                                                                                                                                                                                                                                                                                                                                                                                                                                                                                                                                                                                                                                                                                                                                                                                                                                                                                                                                                                                                                                                                                                                                                                                                                                                                                                                                                                                                                                                                                                                                                                                                                                                                                                                                                                                                                                                                                                                                                                                                                                                                                                                                                                                                                                                                                                                    ",
"                                                                                                                                                                                                                                                                                                                                                                                                                                                                                                                                                                                                                                                                                                                                                                                                                                                                                                                                                                                                                                                                                                                                                                                                                                                                                                                                                                                                                                                                                                                                                                                                                                                                                                                                                                                                                                                                                                                                                                                                                                                                                                                                                                                                                                                                                                                                                                                                                                                                                                                                                                                                                    ",
"                                                                                                                                                                                                                                                                                                                                                                                                                                                                                                                                                                                                                                                                                                                                                                                                                                                                                                                                                                                                                                                                                                                                                                                                                                                                                                                                                                                                                                                                                                                                                                                                                                                                                                                                                                                                                                                                                                                                                                                                                                                                                                                                                                                                                                                                                                                                                                                                                                                                                                                                                                                                                    ",
"                                                                                                                                                                                                                                                                                                                                                                                                                                                                                                                                                                                                                                                                                                                                                                                                                                                                                                                                                                                                                                                                                                                                                                                                                                                                                                                                                                                                                                                                                                                                                                                                                                                                                                                                                                                                                                                                                                                                                                                                                                                                                                                                                                                                                                                                                                                                                                                                                                                                                                                                                                                                                    ",
"                                                                                                                                                                                                                                                                                                                                                                                                                                                                                                                                                                                                                                                                                                                                                                                                                                                                                                                                                                                                                                                                                                                                                                                                                                                                                                                                                                                                                                                                                                                                                                                                                                                                                                                                                                                                                                                                                                                                                                                                                                                                                                                                                                                                                                                                                                                                                                                                                                                                                                                                                                                                                    "
};
