/* XPM */
static char *dbf8f51dabfc4392b7715c27a9d83891cVo9PjqPKLwzFLuo[] = {
/* columns rows colors chars-per-pixel */
"1258 152 250 2 ",
"   c None",
".  c #020202",
"X  c #0C0301",
"o  c #070804",
"O  c #0A0905",
"+  c #0B0B0A",
"@  c #070808",
"#  c #130201",
"$  c #1B0201",
"%  c #110A04",
"&  c #110D0A",
"*  c #1C0903",
"=  c #12120D",
"-  c #1B160E",
";  c #151513",
":  c #1A1916",
">  c #1C1C1A",
",  c #181714",
"<  c #0F100D",
"1  c #220300",
"2  c #230A03",
"3  c #2B0901",
"4  c #281103",
"5  c #221E1B",
"6  c #251C15",
"7  c #311102",
"8  c #1F211C",
"9  c #22221E",
"0  c #2B241C",
"q  c #34261C",
"w  c #242423",
"e  c #2A2623",
"r  c #2B2A25",
"t  c #2D2D2B",
"y  c #272826",
"u  c #332C25",
"i  c #322E2A",
"p  c #3A2C25",
"a  c #2F302C",
"s  c #2F3027",
"d  c #32322D",
"f  c #3B342D",
"g  c #3B352A",
"h  c #343432",
"j  c #3A3632",
"k  c #373833",
"l  c #3B3A35",
"z  c #3D3D3A",
"x  c #373838",
"c  c #2F2F31",
"v  c #202020",
"b  c #582F0E",
"n  c #6B2E00",
"m  c #6B3201",
"M  c #733200",
"N  c #7B3702",
"B  c #673418",
"V  c #6F3513",
"C  c #42352C",
"Z  c #43392E",
"A  c #48372A",
"S  c #433C34",
"D  c #4B3D33",
"F  c #423E3A",
"G  c #463A36",
"H  c #4D392B",
"J  c #3F403C",
"K  c #78491A",
"L  c #6B4318",
"P  c #4B4135",
"I  c #43423C",
"U  c #4B443C",
"Y  c #484439",
"T  c #54463A",
"R  c #56432B",
"E  c #6A4829",
"W  c #734C2C",
"Q  c #7A4D2A",
"!  c #785231",
"~  c #3F3F41",
"^  c #3F4140",
"/  c #434442",
"(  c #4A4643",
")  c #474944",
"_  c #4A4A45",
"`  c #464B4C",
"'  c #4C4C4C",
"]  c #484749",
"[  c #534C44",
"{  c #524D4B",
"}  c #584C46",
"|  c #4E504C",
" . c #52524E",
".. c #5B534C",
"X. c #595449",
"o. c #514F50",
"O. c #4D5151",
"+. c #545452",
"@. c #5A5652",
"#. c #565953",
"$. c #5A5A55",
"%. c #5C5D5A",
"&. c #575959",
"*. c #4C4E50",
"=. c #65574B",
"-. c #615E5A",
";. c #645B54",
":. c #70594B",
">. c #5E615B",
",. c #5E6057",
"<. c #62625D",
"1. c #6A645B",
"2. c #73675A",
"3. c #7B614E",
"4. c #5D5E61",
"5. c #646463",
"6. c #6A6663",
"7. c #666963",
"8. c #6A6B65",
"9. c #6D6D6B",
"0. c #666769",
"q. c #736C67",
"w. c #6E716A",
"e. c #6E7066",
"r. c #72726D",
"t. c #78766D",
"y. c #737472",
"u. c #7A7B74",
"i. c #7C7C7A",
"p. c #767776",
"a. c #6E6F72",
"s. c #5F6161",
"d. c #413F40",
"f. c #8C4C0C",
"g. c #8B4905",
"h. c #954C01",
"j. c #9A4D01",
"k. c #944B08",
"l. c #955303",
"z. c #9B5402",
"x. c #9C5904",
"c. c #95530C",
"v. c #9B550A",
"b. c #9C590C",
"n. c #97580D",
"m. c #8C4D12",
"M. c #844C18",
"N. c #924E12",
"B. c #8A5219",
"V. c #935213",
"C. c #995515",
"Z. c #8E5107",
"A. c #A15602",
"S. c #A45A03",
"D. c #AB5C03",
"F. c #A35B0B",
"G. c #AB5E0B",
"H. c #A45608",
"J. c #B35C02",
"K. c #BB5D00",
"L. c #B25B08",
"P. c #A85C13",
"I. c #AC5108",
"U. c #AD6104",
"Y. c #AC620C",
"T. c #A6610B",
"R. c #B46303",
"E. c #BB6502",
"W. c #BC6904",
"Q. c #B4630B",
"!. c #BB650B",
"~. c #BC690B",
"^. c #B66807",
"/. c #AD6313",
"(. c #AB6518",
"). c #B36412",
"_. c #B86815",
"`. c #BD7516",
"'. c #875526",
"]. c #83532D",
"[. c #98642E",
"{. c #BB7738",
"}. c #B16D29",
"|. c #C35F00",
" X c #C36402",
".X c #CA6500",
"XX c #C26A03",
"oX c #C36A0B",
"OX c #C86808",
"+X c #D56D06",
"@X c #D57202",
"#X c #DB7401",
"$X c #D9740B",
"%X c #C86B16",
"&X c #D66D17",
"*X c #C97319",
"=X c #DC7413",
"-X c #DC7A1B",
";X c #D77419",
":X c #C8720B",
">X c #E57906",
",X c #E37917",
"<X c #E7750A",
"1X c #C97728",
"2X c #D57925",
"3X c #C77A35",
"4X c #CD782F",
"5X c #E27B22",
"6X c #BB7A43",
"7X c #AB7646",
"8X c #817C76",
"9X c #C47D43",
"0X c #823601",
"qX c #7E817B",
"wX c #FA8B0C",
"eX c #F68708",
"rX c #EC8418",
"tX c #F58B14",
"yX c #FB8C14",
"uX c #F58B1C",
"iX c #FB8D1B",
"pX c #F58617",
"aX c #FB9115",
"sX c #FC921B",
"dX c #F79119",
"fX c #F48B09",
"gX c #D9812A",
"hX c #D08238",
"jX c #EA8426",
"kX c #F48B24",
"lX c #FB8D22",
"zX c #F58B2B",
"xX c #F58828",
"cX c #FC9323",
"vX c #FC932B",
"bX c #FC9629",
"nX c #F88C31",
"mX c #F59133",
"MX c #82837C",
"NX c #87897F",
"BX c #BA8357",
"VX c #C98244",
"CX c #D38A4B",
"ZX c #7D7D81",
"AX c #7E8282",
"SX c #878984",
"DX c #92958C",
"FX c #949690",
"GX c #B2B3AF",
"HX c #C9C9C4",
/* pixels */
"                                                                                                                                                                                                                                                                                                                                                                                                                                                                                                                                                                                                                                                                                                                                                                                                                                                                                                                                                                                                                                                                                                                                                                                                                                                                                                                                                                                                                                                                                                                                                                                                                                                                                                                                                                                                                                                                                                                                                                                                                                                                                                                                                                                                                                                                                                                                                                                                                                                                                                                                                                                                                    ",
"                                                                                                                                                                                                                                                                                                                                                                                                                                                                                                                                                                                                                                                                                                                                                                                                                                                                                                                                                                                                                                                                                                                                                                                                                                                                                                                                                                                                                                                                                                                                                                                                                                                                                                                                                                                                                                                                                                                                                                                                                                                                                                                                                                                                                                                                                                                                                                                                                                                                                                                                                                                                                    ",
"                                                                                                                                                                                                                                                                                                                                                                                                                                                                                                                                                                                                                                                                                                                                                                                                                                                                                                                                                                                                                                                                                                                                                                                                                                                                                                                                                                                                                                                                                                                                                                                                                                                                                                                                                                                                                                                                                                                                                                                                                                                                                                                                                                                                                                                                                                                                                                                                                                                                                                                                                                                                                    ",
"                                                                                                                                                                                                                                                                                                                                                                                                                                                                                                                                                                                                                                                                                                                                                                                                                                                                                                                                                                                                                                                                                                                                                                                                                                                                                                                                                                                                                                                                                                                                                                                                                                                                                                                                                                                                                                                                                                                                                                                                                                                                                                                                                                                                                                                                                                                                                                                                                                                                                                                                                                                                                    ",
"                                                                                                                                                                                                                                                                                                                                                                                                                                                                                                                                                                                                                                                                                                                                                                                                                                                                                                                                                                                                                                                                                                                                                                                                                                                                                                                                                                                                                                                                                                                                                                                                                                                                                                                                                                                                                                                                                                                                                                                                                                                                                                                                                                                                                                                                                                                                                                                                                                                                                                                                                                                                                    ",
"                                                                                                                                                                                                                                                                                                                                                                                                                                                                                                                                                                                                                                                                                                                                                                                                                                                                                                                                                                                                                                                                                                                                                                                                                                                                                                                                                                                                                                                                                                                                                                                                                                                                                                                                                                                                                                                                                                                                                                                                                                                                                                                                                                                                                                                                                                                                                                                                                                                                                                                                                                                                                    ",
"                                                                                                                                                                                                                                                                                                                                                                                                                                                                                                                                                                                                                                                                                                                                                                                                                                                                                                                                                                                                                                                                                                                                                                                                                                                                                                                                                                                                                                                                                                                                                                                                                                                                                                                                                                                                                                                                                                                                                                                                                                                                                                                                                                                                                                                                                                                                                                                                                                                                                                                                                                                                                    ",
"                                                                                                                                                                                                                                                                                                                                                                                                                                                                                                                                                                                                                                                                                                                                                                                                                                                                                                                                                                                                                                                                                                                                                                                                                                                                                                                                                                                                                                                                                                                                                                                                                                                                                                                                                                                                                                                                                                                                                                                                                                                                                                                                                                                                                                                                                                                                                                                                                                                                                                                                                                                                                    ",
"                                                                                                                                                                                                                                                                                                                                                                                                                                                                                                                                                                                                                                                                                                                                                                                                                                                                                                                                                                                                                                                                                                                                                                                                                                                                                                                                                                                                                                                                                                                                                                                                                                                                                                                                                                                                                                                                                                                                                                                                                                                                                                                                                                                                                                                                                                                                                                                                                                                                                                                                                                                                                    ",
"                                                                                                                                                                                                                                                                                                                                                                                                                                                                                                                                                                                                                                                                                                                                                                                                                                                                                                                                                                                                                                                                                                                                                                                                                                                                                                                                                                                                                                                                                                                                                                                                                                                                                                                                                                                                                                                                                                                                                                                                                                                                                                                                                                                                                                                                                                                                                                                                                                                                                                                                                                                                                    ",
"                                                                                                                                                                                                                                                                                                                                                                                                                                                                                                                                                                                                                                                                                                                                                                                                                                                                                                                                                                                                                                                                                                                                                                                                                                                                                                                                                                                                                                                                                                                                                                                                                                                                                                                                                                                                                                                                                                                                                                                                                                                                                                                                                                                                                                                                                                                                                                                                                                                                                                                                                                                                                    ",
"                                                                                                                                                                                                                                                                                                                                                                                                                                                                                                                                                                                                                                                                                                                                                                                                                                                                                                                                                                                                                                                                                                                                                                                                                                                                                                                                                                                                                                                                                                                                                                                                                                                                                                                                                                                                                                                                                                                                                                                                                                                                                                                                                                                                                                                                                                                                                                                                                                                                                                                                                                                                                    ",
"                                                                                                                                                                                                                                                                                                                                                                                                                                                                                                                                                                                                                                                                                                                                                                                                                                                                                                                                                                                                                                                                                                                                                                                                                                                                                                                                                                                                                                                                                                                                                                                                                                                                                                                                                                                                                                                                                                                                                                                                                                                                                                                                                                                                                                                                                                                                                                                                                                                                                                                                                                                                                    ",
"                                                                                                                                                                                                                                                                                                                                                                                                                                                                                                                                                                                                                                                                                                                                                                                                                                                                                                                                                                                                                                                                                                                                                                                                                                                                                                                                                                                                                                                                                                                                                                                                                                                                                                                                                                                                                                                                                                                                                                                                                                                                                                                                                                                                                                                                                                                                                                                                                                                                                                                                                                                                                    ",
"                                                                                                                                                                                                                                                                                                                                                                                                                                                                                                                                                                                                                                                                                                                                                                                                                                                                                                                                                                                                                                                                                                                                                                                                                                                                                                                                                                                                                                                                                                                                                                                                                                                                                                                                                                                                                                                                                                                                                                                                                                                                                                                                                                                                                                                                                                                                                                                                                                                                                                                                                                                                                    ",
"                                                                                                                                                                                                                                                                                                                                                                                                                                                                                                                                                                                                                                                                                                                                                                                                                                                                                                                                                                                                                                                                                                                                                                                                                                                                                                                                                                                                                                                                                                                                                                                                                                                                                                                                                                                                                                                                                                                                                                                                                                                                                                                                                                                                                                                                                                                                                                                                                                                                                                                                                                                                                    ",
"                                                                                                                                                                                                                                                                                                                                                                                                                                                                                                                                                                                                                                                                                                                                                                                                                                                                                                                                                                                                                                                                                                                                                                                                                                                                                                                                                                                                                                                                                                                                                                                                                                                                                                                                                                                                                                                                                                                                                                                                                                                                                                                                                                                                                                                                                                                                                                                                                                                                                                                                                                                                                    ",
"                                                                                                                    +.&.@.&.&.%.+.+.+.+.+.+.+.+.+.+.+.+.+.+.+.+.+.+.+.+.+.+.+.+.+.&.                                                                                                                                                                                                                                                                                                                                                                                                                                                                                                                                                                                                                                                                                                                                                                                                                                                                                                                                                                                                                                                                                                                                                                                                                                                                                                                                                                                                                                                                                                                                                                                                                                                                                                                                                                                                                                                                                                                                                                                                                                                                                                                                                                                                                                                                                                                                                                                                                                ",
"                                                                                                              + . . . . . . . . . . . . . . . . . . . . . . . . . . . . . . . . . . + .                                                                                                                                                                                                                                                                                                                                                                                                                                                                                                                                                                                                                                                                                                                                                                                                                                                                                                                                                                                                                                                                                                                                                                                                                                                                                                                                                                                                                                                                                                                                                                                                                                                                                                                                                                                                                                                                                                                                                                                                                                                                                                                                                                                                                                                                                                                                                                                                                             ",
"                                                                                                            @ . . . . . . . . . . . . . . . . . . . . . . . . . . . . . . . . . . . . . 9.                                                                                                                                                                                                                                                                                                                                                                                                                                                                                                                                                                                                                                                                                                                                                                                                                                                                                                                                                                                                                                                                                                                                                                                                                                                                                                                                                                                                                                                                                                                                                                                                                                                                                                                                                                                                                                                                                                                                                                                                                                                                                                                                                                                                                                                                                                                                                                                                                          ",
"                                                                                                            ; ; . . . . . . . . . . . . . . . . . . . . . . . . . . . . . . . @ @ . . . p.p.                                                                                                                                                                                                                                                                                                                                                                                                                                                                                                                                                                                                                                                                                                                                                                                                                                                                                                                                                                                                                                                                                                                                                                                                                                                                                                                                                                                                                                                                                                                                                                                                                                                                                                                                                                                                                                                                                                                                                                                                                                                                                                                                                                                                                                                                                                                                                                                                                        ",
"                                                                                                        GXGX+ ; . . . . . . . . . . . . . . . . . . . . . . . . . . . . . . . . @ . . . y.p.HX                                                                                                                                                                                                                                                                                                                                                                                                                                                                                                                                                                                                                                                                                                                                                                                                                                                                                                                                                                                                                                                                                                                                                                                                                                                                                                                                                                                                                                                                                                                                                                                                                                                                                                                                                                                                                                                                                                                                                                                                                                                                                                                                                                                                                                                                                                                                                                                                                      ",
"                                                                                          . . + + . @ @ @ @ @ . + ; > > w w t i h h h h h h h k k k h h h h h h h h h h d t w > . @ . . l z DXSXSXSX                                                                                                                                                                                                                                                                                                                                                                                                                                                                                                                                                                                                                                                                                                                                                                                                                                                                                                                                                                                                                                                                                                                                                                                                                                                                                                                                                                                                                                                                                                                                                                                                                                                                                                                                                                                                                                                                                                                                                                                                                                                                                                                                                                                                                                                                                                                                                                                                                ",
"                                                                                        . . + + + @ @ @ O + @ . = ; > > w w t t h h h d d h k l l k k h h h h h h h h h d t 9 , @ O . . k l SXSXSXSXDXDXFX                                                                                                                                                                                                                                                                                                                                                                                                                                                                                                                                                                                                                                                                                                                                                                                                                                                                                                                                                                                                                                                                                                                                                                                                                                                                                                                                                                                                                                                                                                                                                                                                                                                                                                                                                                                                                                                                                                                                                                                                                                                                                                                                                                                                                                                                                                                                                                                                          ",
"                                                                                        @ . + + + + + = + + = + : , w 9 w w I I +.+.' _ _ ) / _ ) ) ) / I I z z z I I _  . .w w . . . . . . . . . . . . . . .                                                           @ @ . . . . . . . . . . @ . . . . . . . . . . . . . . . . . . . . . . . . . . . . . . . . . . . . . . . . . . . . . . . . . . . . . . . . . . . . . . . . . . . . . . . . . . . . . . . . . . . . . . . . . . . . . . . . . . . . . . . . . . . . . . . . . . . . . . . . . . . . . . . . . . . . . . . . . . . . . . . . . . . . . . . . . . . . . . . . . . . . . . . . . . . . . . . . . . . . . . . . . . . . . . . . . . . . . . . . . . . . . . . . . . . . . . . . . . . . . . . . . . . . . . . . . . . . . . . . . . . . . . . . . . . . . . . . . . . . . . . . . . . . . . . . . . . . . . . . . . . . . . . . . . . . . . . . . . . . . . . . . . . . . . . . . . . . . . . . . . . . . . . . . . . . . . . . . . . . . . . . . . . . . . . . . . . . . . . . . . . . . . . . . . . . . . . . . . . . . . . . . . . . . . . . . . . . . . . . . . . . . . . . . . . . . . . . . . . . . . . . . . . . . . . . . . . . . . . . . . . . . . . . . . . . . . . . . . . . . . . . . . . . . . . . . . . . . . . . . . . . . . . . . . . . . . . . . . . . . . . . . . . . . . . . . . . . . . . . . . . . . . . . . . . . . . . . . . . . . . . . . . . . . . . . . . . . . . . . . . . . . . . . . . . . . . . . . . . . . . . . . . . . . . . . . . . . . . . . . . . . . . . . . . . . . . . . . . . . . . . . . . . . . . . . . . . . . . . . . . . . . . . . . . . . . . . . . . . . . . . . . . . . . . . . . . . . . . . . . . . . . . . . . . . . . . . . . . . . . . . . . . . . . . . . . . . . . . . . . . . . . . . @ . . . . . . . . . . . . . . . . . . . . . . . . . . . . . . . . . . . . . . . . . . . . . . . . . . . . . . . . . . . . . . . . . . . . . . . . . . . . . . . . . . . . . . . . . . . . . . . . . . . . . . . . . . . . . . . . . . . . . . . . . . . . . . . . . . . . . . . . . . . . . . . . . . . . . . . . . . . . . . . . . . . . . . . . . . . . . . . . . . . . . . . . . . . . . . . . . . . . . . . . . . . . . . . . . . . . . . . . . . . . . . . . . . . . . . . . . . . . . . @ . . . . . . . . . . . . . . . . . . . . . . . . . . . . . . . . . . . . . . . . . . . . . . . . . . . . . . . . . . . . . . . . . . . . . . . . . . O O X . . . . . . . . . . . . . . . . . . . . . . . . . . . @ @ . @ . . . @ . . . . . . . @ .                                                   ",
"                                                                                        . @ @ + + + + + + + ; + > : w 9 9 9 I I +.+.' _ _ _ ) _ _ _ _ ) I I J J J I I /  .' r w . . . . . . . . . . . . . . . .                                                       h . @ @ . . . . . . . . . @ . . . . . . . . . . . . . . . . . . . . . . . . . . . . . . . . . . . . . . . . . . . . . . . . . . . . . . . . . . . . . . . . . . . . . . . . . . . . . . . . . . . . . . . . . . . . . . . . . . . . . . . . . . . . . . . . . . . . . . . . . . . . . . . . . . . . . . . . . . . . . . . . . . . . . . . . . . . . . . . . . . . . . . . . . . . . . . . . . . . . . . . . . . . . . . . . . . . . . . . . . . . . . . . . . . . . . . . . . . . . . . . . . . . . . . . . . . . . . . . . . . . . . . . . . . . . . . . . . . . . . . . . . . . . . . . . . . . . . . . . . . . . . . . . . . . . . . . . . . . . . . . . . . . . . . . . . . . . . . . . . . . . . . . . . . . . . . . . . . . . . . . . . . . . . . . . . . . . . . . . . . . . . . . . . . . . . . . . . . . . . . . . . . . . . . . . . . . . . . . . . . . . . . . . . . . . . . . . . . . . . . . . . . . . . . . . . . . . . . . . . . . . . . . . . . . . . . . . . . . . . . . . . . . . . . . . . . . . . . . . . . . . . . . . . . . . . . . . . . . . . . . @ . . . . . . . . . . . . . . . . . . . . . . . . . . . . . . . . . . . . . . . . . . . . . . . . . . . . . . . . . . . . . . . . . . . . . . . . . . . . . . . . . . . . . . . . . . . . . . . . . . . . . . . . . . . . . . . . . . . . . . . . . . . . . . . . . . . . . . . . . . . . . . . . . . . . . . . . . . . . . . . . . . . . . . . . . . . . . . . . . . . . . . . . . . . . . . . . . . . . . . . . . . . . . . . . . . . . . . . . . . . . . . . . . . . . . . . . . . . . . . . . . . . . . . . . . . . . . . . . . . . . . . . . . . . . . . . . . . . . . . . . . . . . . . . . . . . . . . . . . . . . . . . . . . . . . . . . . . . . . . . . . . . . . . . . . . . . . . . . . . . . . . . . . . . . . . . . . . . . . . . . . . . . . . . . . . . . . . . . . . . . . . . . . . . . . . . . . . . . . . . . . . . . . . . . . . . . . . . . . . . . . . . . . . . . . . . . @ @ o . . @ @ . . . . . . . . . . . . . . . . . . . . . . . . . . . . . . . . . . . . . . . . . . . . . . . . . . . . . . . . . . . . . . . . . . . . . . . . . . . . . . . . . . . . . . . . . . . . X X X O X X O X X . X . . @ . . . . . o O O . . . . . O . . . . . . . . @ @ @ @ . . . . . . o . . . . . . .                                                 ",
"                                                                                    +.#.+ . > ; d d t t t w r r a r d t a a ) _  . .' _ _ _ ) _ / / / _ _ '  . .| | ' ' +.| d d : : : : , ; ; ; + + + + + + @ @                                                     l z + . @ . . . . . . . o O @ . . . . . . . . . . . . . . . . . . . . . . . . . . . . . . . . . . . . . . . . . . . . . . . . . . . . . . . . . . . . . . . . . . . . . . . . . . . . . . . . . . . . . . . . . . . . . . . . . . . . . . . . . . . . . . . . . . . . . . . . . . . . . . . . . . . . . . @ . . . . . . . . . . . . . . . . . . . . . . . . . . . . . . . . . . . . . . . . . . . . . . . . . . . . . . . . . . . . . . . . . . . . . . . . . . . . . . . . . . . . . . . . . . . . . . . . . . . . . . . . . . . . . . . . . . . . . . . . . . . . . . . . . . . . . . . . . . . . . . . . . . . . . . . . . . . . . . . . . . . . . . . . . . . . . . . . . . . . . . . . @ . . . . . . . . . . . . . . . @ @ @ @ @ @ . . . . . . . . . . . . . . . . . . . . . . . . . . . . . . . . . . . . . . . . . . . . . . . . . . . . . . . . . . . . . . . . . . . . . . . . . . . . . . . . . . . . . . . . . . . . . . . . . . . . . . . . . . . . . . . . . . . . . . . . . . . . . . . . @ . . . . . . . . . . . . . . @ @ @ . . . . . . . . . . . . . . . . . . . . . . . . . . . . . . . . . . . . . . . . . . . . . . . . . . . . . . . . . . . . . . . . . . . . . . . . . . . . . . . . . . . . . . . . . . . . . . . . . . . . . . . . . . . . . . . . . . . . . . . . . . . . . . . . . . . . . @ . . . . . . . . . . . . . . . . . . . . . . . . . . . . . . . . . . . . . . . . . . . . . . . . . . . . . . . . . . . . . . . . . . . . . . . . . . . . . . . . . . . . . . . . . . . . . . . . . . . . . . . . . . . . . . . . . . . . . . . . . . . . . . . . . . . . . . . . . . . . . . . . . . . . . . . . . . . . . . . . . . . . . . . . . . . . . . . . . @ . . . . . . . . . . . . . . . . . . . . . . . . . . . . . . . . . . . . . . . . . . . . . . @ @ . . . . @ @ . . . . . . . . . . . . . . . . . . . . . . . . . . . . . . . . . . . . . . . . . . . . . . . . . . . . . . . . . . . . . . . . . . . . . . . . . . . . . . . . . . . . . . . . . . . . . . . . . . . . . . . . . . . . . . . . . . . . . . . . . . . . . . . . . . . . . . . . . . . . . . . . . . . . . . . . . . . . . . . . . . . . . . . . . . . . . . . . . . X X X X X X X X X X X X O O X X O O O . . . . O X X O O O O O O O O @ @ o o . . . . . o o o o o @ @ . . . . O O @ @ DX                                              ",
"                                                                              &.5.9. .+.. . ; ; h h t r t w t r h d d d d d I )  . ._ _ _ _ ) _ ) ) ) _ _ '  .+. . .| ' | ' l l ; , : 8 > > ; ; ; ; + + . . . . GX                                                5.z z . @ . @ . . . . . . . o . . . . . . . . . . . . . . . . . . . . . . . . . . . . . . . . . . . . . . . . . . . . . . . . . . . . . . . . . . . . . . . . . . . . . . . . . . . . . . . . . . . . . . . . . . . . . . . . . . . . . . . . . . . . . . . . . . . . . . . . . . . . . . . . . . . . . . . @ @ @ . . . . . . . . . . . . . . . . . . . . . . . . @ . . . . . . . . . . . . . . . . . . . . . . . . . . . . . . . . . . . . . . . . . . . . . . . . . . . . . . . . . . . . . . . . . . . . . . . . . . @ . @ . . . . . . . . . . . . . . . . . . . . . . . . . . . . . . . . . . . . . . . . . . . . . . . . . . . . . . . . . . . . . . . . . . . . . . . . . . . . . . . . . . . . . . . . . . . . . . . . @ @ @ @ @ @ @ . @ @ @ . @ @ . . . . . @ @ @ @ @ . . . . @ @ @ @ . . . . . . . . . . . . . . . . . . . . . . . . . . . . . . . . . . . . . . . . . . . . . . . . . . . . . . . . . . . . . . . . . . . . . . . . . . . . . . . . @ @ @ @ @ @ @ @ . . . . . . . . . . . . . . . . . . . . . . . . . . . . . . . . . . . . . . . . . . . . . . . . . . . . . . . . . . . . . . . . . . . . . . . . . . . . . . . . . . . . . . . . . . . . . . . . . . . . . . . . . . . . . . . . . . . . . . . . . . . . . . . . . . . . . . . . . . . . . . . . . . . . . . . . . . . . . . . . . . . . . . . . . . . . . . . . . . . . . . . . . . @ . . . . . . . . . . . . . . . . . . . . . . . . . . . . . . . . . . . . . . . . . . . . . . . . . . . . . . . . . . . . . . . . . . . . . . . . . . . . . . . . . . . . . . . . . . . . . . . . . . . . . . . . . . . . . . . . . . . . . . . . . . . . . . . . . . . . . . . . . . . . . . . . . . . . . . . . . . . . . . . . . . . . . . . . . . . . . . . . . . . . @ . . . . . . . . . . . . . . . . . . . . . . . . . . . . . . . . . . . . . . . . . . . . . . . . . . . . . . . . . . . . . . . . . . . . . . . . . . . . . . . . . . . . . . . . . . . . . . . . . . . . . . . . . . . . . . . . . . . . . . . . . . . . . . . . . . . . . . . . . . . . . . . . . . . . . . . . . . . . . . . . . . . . . . . . . . . . . . . . . . . . . . . . . . . . . . . . . . . . . . . . . . . . . . . . O O O O X X X X X X X O O X X X O X X X X O O O X X X X o o O O O O . . o o . . + + O O o o o o . @ . O . . . . O . DX                                              ",
"                                                                          + . O . . . + < = t w z I I / +.&.7.8.>.>.>.%.,.,.8.e.8.8.5.<.7.7.<.<.$.&.#.#.#.$.>.<.>.>.$.#.>.>.&.&.<.<.7.5.+.| z l t d t w ; + + = h d ; :                                           @ + @ + + 9 9 a t t r e 9 9 9 w w w w w w w w > > 9 9 9 9 9 > w w w w w w w w w w w w w w w w t t t t t t t t t t t t t t t t t t t t t t t t t t t t t t r r w w r r t t y w w w w w w w w w w w 9 9 9 w 9 9 w w w w w w w w > > > v > v v w w w w w > > > > w v v v 5 5 v v w v v v v w w w 5 5 w w v v v v v v > > w > > > w w v v v v > > w w w w w w w w w w w w w w w w w y y y r r t t t t t t t r t t t t t t t t t t e e e e e w w w y r y y y y y y w w w w w w w w w w y w w w w y t w w w w w w w w w y w w w w w w w w w w w w w w w w w w w w w w w y w w w w w y y w w w w w w w w w w w w w w w w w w w w w w w w w y y y y t t t t t t t t c t t t y t t t t t t t t t t t t t t t t t t t t t t t t t t t t w w w w w w w w w w w w w w w w w w w w w w w w w w w w w w w w w e w w w w w w y y y y y y y y y y y y y y y y t y y y y y y y t t t y y y t t y y y t t t t t t t t t t t t t t h h h d d d d t t t t t t t t t t t t t t t t t t t t t t t t t t t t t t t t t t t t t t t t t t t t t t t t t t c c h h h h h h h h h t h h h h h h h h h h c h h k k h h h t c h h t t t h k h h h h c c h d d d d t t t t d h h h h h h k h h h h t t c h h h c h h h h h t c c h t t t t k k h h h c t t h h h h h h h h h h c c t c c c t t t t t t t t t t t t t t t t t t t t t t t t t t c c h t t t t t t t t t t t t t t t t t i t t t t t t r r t t t t t t t t t t t t t t t t t r r t t t t t r t t t t t t t t t t t t t t t t t t t t t t t t t t t t t t t t i i i t t t t t t t t t i i d d t t t t t t t t t t t t t t t t t t h c c t t t t t t t t t t t t t t t t t t t t d d d t t t r t t t t t t t t t h h c t t t h h h c c h t t t h h h h h t t t t t t t t t t t t t d d d i t t c h h h t t h h h h k h h h h h d h h h t t t t t t t t t t i d d d h t t t t t d d d h d t t t h h h h d d d h d h h d t t t d h h d d t t t d t d d t t t t d d d d d d d d d h h h h h h h h k h h d d h h h h h h h d t t d t d h h d t t d h h h h h h h h h h h h h d d d h h h h h d h h d h h h h d h h h h d d a a a a i i t t t t i i u r r r r e e e y y e e y e e w e e e 0 w 9 w 9 9 0 0 0 0 9 6 5 w w 9 9 w w w w y y y y w e r r 0 0 e e u p p p e e u u u p p u u u e e u u e e e e e u u e e e e e r t t i d d r e e e e e r r t t r t w 9 : ; O @ + =                                             ",
"                                                                        O ; . . . @ O . + + w t / / I / &.&.5.7.<.<.>.>.<.>.8.8.7.<.<.<.7.5.<.<.+. . . .#.%.<.<.>.,.$.#.>.>.<.<.%.>.7.7.#.+.z l d d t t + + + + t t > ; SX                                        + + ; . + > r d d d r e 9 9 9 9 w w w w w w w > > 9 w w w w w w w w w w w w w w w w w w w y r t t t t t t t t t t t t t t t t c c t t t t t c t t t t t t r r w w r r t r y w w w w w w w w w w w 9 9 9 9 9 9 r y w w w w w w > > > > > > w w w w w v > > > > v v 5 5 > 5 v w v v 5 5 v v w v > 5 5 w w w v > v > v > w w w w w w w w w w w w w w w w w w w w w w w w w y y y t t t y r r t t t t t t t t t t t r y r r r r e r r r r r r r r t t y y y y y y w w w w w w w w w w y y w w w w w w w w w w w w w w w w w w w w w w w w w w w w w w w w w w w w w w w w w w w w w w w w w w w w w w w w w w w v w w w w w w w w v w w w w y y y t t t y y t t t t t t t t t t t t t t t t t t t t t t t t t t t t t t t t t t y w w w w y w w w w w w w w w w w t y t w y y w y w w w w w w w w r e w w w w w w w w y y y y y y w y y y y y y y y y y y y y t t t t t t t t t t t t y y y y y y t t t t t t t t t t h h i t t t t t t t t t t t t t t t t r t t t t t t t t t t t t t t t r r r t t r t t t t t t t t t t t t t t t t t t t t t t t h t t t t t t t t i t t t t t t h h h h c c t t t t t t t t t h h h t t t t t t t t t t t d h h k h h h h h h h h c h h h h c h c c t t t t t t t t t t t t c c c c t t t t h h c c h h h c t t t t t t t t t t t t t t t t t t t t t t t t t t t t t t t t t t t t t t t t t t t t t t t t t t t t t t t t t t t t t t t t t t t t t r r y t t r r r r t t r w t t t t r r t t t t r t r r t t t t t t t t t t t t t r r r t t t t t t t t t t t t t t r t t t t t t t t t t t t t t t t t t t t t t t t t t t t t t t t t t t t t t t t t t t t t t t t t t t d d t t t t t t t t t t t t t t h t t t t h h h c c h h h t h h h h t t t t t t t t t t t t d d h h h h d d t c h h t t h h h k k k k h h h d d h h t t d h t t t t t t t t t t t t t t d h h h h h h h d h h h h h d t d h t t t d d h d a h h h h d d d d d d h d d t t d d d d d d d d d i d h h h h h h h h t t h h k l h h h h d d d d t t d d d t t d h h h h h h h h h h h h d d h h h h h h h h h h h h h h h h h h h h d h a a a d d d i r t r u u i i i r r e e e 0 e e e y e e e e e e 0 e 0 e 0 0 0 0 0 0 0 0 0 0 9 9 9 9 9 9 9 9 w w y e e r e e e u u p p p p p p p p p p p p u e u u u u u e u u e e e e e e w w y r t t t i r r r r r r r r t t w r e r = & @ + + + <.                                          ",
"                                                                        : = @ + : > > 9 h h t r k l z I <.5.r.y.8.r.8.e.e.e.t.t.8.8.8.8.r.r.8.8.%.$.#.#.$.%.>.<.>.$.$.#.>.$.>.>.9.8.w.w.%.&.l k k l k l > > : : . O . O p.i.                                      + + . + + I /  . .' ) I I ) _ |  . . . . . . .>.<.<.5.5.5.5.0.5.5.5.5.5.0.0.0.5.5.5.5.5.0.0.0.0.0.0.0.0.0.0.0.0.0.0.5.0.5.0.0.0.0.5.5.5.0.0.0.0.0.0.7.7.7.7.7.%.%.%.%.%.%.%.%.%.%.%.%.%.%.<.%.5.6.6.5.5.5.5.6.#.@.+.{ { { { { %.%.%.%.%.%.s.5.5.5.5.5.s.%.%.%.&.&.&.&.&.&.%.5.-.s.5.5.5.5.s.%.5.5.5.5.0.0.5.s.5.s.5.5.0.8.8.8.8.8.8.8.0.0.8.8.0.0.0.0.5.5.5.5.0.5.5.0.0.9.9.9.a.w.9.9.6.6.6.6.6.6.6.6.6.6.6.8.w.q.8.8.w.w.w.q.7.7.7.8.8.8.9.9.9.9.9.0.0.6.0.0.0.0.0.0.5.5.0.5.0.0.0.0.0.0.0.5.0.0.0.5.5.5.5.5.5.5.5.5.5.0.8.8.y.y.y.y.y.y.y.y.9.a.a.a.y.y.y.y.a.a.a.y.y.y.y.y.y.y.y.y.y.y.y.y.y.y.y.y.y.y.y.y.y.y.y.y.y.y.y.y.y.y.y.y.y.a.a.a.9.9.a.a.a.9.9.9.8.8.8.8.8.8.9.9.a.9.9.9.9.9.9.9.9.y.y.y.a.a.y.y.y.y.y.y.y.y.y.a.8.8.8.9.9.9.9.9.9.9.9.9.9.9.9.9.9.9.9.8.9.9.9.9.8.8.8.8.8.8.8.7.%.%.%.%.5.9.y.p.y.y.p.p.p.p.p.p.y.y.y.y.y.p.p.p.p.p.p.p.p.i.i.i.i.i.p.p.p.p.p.p.p.p.p.p.p.p.p.p.i.p.p.p.p.i.p.i.y.y.r.w.w.9.9.9.9.w.w.9.9.9.w.w.9.9.9.9.9.9.9.w.7.7.7.7.7.7.7.7.9.9.9.9.9.9.9.8.r.9.9.9.9.9.9.9.r.r.r.r.r.r.y.y.9.9.9.9.9.9.9.9.y.y.y.y.y.y.y.y.y.y.a.a.a.y.y.y.y.y.y.9.9.9.9.a.8.8.8.8.9.9.9.9.9.9.9.y.a.9.a.y.8.8.8.9.r.y.u.p.y.p.p.p.u.y.y.y.9.9.9.a.p.p.p.p.a.y.p.y.9.8.9.9.9.9.9.9.8.9.9.9.9.9.9.9.9.y.y.y.y.y.y.y.y.y.y.y.9.9.9.y.y.y.y.y.y.y.r.r.r.y.y.y.y.y.y.y.y.y.y.y.y.y.y.y.y.y.y.y.y.y.y.y.y.y.y.y.9.9.9.9.8.8.8.9.9.9.9.9.9.9.9.9.7.7.7.7.8.9.8.7.7.9.9.9.9.9.9.8.9.9.9.9.9.9.9.9.9.9.9.9.r.r.w.r.9.9.9.9.9.9.9.9.9.9.9.9.9.9.w.w.9.9.9.9.9.9.9.9.9.9.9.9.9.9.w.w.9.9.9.9.9.9.9.9.9.9.9.9.9.9.9.9.9.9.9.9.9.9.9.9.9.9.9.9.9.9.9.9.9.9.9.9.9.9.9.9.a.9.9.9.9.a.y.y.y.y.y.y.y.y.y.y.r.r.y.y.y.y.p.p.y.9.9.9.9.9.y.y.y.a.a.y.y.p.p.p.p.p.p.p.p.p.p.y.9.9.8.0.8.0.0.0.<.<.5.5.5.5.<.<.5.5.0.7.7.7.0.0.5.0.0.9.p.i.SXSXp.p.i.i.i.p.p.p.r.y.y.y.y.p.u.u.y.y.y.y.y.y.y.r.9.r.r.y.p.i.MXSXi.i.MXSXSXSXSXSXi.i.i.i.p.p.i.i.p.p.u.p.i.MXi.p.p.p.p.p.p.p.u.u.u.u.p.p.p.y.y.y.8.8.8.9.9.8.9.8.9.r.y.y.y.y.y.p.9.9.8.8.y.p.i.MXi.i.MXi.i.p.i.i.u.u.u.u.u.i.i.i.u.u.i.i.i.i.i.i.MXMX8Xi.i.i.MXSXi.i.p.i.i.i.i.i.u.p.y.y.p.u.p.i.i.i.i.i.i.i.i.i.u.t.t.r.r.r.r.r.6.2.1.1.<.1.;.;.;.-.<.1.6.2.6.1.6.6.6.q.q.q.6.1.2.2.2.2.2.2.2.2.1.1.<.-.%.<.>.<.| +.%.>.<.<.%.$.q.q.q.q.q.q.2.2.2.2.2.2.q.2.2.2.2.q.q.q.q.q.q.q.#... .[ [ [ { { %.%.%.%.%.%.%.%.$.-.$.@...[ ( I F I I '  . .9 9 . . . . &.                                          ",
"                                                                        ; : + + > 9 9 8 h d t a l l z I 5.6.r.r.8.r.8.e.w.w.t.t.7.7.7.7.r.r.8.7.#.#.#.#.$.>.<.<.,.#.#.#.>.$.<.>.w.8.9.9.%.%.z l h k k z > > : ; @ . O @ p.i.                                      + + + . . / I &.+.' I I I _ '  . . . . . .+.+.%.>.<.5.5.5.5.5.5.5.5.5.0.0.0.0.5.5.5.5.5.0.0.0.0.0.0.0.0.0.5.5.8.0.0.0.0.0.0.0.0.0.0.0.0.0.8.9.0.0.0.7.7.8.7.7.<.<.%.%.&.%.%.%.%.%.%.%.<.<.<.<.5.6.6.5.-.<.1.6.@.@.@. .{ { {  .%.%.%.%.%.%.%.s.%.%.s.s.%.%.%.%.&.&.&.@.&.%.<.6.;.%.5.5.0.5.%.&.5.%.s.5.0.0.0.s.%.%.%.5.0.8.9.9.9.8.8.7.0.8.9.9.0.0.0.0.0.5.5.5.0.5.5.0.9.a.y.y.p.y.w.9.6.6.6.6.6.6.1.1.6.6.8.9.w.8.6.6.q.w.w.w.6.7.8.8.8.9.w.9.q.9.q.9.9.6.6.0.0.0.5.5.5.5.0.0.0.0.0.0.0.0.0.5.5.5.5.5.5.5.5.5.5.5.5.5.5.5.8.9.9.9.9.y.y.y.y.y.9.9.8.9.9.y.y.y.a.a.a.y.y.y.p.p.y.y.y.y.y.y.y.p.p.y.y.y.y.y.y.y.y.y.y.y.y.y.y.y.y.y.a.a.a.a.a.y.8.9.9.a.a.9.9.9.8.8.8.8.8.9.9.9.a.a.9.9.9.9.9.9.9.a.y.a.9.9.a.y.y.y.y.y.y.y.y.y.8.8.9.9.9.9.y.y.9.9.9.9.9.9.9.9.9.9.9.9.9.9.a.y.9.9.9.8.8.8.8.7.<.<.%.%.<.7.y.p.y.y.y.y.p.p.p.p.y.y.y.y.y.y.p.p.p.p.p.p.p.i.i.ZXi.i.i.p.i.p.i.i.p.p.p.p.p.p.y.p.i.i.p.p.p.i.p.i.p.y.9.9.9.9.9.9.9.9.9.9.9.9.9.9.9.9.7.7.7.7.9.9.7.7.7.7.7.7.7.7.7.7.8.7.8.8.8.8.r.9.9.9.9.9.9.9.9.9.9.9.9.9.r.r.8.9.9.9.9.9.9.9.y.a.a.9.y.y.9.9.9.9.9.9.a.9.a.r.y.r.9.8.8.8.9.9.8.0.0.0.9.9.9.9.8.8.9.9.y.a.y.y.9.8.8.8.9.y.p.i.p.p.i.i.i.p.y.y.9.8.8.9.p.i.p.p.a.p.p.p.9.0.8.9.9.9.8.7.8.8.9.r.9.8.9.8.9.r.y.p.y.y.y.y.y.y.y.a.9.9.9.9.y.y.y.r.r.y.y.y.y.y.y.p.y.y.y.y.y.y.y.y.y.y.y.y.y.y.y.p.y.y.y.y.y.y.y.y.9.9.8.7.7.7.8.9.7.7.7.7.7.7.7.7.7.7.7.7.9.w.9.9.7.7.7.9.9.9.8.8.9.9.9.9.9.9.9.y.9.9.9.9.9.r.r.r.8.8.8.8.8.8.8.9.9.9.8.8.9.9.9.w.8.9.9.8.9.9.9.9.9.9.7.7.9.9.r.r.9.9.8.8.8.8.8.7.9.9.9.9.9.9.9.9.8.8.8.8.9.9.9.9.9.9.9.9.9.9.9.9.8.9.9.9.9.9.9.9.y.9.9.8.9.9.y.y.y.y.y.y.p.p.p.u.r.y.y.y.y.y.p.p.r.9.9.8.9.r.p.p.y.9.8.9.p.u.p.p.p.p.p.p.p.p.p.p.9.8.8.0.0.0.0.0.%.<.<.<.5.5.5.5.5.5.0.0.7.7.8.8.0.0.0.9.p.i.i.i.p.i.i.i.i.i.i.p.y.r.9.r.y.u.u.p.r.y.y.y.y.y.y.r.9.9.9.y.p.MXSXSXi.i.ZXMXSXSXSXSXp.i.i.i.p.p.i.i.y.y.p.u.MXMXqXu.p.p.p.p.p.p.u.u.u.p.p.y.p.u.y.y.8.8.8.9.w.w.9.8.9.r.y.y.y.y.y.p.9.8.8.8.y.p.MXSXi.i.i.i.i.i.i.i.y.y.y.t.u.i.i.i.y.u.u.i.i.i.i.i.SXMX8Xi.i.i.MXSXp.u.p.u.i.8Xi.i.i.p.r.r.p.i.i.i.i.i.i.i.i.i.qXqXi.u.t.t.r.r.q.q.6.2.2.1.1.1.;.;.;.;.;.1.2.2.2.2.6.2.q.q.q.q.q.2.2.2.2.2.2.2.2.q.2.1.1.-.$.$.%.<._  .$.<.5.<.%.@.q.q.q.q.q.q.2.2.q.q.q.q.q.2.2.1.2.q.t.q.q.q.q.r.;.#. ._ _ _ {  .$.%.%.%.&.&.&.%.@.#.-.-.@. .( I I I U _  .#.5 > . . . . +.                                          ",
"                                                                  + ; ; ; = 9 9  . .#.%.#.#.I I  .#.7.1.y.r.u.u.r.r.r.r.8.8.r.r.<.<.<.<.r.e.r.r.<.<.<.<.8.7.e.7.$.,.$.$.<.>.>.>.8.7.w.8.7.<.$.#._ _ &.%. .| J l ; : : > > : @ @                                 ; = @ . o O I I +. .I I f S U U U [ Y G _ { {  .+. .<.-.7.7.<.<.<.-.%.%.>.5.5.5.<.>.%.%.%.%.5.5.5.5.0.5.0.0.0.0.5.7.9.9.9.9.7.0.5.s.4.s.s.s.5.5.0.0.5.5.<.<.%.%.#.#.+.+.#.&.$.%.$.&.#.&.%.<.5.5.9.8.q.8. ...@.;.( ( S l F F ( _ &.%.<.5.-.%.&.&.%.-.5.<.%.&.+.+._ _ ( ( { { @.@.;.#.-.-. .$.' ' &.%.%.$.%.@.{ ' +.+.%.%.0.0.8.0.7.5.5.<.5.5.0.7.<.>.%.$.%.%.%.&.+.+.&.%.8.9.y.y.p.i.r.r.@.@...@.;.-.;.;.-.-.-.1.q.6.6.1.1.1.6.1.1.<.1.1.8.8.6.6.6.6.6.8.w.w.q.6.%.%.%.&.&.&.%.5.s.s.%.%.%.%.&.&.%.%.%.%.s.s.%.%.+.#.&.&.&.&.5.0.5.0.0.0.0.5.5.5.5.5.0.0.0.0.6.8.5.0.0.0.0.9.9.a.9.9.a.a.a.a.a.a.9.9.9.9.9.9.9.9.9.9.9.9.9.9.8.8.8.a.0.a.a.a.p.i.9.a.s.0.0.5.a.0.5.5.5.0.8.9.9.a.y.y.y.9.8.8.8.9.9.a.y.y.y.y.y.y.y.y.p.p.p.y.9.8.8.8.9.8.8.8.8.9.8.8.8.8.8.8.8.9.8.8.7.7.7.7.7.7.8.7.7.7.7.7.7.7.&. ._ _ %.%.u.y.y.y.y.a.y.y.y.a.a.y.y.y.y.y.y.p.y.y.y.p.i.ZXZXZXi.i.ZXi.i.p.ZXAXZXp.a.a.y.p.p.y.p.p.p.p.p.i.AXSXp.a.8.0.7.7.7.7.9.9.9.9.9.9.r.r.9.9.9.9.9.9.8.8.8.8.8.8.7.7.7.7.7.7.7.7.7.8.9.9.9.9.9.9.w.w.r.r.r.w.9.w.r.r.r.r.r.r.r.r.r.y.y.y.y.y.y.p.u.i.p.u.u.u.u.u.p.u.p.y.p.u.u.u.9.7.%.%.#.#.5.5.p.y.p.y.p.p.p.p.p.p.p.p.w.w.7.9.SXMXFXFXDXFXFXFXFXFXDXDXw.w.y.y.FXDXDXSXDXDXFXFXqXqX7.9.9.9.9.9.9.w.9.9.7.5.7.<.w.y.qXqXp.p.y.y.p.p.p.i.9.8.0.8.9.r.r.9.r.r.r.y.y.y.y.r.y.y.r.r.r.r.y.y.y.y.y.y.y.y.r.r.y.y.y.y.y.y.y.y.8.7.5.5.7.9.w.r.r.r.r.9.7.5.5.7.7.7.8.8.8.9.9.w.8.8.8.9.9.9.9.9.9.9.r.r.r.r.r.r.9.9.r.r.r.r.r.r.9.9.9.9.9.9.9.9.9.9.9.9.9.9.9.8.9.8.8.8.8.8.8.7.9.9.8.8.8.8.7.7.7.7.7.7.7.8.8.8.8.8.8.8.8.8.9.9.7.7.7.7.8.9.9.9.w.9.9.9.9.8.7.7.8.8.8.9.9.r.r.w.9.7.7.7.8.9.9.9.r.r.y.y.y.y.y.y.y.y.y.y.y.y.p.p.w.9.7.7.9.y.u.i.r.9.9.w.y.u.p.u.u.u.u.u.u.p.p.u.p.r.8.5.5.5.5.<.<.<.>.<.<.5.<.<.7.7.7.7.7.7.7.5.5.>.9.9.SXMXSXSXSXSXSXSXSXqXi.p.y.y.u.u.u.u.u.u.u.u.p.i.p.u.y.9.7.7.r.r.8XSXSXSXSXSXSXSXSXSXSXSXSXSXSXi.p.p.i.i.u.u.i.MXSXSXSXMXi.i.i.i.i.i.u.u.8X8Xi.u.y.t.t.t.q.8.6.6.6.1.<.<.7.9.y.p.u.u.i.i.0.0.s.5.i.p.SXSXSXSXSXSXMXqXi.i.u.u.i.i.i.i.qXi.u.i.i.i.u.u.u.i.SXMXMXMX8Xi.u.t.t.t.p.p.u.i.i.i.y.9.5.7.r.u.u.y.i.i.i.i.MXMXSXSXw.r.<.1.t.t.t.8X2.1.;.=.X.X.=.=.=.=.2.2.q.q.2.2.1.2.2.2.2.2.2.2.2.2.3.3.2.2.2.2.2.2.2.2.[ [  . . .O.+.+.#.#.#...t.t.8X8Xt.2.1.;.1.2.1.;.;.;.;.;.q.q.q.q.2.2.2.2. .[ _ ( I ( {  .%.%.$.$.' ' _ _ / ) #. .( I l F F F F F { { e 5 . . . . +.                                          ",
"                                                                = + ; ; ; = > > |  .#.$. . .U U #.#.<.<.y.t.qXi.t.r.r.r.w.r.t.r.7.7.1.<.e.8.e.r.<.<.,.<.8.8.e.e.>.>.$.$.<.>.%.$.8.7.8.7.7.<.%.%.| | $.$.| | z l , : ; ; ; ; @ @                                 ; = o @ O O F I  .{ U Y Z S P P T [ U P [ [ [  .$.&.6.<.6.<.<.<.<.<.<.<.<.<.5.s.%.%.%.%.%.%.<.5.0.0.0.5.0.7.7.7.0.7.7.9.8.7.0.0.5.5.s.s.s.5.5.0.5.5.5.5.5.<.%.%.+.+.#.#.&.$.&.&.#.&.&.%.-.<.6.7.r.9.q.q.@.@.=...U U G G F S ( _ %.%.5.5.<.%.&.&.%.%.<.5.<.%.&.+.( ( ( ( { ..;.;.@...-.<...#.[ ' @.%.-.%.-.&. . .+.+.$.%.0.0.8.5.7.7.5.5.5.5.5.7.<.>.$.$.%.%.$.&.#.+.%.%.8.9.y.y.i.i.r.r.;.-.@.@.;.;.;.;.-.-.1.1.q.6.6.6.6.6.6.6.1.1.1.6.6.8.6.6.q.8.8.q.q.q.8.6.%.&.&.&.&.%.%.5.5.5.5.s.%.&.&.&.%.%.%.%.5.5.%.%.&.&.&.&.&.&.%.5.0.0.0.0.0.0.0.0.5.5.5.0.0.0.7.8.0.0.0.0.0.9.a.a.9.9.a.a.a.a.a.a.9.9.9.9.9.9.9.9.9.9.9.9.9.8.8.8.a.a.9.9.a.a.p.p.9.a.s.0.0.5.9.5.8.8.8.7.8.9.9.9.y.y.9.9.8.8.8.9.y.y.y.y.y.a.y.y.y.y.y.y.y.y.9.8.0.8.8.8.8.8.8.8.0.8.0.8.0.8.8.8.8.8.8.8.8.8.8.8.9.9.8.7.6.7.6.6.+. ._ _ %.>.p.y.a.w.w.a.a.y.y.y.y.y.y.y.y.y.y.y.i.p.p.p.i.ZXAXAXi.i.ZXi.ZXi.ZXZXi.i.y.y.y.y.p.y.p.p.p.p.p.i.ZXZXy.9.8.6.7.9.9.9.9.9.9.9.9.9.9.9.9.9.9.9.9.9.8.8.8.6.8.8.7.7.7.7.8.8.8.7.7.8.8.8.9.9.9.9.w.w.w.w.r.r.w.r.r.r.r.r.y.y.y.y.y.y.y.y.y.y.y.p.u.i.p.u.u.u.u.u.u.y.y.y.u.u.u.u.w.8.<.<.#.+.5.5.y.9.y.9.p.p.p.p.p.p.p.p.7.8.7.9.SXSXFXFXDXFXFXFXFXFXFXDXw.9.y.y.DXDXDXDXFXFXFXFXqXqX7.9.r.9.9.9.w.r.w.9.7.5.7.5.w.r.i.i.p.p.y.y.p.p.p.p.9.9.8.8.9.r.r.w.y.y.y.y.r.r.r.r.y.r.r.r.r.y.y.y.y.y.y.y.y.y.r.r.y.y.y.y.y.y.y.y.7.7.5.5.7.9.9.9.r.r.r.9.7.7.7.7.7.8.8.9.9.9.w.r.9.9.9.9.9.9.9.9.9.r.y.y.r.9.9.r.9.w.r.r.r.r.y.y.9.9.9.9.9.9.9.9.9.9.9.9.9.9.9.9.9.8.8.8.9.9.9.8.9.9.8.8.8.8.8.7.8.8.7.7.8.8.8.8.8.9.9.9.9.9.8.8.8.7.7.8.9.9.9.9.9.9.9.9.9.9.9.9.9.9.9.9.9.w.w.9.9.9.9.9.8.9.9.w.t.t.y.y.y.y.y.y.r.r.y.y.y.y.p.p.w.w.9.9.w.y.u.i.r.w.9.w.y.u.u.u.p.p.p.p.p.p.t.u.r.9.7.5.5.5.<.<.5.<.<.<.<.<.<.<.5.7.7.7.7.7.7.5.%.%.9.9.SXSXSXSXSXSXSXSXSXSXqXi.y.y.u.u.u.u.u.u.u.u.p.i.i.p.p.y.8.7.w.r.i.i.SXSXSXSXSXSXSXSXSXSXAXAXSXAXi.i.i.i.u.u.i.8XMXMXMXMXi.i.i.i.i.i.u.u.i.i.i.i.u.u.t.t.6.6.6.1.1.<.<.<.8.9.p.p.p.p.i.i.5.5.s.5.i.i.DXSXSXSXSXSXMXMXqXi.t.p.u.i.i.i.i.u.u.i.i.u.u.u.u.i.MXMX8X8X8Xi.i.u.t.t.p.p.u.u.i.i.t.r.8.9.r.y.u.u.i.i.i.i.MXMXSXSXr.r.1.1.t.t.t.t.1.;.=.=.=.=.=.=.=.=.2.2.2.q.2.2.2.2.2.2.2.2.2.2.2.2.3.3.2.2.2.2.2.2.2.1.[ [  . . .+.#.#.#.+.....t.t.8X8Xt.2.;.;.2.2.2.;.;.;.;.1.2.q.q.q.q.2.2.1...{ _ ( I / ' { %.>.%.%.' _ / / ' ' #.+._ / F F I I I U { { e 9 . . . . +.                                          ",
"                                                                . . + = ; : w w  . .%.%. . . .#.t.r.t.r.u.t.u.u.u.t.u.u.t.t.t.t.r.r.t.t.MXMXNXSXMXMXu.u.t.u.u.u.r.w.8.8.w.w.7.7.r.r.t.r.r.r.8.w.>.>.8.8.>.>.| | a t > : ; = . .                                 ; ; o @ O o z z @.@.[ [ S g g g C f u q p g d d l S _ U U I I _ { ' { {  . .| |  . .+.+.+.+.@.+.+.+. . .+.+.+.+.@.+.&.&.%.%.%.%._ ] ] _ _ { +.+.&.&.$.&.#. .' _ U ( ( { {  .{ { { { { { _ ( ( ( { ( ( ( G G G Z S G G U l j U I  . .' ' _ _ _ ' { {  . .{ ' ) / l S S f G G F [ ( ( } [ Y U G Y U _ _ _ [ _ U ( I I _ ' +.+.@. . . .| ' ' ' ' |  .| ' _ ' ' _ _ ' _ _ _ ' ' +.@.$.$.@.@.[ } } { } } } } ............} } ..............................@.;.;.=.@._ _ ) _ _ ' ' ' o.+.+.+.o.' ] ) ' ' ' ' o.+.' ' _ _ _ _ ] ] _ ' _ _ _ _ _ _ _ ' _ _ ' ' {  . .+.o.' ' ' ' o.+.+.+.+.+.+.&.%.%.%.+.+.+.+.+.+.+.+.&.&.+.+.+.+.+.+.*.] ' ' %.s.p.p.p.y.s.4.s.4.0.5.&.&.+.&.&.%.%.%.@.+.+.+.+.@.&.%.%.%.%.%.&.&.&.&.&.&.&.&.&.&.+.+.o.+.+.+.+.+.+.+.+.+.o.+.+.+.+.+.+. . . . . .+.{ +. .' ' ' _ ' _ _ _ I I ' _ %.&.%.%.%.%.s.5.5.s.&.&.%.s.s.s.5.5.s.s.%.%.>.5.5.5.5.5.5.5.5.5.5.5.5.5.5.s.4.4.4.s.5.5.5.5.s.5.5.5.-.%.%.$.%.%.%.%.<.<.<.<.<.<.<.<.<.<.<.<.<.<.<.<.%.%.-.-.%.-.-.-.-.-.%.%.%.%.%.%.$.$.$.$.$.&.$.$.$.&.&.&.$.%.$.&.+.+.+.@.+.+.+.+.+.+.+.+.+.+.+.+.+.+.+.+.+.+. . .+.&.#.#.| | ' ' _ _ +.+.5.%.5.%.+.+.+.+.+.+.+.+.&.&. . .>.&.5.<.7.5.<.<.<.<.<.<.+.+.+.+.0.<.<.%.&.&.<.5.+.%.' +.&.+.+.+.+.#.+.+.+. . . .#.$.<.<.%.%.&.&.%.<.<.5.%.%.&.&.&.$.$.$.%.%.%.%.%.&.&.&.&.&.&.%.%.%.%.%.&.&.&.&.&.&.&.&.%.&.%.%.%.%.%.%.&.#.+.+.#.&.&.&.$.$.&.&.&.&.&.&.+.+.#.#.&.&.&.$.&.&.#.#.#.#.#.#.&.&.&.&.&.&.&.&.&.&.&.&.&.&.%.%.+.+.+.+.+.+.&.&.&.&.&.&.&.+.@.@.&.#.+.+.+.#.#.+.&.#.+.+.+.+.+.+.+.+.+.+.+.+.+.+.+.+.#.&.#.+. . .+.+.+.+.#.#.+.+.#.#.#.#.#.&.&.&.&.#.#.#.#.#.#.#.&.$.%.$.&.#.&.$.<.<.<.<.<.<.>.>.%.%.%.>.%.<.<.<.%.$.#.$.%.>.<.<.<.%.%.%.<.5.5.5.<.<.<.%.%.%.%.>.%.&.&.#.#.#.#.#.+. . . . . .' '  . .+.#.#.+.+. .+.+.%.&.0.5.0.<.5.5.<.<.<.<.%.%.#.+.&.&.&.$.$.$.&.&.&.&.%.%.&.+.+.+.&.&.5.5.0.0.5.5.s.5.5.0.0.0.s.0.0.5.s.%.&.&.7.9.7.7.6.<.1.1.6.5.5.5.<.<.<.<.<.-.%.%.-.-.%.$.<.<.<.-.@.#.+.+.%.-.<.5.<.<.5.5.>.>.&.#.5.>.9.7.9.8.7.7.8.8.7.7.>.>.<.5.5.5.5.5.5.5.5.5.<.<.<.<.7.7.7.7.7.7.7.6.5.5.5.5.5.5.6.6.-.-.%.%.&.$.%.-.7.6.5.5.7.8.w.r.1.1.@...-.;.1.2.;.;.=.=.=.=.=.=.X.X.=.=.=.;.=.=.;.;.1.;.=.X.} T T T T T T T T T T P U T S I U Y / ) _ ) I I I I X.X.X.X.=.=.;.;.=.=.X.} T U T [ ..X.......[ U Y _ _ _ _ / I / I ) _ _ _ l l h h d a k k h j j j U ( ( ( { { 0 w . . . . +.                                          ",
"                                                                @ . = + : : 9 9 |  .$.#.|  .#.,.u.t.u.t.u.t.u.u.i.u.i.u.y.y.t.t.r.t.u.u.i.MXMXNXMXMXt.t.t.u.u.u.r.w.w.e.8.8.<.<.w.8.r.r.r.r.r.r.>.>.7.8.$.,.' ' t t : : + + @ @                                 = ; @ @ o O z z #.@.[ [ Z g p p A C g p g g i p F U _ ( U I Y U  .{ {  . . . . .' '  .+.+.+.+.+.+.+. . .+.+.@.+.@.+.+.&.%.%.%.%._ ) / _ '  .+.+.&.&.&.#. . .' ' ( ( _ {  ... . .{  . .{ { _ _ ( @.{ _ ( G G G Z G G ( ( S l I I +.+.' _ ) _ ' ' { { { ' ' ' _ _ l S S j G G ( [ G G [ [ U [ P Y U U U U [ [ _ _ U I _ '  . .+. . . . . . . . . . .| ' _ _ _ _ _ | ' ' '  . .#...<.-.@.@.} } } } } } } } ......} ......................................@.@.=.=.@._ ) ) _ _ ' ' ' o.+.+.+.' _ _ ) ' ' ' ' { o.' _ ' ' ' _ ] ) ] ] ' ' _ _ _ ' ' ' _ _ _ ' {  . .+.o.o.o.o.o.o.+.+.+.+.+.+.&.&.&.&.+.+.+.+.+.+.+.+.+.+.+.+.+.+.+.+.o.*.*.] %.4.p.p.p.a.s.4.4.4.0.5.&.&.&.&.%.%.%.%.+.+.+.+.+.&.%.%.%.%.%.&.&.+.+.+.&.&.&.+.+.+.+.+.o.o.o.+.+.+.+.+.+.+.o.o.o.+.+.+.+.+.+.+.+.+.+.+.+. .{ { ' ' ' ' I I I I ' ' &.&.%.&.&.%.s.5.5.s.4.4.s.s.s.5.0.0.0.5.s.s.5.5.0.0.5.5.5.5.0.0.0.5.5.5.5.s.4.%.4.%.5.5.5.%.s.%.%.%.%.%.%.%.<.<.<.<.<.<.<.<.<.<.<.<.<.<.<.<.<.<.<.<.-.-.<.<.<.<.<.<.<.-.-.%.%.%.%.%.%.%.%.%.%.%.%.$.%.$.&.&.$.$.$.&.+.&.&.&.&.+.+.+.+.+.+.+.+.+.+. . . . . . . . . .+.+.+.+. .+.+.+.' ' +.+.&.+.&.+.+.+.+.+.&.+.+.+. . . . .>.%.5.5.7.5.<.%.%.>.>.%.+.+.+.+.%.%.%.%.0.5.5.5.+.&. .+.#.@.+.+.#.&.#.+.&.+.+.+.&.$.%.%.&.%.&.&.%.%.%.%.%.-.%.%.%.%.%.%.%.%.%.%.%.%.%.%.&.&.&.%.%.%.%.%.&.&.&.&.&.&.&.&.&.&.%.%.%.%.%.%.#.#.+.+.+.#.#.#.%.%.&.&.$.%.%.%.&.&.&.&.&.&.$.$.&.&.&.#.#.&.&.&.%.%.&.&.&.&.&.&.&.&.&.&.&.%.%.%.&.&.&.&.&.&.&.&.&.&.&.&.&.&.&.&.&.&.+.+.#.#.#.#.&.&.#.+.&.&.&.&.&.&.+.+.&.#.+.+.+.#.&.&.&.#.+.+.#.#.#.#.&.&.&.#.#.#.#.#.#.&.&.$.&.&.&.#.#.#.&.&.$.%.>.%.&.&.&.%.<.<.<.<.<.<.<.<.%.%.%.>.<.<.<.<.%.%.%.%.%.>.>.<.<.<.>.>.<.<.5.5.<.%.%.%.%.%.%.%.#.#.+.+.#.#.#. .+. . . . .| ' '  . . . .+.+.+.+. . .&.&.5.5.8.0.5.5.<.<.5.5.5.-.#.#.&.&.&.&.$.$.&.&.&.&.&.%.%.&.&.&.&.&.s.s.5.5.0.5.5.5.0.8.7.0.s.5.0.5.s.%.&.&.7.7.7.6.<.<.<.<.5.5.<.<.<.<.<.<.<.-.%.%.-.<.-.-.-.-.<.-.@.#.+.+.<.<.5.5.<.<.5.5.&.%.%.%.7.0.w.w.9.8.7.7.8.9.9.8.>.>.<.<.<.<.<.<.5.5.5.<.<.<.<.<.6.6.6.6.6.6.7.7.5.5.5.5.5.5.5.6.<.<.<.<.%.&.%.%.7.5.<.5.6.8.9.8.<.1.@.@.-.-.1.1.=.=.X.=.=.=.=.=.=.=.=.=.=.=.=.=.;.;.1.;.=.X.} T T T T T T T T T P P P P I I I I _ _ ' _ I I Y I X.X.[ } X.=.;.;.=.=.=.} } [ [ [ ........[ _ U I U ( [  ._ ) / I _ _ _ _ l k h h h h h h h j l l [ [ [ [ [ { 9 9 . . . . &.                                          ",
"                                                              %.. . ; ; t t d d ' _ #.+.'  .$.<.r.t.u.t.u.t.u.u.u.u.u.u.t.r.r.r.t.u.qXMXMXMXNXSXDXDXMXMXu.u.t.t.qXqXMXqXt.t.8.r.8.8.r.r.r.t.r.r.7.7.8.8.#.#./ / J J t w + @ . .                                 ; ; . . @ @ z F #.#.U U p u q q q q q q 0 0 0 0 f f f f i u u e i u u u u t t t i d h h h h h h d i u u i i i d h h i d h h i i i u u u i d i i f d d d d d d d i i i i i d f d d d f f j d i i i u u u p f Z Z S Z F G i i d i l l l l j j d i j j j j j j l F S S G S G G G G C Z } =.;.;.} [ g p p p f f g d u u d s d d j h h d d d d d d d j h d d d d i d d d d d d d d d d d i f d f f f f f f j j j j f i i i i i d f i i i i i i i u i f i d i i i i i t t t t h h h h k k k k h h h h d d i d h h d t h h d a t t t t t t t t t t t t t t t t t t t t t t t t t t t t t t t t t h h t t t t t c c c t t t c c t t t t c c h t x c ~ ~ ~ ~ l x ~ x ~ x z z l l l k h h t t t t d d d d h h h d d i d d h d d d d d i t t t t t t t i i t t t t t t t t t t t t t t t t t t t t t t t r d d t r t r t t t t t h h h c t t t t t t t t t c c t t t t t t d i t i d d d i h h h h c c c a d d d h h h h d d d d d d d d d d d d d d d d d d d d d d d d d d d d d d d d d d d d d i i d d d a a d d d a a a d t a i i i i d i t t t t t t t t t t i d i i t t t t t r r r t t a r t r t t t t t t d t d t t t t t t t d d d h d t d t a t d a t t d d d d a a d t d a d d t r t d r d d d t t t i d d d d i i t t t d d d d d a a h d d d d d d d d d a a d d t t t t t t t t t t t d t t d d d d t i i i d d h h h h d d d d d d d d d d d a t t d d d d d d d d a a a a t t a a t t a a h d d t t t t t d d d d a t t t d d t t t t t t t t t t t t t t t t t t t t t t r r r r r t t t t t t r t r r r r r t t t t t t t t a a a t t r t t r r t t t a a t t t t t t a t a t t t t t a d d d d d d d d t t t d d h h h d d d d d d d d d d d d d d d d d d t t t t t t d d d d d d d d h d d d d a a t d d d d d h h h h h h d h t d t h t t t t i i t d d a a a d d d h d d d d h h h h d h h h h h h h c c c h h h c h h h h h c h h h h h h d d d d d d d d d d d d d d d d d d d h f f j j j j f f d d j k h l z z l l l h l d h d d d d d d d d d d d d d d d d d d d d d d d d d d d d d d d d d d d d d d d d d d d d d d d d d k d d d k l l k S G l l l l G Y Z Z Z D P P P P P P P D D D D D G G P P P D H A Z A A A A A C Z S Z Z f l l l k l l l l l k l f l f Z S S Z Z f f f f f g f f f f j j f f f f d S z F F l k z z _ _ ) / d d r r a a d a e r d d ....[ [ [ } 6 9 . . . . +.                                          ",
"                                                              0.. . ; ; t t r r _ ) #. .' | $.%.u.u.i.u.u.t.y.u.u.t.u.u.t.r.r.r.t.u.qXMXqXMXMXMXDXDXMXqXi.u.t.t.qXqXNXMXr.r.<.7.7.7.r.r.r.r.8.8.7.7.7.8. .#.J J l z w w @ @ @ @                                 ; = . . @ @ z F -.%.U Y q q 0 q q q q q q 0 0 0 j l d g u u u 0 i i i u u i t i i i d d h h h h h i i i i i i d j j h h j j j i u u u u i i u u d i u u d d f f f d i i i f j j j j f f j d i r d i i r p p f f G S F S f j j d j l l l l j j f j j j f d j l F F F G G ( G G Z C Z [ } ;.;.} [ g p p p f f d i u u d r d r d d f j j j j j j j d d d i i i i i d k h k f d u u f f f f d f g d i i f f f d f d i d d d i d d d d d d i i i i i d i i i i i i i i c t t t t t t h h h c h h h h t t t t t i t t h h d t t t t t t t t t t t t t t t t t t t t t t t t t t t t t t t t t t t t t t t t t t t t t t t t c t t t t c c h c h c x x x x x ~ ~ ~ ~ z z z l l l l k h t t t i d d d i d d d d t t i i d i i d d d i t t t t t t t i i t t t t t t t t t t t t t t t t t t t t t t t t r r r r t t i d t t t t t t t t c c c a a a t t c c t a a t t t d d t i d d d d d a t t t c t t t t t a d d d d d d d h h j d d d d d d d d d d h d d d d d d d d d d d d d d d d d d d d d h h d d d d d d d d a a d a i i i i i t t t t t t t t t t t t i i i t t t t t t t t t t t r t t t t t t t t t t t t t t t t d d d d d d d a d d t d a t t a d d d a h d h d t r r r d t t a r d d d i i d d d d d d d d d d a d d d d h d d d d a d d d d d d d d d d d d d d d h h d d t t d d t t d d d d t t i i d h h h h h d d d d d d d a a a d d d d d d d d d d d d d d d d d d d d d d d d h h d d d d d d d h d d d t t i d d d t t t t t d d d d d d t t d t t t t t t t t t t t a a a a d a t t a a t r t t t t a t a d d d d d d a t r a t t t t t t a a a a t t t a d a t t t t t a d a a d d d d a a t t t t d d d h a d d d a a a a d d d d d d d d d d d h d d d d a a a a d a a d d d d a a t t t d t t t d d h h h h h h h d h h h h d d d h h h d d a t t t a a d d d d t t h h h h h k h k h h h h h h h h h h h h c c c c h h d d d d d d d d d d d d d d d d d d d d i d d d f f f j j l j f h h k l k l z z l l l k l h h h h h h h h h h h d d d d d d d d d d d d d d d d d d d d d d d d d d d d d d d d d d d d d d d d d d d d j k k k l S l l f f G S Z Z S S S D P P P T P P D D P D P P P P T T P D Z Z Z Z Z A Z Z g g f f l l z z k l k k l l l f f f l S S S S l g g g f g f f j f f f f f f j j z z I I z z J J _ ) I I d d d d r t r r e e g f ....[ [ [ [ 6 5 . . . . &.                                          ",
"                                                              p.. . > > / / J z #.#.w.8.<.<.8.8.t.t.t.t.t.t.t.u.u.u.u.u.t.t.u.t.MXMXNXSXu.u.u.r.r.t.r.r.qXMXSXDXSXSXFXFXi.MX8.e.e.r.u.u.u.u.r.t.e.e.e.r.$.,.I I ' ' a t + @ @ @ +.%.                            = + . . . @ z z #. .I Y u p q p C C A A g p g p S G g S g g g g e e e 0 e e r r r r r r r r r r r r r r r r r r r r r r r r r r t i i d d d d d u r r r i d d d j d d d j j j j j l l l l l l j d i d i l j S S f d j f j l d h j d d d d d f f d d d i i i i d u i f j U U U G G S U U ..=.U U u p u u i p u e e 0 r 0 r 9 r e e e e e e e r r r r r r e e e e e e w r e r e r 0 9 e e r r d u i i i i u u u r e e e e e e e e r r r r e e e e e e e e r r u u t t t t r r r t t r r t t t t t w w r r r r t t t t t t t t r r w w w w y y w w w w w w w w w w y y w w t t t t r w w w w w w w t t t t t t t t w w w w w w w w t t y w w w t t w w w w w y y t t r r t t t t t w w w w r r t t r r r y w w y y w y y r r r y w w w w w w w w y w y y r y w w w y y t y y y y y y y y y t t t r t t t t r r e e w r r r w w w w w w w w y y y y t t t t t r r t r r r r r t t r d d a a d d a a h h h h h h d d d d d d d d d d d d h k k h h h h h h h h h h h h h h h h h h h d d h h h h h h k h h h h h h k h h h h h h h h h h h h h h h h h h h h h h h d h h h h h h h h h d h d k h l k k l l l k k k k h h k k l l l l j l l j l l h l h h h h h d d d d d h k h h j h h d h h d h l h d f j j j j h h h j h l d h d h h h h d h h d d h h h h h h h h h h h h h k k k k k h h h h k k h h h h h h h h h h h h h h h h k k l k k k k k h h h h k k k h k h h h h k h h h h h h h h h h k k h h h k h h h h h h h h h h h h h h h h h h h h h h h h h h k k h h h h h h h h h h h k h h h h h h d h h h h h h h h h h h h h h h h h d t h h d d t d h h d d h d d d h h h h h h h h h h d d h h h h h h h h h h h h h h d d h h h d d d h h k k k h k l h h k k k k k k k k k k k k k k k k k k h h h h h h h k k l l l l l l l k k k k h h h h k k k k l k k h h h k k k k k k k k k k k l k l k l k k h k k x x k x x x x z l l l k k l l l l l j h h h h h j l l l k l l l l l l l z S S S S S S l l S l z z l l z l z J z z z z l l l k k k k k l l k k k k j d d d j k j j j j j j j j j j k k k k k k k k k k k k k k k k j j d d k k k l l l z z I Y I U I Y U Y S S Y Y Y P Y P P U G P G S P G U U U U T T P P D P D S G P S P S P Y l S k z J I I I I I I z z F S S S l S S S l l S l S S S S l l l k j j h j l l I I z l l l z z k l a d d d d d d d u e f g ....[ [ [ [ 6 6 . . . . &.                                          ",
"                                                            p.p.. . > > / / z l  . .r.e.<.%.8.8.u.u.t.t.t.t.t.t.t.t.u.u.u.u.u.u.MXMXMXSXu.u.r.e.t.t.t.r.qXMXSXDXSXSXFXFXi.MX7.7.8.e.t.t.u.u.r.r.e.e.w.t.$.$.J J | ' t t + @ + @ &.+.0.5.                        + + . . . . l l $.#.I I 0 p q q p q A A p p g p G Y g S p p g g e e e e e e r r r r r r r r r r r t t t r r r r r r r r r r r t t i i d d i i i e e r r d d d d j j j j j j j j l l l l l j j l d d d d S l l j g g l f l S h l i d d j j j j d i i d d d d d d d i d f U U U G G G U G ....U U u p i p d u r e e 0 e 9 e 9 e e e e e e e r r r e r r e w e e e r r e r w r e e r 0 r e e e r r i i i t r r r r e e e e e e e r r r e r r r e r e y e r r r u t t t t t w w w r w w w r t t t t w w r w w w t t t t t t t r r w w w w w w w y y y t w w w w w w w w w w w r t t t r w w w w w y w w t t w y t t t y w w w w w y t t w t w w w w > > w y t t t t t t t t t t t t w w y w w w w r y r r r y w w y r r r r t t r y w w w w w w w y w y r r r y y y y y y y y y y y y y w w y y t r t r t r r t r r w w w w w w w y y y y y y y y y t t t r r r r t r r r r r r r r t a a t t t a a d d t d h h h h d d h h h d h d d d d k k h h h h h h h h h h h j h h h h h h h h h k h h h h h k h h h h h h h h h h h h h h h h h h h h h h d d d h h h h h h h h h h h h h h k h k d k h k k h h h l h k h h h k k k l l k k h k l j j l h l h h h h d d h h l j l l h h h d h h h h h d l h j j j j j j h h h l h l d j d k h h h d h h d h h h d d d h h h h h h h h h k h k k h h h k k k k k k k h h h h k k h h h h h k h h h h h h h h h h h k k k h h k h h h k k k k l k k h k h h h l k k k k k h h h h h k h h h k h h h h h h h h h h h h h h h h k k k k h h h h h h h h k h h h k h h h h h h h h h h h h h h h h h h h h h d t h h d d t d h h h d d d t t d h h h h h h h h h d d h h h d h d d d t t d h h h h d h h h d d d h h h h h h h l h h k k l l l l k k k h h h k k k k k h h h h h h h h k l l l l l z z z l k k l h k k k k l l l h h h h h h k k h h k k k h h k k l k l k l k x h x l l x x x z x x x l l l l k l l l l l j j k j j l l l l l k l k j k l l l l l l S S l l S S S l z F z z z z z z z l z z l z l l h k l l l l k k k k k j d d k k j j j j l j h h h j k j k k h j j j j j j j k k k k j k j k k k k k k l z z Y I I Y Y Y Y Y S S G Y Y Y I P P U D P G S U P T T T T U T U U G P P G P P S Y S I Y S I k z I z z z I I I F F S S S S F S S S l l l l l S S F k k l l l l l l I I I I l l z z l l h k a d d d d d r d u e g d ....[ X.[ X.6 5 . @ . . &.                                          ",
"                                                        ; ; ; + . . ; ; h h l l #.&.w.r.<.<.8.e.u.u.u.t.r.r.t.t.i.u.i.u.u.u.u.u.MXMXDXDXr.u.8.r.t.e.8.<.i.MXDXDXFXDXFXFXMXMX8.8.t.t.u.u.u.u.u.t.e.e.8.8.#.#.J J ) / t t + < + ; . . . . >                       + + . . . . k h  . .U Y p u u p T T T T g g p p S f G S ..X.=...e e r r d d t r r r r r i i t t t t r r t t r r r r r r t t t t t t t d h h h h t r t r t i d h i i d d h h d d d h j l l k h h d d d d f f f f l l l f f d d i d d d d d d d d d d d i u u i d d d d u p p p u p p g f g g p u r u i d j j j i t r t d d d h d d d d d d d d d d d d d d d d d d d h d h d d d d d d d d d d d d d d d d d d d r r r a a a a a d d d d i d t t i a d d d d i d t a a a a a t t a a d d h h h h d d d d d d d d h h h h h h d t t t d d d d t t t t t t t t t t t t t a d d d d d d t t d d d d h h h h h d i t h d i i i d h h h h t t t t t t t t t t t i d h h d d h h h h d d d a t t d d d d d d d d t t t d d d d d d d d r r r r t t t t t t d d d t t t t t t t t t t t t t t t t t t t t t r r r r r r t r t t t t t t t t t t t r r t r r t t d d d d d d d d d d d d d d h h h h h h h h h h h h h h h h h h h h h h d d d d d d d d i d d d d d d d a d d d d d d t d d d d d h h h d a h h d d d d d d d d i d d h i d h h h i t t i i t t i i i i t i i t t t t t t t t t t a a a t t t t a d d d t t a d d d d d h h h h h h h h h h h h h h h h d d d h h h h h h h h d d d d d j j j h j j h h h h h h d h h h d d d d d d d d d d d d d d d d h h h d d d d d d h h h h d h h h h h h h h h h h h d d d h h h h h h h h h h h h h h h h h h h h h h h h h h h h h h h h h h d h h h h h d d h h h h d d d d h d d h h d d i t h d d d h h a t h h h c c t t t t t a a d d d d d d d t t t t t d d d d d d d d d d a t t a a a t t d h h h d d h h d d d d d d h h h h h h h h h d d d h h h d d d d d h h h h h h h h h h h h h h h h h k h h h h h h k k h h h h h h h h h h d h h h h h d d d d d h h h h h h h h h h h h h h h h h h h h h h d d d h h h h d h h h k k k k x k k k k k h k k h h h h h h k k x x x k k k k l l l l l k l h h h h k k k l l l l j h h j j j l l l l l l l l k k k k k k k k l l l l l l l l l l l k k k l l k k h j k k j h h j l l l l l l k k k k j j j k k k j j k k k k k k k k k k j j j j j k k l z z z I I I I I I I I I S S S S I Y Y Y Y Y Y P G G P P G Y Y Y P G G S S S S f f f f j j j k l k k l l l l l l k k l l k k k l l k j d d d d h h j k h d d d h h d h k h d k d k l l l I I l l j h d u d u u u p g T T [ [ [ [ 6 5 . @ . . &.                                          ",
"                                                      @ ; ; + + . . ; ; d h l l #.#.9.r.<.<.8.8.u.u.u.u.t.t.t.t.u.u.qXi.u.u.u.u.NXNXDXDXt.t.8.8.r.e.8.1.i.i.SXSXFXDXFXFXMXMX8.8.t.t.u.u.i.i.u.t.8.8.8.7.#.#.J I ) / t t < ; + + O O . . >                       + + . . . . k h  . .U Y p u p p T P T T g g g g S S S S ..X.....u r e r r t r r r r r r u r r r t t t t t t t t t t r r t t t t t t t d d d d i t t t t t t i i d d d d h h d d h j l l l l j j d d d d f f f f f f f f f d d d d d d d d d d d i i i i u u u i u s u u u u u u g g g f f g g d u i i d j j j d i t t t i d d d d d i i d d d d d d d d d d d d d h d d d d d d d d d d d d d d h j d d h d d d r r r s r a a r t i i t t t t r i t t t t t t t t t t t t t t t h h h h h h h h d d d d h h h h h h h h h h d d t t i d d d i t t t t t t t t t i t i i d d d d i i i i d d d d h h h d d d i i h d i i d h h h i i i t t t t t t t t t t t i i h h h h h h h h h d d d d d d d d d d d d d d d d d d d d d d d t r r r t t a t d d d d d t a a t t t t t t t t t t t t t t t t t t t r r r r r r r t t t t t t t t t t t t t t t t t i d d d d d d d d d d d d d h h h h h h h h h h h h h h h d d d d d d d d d d d d d d d d d d d d d d d d d d d d d d d d d d h h h h h h d d h h d d d d d d d d d d h h d h h h d d i i d d i i d d i i i i i i t t t t d t t t a a a a d d d d d d d d d d a d d d d d h h h h h h h h h h h h h h h h h h h h h h h h h d d d d d h h j j h h j h h h h h h h d h h h d h d h d d d d d d d d d d d d h h h h d h d d h h h h h h h h h h h h h h h h h h d h h h h h h h h h h h h h h h h h h h h h h h h h h h h h h h h h h h h h h h h h h h d h h h h h h h h h h h h h d d d d h h d d d h d t h h h h c c d t t t a a d d d d h d d d d d d d d d h h h h d d d d d d d d d a d d d h h h h h h h h h h d h h h h h h h h h h h d d d h h h h h h d d h h h h h h h h h h h h k h h h h k h h h h h h k k h h h h h h h h h h h h h h h h h d d d h h h h h h k h h h h h h h h h h h h h h h h d d d h h h h h h h h h h h h k k k k k k h k h h h h h h h h k x x x k k k k l k k k k k j h h h h h k k j j h h h h h h h h l l l l l l l l l l l l l l k k l l l l l l l l l k k k k k l l k k d h j j k h k k l l l l l k j j j j d j j j k k j k k k k k k k k k k k k k k k k k k k l z z z I I I I I z I I z z z z I I I Y Y Y P Y G S P Y P Y Y I Y F F F F F S z S l k j j j j k k k l l l l l l l k l k j j k k l j d d d d d d h h l k h h h h h h l l h d l h k h k k J J l l h h u u d u 0 u u u U U [ [ [ [ 6 5 @ @ . . &.                                          ",
"                                                      . . . . . : ; r w l l J z  . .8.8.>.<.8.8.u.u.u.u.t.t.t.t.u.t.i.t.r.r.e.e.r.r.t.t.t.qXqXMXt.t.r.r.NXMXDXDXSXSXSXDXi.MX8.8.r.r.r.t.u.u.t.e.e.e.e.e.,.>.) _ I / d k 9 r w r + + . . 9                       + + . . . . h h #. .Y Y 0 0 0 0 Z Z D P p g g g d d u u I Y S G O o . . O O O O X O X O X X X O O X X X O O O X X X . . . . X X . o O o o O X X X X X o o O O O O O O O O O O O O X X X X X X X X X O O X % % % % % % % % O O O % % O % % % % % % % % % % % % O & & % % % % % % X X X X X X X X X o O + % % % % % O O + & + & & O X X X X X % X X X X X X X X X O + + + + + + + O O O O O O O O X X O o X o O . O X O + + + + O O O O O O O O O O O O O O O O O O O O O O O O O . . . . . . . . . . . . O . O . O . O O X X X X X . O . O . O . X . X . O . O O O O O O O O O O O O O O O O O O O O O O O O O O O o O O O O O X O O O O O O O O O O O O O O O & O O O O O O O O O . X . O . X . X . X . X . X . X . X . X . . . . . . . . . . . . . . . . . . . . . . . . . . . . . . . . . . . . . . . . . . . . . . . . . . . . . . . . . . . . . O O O O O X X X X X O X O O O O O O O O % % & & & & & & & O & + & + & + & & X X O O O X X X O O O O O @ @ @ O O O O O O O O . . @ @ @ @ @ @ @ o o o @ @ @ @ . @ @ @ o @ . . o o o @ @ @ @ o @ @ @ o @ @ @ @ o o o o @ @ @ @ @ @ @ @ @ o o o + O O O O O o o O O o o O O O + O O + + + + + O O O O + + + + + O O O O O O O O + + O O O O + + + + + + O O O + + + + + + + + + O + + + + + O O + O O O o o O O + + + + + + + + + + + @ + + + @ + + + + + @ + + + + + + + + + + + + + + + + + + O O O O O + + + + + O O O O + + + O O O + + O O + + + + + + + + @ + + + + + + + + + + + + + + + + + + + @ @ @ @ + + + + @ @ @ @ @ @ O o @ @ @ @ O O O O O O O O o O O + + O O O O O O O + O O @ + + O O O O O + + + + + O O + + O O O O O O O O O O O O + + + + O O + + + + + + o O O O + + + + + + O O + + O O + + + + + + + + O O + + + + + + O O O O + + O O + + + + + O O O + + O + + + + O + + + + + O O O + + + + + + + + O + + + + + + + + + + + + + + + o O + + + + + + + + + + + + + + + O O + O + + O O O O + + + + + O O O O O O o o O O O + O O O O O O O O O O O O O O O O O + + + + + + + + + + + + O O O O + O O O O O O O O O o O O O O O O O O o o o o O O o . . . . . o o o o o o o o o o O o o o o o o o o o + O O o O o O + O X O X % % % X % % % & % & % O + + O O + + + O < + + + & < = + + + + + + + + + + + + + + + O O o . . . @ @ O O O @ @ . @ @ @ . . . . + 9 w a a J z ) / I I z I G S Y G Z S Z Z Y Y U ( [ { 5 5 o @ . @ &.                                          ",
"                                                    . . . . . . = = w w k l I I '  .8.8.<.<.8.8.u.u.u.u.t.t.t.t.u.u.u.t.t.t.8.e.u.t.r.8.u.u.i.i.t.t.r.t.MXMXSXSXSXSXSXDXqXMX8.8.t.r.r.t.u.u.t.r.e.8.e.e.,.>.) _ I I d h r a r t = + . . w                       + + . . . . k h  . .U Y u 0 0 0 C g Z S g f g d p g d d Y Y S S o o . O X X X X X X X X X X X X X X X X X X X X X X X . . X X X X X X X X X X X . . X X X X X X X X X X X X X O X O O O O O O O % % % % % % % % % % % % % % % % # # X X X X # # X # % % % % % # X X % % % X # # # % # % % X X O O % % % % % % & # # O O O O O O X X X X X X X X % % % % % % % % % & + + & % & % & % % % % % & % % O % % % % O O X X X X X X X X O O X X X O O O X X X X X X X X O O O O O O O X o O O O O O O O O O X X X X X O O X X X X X X O X X X X X X O O X X X X O O O X X X X X X X X X X X X X X X X X X X X X X X X X X X X X X X X X X O # # # X X O O O X X X X O O # # # # O X X X O X X X O O X X O O O O X X X O O O O O X X X X X X X X . O . . O O O X O X X X . . . . . . . . . . . . . . . . . . . . . . . . . . . . . X . . . . X X X X X O O O O O X X X X # # X # # % O % % # O O O O O O % % % % % % % % & % % % % % O O X % % & % & % O O O O O + + O O + + + + + + + + @ @ @ @ @ @ @ @ @ @ @ @ @ @ @ @ @ @ @ @ o o o @ o o o @ @ @ @ @ @ @ o @ + + @ @ + O O O O O O O O O O @ o o o o + + + + + O O O + + + + O + + + + + + + + + + + + + + + + + + + O O O + + + O O + + + + + + + + + + + + + + + + + + + + + + + + + + + + + + + + + + + + + + + + + + + + + + + + + + + + + + + + + + + + + + + + + + + + + + + + + + + O + + + + O O + + + + + + + + + + + + + + + + O + + + + + + + + + + + + + + + + + + + + + + + + + + + + + + + + + + + + + + + + + + + O O O O O O o O O O O O O O O O + + + + + + + + + + O + + + + + + O + O O + + + + + + + + + + + + + + + + + + + + + O + + + + + + + + + + + + + + + o O O + + + + + + + + + + + + O + + + + + + + + + + + + + + + + + + + + + + + + + + + + + + + + + + + + + + + + + + + + + + + + + + + + + + + + + + + + + + + + + + + + + + + O + + + + + + + + + @ @ @ @ + @ @ O O @ O O O O O O O O O O + + + O O O O O O O @ O O O + + + + O O O O O O O O + O O O O + + + + O O + + + + + + + O O O o O O O O O O O O O o o O O O O o o o o O O O O O O o o . . o o O O o o o o o o o o o O O O O o o o o o O O O O O O + + O O O O O + X o X O & + & O O O + + + + + + + + < + + + < < = = + + + + + + + + + + + + O O O O o . . . @ @ @ @ O O @ @ @ @ @ @ + + o O 8 8 d a J z / I F I z S S S U G Z C g g Y Y Y U [  .5 9 O @ . . &.                                          ",
"                                                    . . . . . . 9 9 h h k h z z _ ' e.w.<.<.e.r.i.i.i.u.u.u.t.t.u.t.t.t.u.u.e.e.<.<.1.7.qXu.u.u.NXSXMXNXDXDXFXFXSXSXDXDXqXMX8.7.7.7.7.8.8.8.8.7.8.8.w.w.>.>._ _ | | l z k l d h + + . . w                       + + . . . . k k  . .U Y u u q q P S P T Y I f d u d u i f d 0 0 X X X X X X X X # X # # X X X X X X X X X X X X X X X X X X X X X X X X X X X X X X X X X X X X X X X X X X X X X X X X X X # # # # # # X X # # X X X X # # # # # # # # # # # # # # # # # # # # # X X X X X X X X X X X X X X X . X X X X X X X X X # # # # # # # # # # # # # # X X X X X X X X X X X X X X X X X X X X X X X X X X X X X X X X X X X X X X X X X X X X X X X X X X X X X X X X X X X X X X X X X X X X X X X X X X X X X X X X X X X X X X X X X X X X X X X # X X X X X X X X # X X X X X X X X X # # # # # # X X X X X # X # # X X X X X X X X # X X X X X # X X X X X X X X X X X X X X X X X X X X X X X X X X X X X X X X X X X X X X X X X X X X X X X X . . X X X X . . X X X X X X X X X X X X X X X X X . X X X X X X X X X X X X X X X X X X X X X X # # # # # # # # # # # # # # # # # # # # # # # # # # # # # # # # # # # # # # # # X X X X X X X X O O o o @ @ @ @ @ @ . . . . @ @ @ @ @ @ @ @ @ @ o o o o . . @ @ . . . . . . . . . . . . . . . . . . . . @ @ @ . . . . . . . . . . . . . . . . . . . . . . . . . . . @ @ @ . . . . . . . . . . . . . . . . . . . . . . . @ . . @ . . . o @ @ @ . @ . . . . . . . . . . . . . . . . . o o o o . . . . . @ @ @ @ @ @ @ @ @ @ @ @ @ . . @ @ @ @ @ @ . . . . . . @ @ . . . . @ @ @ @ . . . . . . . . . . . . . . . . . . . . . . . . . . . . . . . . @ @ @ . . . @ @ . . @ . . @ . @ . . . . @ @ @ @ @ @ . . . . @ @ . . . . . . . . . . . . . . . @ . . . . . . . . . . . . . . . . . . . . . . . . . . . . . . . . . . . . . . . . . . . . . . . . . . . . . . . . . @ @ @ @ @ @ @ . . . . . . . . . . @ @ @ @ @ @ . . . . . . . . @ @ @ @ . . . . . . . . . . . . . . . . . . . . . . . . . . . @ . . . . . . . . . . . @ . . . . @ @ @ @ . . . . . @ @ @ @ @ . . . . . . . . o o . . . . . . . . @ @ . @ . . . . . . . . . . . . . . . . . . @ @ @ @ @ @ @ . . @ @ @ @ @ . . o o @ @ . . . . @ @ o o o o o @ @ o . . . . . . . . . . . . . . . . . . . . . . . . . . . . . . . . . . . . . . . . . . . . . . . . . . . . . . . . @ @ @ o o o + O O O O O O O o o o + + + + + + + O O + + + + + o o o o o @ @ o O + + + + + + O O @ @ @ @ . . . . . . . . . . @ @ @ . . . . . . . . . . . > 9 z z z l I I S S l S T T X.} P D S S Y Y U ( {  .> 9 O o . . &.                                          ",
"                                                    . . . . . . : > h h h h z z I _ 8.8.<.<.r.r.i.i.u.u.u.u.u.u.u.t.t.r.u.u.8.8.1.7.1.1.u.t.u.t.SXSXMXNXDXDXDXFXNXNXSXDXi.qX8.8.8.8.8.8.8.8.8.8.7.8.w.w.>.<._ _ _ _ k k l J k l + O . . >                       + + . . . . k k #.#._ U u u q q Z S P Y I Y d d r d d k d d e e X X X X X X X X # # # # # # # # X X X X X X X X X X X X X X X X X X X X X X X X X X X X X X X X X X X X X # # # X # # # # # # # # $ $ $ # # # # # # # # # # # # # # # # # # # # # # # # # # # # # X # # # X X X # # # X X X X X X X # # # # # # # # # # # # # # # # # # # # # # # # # # # # # # # # # # # # # # # # # # # # # # # # # # # # # # # # X X X X X X X X X X X X X X X X X X X X X X X X X X X X # # X X X X X X X X # # X X X X X X X # # # # X # # X X X X X X X # # # X X X X X X # X X X X X X X # # # # # # # # X X # X # # # # # # X X X X X X # # # # # # # # # # # # # # # # # # # # # # # # X X X X X X X X X X X X X X X X X X X X # # X X X X X X X X X X X X X X X X X X X X X X X X X X X X X X X X X X X X X X X X X X X X X X X X X X X X X X X X # # # # # # # # # # # # # # # # # # # # # # # # # # # # # # # # # # # # # # # # # # # # # % % % % % O O O O O O O O O O @ . @ @ @ @ @ @ @ @ @ @ @ @ o o o o @ @ @ @ @ @ @ . . . . @ . . . . . @ . . . . . . @ @ @ @ . . . . . . . . . . . . . . . . . @ @ @ @ @ @ . @ @ @ @ @ @ @ @ . . . . . . @ . O o o o @ @ . @ @ @ @ . @ @ @ @ . @ O O O O @ @ o @ @ @ @ @ @ @ @ @ @ @ @ @ . . . . o o o o . . . . @ @ @ @ @ @ @ @ @ @ @ @ @ @ . @ @ @ @ @ @ @ . . @ @ @ o o o @ @ @ @ @ @ @ @ @ . . . . . . . . . . . . . . . @ @ @ . . . . . @ @ . . @ @ . . @ @ @ @ @ @ @ @ @ @ @ @ @ @ @ @ @ @ @ @ @ @ @ @ @ @ @ @ @ @ @ @ . . . . . . . . @ . . . . . @ @ . . . . . . . . . . @ @ @ . . . . . . . . . . . . . . . . . . . . . . . . . . . . . . . . . . . . . @ . . . . @ @ @ @ @ @ @ @ @ . . o o @ @ . . . @ @ @ @ @ @ @ . . . . . . . . @ @ @ @ . . . @ @ @ . . . . . . . . . . . @ @ @ @ @ . . . . @ @ @ @ @ @ @ @ @ . . @ @ @ @ . @ @ @ @ @ @ @ @ @ @ @ @ @ @ @ @ @ @ . . . . . . @ o @ @ . . @ @ . . @ @ @ @ @ @ @ @ . . . o o o @ @ @ @ @ @ @ @ @ @ @ @ . . . . . . . . . . . . . . . . . . . . o @ o o @ @ @ @ @ @ @ @ @ @ . . . . . . . . . . . . . . . . . . . . . . . . . . . . . . . . . . . . . . . . . . . . . . . . . . . . . . . @ @ o o + + O @ O O O O o o O + + + + + + O O + + + + o o o o O O O O + + + + + + + + O O o O O @ . . . . @ . . . . . @ @ . . . . . . . . . @ . . : : z I z z I I S S l l U T } [ P D S S U U ( _ '  .> 9 @ @ . . &.                                          ",
"                                                    . . . . . . w w z z h t h d I I <.<.<.<.t.r.i.i.u.u.u.u.u.u.MXMXi.u.MXqX8.8.#.#. . .,.<.8.e.SXSXMXMXSXSXDXDXFXDXFXDXi.i.1.1.8.1.1.1.1.1.1.<.<.5.7.8.$.,.) ) | | l k l z d k + O . . >                       + + . . . . k k  .#._ _ f f Z Z u f l Y S I d d k l d d ; = . . % % % % # # # $ $ $ $ $ $ $ $ $ $ $ $ $ $ $ $ # # # # # % # # % # # # # # # # # # # # # # # # # # # # # # # # # # # # # # # # $ $ $ $ $ $ $ $ $ $ $ $ $ $ $ $ $ $ $ $ $ $ $ $ $ $ $ $ # $ $ $ $ $ # $ $ $ $ # # # # # # # # # # # # # # # # # # $ $ $ $ $ $ $ $ $ $ $ $ $ $ $ $ $ $ $ $ $ $ # # $ # # # # # # # $ $ $ $ $ $ $ $ * $ $ $ $ $ $ $ $ $ # # # # # # # # # $ $ $ # # # # # # # # # # $ # # # # # # $ # # # # # # # # # # # # # # $ $ # # $ $ $ # $ $ $ $ $ $ $ $ $ $ $ $ $ $ $ $ $ $ * $ $ $ $ $ $ $ * * * * * * * * $ $ * * * $ $ $ * * $ $ $ $ $ $ $ $ $ $ $ $ $ $ $ $ $ $ $ $ $ $ $ $ $ $ $ $ $ $ $ $ # # $ $ # # # # # # # # # # # # # # # # # # # # # # # % # # # # # # # # # # # # # # # # # # # # # # # # # # # # # # # # # # # # # # $ $ $ $ $ $ $ $ $ $ * * * * $ $ $ $ * $ 2 2 2 2 2 2 2 2 $ $ 2 2 2 2 * 2 2 1 * $ 1 2 2 2 * * $ * * $ $ $ # # # # # # # X O O . . . . @ @ @ . . . . . o o . . . . . . . . . . . . . . . . . . . . . . . . . . . . . . . . . . . . . . . . . . . . . . . . . . . . . . . . . . . . . . . . . . . @ . . . . . . . . . . . . o . . . . . . . . . . . . . . . . . . @ @ @ . . . . . . . . . . . . . . . . . . . . . . . . . . . . @ @ @ @ @ @ @ @ @ @ @ @ . . . . @ @ @ @ @ @ . . . . . . @ @ @ @ . . . . . . . . . . . . . . . . . . . . . . . . . . . . . . @ @ . . . . . . . . . . . . . . . . @ . . . . . . . . . . . . . . . . . . . . . . . . . . . . . . . . . . . . . . . . . . . . . . . @ @ @ . . . . . . . . . . . @ . . . . . . . . . . . . . . . . . . . . . . . . . . . . . . . . . @ @ @ @ . . . . . . . . . . . . . . . . . . . . . . . . . . @ @ @ . . . . . @ @ @ @ . . . . . . . . @ . @ @ . . . . . . . . . . . . . . . . . . . . . . . . @ . . . . @ @ @ . @ . . . . . . . . . . . . . . . . . . . . . . @ . . . . . . . . . . . . . . . . . . . . . . . @ . o . o o o @ . . . . . . . . . . . . . o @ @ . . . . . . o o . . . . . . . . . . . . . . . . . . . . . . . . . . . . . . . . . . . . . . . . . . . . . . . . . . . . . . o o o o o o o o o @ @ o @ . o o o o . o O O @ o o @ o o + + o o o o o o O o @ @ @ + @ @ @ @ o @ @ @ . . . . . . . . . . . . . . . . . . . . . . . . . @ . . 9 9 ) _ z l I I l l f f S A T D A A C g U [ [ [ { { > w @ @ . . &.                                          ",
"                                                    . . . . . . w w I I h t d a I J >.<.<.<.t.t.MXi.u.u.u.u.u.u.u.i.u.u.MXi.8.8. .$. .#.$.$.8.e.SXSXMXNXSXSXDXSXDXDXDXDXu.u.1.7.8.7.1.1.7.7.1.<.<.5.7.8.$.>.) _ _ _ l k J z d k + O . . :                       + + . . . . k k #.#._ [ g g Z Z p f S Y z I d d l k d d = = O X & % % # $ $ $ 1 1 1 1 1 1 1 1 1 1 1 1 1 1 1 1 1 1 1 $ $ $ $ 1 1 $ $ $ $ $ $ $ $ $ $ $ $ $ $ $ $ 1 $ $ $ $ 1 1 $ 1 1 1 1 1 1 1 1 1 1 1 1 1 1 1 1 1 1 1 1 1 1 1 1 1 1 1 1 1 $ $ 1 1 $ $ $ 1 1 1 $ $ $ $ $ $ $ $ $ $ $ $ $ $ $ $ $ $ $ $ $ $ $ $ $ 1 1 1 1 1 1 1 1 1 1 1 1 1 1 1 1 1 1 1 1 1 1 1 1 1 $ 1 $ 1 $ 1 1 1 1 1 1 1 1 $ $ 1 1 1 1 1 1 1 1 1 1 1 $ 1 $ $ $ $ $ $ $ $ $ $ $ 1 $ 1 $ $ $ $ $ $ $ $ $ $ $ $ $ $ $ $ $ $ $ $ $ $ $ 1 $ $ $ 1 1 $ 1 1 1 $ $ $ 1 1 1 1 1 1 1 1 1 1 1 1 1 1 1 1 1 1 1 1 1 1 1 1 1 1 1 1 1 1 1 1 1 1 1 1 1 1 1 1 1 1 1 1 1 1 1 1 1 1 1 1 1 1 1 1 1 1 1 1 1 1 1 1 1 1 1 1 1 1 1 1 1 1 1 1 1 1 1 1 1 1 $ $ $ $ $ $ $ $ $ $ $ $ $ $ $ $ $ $ $ $ $ $ $ $ $ $ $ $ $ $ $ $ $ $ $ $ $ $ $ $ $ $ $ $ $ $ $ $ $ $ $ $ $ $ $ $ $ $ $ $ $ 1 1 1 1 1 1 1 1 1 1 1 1 1 1 1 1 1 1 2 2 2 3 3 3 3 2 1 1 2 2 3 3 3 3 1 1 1 1 1 1 2 2 2 2 2 2 1 1 1 2 1 $ $ $ # # # # X O O O O @ @ @ @ . @ . . . . . . . . . . . . . . . . . . . . . . . . . . . . . . . . . . . . . @ @ . . . . . . . . . . . . . . . . . . . . . . . . @ @ @ . . . @ @ @ . . . . @ . . . . . . . . o o . . . . . . . . . . . . . . . . . . @ @ @ @ . . . . . . . . . . . . . . . . . . . . . . . . @ @ . . . . @ @ . . @ @ @ . . . @ . . . @ @ . . . . . . . . . . @ @ . . . @ o o . . . . . . . . @ . . . . . . . . . . . . . . . @ @ . . . . . . . . . . . . . . . . @ @ @ . . . . . . . . . . . . . . . . . . . . . . . . . . . . . . @ . . . . @ . . . . . . . . @ @ @ . . . . . . . . . . . . @ @ @ . . . . . . . . . . . . . . . . . . . . . . . . . . . . . . @ @ @ @ @ . . . . . . . . . . . . . . . . . . . . . . . . . . @ @ @ . . . . . @ @ @ @ @ @ . . . . . @ @ @ @ @ . . . . . . . @ o o . . . . . . . . . . @ . . . @ @ . . . @ @ . @ @ @ . . . . . . . . . . . . . @ . . . @ @ . . @ @ . . . @ . . . . . . . . . . @ . . . @ @ @ @ . . . . . . @ @ . . . . . . . . . . . . . . o @ o o . o . o @ @ . o o . . . . @ @ . . . . . . . . . . . . . . . . . . . . . . . . . . . . . . . . . . . . . . . . . . . . . o o @ o o . . o @ @ @ @ @ @ o o o . . o o O o o o + o o O + + o + o o O O O O @ @ + o @ @ @ + @ @ @ . . . . . . . . . . . . . . . . . . . . . . . . . . . . 9 9 / / z z I I l l f f D A D G D D Z C ( [ [ ' { ' > w @ @ . . &.                                          ",
"                                                    . . . . . . w w z l h h l l I I <.<.%.<.<.<.e.8.e.7.8.8.7.8.7.7.8.7.<.<.>.>.#. .#.#.#.$.t.u.FXFXFXDXNXNXNXSXDXDXDXDXr.t.1.1.8.7.7.7.7.8.8.8.8.8.8.e.$.$._ ) ) ) h k k k d d O O . . ;                       + + . . . . d f  .X.U T C g H Z g u g g s d r r k k d d + & X X O # 6 7 E B B V V V V V V V V V V B B B B B B B B B B B B B B B B B B B B B B B B B B B B B B B B B B B B B B B B B B B B B B B B B B B B B B B B B B B B B B b b n b b b B B B B B B B B B B B B B B B B B B B B B B B B B B B B B B B B B B B B B B B B B B B B B B B B B B B B B B B B B B B B B B B B B B B B B B B B B B B B B B B B B B B B B B B B B B B B B B B B B B B B B B B B B B B B B B B B B B B B B B B B B B B B B B B B B B B B B B B B B B B B B B B B B B B B B B B B B B B B B B B B B B B B B B B B B B B B V B V B B B B B V B B B B B B B B B B B B B B B B B B B V B B B B B B B B B B B B B B B B B B B B B B B B B B B B B B B b b b b b b b b b b b b b B B b b B B b b b b b b b b b b b b b b b b b b b b b b b b B B B B B B B B B B B B B B B B B B B B B B B B V V V V V V V V B B B V B B B B V B B B B B V V V V V V V B B B L L B E A A p u d t d d d c a a h h h h h h h c h h h h i d d c h h h h h k k k h h h h k k k k k k k k x k k k k k k k k k k k k k k k k k k k x x k k k x x l x x x x k k k k k k x k k k k k k k k l x k k k k h h h k k k k k h h h h h k k k k k k k k k k k k k k k k k k k k k k k k k k k k k k l k k k k k k k k k k k l k x x x k k k x k k k k k k k k k k k k k k k k k k k h h h h h h h h k h h h h h h h h h h h h h h h h h h h h h h h h h h h d d h h h h h h h h h h h h h h k k k k k k k h k k h h h k k k h k k k h h h h h h h h h k k k h h h h h k k k h h h k k k k h h h h h h h k k h h h h h h h h h h h h h h h h d h h h h h h h h h h h h h h h k h h h h h h h k k k k k k k k k k h k k k k k l l l l k k l l l l k k k k k k k k k k k k k k k k k k k k k k k k k h k k k k h h h h h k k k h h k h k h h h k k h h k k k k k k k h k k k k k k k h h k k k k k k k k k k h k k x k k k k k k k k k k h h h h k k h h h h h k h h h k k h h h h h h h h h h h h h h h h h d d d h h h d d t d d h h d d h h d d h h h h h d a a a a a a a a h h d d d d a a h h h h h h d d d h h h h h h h h h h h h h h h d h h h k h k k k k h h h h d h k h h k k k k h k k k k h h k h h h k h d d h h h h h h h d d d d d h h d d d d t t d d d d d d d d h d h d z l ; ; . . = = w e j l U ( F S f g G D G S f f S S [ '  .+. .O.v v @ @ @ . +.                                          ",
"                                                    . . . . . . 9 > l l h h l k / / <.<.%.>.<.<.e.e.e.7.8.8.7.8.7.7.8.7.<.<.<.<. . .#.$.#.,.t.t.FXDXFXDXSXSXNXNXDXDXDXDXr.r.1.1.7.7.7.7.8.8.8.8.8.8.8.e.$.#.) ) ) ) k k k k d d O O . . ;                       + + . . . . d d X.X.U U C g H Z p q g g u d r r k k d d & & O X % # 7 7 K L M N N N N N N N 0X0XN N N N N N N N N N N N N N N N M M M M M M M M M M M M m m m m M n n n M M M M M M M n n n M M n n n n n n n n n n n n n n n n M M M n m m m M n n m m m m n m m m m m m m m m m m m m m m m m m m m m m m m M m m n n M M M M M M M M M M M M M M M M m m m n M M M M M M M M M M M M N N M M N N M M M m M M N M m M M n M n n n m n m n M n n n n n n n n n n n n n m m m m m m m n n m m m m n n n n n n n n n n m m m n n n n n n n n M M M M M M M M M M M M M M M M M N M M M M M M M M M M M M M M M M M M M N N M M M M n n n M M n M n M M M M M M M N M N M M M M M M M n n n n n n n n n n n n m m m m m n m n n n n n n n n n n n n n n n n n n m n n n n n m m m n n n m m n m m n n n n n m n m n n n m n n n n n n n n m m M M N N M M M M N N N N N N N N M N N N N M M M M N N N M M N N N N N N N 0XN N N N N K L E b A q u u t d d a a c c h h c c h h h c h h c h i i d d c c c c h h h h h h h h h h h h h k k k k k k k k k k k k k k k k k k k k k h h h h h h k k x x k k k k k h h h h k k k k k k k k k k k k x k k h h h h h h h h h h h h h h h h h h h h h h h h k k k k h h h h k k k k k k k k k k k k k k h h k k h h h h h h k k k k k k k k k k k k k k h h h k k k k k k h h k k h h h h h h h h h h h h h h h h h h h h h h h h h h h h h h h h h h h h d d d h h h h h h h h h h h h h h h k k k k k k k k h h h h k k k k k h h h h h h h h h h h h h h h h h h h h h k h h h h h h h h h h h h h h h h h h h h h h h h h h h h h h h h h h h h h h h h h h h h h h h h h h h h h h h h h k k k h h k k k k h h h h h k h k k k k k k l k k k k h h h k k k k k k h h h k k h h h h h h h h h h h h h k h h h h h h h h h h h h h h h h k h h h h k k k h h h h h h h h h h h h k k k k h k k h h h h h h k k k k k k k k k k h h h h h h h h h h h h h h h h h h h h h h h h h h h h h h h h h h h h h d d d h h d d d a a d h d d d d d d h h h h h d a a a a a a a a h h d d d d c c h h h h h h h h h h h h h h h h h h h h h h h h h h h h h h h h h h h h h h h h k h h h h k k d h h k h h h h h h h d d d d d d h h h h h h d d d d d d d d d d t t d d i d d d d t d d h d z l ; ; . . = = e e k l U U F S S j G S G S f f S S ' '  .+.+.+.v v @ @ @ @ +.                                          ",
"                                                    . . . . . . w w I / z z J J ) / <.<.$.$.%.%.1.<.<.>.<.<.,.>.#.+.#.+.| | +.#.,.$.>.>.$.$.7.1.qXu.qXu.u.u.e.e.r.e.r.u.r.u.8.7.8.8.8.8.8.8.8.7.7.8.8.e.#.#.) I ) _ k l k k d d O o . . ;                       + < . . . . d u U T Z Z q q p p u q g g f k d a l l h h & & O X # # b b 7X7X7X{.6X6X{.{.{.{.3X3X{.{.{.3X3X3X3X{.3X3X3X3X3X3X3X3X3X3X3X3X3X3X3X3X3X3X3X3X{.{.{.{.9X9X3X3X3X9X9X9X9X9X9X9X9X9X9X9X3X3X3X3X3X3X3X3X3X3X9X3X{.{.{.3X{.{.{.{.{.{.{.{.{.6X6X6X6X6X6X6X6X6X6X6X6X6X6X6X6X6X6X6X6X6X6X6X6X6X6X6X9X9X9X9X9X9X9X9X9X9X9X9X9XVX9X9X3X3X{.3X9X9X9X9X9X9X3X3X{.{.{.{.{.{.{.{.3XhXVXVXhXhXhXhXhXVXVXVXVXVXVXVX3X9X{.{.{.{.{.{.6X{.9X{.9X3X3X3X3X3X3X3X9X9X9X9X6X6X6X6X6X6X6X6X6X6X6X6X6X6X6X6X3X3X3X{.3X3X{.{.3X3X3X3X3X3X3X9X9X9X9X9X9X9X9X9X9X9X9X9XVXVXVXVX9XVX9X9X9XVXVXVXVXVXVXVX9X9X9X9X9X9X9X9X9X9X9XVX9X9X9XVXVXVXVXVXVX9X9X9X9X9X9X9X9X9XVXVXVX9XVXVXVXVXVXVXVX9X9X9X9X9X9X9X9X9X9X9X9X9X9X9X{.9X9X9X9X9X9X9X6X6X6X6X{.{.{.{.{.{.{.{.{.{.{.{.{.{.{.{.6X6X6X{.6X6X6X6X6X{.6X{.6X{.6X{.{.{.6X{.6X6XVXVXVXVX9XVXVXVXVXVXVXhXhXhXhXVXVXVXhXhXhXhXhXVXhXVXVXVXVXVXVXVXVXVXVXVXVXVXVXVXVXVXVXVXVXVXVXCXCXVXVXVXCXCXCXCXCXCXCXCXBXBXW E T T [ [ ' ' ' ' ' ' ' ' ' ' ' ' ' ' _ _ ' ' ' ' ' ' { { ' ' ' ' ' ' ' ' ' ' ' ' ' ' ' ' ' ' +.+.+.+.o.o.o.o.o.o.+.o.o.o.o.o.o.o.o.o.o.o.o.o.o.+.+.+.+.+.+.+.+.+.+.+.' o.o.o.+.+.+.+.' ' | +.+.+.+.+.o.' ' ' ' o.o.o.' ' ' +. . .{ ' +.+. . . . .' ' +.+.+.+.o.o.o.+.+.+.+.+.+.+.+.+.+.+.+.+.+.+.+.+.+.+. . . . . .+.+.+.+.+.+.+.+.+.+.+.+.+.+.+.+.o.' '  .+.+.+. . . .+.+.+. .{  .+. . . . . . . . .' ' ' ' ' ' ' '  . . . . . . . . . . . .' ' ' ' ' ' ' '  . . . . . . . . . . . .o.o.+.+.+.+.+.o.o.' o.o.o.o.' o.+.+.+.+. .' ' '  . . . . .+.+.+. . . . . . . . . . . . .+. . . . . . . . . . . . . . . . . .+.+. .+. . . . . . .+. .' ' +.+. .'  . . . . . . . . . .+.+.+.+.+.+.+.+.+.+.+.+.+.+.+.+.+.+. . . . . . .+.+.+.+.+.+.+.+.+.+. .+.+.+.+.+.+.+.+.+. . .+.+.+.+. . .+.+. .+. . . . .+.+. . . . . . .+.+. . . .' '  . . . . . . . . . . . . . . . .' ' '  . .' '  . .+.+.+.+.+.+.+.o.o.o.{ o.o.o.o.+.+.+.+.+.+.+.+.+.+.+.' ' |  . .+.+.+. . .'  .+.+.+. .' ' ' ' ' ' ' '  . .' ' ' '  . .' ' ' ' ' '  . .' ' ' ' ' ' ' ' ' '  . .+.+.' ' ' ' | | | | ' | | | | | | | | | ' '  . . . . .+. . .+.+. . . . . . . .+.+.+.+.+.+.+.+.+.+.+.+.+.+.+.+.+.+.+. .+. . . . .+.+. . . . . . . . . . . . . . . . . . .+.+.+.+.' ' ' ' ' ' ' ' ' ' ' ' ' ' ' ' ' ' ' ' ' ' ' ' ' ' &.&.> > . . . . . . d j l l f f j f S S G G S S S S ' _  .+.+.+.w > @ @ @ @ +.                                          ",
"                                                    . . . . . . w w I / z z I I _ _ <.<.$.$.%.%.<.<.<.>.7.7.,.>.+. .#.+.|  .$.$.$.$.>.>.>.$.1.<.u.t.u.u.u.u.e.8.r.e.r.t.t.u.e.7.8.8.8.8.8.8.7.7.7.7.7.8.#.#.) ) | | l l k k a a O . . . ;                       + < . . . . d u U U g C q q p p q 0 g g d d a t k l h h = & O X % $ b b 7X6X{.{.{.{.3X3X3X3X3X4X1X1X1X1X1X1X1X1X1X1X1X1X1X1X1X1X1X1X1X1X1X1X1X1X1X4X4X3X1X1X3X4X3X3X1X1X1X1X1X1X4X4X4X4X4X4X4X4X1X1X1X1X1X1X1X1X1X1X1X1X1X1X1X1X3X3X3X3X1X}.{.3X{.3X3X3X3X{.{.{.{.{.{.{.3X{.3X3X3X{.3X{.3X3X3X3X3X3X3X3X3X3X3X3X3X3X3X3X3X3X3X3X3XhX3X3X3X3X4X1X4X3X4X3X4X1X1X1X1X1X1X1X1X1X1X1X1X4XhXhX4X1X1XhX4X4X4X4X4X4X4XhX3X3X1X1X1X1X3X3X3X1X1X1X3X1X3X4X4X4X4X4X4X4X1X1X1X3X3X3X3X3X3X3X3X3X3X3X3X3X3X3X1X1X1X1X1X1X1X1X1X1X4X1X1X1X4X4X3X3X3X3X3X3X3X3X3X3X3X4X3X3X3X3X3X4X4X3X3X3X3X3X4X4X4X4X4X4X4X4X4X4X4X4X4X4X4X3X3X4X3X4X3X3X3X3X3X3X4X4X3X3X4X4X4X3X3X3X3X3X3X3X3X3X3X3X3X3X3X3X4X3X1X1X1X4X4X4X1X1X1X1X1X3X4X3X3X3X3X3X3X3X3X3X1X}.}.}.1X1X1X1X}.}.1X1X}.}.1X3X3X3X3X3X3X3X3X3X3X3X3X3X3X3X3X3X3X3X3X3X3X3XhXhXhX3X3X3X3XhXhXhXhXgXhXgXgXgXhXgXgXgXgXgXgXgXgXgX4X4X4X4X4X4X4XhX4X3X3X3X3X3XhXhXhX3X3X4XhXhXhXhX4X4X4XhXhXhXhXhXCXCXBXBXE W E T [ [ [ _ _ ' ' ' ' ' ' ] _ _ _ _ _ _ _ _ _ _ _ _ ' ' ' ' ' ' ' ' ' ' ' ' ' ' ' ' ' ' ' ' ' ' ' o.' ' ' ' ' ' ' ' ' ' ' ' ' ' ' ' o.' ' ' o.o.o.o.' ' ' o.o.' ' ' ' ' ' ' ' ' ' ' ' ' ' ' ' ' ' ' ' ' ' ' ' ' ' ' ' ' ' ' ' ' ' '  .' ' ' ' ' ' ' ' ' ' ' o.o.' o.o.o.o.o.o.o.o.o.' ' ' ' { { {  . .' ' ' ' ' ' ' ' ' ' ' o.o.o.+.+.+.o.o.o.o.o.o.' ' ' ' ' ' ' ' ' ' ' ' ' '  . .' ' ' ' ' ' ' ' ' ' ' ' ' ' ' ' ' ' ' ' ' ' ' '  .' ' ' ' ' ' ' ' ' ' ' ' ' ' ' ' ' ' ' ' ' ' ' ' ' ' o.' ' o.' ' ' ' o.o.' ' ' ' ' ' ' ' ' ' '  .' ' ' '  .+.+.' ' '  . .' ' ' ' { ' ' ' ' ' ' ' ' ' ' ' ' ' '  . . . . .'  . .' '  . . .'  . . .' ' '  .+.' ' ' ' ' ' ' ' ' ' '  .+. .+.+. . .+.+.+.+.+.+.+.+. . . . . . . . . . . . .+.+.+.+. . . . .{ { +.+. . . . .+.{ { {  . .' ' ' '  . . . . .' ' '  .+. .{ { { ' ' ' ' ' ' ' ' ' ' ' ' ' ' ' ' ' ' ' ' ' ' ' ' ' ' ' ' ' ' ' ' ' ' ' ' o.o.o.o.o.o.o.' ' ' o.o.o.o.o.o. . .+.+. . .{  .' ' ' ' ' '  .+.' ' ' '  . . .' ' ' ' ' ' ' ' '  .' ' ' ' ' ' ' ' ' ' ' | ' ' ' ' ' ' ' ' ' ' ' ' ' ' ' ' ' ' ' ' ' ' ' ' ' ' ' ' ' ' ' ' ' ' ' ' ' | | ' '  . .' '  .+. .' '  .'  . . .+.+.+.+.+.+.+.+. . . . .' '  . . .+. . . . . . . . . . . .| | | | |  . .|  . . .| |  . .+.+. . .' ' ' ' ' ' ' ' ' ' ' ' ' ' ' ' ' ' ' ' ' _ ' _ ' ' &.&.> 9 . . . . . . d d j l f f l S S l G S S S S S _ _ ' +.+.+.w v @ @ @ @ +.                                          ",
"                                                    . . . . . . 9 9 J J l z I I ' ' 7.5.>.>.<.<.7.7.7.7.e.w.<.>. . .+.+. .+.$.$.#.$.%.,.>.$.<.>.$.#.,.,.,.,. . .,.<.8.8.8.8.8.e.<.<.<.7.7.7.7.7.7.7.7.7.#.#._ _  . .z k k k d d . . . . ;                       < < . . . . d d [ T g f f g Z C f Z Y I l j d d d d i d & & O X # $ b b 6X{.}.}.}.}.1X1X1X1X1X*X%X:X%X%X*X*X*X*X2X;X2X;X2X;X*X;X;X;X;X;X2X2X2X2X%X*X*X*X*X*X*X1X4X2X2X2X2X2X2X2X2X2X2X2X2X2X2X2X2X1X2X1X2X1X&X*X1X1X1X1X1X1X1X1X1X1X1X1X%X%X%X1X1X1X1X1X1X1X1X1X4X1X4X4X4X4X4X4X4X1X4X1X4X4X4X4X2X1X4X1X2X2X2X2X2X2X2X2X2X2X2X2X2X1X2X1X1X1X1X*X2X2X4X2X4X2X4X2X1X1X1X*X*X*X*X*X2X2XgXgXgX2X-X2X2X2X2X2X2X2X2X2X2X2X*X*X1X%X1X1X1X1X4X1X4X4X4X2X2X2X2X2X2X2X2X2X1X1X1X1X1X4X4X4X4X2X2X2X2X4X4X4X2X2X2X2X2X2X2X2X2X2X2X2X2X2X2X2X2X2X4X2X2X2X2X2X2X2X2X2X2X2X2X2X2X2X2X2X2X2X2X2X2X2X2X2X2X2X2X2X2X2X2X2X2X2X2X2X2X2X2X2X2X2X2X2X2X2X2X2X2X2X2X2X2X2X2X2X2X2X2X2X2X2X2X2X2X2X2X2X2X2X2X1X2X2X2X2X1X*X2X2X2X2X2X2X2X2X2X2X2X2X2X2X1X1X*X*X1X1X1X1X*X1X1X1X1X1X1X2XgXgX2XgXgXgXgXgX2X2X2X2X2X2X2XgX2X2X2X2XgX2X2X2X2X2X2XgXgXgXgXgXgXgXgXgXgXgXgXgXgXgXgXgXjXgXgXgXjXjXjXgXgXgXgXgXgX2XgXgXgXgXgXgX2X2X2X2X2XjXjXjX5XgXgXgXgXgXgXhXVXVX6XBXV E H H T U U U / / / ) ] ] ) ) ) ) ) ) ) ) ) ) ) ) _ _ ) ) ) ) ] ] ] ] ) ] ] ] _ _ _ _ ] ] _ _ _ _ _ _ _ _ _ _ _ _ _ _ _ _ _ _ _ _ _ _ _ _ _ _ _ _ _ _ _ _ _ _ _ _ _ _ _ _ ' _ _ _ _ _ _ _ _ _ _ _ _ _ ] ] ] ] ] ] _ _ _ ) ) ) ) ) _ _ _ _ _ _ _ _ ) _ _ _ _ _ _ _ _ _ _ _ _ _ _ _ _ _ _ _ _ _ _ _ _ _ _ _ _ _ _ _ _ _ ' ' ' ' _ _ ' ' ' ' _ _ _ _ _ _ _ _ _ _ _ _ _ _ _ _ _ _ _ _ _ _ _ _ _ _ _ _ _ _ _ _ _ _ _ _ _ _ _ _ _ _ _ _ _ _ _ _ _ _ _ _ ) ) _ _ ) ) _ _ _ _ _ _ _ _ _ _ _ _ _ _ ' ' ' ' ' ' ' ' ' ' ' ' ' ' _ _ _ _ _ _ _ _ _ _ _ _ _ _ _ ' _ _ _ _ _ _ _ _ _ _ _ _ _ _ _ _ _ _ _ _ _ _ _ _ _ ) ) ) ) _ _ _ _ _ _ _ _ _ _ _ _ _ ) _ _ _ _ _ _ _ _ _ _ _ _ _ _ _ _ ' ' _ _ _ _ ' ' ' ' ' _ _ _ _ _ _ _ _ _ _ ' ' _ _ _ _ _ _ _ _ _ _ _ _ _ _ _ _ _ _ _ _ _ _ _ _ _ _ _ _ _ _ _ _ _ _ _ _ _ _ _ _ _ _ _ _ _ _ _ _ _ _ _ _ _ _ _ _ _ _ _ _ _ _ _ ] _ _ _ _ _ _ _ _ _ ' ' ' ' ' _ _ _ _ _ _ ' _ _ ' ' ' ' ' ' ' _ _ _ _ _ _ _ _ _ _ _ _ _ _ _ _ _ _ _ _ _ _ _ _ _ _ _ _ _ _ _ _ _ _ _ _ _ _ _ _ _ _ _ _ _ _ _ _ _ _ _ _ _ _ _ _ _ _ _ ) ) _ _ _ ) ) ) ) ) ) ) ) ) ) ) ) ) ) ) ) _ _ _ _ _ _ _ _ _ _ _ _ _ _ _ _ _ _ _ _ _ _ _ _ ' _ _ _ _ _ _ ' _ _ _ _ _ _ _ _ _ _ _ _ _ ' ' ' ' ' _ _ _ _ ' ' _ _ _ _ _ _ _ _ _ _ _ _ _ _ _ _ ) ) ) ) ) ) ) _ ) ) ) ) ) ) ) ) ) / ) / ) ) +.+.: > . . . . . . d d j j f j S S S l S S l l l l ( _ '  . . .w w . . . . +.                                          ",
"                                                    . . . . . . w 9 I J l z I I | ' 7.5.<.<.<.<.<.<.7.7.e.e.<.>.+. .#.#.+.#.$.,.&.$.$.&.$.#.>.$.#.+.$.$.#.$. . .<.<.r.7.r.e.8.8.7.7.7.7.7.7.7.7.<.<.<.7.#.#._ _ #. .z k k k d d o . . . ;                       < < . . . . d d [ [ g g g C C f Z f Y Y k d a a d d i d & & O X $ 1 b n {.{.}.%X%X%X%X%X%X:X&X&X&X+X+X+X&X;X;X;X;X;X;X;X;X;X;X;X=X=X=X=X=X;X-X-X;X;X;X;X;X;X;X;X2X2X2X;X;X;X;X;X;X;X=X;X;X;X&X&X&X&X&X&X&X&X&X&X;X&X&X&X&X;X&X&X&X;X&X%X%X%X%X%X&X&X&X&X%X%X%X&X&X&X;X;X;X;X;X;X;X;X;X;X;X;X2X2X2X;X2X;X;X;X2X;X2X;X2X;X2X;X;X;X2X2X2X2X2X2X2X2X2X2X2X2X2X2X2X2X2X;X;X;X;X;X&X%X;X-X2XgX-X-X-X-X-X2X-X2X2X2X2X2X2X2X&X&X*X*X2X*X*X%X&X*X2X2X2X2X2X2X2X2X2X2X2X;X;X;X;X;X;X2X2X2X2X2X2X2X2X2X;X;X2X;X;X;X;X;X2X2X;X;X;X;X;X;X;X;X;X-X2X2X-X;X-X;X;X-X-X-X=X-X=X=X-X-X=X=X=X=X-X-X-X-X-X-X-X-X-X-X-X-X-X-X-X-X-X=X-X=X-X=X;X=X-X-X-X=X=X-X;X-X-X-X-X-X-X-X-X-X-X-X-X-X-X-X-X-X$X$X&X:X;X$X;X;X;X;X&X:X;X$X;X$X;X;X-X;X-X-X-X-X-X-X;X;X&X&X&X*X*X*X&X&X&X&X*X;X2X2X2X-X-X-X-X-X2XgX-X-X-X-X-X-X-X-X;X-X-X-X-X-X-X-X2X5X5X5XjXjX5XjXjXjXjXjXjXjXgXgXjXjX5X5X5X5X5X5X5X5X,X,X-X-X-X-X,X5X2X2X2X2X2X-X2X2X-X-X5X,X5X5X5X5X5X5X5X2X2X2X4X3X9XBXV E R R P Y Y I I I / ) ] ] / / ) ) ) ) / / ) ) ) ) ) ) ) ] ) ) ] ] ] ] ] ] ) ] _ _ _ _ ] ] _ _ _ _ ] ] _ _ _ _ _ _ _ _ _ _ _ _ _ _ _ _ _ _ _ _ _ _ _ _ ] ] ] ] _ _ ) ] _ _ _ _ _ _ _ _ _ ] _ ] ] ] ] _ ] ] ] ] ] ] _ _ _ ) ) ) ) ) ) _ ) ) ) ) _ _ _ _ _ _ _ _ _ _ _ _ _ _ _ _ _ _ _ _ _ _ _ _ _ _ _ _ _ _ _ _ _ _ _ _ _ _ _ _ _ _ _ _ ' _ _ _ _ _ _ _ _ _ _ _ _ _ _ _ _ _ _ _ _ _ _ _ _ _ _ _ _ _ ) ) _ _ _ _ _ _ _ _ ) ) ) ) ) ) _ _ ) ) ) ) _ _ ) _ _ _ ) ) ) _ _ _ _ _ _ _ _ _ _ _ _ _ _ ' _ _ _ _ _ _ _ _ _ _ _ _ _ _ _ _ _ _ _ _ _ _ _ _ _ _ _ _ ) _ _ _ _ _ _ _ ) ) _ _ _ _ _ _ _ _ _ _ _ _ _ _ ) ) ) ) ) ) ) _ _ _ _ _ _ _ _ _ _ ) ) _ _ _ _ _ _ _ _ _ _ _ _ _ _ _ _ _ _ _ _ _ _ _ _ _ _ _ _ _ _ _ _ _ _ _ _ _ ' _ _ _ _ _ _ _ _ _ _ _ _ _ _ _ _ _ _ _ _ _ _ _ _ _ _ _ _ _ _ _ _ _ _ _ _ _ _ _ _ _ _ _ _ _ _ _ ) ) _ _ _ _ ) ) _ _ _ _ _ _ _ _ ) ] _ ] _ _ _ _ _ _ _ _ _ _ _ _ ] ] _ _ _ _ _ _ _ _ _ _ _ _ _ _ _ _ _ _ _ _ _ _ _ _ _ _ _ ) ) _ _ ) ) _ _ _ _ ) ) ) ) _ _ _ _ _ _ _ _ ) ) ) ) _ _ _ _ ) ) ) ) ) _ _ _ _ _ _ _ _ ) ) ) ) ) ) ) ) ) ) ) ) ) ) ) ) ) ) ) ) ) ) ) ) _ _ _ _ ) ) ) ) ) _ _ _ _ _ _ _ _ _ _ _ _ _ _ _ _ _ _ _ _ _ _ _ _ _ _ _ _ _ _ _ ) ) ) _ _ _ _ _ ' _ _ _ _ _ _ ' _ _ _ _ _ _ _ _ _ _ _ _ ) ) ) ) ) ) ) ) ) ) ) ) ) ) / / / / ) ) ) / ) / ) / +.+.> 8 . . . . . . t d d j d f l l U I I z j h l j / / '  . . .9 w . . . . +.                                          ",
"                                                    . . . . . . 9 9 l l l l I I ' _ 7.<.%.%.<.<.7.7.8.8.w.e.<.>. .| |  .|  .#.#. . . . .%.$.<.<.&.#.%.$.%.%.#.#.#.#.<.<.qXMXqXu.e.8.7.7.<.<.7.7.<.<.<.7.#.$.| | #.#.J l k d d d O o . . ;                       < + . . @ . d d .. .f f f f g g G S U U z k d d d d d d & = X # $ $ B n {.3X1X1X;X&X$X@X@X@X$X$X=X=X=X=X=X=X-X-X,X=X-X-X,X,X,X-X,X,X,X,X5X5X5X5X&X&X&X&X&X&X&X&X;X&X&X&X&X&X=X=X,X=X$X=X=X=X&X&X&X&X&X&X&X&X&X&X&X&X&X&X&X&X&X&X&X&X&X+X%XOX%X%X&X&X&X&X&X&X&X&X&X&X;X;X&X&X&X&X&X&X&X&X&X&X&X;X;X;X;X;X;X=X;X=X&X;X;X;X;X;X;X&X&X;X&X&X&X&X&X&X&X&X&X&X&X&X&X&X&X&X&X&X&X&X+X+X-X-X,X5X,X,X,X,X,X,X,X,X5X5X5X2X2X&XOXOXOXOX%X%X%X%X&X&X2X2X5X2X2X2X2X2X5X;X=X;X=X&X=X=X=X;X;X;X&X;X=X;X=X;X&X;X;X&X&X&X;X;X;X2X2X2X2X;X;X;X;X;X;X;X;X;X=X=X=X=X=X=X=X=X=X=X=X=X=X=X=X=X,X=X,X,X,X,X,X,X,X,X,X,X,X,X,X,X,X,X=X=X=X=X=X=X=X=X=X=X,X<X,X$X=X=X,X,X,X,X,X$X,X$X,X,X,X,X,X=X=X=X$X$X+X@X$X$X$X$X$X$X=X$X=X=X=X=X=X=X=X-X=X=X=X=X=X;X&X&X&X&X&X&X&X&X&X&X&X%X&X&X2X2X-X=X=X=X,X=X,X,X,X=X,X=X-X=X=X-X=X-X-X-X,X,X-X-X,X,X,X,X,X,X,X,X,X5X5X5X5X2X-X-X5X5X5X5X5X5X5X,X,X,X,X,X,X,X,X,X,X,X,X,X,X,X,X=X,X,X,X,X,X,X,X,X,X,X,X,X,X,X-X2X4X3X{.6XV L H H T U U ( / ) ) ) ] ] ] ] ] ] _ ] ) ) ] ] _ ) _ _ _ _ _ _ _ ' _ _ _ _ _ _ ' ' ' ' _ _ _ _ _ _ _ _ ' ' ' ' ' ' ' ' ' ' ' ' ' ' ' ' ' ' ' ' ' ' ' ' ' ' ' ' ' ' ' ' ' ' ' ' ' ' _ ' ' _ _ _ _ _ _ _ ' _ _ _ _ _ _ _ ' _ _ _ _ _ _ ' _ _ _ _ ' ' ' ' ' ' ' ' ' ' ' ' ' ' ' ' ' ' ' ' ' ' ' ' ' ' ' ' ' ' ' ' ' ' ' ' ' ' ' ' ' ' ' ' ' ' ' ' ' ' ' ' ' ' ' ' _ _ ' ' ' ' ' ' ' ' ' ' ' ' ' ' ' ' ' ' ' ' ' ' _ _ ' ' _ _ ' ' ' ' _ ' _ _ _ ' ' ' ' ' ' ' _ _ ' ' ' ' ' ' ' ' ' ' ' ' ' ' ' ' ' ' ' ' ' ' ' ' ' _ ' ' ' ' ' ' ' ' _ _ ' ' ' ' ' ' ' ' ' ' ' _ ' ' ' ' _ _ _ _ ' ' ' ' ' ' ' ' ' ' ' ' ' ' ' ' ' ' ' ' ' ' ' ' ' ' ' ' ' ' ' ' ' ' ' ' ' ' ' ' ' ' ' ' ' ' ' ' ' ' ' ' ' ' ' ' ' ' ' ' ' ' ' ' ' ' ' ' o.' ' ' ' ' ' ' ' ' ' ' ' ' ' ' ' ' ' ' ' ' ' ' ' ' ' ' ' ' ' ' ' ' ' ' _ ' ' ' ' ' ' ' ' ' _ _ ' ' ' ' ' ' _ _ _ _ ' ' ' ' _ ' ' ' _ ' ' ' ' ' ' ' ' ' ' ' _ _ ' ' ' ' ' ' ' ' ' ' ' ' ' ' _ _ ' ' ' ' ' ' _ ' ' ' ' ' ' _ _ ' ' ' _ _ ' ' ' _ _ _ _ _ _ _ _ ' _ _ ' _ ' ' ' ' ' ' _ _ _ _ _ _ ' ' ' ' ' ' _ _ _ _ _ _ _ _ _ _ _ _ _ ' ' ' ' ' ' ' ' ' ' ' ' ' ' ' ' ' ' ' _ _ _ ' ' ' ' ' ' ' ' ' ' ' ' ' ' ' ' ' _ _ ' ' ' ' ' ' ' ' ' ' ' _ ' ' _ _ ' ' ' ' ' ' ' ' ' ' ' ' ' ' ' ' _ _ _ ' _ _ _ _ _ _ _ _ _ _ _ _ _ _ _ _ _ _ _ _ ] ] _ _ _ _ _ _ ' ] +.+.> 8 . . . . @ @ d h l l k k z z _ _ / I l h l l I / '  . .+.9 9 . . . . +.                                          ",
"                                                    . . . . . . 9 8 l z l z I I ' _ 7.<.>.%.<.<.7.7.8.8.8.8.>.>.#. . . . .#.#.#.+.+. .| &.#.>.>.&.#.$.$.%.%.#.#.#.#.<.<.MXqXqXi.8.8.7.7.<.<.7.7.<.<.7.8.#.$.| | #. .I z k k d d O O . . ;                       < + . . o . d r .. .f g g g f g Y G U Y z k d t d d t d & = X # $ $ B m {.4X%X%X;X=X#X@X@X@X#X#X#X#X$X$X,X$X,X<X=X$X=X$X,X,X,X,X,X,X,X,X,X,X,X,X&X&X+X&X&X&X&X&X&X&X+X+X$X$X=X=X<X<X$X$X$X$X+X+X+X+X&X+X&X+X&X+X&X+X&X+X&X+X&X&X&X+X+X+X+X.X.X.X+X&X&X+X+X+X+X+X+X&X&X&X&X&X+X+X&X&X+X+X+X+X&X&X&X&X=X=X=X=X=X&X&X&X&X&X=X&X&X&X$X$X&X&X&X+X&X+X&X+X&X+X&X+X&X&X=X&X&X&X+X+X+X+X=X,X,X,X,X,X>X,X,X,X,X,X,X,X,X,X,X=X.X.X.X|.OXOX|.|.+X+X;X-X5X,X,X,X,X,X,X=X=X$X$X$X&X&X&X&X&X&X$X$X$X=X=X$X+X+X&X&X&X&X&X=X=X=X=X=X=X=X=X=X=X=X=X$X&X&X$X$X$X$X=X$X=X=X=X$X=X$X=X$X=X<X,X,X,X,X,X<X,X,X,X,X,X,X,X,X,X,X,X,X,X,X=X,X,X,X,X,X,X<X<X<X<X<X<X<X<X<X,X,X<X<X<X<X<X<X,X,X,X$X$X#X#X#X+X+X+X+X+X+X+X$X$X@X$X$X=X$X=X@X=X$X=X$X=X$X=X=X+X+X&X+XOXOX&X+X&X+X+X.X+X+X;X=X,X,X,X,X,X,X,X,X,X,X,X,X,X,X,X,X$X$X,X,X,X,X,X,X,X,X,X,X,X,X,X,X,X,X,X,X,X,X,X,X,X,X,X,X,X,X,X,X,X,X<X<X,X,X,X,X,X,X,X,X,X,X,X=X=X,X,X,X,X,X,X,X,X,X,X,X,X,X,X-X2X4X{.6XK E H R P P U I / ) ) ) / / / ] ] ] _ _ ) ] ] _ _ ) _ _ _ _ _ _ _ _ _ _ _ _ _ _ ' ' ' ' ' ' ' ' ' _ _ _ ' ' ' ' ' ' ' ' ' ' ' ' ' ' ' ' ' ' ' ' _ ' ' ' ' _ ' ' ' ' ' ' _ ' ' ' ' ' ' ' ' ' ' _ _ _ _ _ _ _ _ _ _ _ _ _ _ _ _ _ _ _ _ _ _ _ _ _ ' ' ' ' ' ' ' ' ' ' ' ' ' ' ' ' ' ' ' ' ' ' ' ' ' ' ' ' ' ' ' ' ' ' ' ' ' ' ' ' ' ' ' ' ' ' ' ' ' ' ' _ ' ' ' ' ' ' ' ' ' ' ' ' ' ' ' _ ' ' ' ' ' ' ' ' ' ' _ _ _ _ _ _ ' _ _ ' ' ' ' ' _ _ _ ' ' ' ' ' ' ' _ _ ' ' ' ' ' ' _ _ ' ' ' ' ' ' ' ' ' ' ' ' ' ' ' _ _ _ ' ' ' ' ' ' ' ' _ _ ' _ _ ' ' ' ' ' ' ' ' _ ' ' ' ' _ _ _ _ ' ' ' ' ' ' ' ' _ _ _ _ ' ' _ _ _ ' ' ' ' ' ' ' ' ' ' ' ' ' ' ' ' ' ' ' _ ' ' ' ' ' ' ' ' ' ' ' ' ' ' ' ' ' ' ' ' ' ' ' ' ' ' ' ' ' ' ' ' ' ' ' ' ' ' ' ' ' ' ' ' ' _ _ ' ' ' ' ' ' ' ' ' ' ' ' ' ' ' ' ' ' ' _ _ ' ' ' _ _ _ _ _ _ ' ' ' ' _ _ _ _ _ _ _ _ ' ' ' ' ' ' ' ' ' ' ' ' ' ' ' ' ' ' ' ' _ _ ' ' ' ' ' ' ' ' ' ' ' ' ' ' ' ' ' ' ' ' ' ' _ _ _ _ ' ' _ _ _ ' ' _ _ _ ' _ _ _ _ _ _ _ _ _ ' ' _ _ _ _ ' ' ' ' _ _ _ _ _ _ _ _ _ _ _ _ _ _ _ _ _ _ _ _ _ _ _ _ _ _ _ _ ' ' ' ' ' ' ' ' ' ' ' ' ' ' ' ' ' ' ' _ _ _ ' ' ' ' ' ' _ ' ' ' ' ' ' ' ' ' _ _ _ ' ' ' _ ' ' ' ' ' _ _ ' ' _ _ ' ' _ _ ' ' ' ' ' ' ' _ ' ' ' ' _ _ _ _ _ _ _ _ _ _ _ _ _ _ _ _ _ _ _ _ ' _ _ _ ] ] ] ) ) ) _ _ ' ] +.+.: > . . . . @ @ d d l l d h l z ' _ _ I l h l l I / _  .+.+.9 9 . . . . +.                                          ",
"                                                    . . . o . . w 9 I I z I J I | ' 7.<.>.%.<.<.7.8.8.8.r.w.<.<.|  .#.#.#.#.$.$.#.#.+.#.&.%.%.>.$.%.%.%.<.<.#.#.%.$.1.1.MXNXMXMXw.e.7.7.7.<.7.7.8.7.8.8.$.$.' _  . .z J k l d d O O . . =                       < < . . . . d d  ._ f f 0 u u u j f l S d d d d h l i d = = O X $ 1 B m CXhXgXjXmXmXkXtXtXtXcXlXlXkXkXuXkXcXcXcXkXuXlXcXcXcXcXcXlXlXvXvXkXvXxXkXrX,X,X,X,X,X,X,X,X,XzXjXxXxXkXxXkXkXxXxXxXxXxXxXxXpXxXxXxXkXkXpX5XpXxXkXxXkXxXkXjXjXzXjXjX,X,X,XzXzXjXjXjXzXjXzXxXxXxXxXxXnXnXxXnXnXnXxXxXxXxXzXzXxXzXzXzXzXzXzXzXzXzXzXzXzXzXzXkXkXkXkXkXkXkXrXkXrXkXrXkXrXkXkXkXjXjXjXjXjXrXrXkXvXvXvXcXlXlXcXcXsXlXlXlXcXvXvXvXzXkXrXrXrXrXjX,X,X5XjXzXvXvXvXvXcXvXcXzXkXkXkXxXxXxXxXxXxXxXxXxXnXnXnXxXxXxXzXxXxXkXkXkXxXxXzXzXzXzXzXzXzXkXxXzXnXnXnXnXzXnXzXzXzXzXzXzXzXzXzXzXzXzXzXmXvXnXnXnXnXnXxXxXxXxXxXxXxXxXxXnXnXnXnXxXxXjXjXzXzXnXnXxXxXxXxXzXxXzXzXxXxXxXxXxXxXxXxXzXzXzXzXzXzXzXzXjXjXjXjXjXjXzXjXzXxXjXkXjXkXzXzXzXxXzXxXzXzXzXxXxXkXjXkXkXkXjXkXjXjXjXrXjXkXzXzXnXvXnXvXvXvXzXzXvXvXvXzXzXzXzXzXzXzXzXzXnXzXnXnXmXvXnXmXnXnXnXmXvXvXvXvXvXvXvXvXvXvXvXvXzXzXvXvXvXnXnXnXmXnXnXnXnXnXnXnXnXnXnXnXzXzXnXnXnXnXnXvXnXnXnXnXmXmXjXjX;X1X3X{.L L H H P P I / / / / / ] ] ] ] ) ) ) ) ) ) ) ) / _ _ _ ] _ _ _ _ _ ] ] _ ' ' ' ' ' _ _ ' ' ' ' ' ' ' ' ' ' ' ' ' ' ' ' ' ' ' _ _ ' ' ' ' ' ' ' ' ' ' ' ' _ _ ' ' _ _ _ _ _ _ _ ' _ _ _ _ _ _ _ ' ' ' ' _ _ ' ' ' ' ' _ _ _ _ _ _ _ ' ' _ _ _ _ ' ' _ _ ' ' ' ' ' ' ' ' ' ' ' ' ' ' ' ' ' ' ' ' _ _ ' _ ' ' ' ' ' ' ' ' ' ' ' ' ' ' ' ' _ _ _ _ ' _ ' ' ' ' ' ' ' _ _ _ _ _ ' ' ' ' ' ' ' _ _ _ _ _ _ _ ' ' ' _ _ _ _ ' _ _ _ _ _ _ _ ' _ _ ' _ _ _ _ ' _ _ _ _ _ _ _ _ ' ' ' ' ' ' ' ' ' ' ' ' _ _ _ ' ' ' ' ' ' ' ' ' ' ' ' ' ' ' ' ' ' ' ' ' ' ' ' ' ' ' _ _ _ _ _ _ _ _ _ _ _ _ _ _ ' _ _ _ _ _ _ _ ' ' _ _ _ _ ' ' _ _ ' ' ' ' ' ' ' ' ' ' ' ' ' ' ' ' ' ' ' ' ' ' ' ' ' ' ' ' ' ' ' ' ' ' ' ' ' ' ' ' ' ' ' ' ' ' ' ' ' ' _ _ ' ' ' ' ' ' ' ' ' ' ' ' ' ' ' _ _ _ ' ' ' ' _ _ _ _ _ _ _ _ _ _ _ ' ' ' ' ' _ _ ' ' ' _ _ _ _ ' ' ' ' ' ' _ ' ' ' ' ' ' _ _ _ ' ' ' ' ' ' ' ' ' ' ' ' ' ' ' ' ' ' ' ' ' ' ' ' ' ' ' _ _ _ _ _ ' ' ' ' ' ' ' ' ' ' ' ' ' ' _ _ _ _ _ _ _ _ _ _ _ _ ' _ _ _ _ _ _ _ _ _ _ _ _ _ _ _ _ ] ] _ _ _ _ ' ' _ _ _ _ _ _ ' ' _ _ _ _ _ _ ' ' ' ' ' ' ' ' ' ' ' ' ' ' ' ' ' ' ' ' ' ' ' ' ' ' ' ' ' ' ' ' ' ' ' ' ' ' ' _ _ _ _ ' ' ' ' ' ' _ ' _ _ _ ' ' ' _ ' ' ' _ _ _ _ _ _ _ _ _ ' ' ' ' _ _ _ _ _ _ _ _ _ _ _ _ _ _ _ _ _ _ _ _ ' ' _ ' ' ' _ _ ] _ +.O.: : . . . . + o h h l l k d l h _ ) I I h k l z _ _ | '  . .9 9 . . . . +.                                          ",
"                                                    . . @ O . . 9 9 I I z I J I | ' 7.7.<.<.<.<.8.8.w.w.r.w.<.<.| |  .+.#.#.#.$.#.#.#.#.&.%.%.>.$.$.%.%.<.<.$.$.$.$.8.8.MXMXNXNXe.e.7.<.<.<.8.7.8.8.w.e.,.$.' _  . .z z k l d d O O . . =                       < < . . @ . d d _ _ f l e u u u l l S S d d i d h j i d = = O X $ 1 B m CXhXmXzXmXzXuXfXfXfXiXiXdXaXdXaXaXaXaXaXwXaXaXaXaXaXaXaXsXyXsXsXtXiXpXuXrX,X,X,X>X,X,X,X,X>XkXrXkXrXkXuXpXpXpXuXpXpXpXpXeXeXpXpXpXeXeXeXeXeXpXpXpXpXpXpXrXrXkXrXrXrX,X,XkXkXrXrXxXxXkXkXkXpXkXkXkXkXxXkXxXkXkXkXuXuXkXkXkXkXkXkXkXkXkXkXkXkXkXkXkXkXkXuXtXtXtXtXtXtXfXfXfXfXfXfXfXfXfXtXpXrXpXrXrXrXpXpXtXtXcXdXdXaXdXdXsXaXwXwXsXsXsXsXdXtXtXfXfXfXrXrXrXrXrXrXuXtXsXsXdXdXsXdXdXyXyXiXuXkXkXkXkXkXkXkXlXlXkXkXkXkXkXkXuXuXuXuXuXuXuXuXkXkXuXuXuXuXuXkXkXkXzXkXzXkXkXkXxXkXzXkXkXkXkXkXkXkXkXkXkXzXkXkXkXkXkXxXxXxXkXkXxXxXxXxXxXkXxXkXxXkXkXkXkXkXzXzXxXxXkXkXkXkXkXxXkXxXkXkXxXxXxXkXkXkXkXzXkXkXzXzXrXrXrXjXkXkXkXkXkXkXkXkXkXkXkXkXkXkXkXkXkXkXkXkXuXuXtXtXtXtXtXtXtXtXfXfXfXpXuXuXlXvXvXvXzXzXkXkXvXvXkXkXkXkXzXzXzXzXkXkXzXzXvXvXvXvXvXvXvXvXvXvXkXlXlXlXcXcXcXcXcXcXcXlXuXuXlXcXvXzXzXzXvXvXvXzXvXvXzXzXzXzXzXzXzXzXnXnXxXnXvXvXnXvXvXzXmXmXjXjX*X1X3X{.L L H H P Y I / / / ] ] ] ] ] ] ) ) ] ) ) ) ) ) _ _ _ ' _ _ _ ' _ _ _ _ _ ' ' ' ' ' _ _ ' ' ' ' ' ' ' ' ' ' ' ' ' ' ' ' ' ' ' ' ' ' ' ' ' ' ' ' ' ' ' ' ' ' _ ' ' _ ' _ _ _ _ _ ' ' ' ' _ _ _ _ ' _ ' ' _ ' ' ' ' ' ' ' ' ' _ ' ' ' ' ' _ _ _ ' ' ' ' ' ' ' ' ' ' ' ' ' ' ' ' ' ' ' ' ' ' ' ' ' ' _ ' _ ' ' ' ' ' ' ' ' ' ' ' ' ' ' ' ' _ _ _ _ ' ' ' ' ' ' ' ' ' ' _ _ _ _ ' ' ' ' ' ' ' ' ' _ _ _ _ _ ' ' ' _ _ _ _ ' _ _ _ _ ' ' ' ' ' ' _ _ _ _ _ _ ' ' ' ' ' _ ' ' ' ' ' ' ' ' ' ' ' ' ' ' _ _ ' ' ' ' ' ' ' ' ' ' ' ' ' ' ' ' ' ' ' ' ' ' ' ' ' ' ' ' _ _ _ _ ' _ _ _ _ _ _ _ _ _ ' _ _ _ _ _ _ ' ' ' _ _ _ _ ' ' _ _ ' ' ' ' ' ' ' ' ' ' ' ' ' ' ' ' ' ' ' ' ' ' ' ' ' ' ' ' ' ' ' ' ' ' ' ' ' ' ' ' ' ' ' ' ' ' ' ' ' ' _ _ ' ' ' ' ' ' ' ' ' ' ' ' ' ' ' ' _ _ ' ' ' ' _ _ _ _ _ ' ' ' ' _ ' ' ' ' ' ' _ _ _ _ _ _ _ _ _ ' ' ' ' ' ' ' ' _ ' ' ' ' _ _ ' ' ' ' ' ' ' ' ' ' ' ' ' ' ' ' ' ' ' ' ' ' ' ' ' ' ' ' _ _ _ ' ' ' ' ' ' ' ' ' ' ' ' ' ' ' ' ' ' ' ' ' _ _ _ _ _ _ ' ' ' ' ' ' ' _ _ _ ' _ _ _ _ ' _ _ _ _ _ _ ' ' ' ' _ ' ' _ ' ' ' ' _ _ _ ' ' _ ' ' ' ' ' ' ' ' ' ' ' ' ' ' ' ' ' ' ' ' ' ' ' ' ' ' ' ' ' ' ' ' ' ' ' ' ' ' ' ' ' _ _ ' ' ' ' ' ' ' ' ' _ _ ' ' ' ' ' ' ' ' ' ' ' ' ' ' ' ' ' ' ' ' ' _ _ _ _ _ _ _ _ _ _ _ _ _ _ _ _ _ _ _ ' ' ' ' ' ' _ _ ] _ +.O.: : . . . . + o h h k k h d z l _ ) / I k l l l _ _ ' '  . .9 5 . . . . +.                                          ",
"                                                    . . @ O . . 9 9 I I l J I I ' _ <.<.<.<.<.<.8.w.r.r.t.r.7.7. . . .#.#.$.%.%.#.#.+.+.#.&.$.$.#.#.#.#.<.<.#.$.1.<.t.r.u.u.i.u.r.r.8.8.8.8.w.w.8.8.w.w.<.%. .'  . .l z k k d d + O . @ ;                       = ; . . O . d d  . .I I i d d d S l I I d k d d h j i d = = O X $ 1 B m CXhXmXmXmXmXcXcXdXdXvXcXsXwXwXwXwXwXwXwXwXwXwXwXwXwXwXwXaXwXsXcXtXsXtXtXtXrXrXrXrXrX,X>XrXeXcXtXtXtXyXyXyXyXyXyXyXyXyXwXiXyXyXyXyXyXyXyXyXyXyXaXaXsXsXyXiXsXcXcXiXtXiXiXuXuXuXuXvXvXkXkXlXiXlXcXlXlXlXiXsXsXsXsXsXsXcXcXsXsXcXcXcXcXcXcXcXcXcXcXcXcXbXcXsXsXsXsXsXdXaXaXaXaXaXaXdXdXsXsXcXcXcXcXcXcXsXsXaXaXsXsXsXaXsXsXaXaXaXaXaXsXsXsXsXsXsXaXaXdXdXdXsXsXsXdXcXsXsXsXaXsXsXsXaXaXsXsXcXcXcXcXbXbXbXbXbXbXbXbXbXbXbXbXcXcXcXcXcXbXbXbXbXbXbXbXbXbXbXbXvXvXvXvXvXvXvXcXvXvXvXvXvXvXvXvXvXvXvXvXvXvXvXvXvXvXvXvXvXcXvXvXvXvXvXvXvXvXvXvXvXcXvXcXvXvXvXvXvXvXcXcXbXvXvXvXcXcXcXcXcXcXcXcXcXcXcXcXbXbXvXvXcXcXcXvXvXvXvXvXvXvXvXvXcXcXbXvXvXvXvXvXvXvXvXvXbXcXcXcXsXsXcXcXcXsXsXdXsXsXsXcXbXbXbXbXbXbXbXbXbXbXbXbXbXbXbXbXbXbXbXbXbXbXbXbXvXvXbXbXvXvXvXvXbXbXbXbXbXbXbXbXbXbXbXbXbXbXbXbXbXbXbXbXbXbXbXbXvXvXvXvXvXvXvXbXvXvXvXvXvXvXvXvXvXvXvXvXvXvXjXjX*X1X3X6XL L R R U I / ) ` ` ` ` ] ] ` ` ] ] _ _ _ _ _ _ _ _ ' ' ' ' ' ' ' ' _ _ _ _ _ ' ' ' ' _ ' ' ' ' _ _ _ _ ' ' ' ' ' ' ' ' ' ' ' ' ' ' ' ' ' ' ' ' ' ' ' ' ' ' ' ' ' ' ' ' ' ' ' ' ' ' ' ' ' ' _ ' ' ' ' ' ' _ _ _ _ _ ' ' ' ' ' ' ' ' ' ' ' ' ' ' ' ' ' ' ' ' ' ' ' ' ' ' ' ' ' ' ' ' ' ' ' ' ' ' ' ' ' ' ' ' ' ' ' ' ' ' ' ' ' ' ' ' ' ' ' ' ' ' _ ' ' ' _ ' ' ' ' ' ' ' ' ' ' ' ' ' ' ' ' ' ' ' ' ' _ ' ' ' ' ' ' ' ' ' _ _ _ _ ' ' ' ' ' ' ' ' ' ' ' ' ' ' ' ' ' ' ' ' ' ' ' ' ' ' ' ' ' ' ' ' ' ' ' ' ' ' ' ' ' ' ' ' ' ' ' ' ' ' ' ' ' ' ' ' ' ' ' ' ' ' ' ' ' ' ' ' ' ' _ _ ' ' ' ' ' ' ' ' ' ' ' ' ' ' ' ' ' ' ' ' _ _ _ ' ' ' ' ' ' ' ' ' ' ' ' ' ' ' ' ' ' ' ' ' ' ' ' ' ' ' ' ' ' ' ' ' ' ' ' ' ' ' ' ' ' ' ' ' ' ' ' ' ' ' ' ' ' ' ' ' ' ' ' ' ' ' ' ' ' ' ' ' ' ' ' ' ' _ _ _ ' ' ' ' ' ' ' ' ' ' ' ' ' ' _ _ ' ' ' ' ' ' ' ' ' ' _ ' ' ' ' ' ' ' ' _ ' ' ' ' ' ' ' ' ' ' ' ' ' ' ' ' ' ' ' ' ' ' ' ' ' ' ' ' ' ' ' ' ' ' ' ' ' ' ' ' ' ' ' ' ' ' ' ' ' ' ' ' ' _ ' ' ' ' ' ' ' ' ' ' ' ' ' ' ' ' ' ' ' ' ' ' _ ' ' ' ' ' ' ' ' ' ' ' ' ' ' ' ' ' ' ' ' ' ' _ ' ' ' ' ' ' ' ' ' ' ' ' ' ' ' ' ' ' ' ' ' ' ' ' ' ' ' ' ' ' ' ' ' _ _ _ ' ' ' ' ' ' ' ' ' ' ' ' ' ' ' ' ' ' ' ' ' ' ' ' ' ' ' ' ' ' ' ' ' ' ' ' ' ' ' ' ' ' ' ' _ _ ' ' ' ' _ _ ' ' ' ' ' ' ' ' _ _ _ ' _ _ +.o.: : . . . . O O k k l k k h I I +.+.| | I I z z _ _ ' ' #. .9 9 . . . . +.                                          ",
"                                                    . . . O . . 9 9 / / z J J I ' _ <.1.<.<.<.<.8.w.t.r.r.8.7.7. . . . .#.#.#.#.&.#.+.+.#.&.&.&.&.#.%.%.<.<.%.>.<.<.r.t.u.u.MXMXr.r.8.8.7.7.e.e.e.e.w.w.<.>. .'  . .l z k l d d + + @ @ ;                       < ; . @ + @ h d  . .( ( d d f f z z I I h k d d h h i d = = O X $ 1 B m CXCXmXmXmXvXkXdXaXdXcXcXsXaXaXwXwXwXwXwXwXwXwXwXwXwXwXwXaXaXsXcXfXdXfXfXtXrXrXrXrXrX,X>XfXeXsXaXaXfXwXwXwXwXwXwXwXwXwXyXyXyXyXyXyXyXwXwXyXyXyXyXyXyXyXyXwXwXaXaXaXaXsXsXtXtXtXtXcXcXuXtXwXwXyXsXyXyXiXyXyXaXaXaXaXaXsXsXaXaXaXaXsXaXsXaXsXsXsXsXsXsXsXsXdXsXaXaXaXaXaXaXaXaXaXaXaXdXdXsXcXcXcXdXcXdXsXsXaXdXsXsXsXsXsXsXaXaXaXaXaXsXsXsXsXsXsXsXsXsXsXcXcXsXsXsXsXsXaXaXaXaXsXsXsXaXsXsXsXsXsXsXsXsXsXsXsXsXsXsXsXsXsXsXsXsXcXsXbXcXbXcXbXcXbXcXbXcXbXsXbXcXbXsXbXcXbXcXbXcXbXcXbXcXbXsXbXcXbXcXbXcXbXsXcXsXbXsXbXsXbXcXcXsXcXsXcXsXcXsXcXsXcXsXcXsXcXcXbXcXcXcXcXcXcXcXcXcXcXcXcXcXcXsXsXsXsXdXdXdXcXcXcXcXsXsXsXsXcXcXcXcXcXcXcXcXcXcXbXbXbXbXbXbXbXsXsXsXcXcXcXsXcXbXbXcXcXsXsXsXcXcXcXcXbXcXcXcXcXcXbXcXcXcXcXcXcXcXcXcXbXcXbXcXbXcXvXbXbXbXbXbXbXbXbXbXbXbXbXvXbXbXbXbXbXvXbXbXbXbXbXbXbXbXbXbXvXvXvXvXbXbXvXvXvXvXvXvXvXvXvXvXvXvXvXvXvXvXvXvXkXzX*X1X{.6XL E R P U _ _ _ ` ` ` ` ` ' ' ' _ _ _ _ _ _ ' ' ' ' ' ' ' ' ' ' ' ' ' ' _ _ _ ' ' ' ' ' ' ' ' ' _ _ _ _ ' ' ' ' ' ' ' ' ' ' ' ' ' ' ' ' ' ' ' ' ' ' ' ' ' ' ' ' ' ' ' ' ' ' ' ' ' ' ' ' ' ' ' ' ' ' ' ' ' ' ' _ _ _ ' ' ' ' ' ' ' ' ' ' ' ' ' ' ' ' ' ' ' ' ' ' ' ' ' ' ' ' ' ' ' ' ' ' ' ' ' ' ' ' ' ' ' ' ' ' ' ' ' ' ' ' ' ' ' ' ' ' ' ' ' ' _ ' ' ' ' ' ' ' ' ' ' ' ' ' ' ' ' ' ' ' ' ' ' ' ' ' ' ' ' ' _ ' ' ' ' ' _ _ ' _ ' ' ' ' o.o.' ' ' ' ' ' ' ' ' ' ' ' ' ' ' ' ' ' _ _ _ _ _ _ ' ' ' ' ' ' ' ' ' ' ' ' ' ' ' ' ' ' ' ' ' ' ' ' ' ' ' ' ' ' ' ' ' ' ' ' ' ' ' ' ' ' ' ' ' ' ' ' ' ' ' ' ' _ ' ' ' ' ' ' ' ' _ _ ' ' ' ' ' ' ' ' ' ' _ ' ' ' ' ' ' ' ' ' ' ' ' ' ' ' ' ' ' ' ' ' ' ' ' ' ' ' ' ' ' ' ' ' ' ' ' ' ' ' ' ' ' ' ' ' ' ' ' ' ' ' ' ' ' ' ' ' ' ' ' ' ' ' ' ' ' ' ' ' ' ' ' ' ' ' ' ' ' ' ' ' ' ' ' ' ' ' ' ' ' ' ' ' ' _ ' ' ' ' ' ' ' ' ' ' ' ' ' ' ' ' ' ' ' ' ' ' ' ' ' ' ' ' ' ' ' ' ' ' ' ' ' ' ' ' ' ' ' ' ' ' ' ' ' ' ' ' ' ' ' ' ' ' ' ' ' ' ' ' ' ' ' ' ' ' ' ' ' ' ' ' ' ' ' ' ' ' ' ' ' ' ' ' ' ' ' ' ' ' ' ' ' _ ' ' ' ' ' ' ' ' ' _ ' ' ' ' ' ' ' ' ' ' ' ' ' ' ' ' ' ' ' ' ' ' ' ' ' ' ' ' ' ' ' ' ' _ _ _ ' ' ' ' ' ' ' ' ' ' ' ' ' ' ' ' ' ' ' ' ' ' ' ' ' ' ' ' ' ' ' ' ' ' ' ' ' ' ' ' ' ' ' ' ' _ ' ' ' ' _ _ ' ' ' ' ' _ _ _ _ _ _ ' _ _ +.o.: : . . . . O O h k l h h h ) _ #.#. . .) I z l _ _ ' ' #.+.9 9 . . . . +.                                          ",
"                                                    . . . O . @ 9 9 _ _ I I I I  .| 8.7.<.<.<.<.w.w.t.r.8.7.<.<.#.#.#.#.#.#.#.#.+. .| |  . . . .| |  . . .#. . .1.1.t.t.t.t.u.t.w.r.8.8.8.7.8.8.r.w.r.r.<.>.| _  . .k z k l d d + + @ O ;                       ; ; @ @ + O l h 7.7.#. .z z l l l l z F h j i d d j i d & & X # $ 1 B m CXhXzXzXzXlXfXfXfXfXkXuXcXsXsXaXaXaXaXaXaXaXaXaXaXaXaXaXsXsXsXsXeXeX>X#X#X#X#X#X@X@X@X@X>X>XfXfXwXeXeXeXeXeXeXeXeXeXeXeXwXwXeXwXwXeXeXeXwXwXwXwXeXwXwXeXeXeXeXeXeXeXwXwXeXeX>X>XeX>X>X>XeXeXwXwXwXeXyXwXeXeXwXwXeXeXwXwXwXwXwXeXwXwXwXwXwXwXwXwXwXfXwXaXyXtXiXtXyXtXtXtXtXtXtXtXtXtXtXtXiXiXpXtXpXyXyXiXiXiXiXiXiXiXiXiXsXaXsXyXyXyXsXsXyXdXyXtXaXdXdXcXcXlXlXiXiXaXaXyXyXyXaXsXsXsXsXsXyXwXwXwXwXwXwXwXwXwXwXwXwXwXwXaXiXtXlXiXlXiXlXiXlXiXlXiXlXiXlXiXyXyXyXyXsXsXsXsXsXaXsXaXyXyXyXyXsXaXyXyXyXyXyXyXyXyXyXyXyXyXyXyXyXyXyXyXyXyXyXyXyXwXyXyXyXyXyXyXyXyXyXyXyXyXyXyXyXyXyXyXyXyXyXaXdXyXtXfXfXtXtXaXtXtXtXtXfXfXtXtXyXyXyXyXyXtXyXtXaXtXtXtXtXtXaXdXtXuXsXuXtXtXsXcXiXtXtXtXtXtXtXtXtXaXaXaXaXaXaXaXaXaXaXaXaXaXaXaXfXaXdXaXdXaXaXaXdXaXdXaXsXdXsXsXcXcXcXcXcXcXlXcXcXcXcXkXkXkXcXcXsXdXdXdXdXdXaXaXtXtXuXuXiXiXiXtXtXtXiXiXiXiXiXsXlXuXcXkXzXzXrXjX*X1X{.6XL E R R U _ _ _ ' ' ' ` ` ` ' ' ' ' _ _ ' ' ' ' ' ' { ' ' ' ' ' ' ' ' ' ' ' ' ' ' ' ' ' _ _ _ _ _ _ _ ' ' ' ' ' ' ' ' ' ' ' ' ' ' ' ' ' ' ' ' ' ' ' ' ' ' ' ' ' ' ' ' ' ' ' ' ' ' ' ' ' ' ' ' ' ' ' _ ' ' ' ' ' ' ' ' ' ' ' ' ' ' ' ' ' ' ' ' ' ' ' ' ' ' ' ' ' ' ' ' ' ' ' ' ' ' ' ' ' ' ' ' ' ' ' ' ' ' ' ' ' ' ' ' ' ' ' ' ' _ _ ' ' ' ' ' ' ' ' ' ' ' ' ' ' ' ' ' ' ' ' ' ' ' ' ' ' ' ' ' ' ' ' ' ' ' ' _ _ ' ' ' ' ' ' ' ' _ _ ' ' ' ' ' ' ' ' ' ' ' ' ' ' ' ' ' ' ' ' ' _ ' _ _ _ _ ' ' ' ' ' ' ' ' ' ' ' ' ' ' ' ' ' ' ' ' ' ' ' ' ' ' ' ' ' ' ' ' ' _ ' ' ' ' ' ' ' ' ' ' ' ' ' ' ' ' ' ' ' _ _ ' ' ' ' ' ' ' ' ' ' ' ' ' ' ' ' _ ' ' ' ' ' ' ' ' ' ' ' ' ' ' ' ' ' ' ' ' ' ' ' ' ' ' ' ' ' ' ' ' ' o.o.' ' ' ' ' ' ' ' ' ' ' ' ' ' ' ' ' ' ' ' ' ' ' ' ' ' ' ' ' ' ' ' ' ' ' ' ' ' ' ' ' ' ' ' ' ' ' _ ' ' ' ' ' ' ' ' ' ' ' ' ' ' ' ' ' ' ' ' ' ' ' ' ' ' ' ' _ _ _ ' ' ' ' ' ' ' ' ' ' ' ' ' ' ' ' ' ' ' ' ' ' ' ' ' ' ' ' ' ' ' ' ' ' ' ' ' ' ' ' ' ' ' ' ' ' ' ' ' ' ' ' ' ' ' ' ' ' ' ' ' ' ' _ ' ' ' ' ' ' ' ' ' ' ' ' ' ' ' ' ' ' _ _ ' ' ' ' ' ' ' ' ' ' ' ' ' ' ' ' ' ' ' ' ' ' ' ' ' ' ' ' ' ' ' ' ' _ _ ' ' ' ' ' ' ' ' _ ' ' ' ' _ ' ' ' ' ' ' ' ' ' ' ' ' ' ' ' ' ' ' ' ' ' ' ' ' ' ' ' ' ' ' ' ' ' ' ' ' ' ' ' ' ' ' ' ' ' ' ' ' ' _ ' ' _ _ _ _ _ _ _ ' _ _ +.o.: : . . . . + O h h h d h h ) _  . . . .) ) J z ( I _ _ +.+.9 9 . . . . +.                                          ",
"                                                    . . . O . o w e ' | I / I I  . .8.7.<.<.<.<.w.8.r.w.7.7.<.5.#.#.#.#.#. . .#. . . .|  . .| | | | #.#. .#. . .<.<.8.r.r.u.t.u.w.w.e.w.8.7.8.8.w.8.w.w.<.<. .'  . .l z k l d d + + @ O ;                       ; ; @ @ + + z z 9.7.&.+.z z l l l l F I h l d d d f i d & & O # $ 1 B m CXhXzXxXxXlXeXfXfXfXcXkXbXsXsXdXaXaXsXdXaXdXaXaXsXdXsXsXsXsXsXsXeXeX#X#X#X#X#X@X@X@X@X@X>X>XyXtXyXwXwXeXeXeXeXeXeXeXeXeXwXyXyXpXpXyXpXpXpXpXpXpXyXyXyXwXwXeXeXeXeXeXyXyXeXeX>X>X>X>X>X>XeXeXwXaXyXyXaXaXyXyXyXyXwXwXwXwXyXyXyXyXyXyXyXyXaXaXyXyXaXyXyXsXiXlXlXiXiXpXpXpXiXiXiXiXiXuXiXiXyXyXiXiXiXiXiXyXyXiXiXiXiXiXlXiXsXsXsXiXiXiXiXiXsXsXiXaXiXsXcXcXcXcXcXcXcXsXcXcXiXiXiXiXlXlXlXiXsXsXaXaXaXsXaXsXsXyXyXaXaXaXaXsXiXsXsXsXsXsXiXsXsXsXsXsXsXsXcXcXsXsXsXsXsXsXsXsXsXsXsXsXiXaXiXsXsXsXsXsXiXsXiXyXsXsXsXiXiXiXiXiXiXyXyXyXyXyXyXyXyXyXyXyXyXyXiXyXyXiXiXiXiXiXiXiXiXiXiXiXiXiXiXyXyXaXyXtXyXtXyXaXiXtXiXtXyXtXiXiXiXiXiXsXiXiXiXiXiXtXiXtXiXiXsXcXlXcXlXcXlXlXlXcXlXuXiXuXuXuXiXtXyXaXyXaXsXdXsXaXsXdXsXdXaXaXyXdXyXaXaXaXsXdXyXaXyXyXaXdXdXsXdXdXcXcXvXcXvXcXvXcXcXcXcXlXlXlXcXcXsXsXsXsXiXtXuXiXiXuXlXlXiXiXiXiXiXiXiXiXiXiXlXlXlXkXzXkXvXzXrXjX*X1X{.6XL E R R U _ _ _ _ ' _ ' ' ' ' ' ' ' ' _ ' ' ' ' ' ' { ' ' ' ' ' ' ' ' _ ' ' ' ' ' ' ' ' _ _ _ _ _ _ _ ' ' ' ' ' ' ' ' ' ' ' ' ' ' ' ' ' ' ' ' ' ' ' ' ' ' ' ' ' ' ' ' ' ' ' ' ' ' ' ' ' ' ' ' ' ' ' ' ' ' ' ' ' ' ' ' ' _ ' ' ' ' ' ' ' ' ' ' ' ' ' ' _ ' ' ' ' ' ' ' ' ' ' ' ' ' ' ' ' ' ' ' ' ' ' ' ' ' ' ' ' ' ' ' ' ' ' ' _ ' _ ' ' ' ' ' ' ' ' ' ' ' ' ' ' ' ' ' _ ' ' ' ' ' ' ' ' ' ' ' ' ' ' ' ' ' _ ' _ ' ' ' ' ' ' ' ' _ _ ' ' ' ' ' ' ' ' ' ' ' ' ' ' ' ' ' ' ' ' ' ' ' _ _ _ _ ' ' ' ' ' ' ' ' ' ' ' ' ' ' ' ' ' ' ' _ ' ' ' ' ' ' ' ' ' ' ' ' _ _ _ ' ' ' ' _ _ ' ' ' ' ' ' ' ' ' ' ' ' _ _ ' ' ' ' ' ' ' ' ' ' ' ' ' ' ' ' _ _ ' ' ' ' ' ' ' ' ' ' ' ' ' ' ' ' ' ' ' ' ' ' ' ' ' ' ' ' ' ' ' ' o.o.' ' ' ' _ ' ' ' ' ' ' ' ' ' ' ' ' ' ' ' ' ' ' ' ' ' ' ' ' ' ' ' ' ' ' ' ' ' ' ' ' ' ' ' ' ' ' _ ' ' ' ' ' ' ' ' ' ' ' ' ' ' ' ' ' ' ' ' ' ' ' ' _ _ _ _ _ _ _ _ _ ' ' ' ' ' ' ' ' ' ' ' ' ' ' ' ' ' ' ' ' ' ' ' ' ' ' ' ' ' ' ' ' ' ' ' _ ' ' ' ' ' ' ' _ ' ' ' ' ' ' ' ' ' ' ' ' ' ' ' ' ' ' ' ' ' ' ' ' ' ' ' ' ' ' ' ' ' ' ' ' _ _ ' ' ' _ _ ' ' ' ' ' ' ' ' ' ' ' ' ' ' ' ' ' ' ' ' ' ' ' ' ' ' ' ' ' ' ' ' ' ' ' ' ' ' ' ' ' ' ' ' ' ' ' ' ' ' ' ' ' ' ' ' _ _ ' ' ' ' ' ' ' ' ' ' ' ' ' ' ' ' ' ' ' ' ' ' ' ' _ _ ' ' ' ' ' ' ' ' ' _ _ ' _ ' _ _ _ ' _ ' _ _ +.+.: : . . . . + + h h h d k k _ _  . . . ._ _ I z / I _ _ +. .9 9 . . . . +.                                          ",
"                                                    . . . O . O e e | | _ _ I )  . .7.1.<.<.<.<.8.7.r.r.7.8.8.8.8.9.w.8.7.<.<.<.%.%.$.$.$.$.$.$.>.>.8.e.8.e.8.8.r.r.r.8.8.8.1.7.<.7.7.7.7.<.7.<.7.7.w.w.<.<. . .#.#.z z k l i r + + O O ;                       ; ; @ @ + + I / <.5.&.%._ _ _ ' z z I I l l d d d f i d & & X # $ 1 B m CXgXzXkXkXpXeXeXfXfXlXlXcXsXsXsXaXsXsXsXsXsXaXaXaXsXsXsXaXaXaXsXfXfX>X>XrXrX<X,X,X,X,X,XrX,XlXlXlXiXyXyXyXyXyXyXyXyXwXwXeXeXeXeXeXeXeXeXwXwXwXwXeXeXeXeXwXeXeXeXwXwXyXyX>X>X>X>X>X>X>X>X>X>XyXiXyXyXiXiXiXiXyXyXyXyXyXyXiXiXiXyXyXyXyXiXiXiXiXiXiXiXiXiXiXiXyXtXpXeXeXeXyXyXyXyXyXyXyXyXwXwXyXyXyXyXyXwXyXyXyXyXiXyXiXiXsXsXaXyXyXyXyXyXyXyXyXyXyXaXiXiXiXsXiXsXiXiXiXsXiXsXiXsXlXcXlXlXiXiXiXsXiXsXlXsXlXiXiXiXiXiXiXsXiXsXiXsXiXiXyXyXiXsXiXsXiXsXiXsXiXiXiXyXiXiXiXsXiXiXlXsXiXiXiXiXiXiXiXiXiXiXiXiXiXiXiXiXiXiXiXiXiXyXyXyXyXyXiXyXiXyXiXyXiXyXiXiXiXiXiXiXiXiXiXpXiXiXiXiXiXiXiXiXiXtXyXtXyXtXiXiXiXiXiXiXpXpXiXlXlXlXlXlXlXlXiXlXiXiXiXiXiXiXlXcXlXsXiXiXiXiXiXiXiXiXiXyXiXiXiXsXyXyXiXiXiXiXiXiXiXsXiXiXiXiXiXiXiXsXiXiXiXiXiXiXcXsXsXsXcXbXbXcXcXsXlXsXlXsXlXiXlXiXlXiXiXiXiXlXpXuXiXiXpXpXuXkXlXlXlXlXpXpXuXiXkXkXlXlXuXuXlXlXxXvXvXzXnXnXjXzX*X1X{.6XL L R P U U _ _ _ _ _ _ o.` ' ' ' ' _ _ _ ' ' ' ' ' { ' ' ' ' ' ' ' ' _ ' ' ' ' ' ' ' ' ' ' ' ' _ _ ' ' ' ' ' ' ' ' ' ' ' ' ' ' ' ' ' ' ' ' ' ' ' ' ' ' ' ' ' ' ' ' ' ' ' ' ' ' ' ' ' ' ' ' ' ' ' ' ' ' ' ' ' ' ' ' ' ' _ ' ' ' ' ' ' ' ' ' ' ' ' ' ' ' ' ' ' ' ' ' ' ' ' ' ' ' ' ' ' ' ' ' ' ' ' ' ' ' ' ' ' ' ' ' ' ' ' ' ' _ ' ' ' ' ' ' ' ' ' ' ' ' ' ' ' ' ' ' ' _ ' ' ' ' ' ' ' ' ' ' ' ' ' ' ' ' ' ' ' ' ' ' ' ' ' ' ' ' ' ' ' ' ' ' ' ' ' ' ' ' ' ' ' ' ' ' ' ' ' ' ' ' ' ' ' ' ' ' ' ' ' ' ' ' ' ' ' ' ' ' ' ' ' ' _ _ _ ' ' ' ' ' ' ' ' ' ' ' ' ' _ _ ' ' ' ' ' ' ' ' ' ' ' ' ' ' ' ' ' ' ' ' ' ' ' ' ' ' ' ' ' ' ' ' ' ' ' ' ' ' ' ' ' ' ' ' ' ' ' ' ' ' ' ' ' ' ' ' ' ' ' ' ' ' ' ' ' ' ' ' ' ' ' ' ' ' ' ' _ ' ' ' ' ' ' ' _ ' ' ' ' ' ' ' ' ' ' ' _ ' ' ' ' ' ' ' ' ' ' ' ' _ ' ' _ _ ' ' ' ' _ _ _ ' ' ' _ ' ' ' ' ' ' ' _ _ _ _ _ _ ' ' _ _ _ _ _ _ _ _ _ _ _ _ _ ' ' ' ' ' ' ' ' ' ' ' ' ' ' ' ' ' ' ' ' ' ' ' ' ' _ _ ' ' ' ' ' ' ' ' ' ' ' ' ' _ ' ' _ ' ' ' ' ' ' ' ' ' ' ' ' ' ' ' ' ' ' ' ' ' ' ' ' ' ' ' ' ' ' ' ' ' ' ' ' ' ' ' ' ' ' _ ' ' ' ' ' ' ' ' ' ' ' ' ' ' ' ' ' ' ' ' ' ' ' ' ' ' ' ' ' ' ' ' ' ' ' _ ' ' ' ' ' ' ' _ ' ' ' ' ' ' ' ' _ ' ' ' _ _ ' ' ' ' ' ' ' ' ' ' ' ' ' ' ' ' ' ' ' ' ' ' ' ' ' ' ' ' ' ' ' ' ' ' _ _ ' ' ' ' ' ' ' ' _ ' _ _ +.+.> > . . . . + + h h h h l l _ _  . . . .( I z l / / ' ' +.+.w 9 . . . . +.                                          ",
"                                                    . . @ O o O e e | | _ _ ) )  . .8.7.<.<.<.<.8.7.w.w.7.9.r.w.w.r.r.8.5.<.<.<.$.$.%.$.#.#.$.$.,.$.8.e.8.e.e.8.e.r.e.7.7.8.<.8.<.7.7.8.7.<.7.7.5.7.w.w.,.%.#.#.%.$.J z j k r t + + O O ;                       ; ; + @ + + I ) <.5.$.%.) _ _ _ J J I / l l d d d f i d & & X X $ 1 B m CXgXzXkXkXpX>XeXeXfXcXlXcXsXsXaXaXaXaXsXsXsXaXaXaXaXaXsXaXwXaXaXeXfXeXeXeX>X>X>X>X>X>X>XrX<XlXlXiXiXiXiXyXiXiXiXiXyXyXeXeXeXeXeXeXwXwXwXeXeXeXwXwXeXeXeXwXwXwXwXyXyXiXiX<X<X>X>X>X>X>X>X>XeXiXlXiXiXlXiXiXiXiXyXyXyXiXiXiXiXiXiXiXiXiXiXiXiXiXiXiXlXlXlXiXiXiXyXpXpXpXpXyXyXiXyXyXyXiXyXyXwXyXyXyXyXyXwXwXwXyXyXyXyXyXiXiXsXyXyXyXyXyXyXyXyXyXyXyXiXyXiXiXsXsXiXiXiXiXiXsXiXiXiXlXlXlXlXlXlXlXlXlXcXlXlXlXlXlXiXlXsXlXsXiXsXiXsXiXiXiXyXiXsXsXsXsXsXsXsXsXlXlXiXiXiXiXiXiXlXcXcXlXiXiXlXlXlXlXlXlXlXlXlXlXlXlXlXlXlXlXlXiXiXyXyXyXyXyXiXiXiXiXiXiXiXiXiXiXiXlXiXlXiXlXpXlXiXlXlXlXlXlXlXiXiXiXiXiXiXiXiXlXlXlXiXiXpXiXlXlXlXlXlXlXlXlXlXkXkXlXiXlXlXlXlXsXsXiXiXiXiXiXiXtXtXyXiXiXiXiXsXiXiXiXiXlXlXlXlXlXlXlXlXlXcXlXlXcXlXlXlXlXlXiXiXlXlXiXcXcXcXcXcXsXsXsXsXiXiXiXsXiXiXiXiXiXiXiXsXpXlXlXlXuXuXpXpXlXlXlXlXlXlXlXlXkXkXkXlXxXlXxXxXkXxXxXxXzXnXjXzX&X1X{.6XL E R R P U _ _ _ _ _ _ ' ' ' ' ' ' _ _ _ ' ' ' ' ' ' ' ' ' ' ' ' ' ' ' ' ' ' ' ' ' ' ' ' ' ' ' _ ' ' ' ' ' ' ' ' ' ' ' ' ' ' ' ' ' ' ' ' ' ' ' ' ' ' ' ' ' ' ' ' ' ' ' ' ' ' ' ' ' ' ' ' _ ' ' ' ' ' ' ' ' ' ' ' ' ' ' _ ' ' ' ' ' ' _ ' ' ' ' ' ' ' ' ' ' ' ' ' ' ' ' ' ' ' ' ' ' ' ' ' ' ' ' ' ' ' ' ' ' ' ' _ _ _ _ ' ' ' _ ' ' ' ' ' ' ' ' ' ' ' _ _ _ ' ' ' ' ' ' ' ' ' ' ' ' ' ' ' ' _ _ ' ' ' ' ' ' ' ' _ _ ' ' ' ' ' ' ' ' ' ' ' ' ' ' _ _ _ _ ' ' ' ' ' ' ' ' ' ' ' ' ' ' ' ' ' ' ' ' _ _ ' ' ' ' ' ' ' ' ' _ ' _ _ _ _ ' ' ' ' ' ' ' ' ' ' ' ' ' ' ' ' ' ' ' ' ' ' ' ' ' ' ' ' ' _ ' ' ' ' +.' ' _ ' ' ' ' ' ' ' ' ' ' ' ' ' ' ' ' ' ' ' ' ' ' ' ' ' ' ' ' ' ' ' ' ' ' ' ' ' ' ' ' ' ' ' ' ' ' ' ' ' ' o.o.o._ ' ' ' ' ' ' ' _ ' ' ' ' ' ' ' ' ' ' _ _ ' ' ' ' ' ' ' ' ' ' ' _ _ ' ' ' ' ' ' ' ' _ _ _ ' ' ' _ _ _ ' ' ' ' ' _ _ _ _ _ _ _ _ _ _ _ _ _ _ _ _ _ _ _ _ _ ' ' ' ' ' ' ' ' ' ' ' ' ' ' ' ' ' ' ' ' ' ' ' ' ' _ _ ' ' ' ' ' ' ' ' ' ' ' ' ' ' ' ' _ ' ' ' ' ' ' ' ' ' ' ' ' ' ' ' ' ' ' ' ' ' ' ' ' ' ' ' ' ' ' ' ' ' ' ' ' ' ' ' ' ' ' ' ' ' ' ' ' ' ' ' ' ' ' ' ' ' ' ' ' ' ' ' ' ' ' ' ' ' ' ' ' ' ' ' ' ' ' ' ' ' ' ' ' ' ' _ ' ' _ _ ' ' ' ' ' ' ' ' ' ' ' ' ' ' ' ' ' _ _ _ ' ' ' ' ' ' ' ' ' ' ' ' ' ' ' ' ' ' ' ' ' ' ' _ _ _ ' ' ' ' ' ' ' ' _ ' ] _ +.+.> > . . . . + + h h h d l l _ _ +. . . ./ / I z / / ' { @.+.w 5 . . . . +.                                          ",
"                                                    . . + + @ o e 9 #.$.| +. . .$.,.8.e.t.u.r.t.p.p.qXi.p.u.i.i.qXMXu.u.r.8.w.r.t.t.r.t.7.e.r.r.t.u.MXSXqXqXqXqXt.t.t.u.r.u.7.w.w.r.r.r.r.8.w.w.u.t.MXqXw.e.$.$.$.$.J J l l r t + + @ + ;                       ; ; + @ O + / _ 8.r.>.<.I ) I ) / I I I k k d d d h i i % & O X $ 1 B m CXgXjXkXlXiX>XeXwXyXlXiXcXsXsXaXsXsXsXsXyXaXsXsXaXaXyXyXaXsXsXsXsXsXaXyXiXiXsXsXuXuXuXuXpXtXyXiXyXyXpXeXyXyXyXyXyXwXwXwXeXeXeXeXeXeXeXeXeXeXeXeXeXeXeXeXeXeXeXeXwXwXyXiXpXrXpX<X>XeXeX>XeXeXtXyXyXyXyXyXyXyXyXwXfXfXwXwXyXyXyXyXyXyXyXyXyXyXyXyXyXyXyXyXyXiXwXyXfXpXeXtXeXeXeXeXeXwXwXwXyXwXwXwXeXyXyXyXyXyXwXwXwXwXyXyXyXyXyXwXyXyXyXyXyXyXiXiXiXyXyXiXcXsXiXiXiXiXiXiXiXiXiXiXiXiXiXyXiXyXiXyXiXiXiXyXiXyXiXyXiXyXiXsXcXsXiXyXiXyXiXiXiXyXiXiXiXiXiXiXiXiXyXyXyXyXyXyXiXiXyXyXyXyXyXyXiXiXiXiXiXiXiXiXlXlXiXiXiXyXiXyXyXwXwXyXyXyXiXiXiXiXyXyXwXwXyXiXiXiXiXyXiXyXuXpXpXtXiXiXiXiXiXiXlXlXiXiXyXyXiXiXyXyXyXyXpXpXpXyXlXlXiXlXiXiXiXiXlXlXiXiXiXiXlXiXiXiXyXtXiXiXiXiXyXyXiXiXiXiXiXiXiXiXiXsXsXiXiXiXiXsXsXcXcXsXsXiXlXlXlXiXpXpXpXpXlXlXlXcXcXcXcXkXcXcXcXlXiXiXiXiXiXiXiXyXyXyXyXyXiXiXiXpXpXpXpXpXiXiXiXpXpXpXiXiXlXlXlXiXlXiXkXkXlXkXlXxXzXzXjXjX%X1X}.{.L E R R T U _ _ ' ' ' *.` ` ` ` ' ' ' ' _ _ _ ' ' ' ' ' ' ' ' ' ' ' ' ' ' ' ' ' ' ' ' ' ' ' ' ' ' ' ' ' ' ' ' ' ' ' ' ' ' ' ' ' ' ' ' ' ' ' ' ' ' ' ' ' ' ' ' ' ' ' ' ' ' ' ' ' _ _ ' ' ' _ ' ' ' ' ' ' ' ' ' ' ' ' ' ' _ _ ' ' ' ' ' ' _ _ ' ' ' ' ' ' _ _ ' ' ' ' _ _ _ ' ' ' ' ' ' ' ' ' ' ' ' ' ' ' ' ' ' ' ' ' ' ' ' ' ' ' ' ' ' ' ' ' ' ' ' ' _ _ ' ' ' ' _ _ ' ' _ _ _ ' ' ' ' ' ' ' _ ' ' ' ' ' ' ' ' ' ' ' ' ' ' ' ' ' o.o.' ' ' ' ' ' ' ' ' ' ' ' ' ' ' ' ' ' _ _ _ _ _ ' ' ' ' ' ' ' ' ' ' ' ' ' ' ' ' ' ' ' ' ' ' ' ' ' ' ' ' _ _ ' ' ' ' _ ' ' ' ' ' ' ' ' ' ' ' ' ' ' ' ' ' ' ' ' ' ' ' ' _ ' ' ' ' ' ' ' ' _ _ ' ' ' ' ' ' ' ' _ ' ' ' ' ' ' ' ' ' ' ' ' ' ' _ _ ' ' ' ' ' ' ' ' _ ' ' ' ' ' ' ' ' ' ' ' ' ' ' ' ' ' ' ' ' ' ' ' ' ' ' ' ' ' ' ' _ _ _ _ ' ' _ _ _ ' ' ' ' ' ' ' ' ' ' ' ' ' ' ' _ _ ' ' ' ' ' ' ' ' ' _ ' ' ' ' ' ' ' ' ' ' _ _ _ _ ' ' _ _ ' ' ' ' ' ' ' ' ' ' ' ' ' ' ' ' ' ' ' ' ' ' ' ' ' ' ' ' ' ' ' ' ' ' ' ' ' ' ' ' _ ' ' ' ' ' ' _ _ _ _ ' ' ' ' ' ' ' ' ' ' ' ' ' ' ' ' ' ' ' ' ' ' ' ' ' ' ' ' ' ' ' ' ' ' ' ' ' ' ' ' ' ' ' ' ' ' ' ' ' ' ' ' ' ' ' ' ' ' ' ' ' ' ' ' ' ' ' ' ' ' ' ' ' ' ' ' ' ' ' ' ' ' ' ' ' ' ' ' ' _ _ _ _ _ _ ' ' ' ' ' ' ' ' ' ' ' ' ' ' ' ' ' ' ' ' ' ' ' ' ' ' ' ' ' ' ' ' ' ' ' _ ' ' ' ' ' ' _ _ ' ' ' ' ' ' +.+.> > . . . . + + k h k k l l _ _ +.+. . ._ / I z ' ' ' _ %.&.> 9 . . . . +.                                          ",
"                                                    . . + + O O e 9 #.#.| +. . .,.<.1.8.t.u.r.r.p.p.i.i.u.u.i.i.MXMXu.t.r.w.r.r.t.t.t.u.8.r.r.r.i.t.SXMXqXSXu.u.u.t.t.t.e.r.e.w.r.r.r.r.8.8.w.r.u.t.qXqXw.w.,.$.$.$.J z k k r a + + + + ;                       ; ; + @ O + / _ w.r.%.>.I ) I / ) ) I I l l d d d h i i % & X X $ 1 B m CXgXzXkXlXiX>XeXwXyXlXiXcXsXsXaXaXsXsXsXaXsXsXsXsXaXaXaXaXsXsXsXsXsXaXyXyXaXaXtXtXtXtXtXyXtXyXyXyXyXyXwXeXeXyXyXyXwXwXeXeXeXeXeXeXeXeXeXeXeXeXeXeXeXeXeXeXeXeXwXeXpXyXpXpXeX<X>X>XeX>XeXfXeXiXyXtXyXwXyXyXwXyXwXwXeXwXwXwXwXyXwXyXwXyXyXyXwXyXwXyXyXyXyXyXyXeXwXfXpXfXpXeXpXpXeXeXeXwXwXyXyXwXyXyXyXyXyXwXwXwXwXyXyXyXyXyXyXyXwXwXwXwXyXiXiXiXiXiXiXiXiXiXiXiXiXsXcXiXiXsXsXsXsXsXsXsXsXiXiXiXiXiXsXsXiXsXsXiXiXsXiXsXsXsXsXiXiXiXiXiXiXiXiXiXiXiXiXiXiXiXiXiXiXiXiXiXiXiXiXiXiXiXiXiXiXiXiXiXiXiXiXiXiXlXiXyXyXyXyXyXyXyXyXyXyXyXyXiXiXiXiXyXyXyXyXyXyXiXiXiXiXiXyXyXiXiXyXyXyXiXiXiXiXiXiXyXtXtXtXyXiXyXwXyXeXpXeXpXyXiXkXiXiXiXiXiXiXiXiXiXiXiXiXiXiXiXiXiXiXiXiXiXiXiXiXiXiXiXiXiXiXiXiXiXiXiXiXiXiXiXsXcXcXcXsXuXiXlXlXlXiXiXpXpXpXlXlXkXlXcXcXcXcXcXcXcXcXlXlXiXsXiXiXiXyXiXyXiXiXiXiXiXpXpXpXpXpXiXyXiXtXpXyXpXpXiXiXiXpXiXpXiXiXlXlXlXkXzXzXjXjX*X1X{.6XL E R R T U _ _ ' ` *.*.` ` ` ` ' ' ' ' _ _ ' ' ' ' ' ' ' ' ' ' ' ' ' ' ' ' ' ' ' ' ' ' ' ' ' ' ' ' ' ' ' ' ' ' ' ' ' ' ' ' ' ' ' ' ' ' ' ' ' ' ' ' ' ' ' ' ' ' ' ' ' ' ' ' ' ' ' _ ' ' ' ' ' ' ' ' ' ' ' ' ' ' ' ' ' ' ' ' ' ' ' ' ' ' ' ' ' ' ' ' ' ' _ _ ' ' ' ' _ _ _ ' ' ' ' ' ' ' ' ' ' ' ' ' ' ' ' ' ' ' ' ' ' ' ' ' ' ' ' ' ' ' ' ' ' ' ' ' ' _ ' ' ' ' _ _ ' ' _ _ _ ' ' ' ' ' ' ' _ _ ' ' ' ' ' ' ' ' ' ' ' ' ' ' ' ' ' ' ' ' ' ' ' ' ' ' ' ' ' ' ' ' ' ' ' ' ' _ _ _ _ ' ' ' ' ' ' ' ' ' ' ' ' ' ' ' ' ' ' ' ' ' ' ' ' ' ' ' ' ' _ _ _ _ ' ' ' ' ' ' ' ' ' ' ' ' ' ' ' ' _ _ ' ' ' ' ' ' ' ' ' ' ' ' ' ' ' ' ' ' ' _ ' _ ' ' ' ' ' ' ' ' ' ' ' ' ' ' ' ' ' ' ' ' ' _ ' _ ' ' ' ' ' ' _ ' ' ' ' ' ' ' ' ' ' ' ' ' ' ' ' ' ' ' ' ' ' ' ' ' ' ' ' ' ' ' ' ' ' ' ' ' ' ' ' ' ' ' ' ' ' ' ' ' ' ' ' ' ' ' _ ' ' ' ' ' ' ' ' ' ' _ ' ' _ ' ' ' ' ' ' ' ' _ _ _ ' ' _ _ ' ' ' ' ' ' ' ' ' ' ' ' ' ' ' ' ' ' ' ' ' ' ' ' ' ' ' ' ' ' ' ' ' ' ' ' ' ' ' ' _ ' ' ' ' ' ' ' _ _ ' ' ' ' ' ' ' ' ' ' ' ' ' ' ' ' ' ' ' ' ' ' ' ' ' ' ' ' ' ' ' ' ' ' ' ' ' ' ' ' ' ' ' ' ' ' ' ' ' ' ' ' ' ' ' ' ' ' ' ' ' ' ' ' ' ' ' ' ' ' ' ' ' ' ' ' ' ' ' ' ' ' ' ' ' ' ' ' ' ' _ _ ' _ _ _ ' ' ' ' ' ' ' ' ' ' ' ' ' ' ' ' ' ' ' ' ' ' ' ' ' ' ' ' ' ' ' ' ' ' ' ' ' ' ' ' ' ' ' ' ' ' ' ' ' ' +.+.> > . . . . + + k k k k l l _ _ +.+. . ./ / z z _ ' ' _ %.&.9 9 . . . . +.                                          ",
"                                                    . . + + + O r r $.>.| +.+.+.<.<.<.<.7.9.5.5.8.7.8.7.5.5.7.7.8.7.>.>.>.>.7.<.r.r.t.u.8.8.8.8.r.e.qXqXqXMX8.w.e.7.<.1.$.$.$. .$.$.#.#.+.#.&.%.w.e.8.w.>.7.$.#.|  .z J l l r r < < + + ;                       ; ; + @ O O I ) 8.8. .#.I _ / / _ _ _ ( z l d d d h i i & & O X $ 1 B m CXgXjXjXkXpX>XeXfXtXpXpXsXsXaXyXyXaXtXtXaXaXaXaXaXaXaXaXyXaXaXaXaXyXtXtXtXtXfXfXtXtXtXtXfXfXfXfXfXfXfXwXfXfXwXwXwXwXeXeXeXeXeXeXeXeXeXeXeXeXeXeXeXeXeXeXeXwXeXyXyXpXpXpXpXrXrX<XeXeXeX>XpXfXuXtXpXtXpXtXyXyXyXwXwXfXwXwXfXfXtXwXtXfXtXfXtXtXyXyXyXyXiXyXyXyXeXtXfXtXpXpXeXpXpXpXeXeXeXeXeXeXeXeXeXeXeXeXwXwXeXyXyXwXeXeXyXiXiXyXyXyXwXyXwXwXwXwXyXyXyXyXyXyXyXiXyXyXyXyXyXyXyXyXiXiXiXiXyXyXyXyXyXyXyXyXyXyXyXyXyXyXyXyXtXyXyXyXiXiXiXiXiXiXiXiXiXiXiXiXiXiXyXyXiXiXiXiXyXiXiXiXiXiXiXiXsXaXyXyXiXiXiXiXsXiXiXiXiXsXsXiXyXtXtXtXtXtXtXtXfXfXfXeXfXfXeXeXeXeXeXeXeXfXfXfXeXeXeXfXfXpXpXiXpXpXpXpXpXuXiXiXpXpXpXfXpXeXpXpXpXpXpXpXpXtXpXpXeXrXpXuXuXuXtXtXtXtXtXtXtXtXtXtXtXtXtXtXtXtXtXtXtXtXtXtXiXiXyXyXtXtXsXsXiXtXtXtXiXiXiXiXpXtXtXtXuXuXuXuXuXuXuXuXuXuXuXuXiXiXiXiXiXiXuXtXiXyXpXpXpXuXuXuXpXpXpXpXpXpXpXpXpXpXuXuXpXpXpXuXpXpXpXpXpXpXkXkXzXzXjXjX*X1X{.{.L L R R T U _ _ _ ` ` *.` ` ` ` ' ' ' ' ' ' ' ' ' ' ' ' ' ' ' ' ' ' ' ' ' ' ' ' ' ' ' ' ' ' ' ' ' ' ' ' ' ' ' ' ' ' ' ' _ _ _ ' ' ' _ _ ' ' ' ' ' ' ' ' ' ' ' ' ' ' ' ' ' ' ' ' ' ' ' ' _ ' ' ' ' ' ' ' ' ' ' ' ' ' ' ' ' ' ' ' ' ' ' ' ' ' _ _ _ ' ' ' ' ' ' ' ' ' ' _ _ ' ' ' ' ' ' ' ' ' ' ' ' ' ' ' ' ' ' ' ' ' ' ' ' ' ' ' ' ' ' ' ' ' ' ' ' ' ' ' ' ' ' ' ' ' ' ' _ _ ' ' ' ' ' ' ' ' ' ' ' ' ' ' ' ' ' ' ' ' ' ' ' ' ' ' ' ' ' ' ' ' ' ' ' ' ' ' ' ' ' ' ' ' ' ' ' ' _ ' _ ' ' ' ' ' ' ' ' ' ' ' ' ' ' ' ' ' ' ' ' ' ' ' ' ' ' ' ' ' ' _ ' ' ' ' ' ' ' ' ' ' ' ' ' ' ' ' ' ' _ _ ' ' ' ' ' ' ' ' ' ' ' ' ' ' ' ' ' ' ' ' ' ' ' ' ' ' ' ' ' ' ' ' ' ' ' ' ' ' _ _ ' ' ' ' ' ' ' _ ' ' _ _ _ ' ' ' ' ' ' ' ' ' ' ' ' ' ' ' ' ' ' ' ' ' ' ' ' ' ' ' ' ' ' ' ' ' ' ' ' ' ' ' ' ' ' ' ' ' ' ' ' ' ' ' ' ' ' ' ' ' ' ' ' ' _ _ ' ' ' ' ' ' ' ' ' ' ' ' ' ' ' ' ' ' ' ' _ _ _ ' ' ' ' ' ' ' ' ' ' ' ' ' ' ' ' ' ' ' ' ' ' ' ' ' ' ' ' ' ' ' ' ' ' ' ' ' ' ' _ ' ' ' ' ' ' ' ' ' ' ' ' ' ' ' ' ' ' ' ' ' ' ' ' ' ' ' ' ' ' ' ' ' ' ' ' ' ' ' ' ' ' ' ' ' ' ' ' ' ' ' ' ' ' ' ' ' ' ' ' ' ' ' ' ' ' ' ' ' ' ' ' ' ' ' ' ' ' ' ' ' ' ' ' ' ' ' ' ' ' ' ' ' ' ' ' ' ' ' _ _ ' ' _ ' ' ' ' ' ' ' ' ' ' ' ' ' ' ' ' ' ' ' ' ' ' ' ' ' ' ' ' ' ' ' ' ' ' ' ' ' ' ' ' ' ' ' ' ' ' ' ' ' ' ' +.+.> > . . . . + + k k l k l k _ / '  .' ' z z l l I / _ ) &.+.> 8 . . . . +.                                          ",
"                                                    . . + + + + r e $.>.| +. . .<.<.%.<.5.9.5.7.9.9.7.7.<.5.9.9.9.8.<.>.<.<.7.7.r.r.t.u.r.r.r.t.u.u.qXqXqXqX8.w.e.e.>.8. .#.#. .#.#.#.#.#.&.%.>.7.8.e.w.7.>.,.$.|  .l J z z r r + < + + ;                       : ; + @ O O I I 8.7. . .I _ _ / _ _ _ _ z z d d d h i i % & X X # $ b n CXhXjXjXkXpXeXeXeXfXpXpXsXaXyXaXdXaXtXfXtXaXdXaXsXaXsXyXyXyXyXaXyXtXtXfXtXtXtXtXtXtXtXtXtXfXtXfXtXfXtXfXtXwXyXwXyXfXpXeXeXpXpXpXpXpXuXuXpXpXpXeXpXwXwXwXwXyXpXpXpXuXpXpXrXrXpXrXrXrXrXrXuXrXkXkXuXpXpXpXpXpXpXpXtXtXtXtXtXtXuXpXuXuXuXuXuXuXuXiXiXyXiXiXyXyXeXtXeXtXrXpXrXpXpXpXpXpXfXfXpXeXeXpXpXpXpXpXyXyXyXyXyXyXyXeXpXpXiXyXyXwXwXfXsXaXyXyXyXyXyXyXyXyXyXyXyXyXiXiXyXyXiXiXiXiXlXiXiXyXiXyXiXiXiXyXiXyXiXyXiXyXiXiXyXyXiXiXiXiXiXiXlXiXlXiXlXiXlXiXiXiXiXiXiXiXlXiXiXiXlXiXlXiXlXiXcXdXaXyXiXsXsXcXiXlXiXiXiXlXiXuXtXpXpXpXuXtXtXpXpXtXpXfXpXfXeXeXeXeXpXtXpXtXpXtXpXfXpXfXtXpXlXlXpXpXpXpXtXpXuXuXpXpXpXpXpXpXpXpXpXpXpXpXpXtXrXrXrXfXpXuXuXuXuXtXtXtXtXtXuXtXtXtXtXtXtXtXtXtXtXtXiXiXyXyXiXiXiXtXtXtXsXsXiXtXtXtXiXiXlXlXiXpXpXpXuXuXuXuXuXuXuXuXlXlXuXlXlXlXlXiXiXpXuXlXlXkXuXuXuXuXuXuXkXkXpXpXpXpXpXpXkXkXrXrXkXuXkXuXuXuXuXuXuXrXkXkXzXzXjXjX*X1X{.6XL E R R T U _ _ ] ` ` ` ` ` ` ` ' ' ' ' ' ' ' ' ' ' ' ' ' ' ' ' ' ' ' ' ' ' ' ' ' ' ' ' ' ' ' ' ' ' ' ' ' ' ' ' ' ' ' ' _ _ _ ' ' ' _ _ ' ' ' ' ' ' ' ' _ ' ' ' ' ' ' _ ' ' ' ' ' ' ' ' ' ' ' ' ' ' ' ' ' ' ' ' ' ' ' ' ' ' ' ' ' ' ' ' ' ' ' ' ' ' ' ' ' ' ' ' ' ' ' _ ' ' ' ' ' ' ' ' ' ' ' ' ' ' ' ' ' ' ' ' ' ' ' ' ' ' ' ' ' ' ' ' ' ' ' ' ' ' ' ' ' ' ' ' ' ' ' ' ' ' ' ' ' ' ' ' _ _ ' ' ' ' ' ' ' ' ' ' ' ' ' ' ' ' ' ' ' ' ' ' ' ' ' ' ' ' ' ' ' ' ' ' ' ' ' ' ' ' ' ' ' ' ' ' ' ' ' ' ' ' ' ' ' ' ' ' ' ' ' ' ' ' ' ' ' ' ' ' ' ' ' ' ' ' ' ' ' ' ' ' ' ' ' ' ' ' ' ' ' ' ' _ ' ' ' ' _ ' _ ' ' ' ' ' ' ' ' ' ' ' ' ' ' ' ' ' ' ' ' ' ' ' ' ' ' ' ' ' ' ' _ _ ' ' ' ' ' ' ' _ ' ' ' _ ' ' ' ' ' ' ' ' ' ' _ _ _ ' ' ' ' ' ' ' ' ' ' ' ' ' ' ' ' ' ' ' ' ' ' ' ' ' ' ' ' ' ' ' ' ' ' ' ' ' ' ' ' ' ' ' ' ' ' ' ' ' _ _ _ ' ' ' ' ' ' ' ' ' ' ' ' ' ' ' ' ' ' ' _ ' ' ' ' ' ' ' ' ' ' ' ' ' ' ' ' ' ' ' ' ' ' ' ' ' ' ' ' ' ' ' ' ' ' ' ' ' ' ' ' ' _ ' ' ' ' ' ' ' ' ' ' ' ' ' ' ' ' ' ' ' ' ' ' ' ' ' ' ' ' ' ' ' ' ' ' ' ' ' ' ' ' ' ' ' ' ' ' ' ' ' ' ' ' ' _ _ ' ' ' ' ' ' ' ' ' ' ' ' ' ' ' ' ' ' ' ' ' ' _ _ ' ' ' ' ' ' ' ' ' ' ' ' ' ' _ _ ' ' ' ' _ _ ' ' ' ' ' ' ' ' _ _ _ _ _ _ _ ' ' ' ' ' ' _ _ _ ' ' ' ' ' ' ' ' ' ' ' ' ' ' ' ' ' ' ' ' ' ' ' ' ' ' ' ' ' ' +.+.> > . @ . . + + l l l l l k / / ' ' _ _ l l l l I / / ) #. .9 9 . . . . |                                           ",
"                                                    . . + + + + t t ,.,._ ) I I ' _ h d r w > > > > ; , ; : r t >.>.&.$.%.%.5.7.r.e.w.e.7.<.<.<.<.7.$.$.,.>.>.7.8.8.| | 8 8 > > , : : : > > 9 9 r e e 9 a k %.7.%.&.l l l z r r + + + + ;                       : ; + @ O O I I 8.7.#.#._ _ / I _ _ _ _ I F d d d h i d & & X X # $ b m CXhXjXjXkXlXpXfXtXtXrXkXlXyXiXdXcXdXuXtXtXdXsXdXcXdXiXaXsXaXsXdXiXtXtXtXlXuXuXuXuXuXuXuXuXtXuXtXuXtXuXtXuXtXpXtXpXtXpXeX,X,X,X,X,XrXrXrXrXrXrXpXrXpXpXeXeXeXeXpXpXrXpXkXrXrXjXrXrX,X,XrXrXrXkXkXkXkXuXuXuXuXuXkXkXkXkXkXkXkXkXkXkXkXkXkXkXkXkXkXkXuXkXiXiXiXpXuXrXrXrXrXrXrXrXrXrXrXrXrXkXpXpXpXiXiXpXpXiXpXpXiXiXlXlXlXvXkXlXlXlXlXiXyXcXsXsXsXsXiXiXsXsXsXcXcXsXsXcXcXcXcXcXcXvXvXvXvXvXbXvXbXcXbXvXbXcXcXcXcXcXcXcXcXlXcXcXcXvXcXcXlXlXcXcXcXvXcXvXcXvXcXvXcXvXcXvXcXvXcXvXcXvXcXvXcXcXcXcXcXsXsXcXcXcXvXvXvXvXvXvXzXkXkXkXkXuXuXuXpXuXuXuXpXuXtXpXpXpXtXuXuXuXuXuXuXuXtXuXtXpXpXuXuXlXkXuXkXkXkXzXzXkXkXkXkXkXkXkXkXkXkXkXkXkXkXkXkXkXkXkXkXkXkXkXuXbXcXlXlXcXcXcXcXlXlXcXcXcXcXlXlXcXcXcXcXcXcXcXcXcXcXbXbXcXcXcXcXvXvXvXvXcXkXkXkXvXvXcXcXcXvXvXcXcXlXlXcXvXvXlXlXlXlXlXkXzXvXzXkXkXuXkXkXkXkXpXpXkXkXkXkXkXkXkXkXkXkXkXkXkXkXkXkXkXkXkXzXzXmXjXjX1X3X{.6XL E H R T _ _ _ ] ] ` ` ` ` ` ` ' ' ' ' ' ' ' ' ' ' ' ' ' ' ' _ ' ' ' ' ' ' ' ' ' ' ' ' ' ' ' ' ' ' ' ' ' ' ' ' ' ' ' ' ' ' ' ' ' ' ' ' ' ' ' ' ' ' ' ' ' ' ' ' ' ' ' ' ' ' ' ' ' ' ' ' ' ' ' ' ' ' ' ' ' ' ' ' ' ' ' ' ' ' ' ' ' ' ' ' ' ' ' ' ' ' ' ' ' ' ' ' ' ' ' ' ' ' ' ' ' ' ' ' ' ' ' ' ' ' ' ' ' ' ' ' ' ' ' ' ' ' ' ' ' ' ' ' ' ' ' ' ' ' ' ' ' ' ' ' ' ' ' ' ' ' ' ' ' ' ' ' ' ' ' ' ' ' ' ' ' ' ' ' ' ' ' ' ' ' ' ' ' ' ' ' ' ' ' ' ' ' ' ' ' ' ' ' ' ' ' ' ' ' ' ' ' ' ' ' ' ' ' ' ' ' ' ' ' ' ' ' ' ' ' _ ' ' ' ' ' ' ' ' ' ' ' ' ' ' _ _ ' ' ' ' ' ' ' ' ' ' ' ' ' ' ' ' ' ' ' _ _ _ _ _ ' ' ' ' ' ' ' ' ' ' ' ' ' ' ' ' ' ' ' ' ' ' ' _ _ _ _ _ _ _ ' ' ' ' ' ' ' ' ' _ ' ' ' ' ' ' ' ' ' ' ' ' _ _ _ _ _ ' ' ' ' ' ' ' ' ' ' ' ' ' ' ' ' ' ' ' ' ' ' ' ' ' ' ' ' ' ' ' ' ' ' ' ' ' ' ' ' ' ' ' ' ' ' ' ' ' ' ' _ _ ' ' ' ' ' _ _ ' ' ' ' ' ' ' ' ' ' ' ' ' ' ' ' ' ' ' ' ' ' ' ' ' ' ' ' ' ' ' ' ' ' ' ' ' ' ' ' ' ' ' ' ' ' ' ' ' ' ' ' ' ' ' ' ' ' _ ' ' ' ' ' ' ' ' ' ' ' ' ' ' ' ' ' ' ' ' ' ' ' ' ' ' ' ' ' ' ' ' ' ' ' ' ' ' ' ' ' ' ' ' ' ' ' ' _ ' ' ' ' ' ' ' ' ' ' ' ' ' ' ' ' ' ' ' ' ' ' ' _ ' ' ' ' ' ' ' _ _ _ _ ' ' ' ' _ _ _ ' ' ' ' ' ' ' ' ' ' ' ' ' ' ' ' ' _ ' ' ' ' ' ' ' ' ' ' ' ' ' ' ' ' ' ' ' ' ' ' ' ' ' ' ' ' ' ' ' ' ' ' ' ' ' ' ' ' ' &.+.> > . . . . = = l l z l l l / / +.+._ _ z z l l h l k l ) / > : . . . . '                                           ",
"                                                    . @ + + + + a a >.,._ ) I I ) Y d a w y w w 8 8 , , , : a h $.%.$.%.%.%.5.7.r.e.w.8.7.<.7.7.<.e.#.,.$.,.>.7.7.7.| ' 9 9 , , , : : > > 9 w w e e r 9 h d >.<.$.+.k k l l r e + + + + ;                       ; ; + + + O z z <.<. . .I I / / _ _ _ _ I I d d d h i d O & . X # $ b n CXhXjXjXkXkXuXfXpXtXrXjXkXtXuXuXcXlXlXuXuXuXkXlXcXkXkXuXlXcXlXlXuXuXkXkXkXkXkXkXkXkXkXuXuXuXkXkXkXkXkXuXkXkXkXkXuXuXrXrXjXjXjXjXjXjXjXjXjXrXrXrXrXpXrXrXpXuXkXrXrXrXjXjXjXjXjXjXjX5X5X,XrXrXkXkXkXkXkXkXkXkXkXkXkXkXkXkXjXjXkXkXzXzXzXzXkXzXzXvXzXzXzXzXlXlXkXkXrXrXrXrXjXrXjXrXjXjXjXjXkXkXkXkXkXkXkXkXvXkXkXkXkXkXkXzXzXzXzXkXzXlXlXlXvXvXbXcXcXcXlXlXvXvXvXvXcXcXcXvXvXvXvXvXvXvXvXvXvXvXvXvXvXvXvXvXvXvXvXvXvXvXvXvXvXvXvXvXvXvXvXvXvXvXvXvXvXvXvXvXvXvXvXvXvXvXvXvXvXvXvXvXvXvXvXvXcXbXcXcXbXcXvXvXvXvXvXmXmXmXmXnXkXjXkXjXjXjXkXxXzXkXkXkXkXkXkXkXkXkXkXkXkXkXkXkXkXkXkXkXkXkXkXkXkXkXuXkXkXzXzXkXxXxXkXxXzXzXzXzXxXxXxXzXzXzXzXzXzXzXzXzXzXzXzXzXvXzXkXkXzXvXvXvXzXzXzXzXvXvXkXcXvXvXvXvXvXvXvXvXvXvXvXvXvXvXvXvXvXvXvXvXvXvXvXvXvXvXvXvXvXvXvXvXvXcXcXcXvXlXlXvXvXvXzXzXvXnXzXzXzXkXkXkXkXkXkXkXxXkXjXzXzXzXzXzXzXzXzXzXzXzXzXzXzXzXnXzXmXmXjXmX1X3X{.6XL E R P U U _ _ ] ] ` ` ` ` ` ] ] ' ' ' ' ' ' ' ' ' ' ' ' ' ' ' ' ' ' ' ' ' ' ' ' ' ' _ ' ' ' ' ' ' ' ' ' ' ' ' ' ' ' ' ' ' ' ' ' ' ' ' ' ' ' ' ' ' ' ' ' ' ' ' ' ' ' ' ' ' ' ' ' ' ' ' ' ' ' ' ' ' ' ' ' ' ' ' ' ' ' ' ' ' ' ' ' ' ' ' ' ' ' ' ' ' ' ' ' ' ' ' ' ' ' ' ' ' ' ' ' ' ' ' ' ' ' ' ' ' ' ' ' ' ' ' ' ' ' ' ' ' ' ' ' ' ' ' ' ' ' ' ' ' ' ' _ _ ' ' ' ' ' ' ' ' ' ' ' ' ' ' ' ' ' ' ' ' ' ' ' ' ' ' ' ' ' ' ' ' ' ' ' ' ' ' ' ' ' ' ' ' ' ' ' ' ' ' ' ' ' ' ' ' ' ' ' ' ' ' ' ' ' ' ' ' ' ' ' ' ' ' ' _ _ _ ' ' ' ' ' ' ' ' ' ' ' ' ' ' ' _ ' ' ' ' ' ' ' ' ' ' ' ' ' ' ' ' ' ' _ _ _ _ _ ' ' ' ' ' ' ' ' ' ' ' ' ' ' ' ' ' ' ' ' ' ' ' ' _ _ ' ' ' ' ' ' ' ' ' ' ' ' ' ' ' ' ' ' ' ' ' ' ' ' ' ' ' ' ' ' ' ' ' ' ' ' ' ' ' ' ' ' ' ' ' ' ' ' ' ' _ ' ' ' ' ' ' ' ' ' ' ' ' ' ' ' ' ' ' ' ' ' ' ' _ ' ' ' ' ' ' ' ' _ _ _ ' ' ' ' ' _ ' ' ' ' ' ' ' ' ' ' ' ' ' ' ' ' ' ' ' ' ' ' ' ' ' ' ' ' ' ' ' ' ' ' ' ' ' ' ' ' ' ' ' ' ' ' ' ' ' ' ' ' ' ' ' ' ' ' _ ' ' ' ' ' ' ' ' ' ' ' ' ' ' ' ' ' ' ' ' ' ' ' ' ' ' ' ' ' ' ' ' ' ' ' ' ' ' ' ' ' ' ' ' ' ' ' ' ' ' ' ' ' ' ' ' ' ' ' ' ' ' ' ' ' ' ' ' ' ' ' ' ' ' ' ' ' ' _ _ _ _ _ _ ' ' ' ' _ _ ' ' ' ' ' ' ' ' ' ' ' ' ' ' ' ' ' ' _ ' ' ' ' ' ' ' ' ' ' ' _ _ ' ' ' ' ' ' ' ' ' ' ' ' ' ' ' ' ' ' ' ' ' ' ' ' ' ' ' ' &.+.> > . @ . @ = = z l z z z l / / +.o._ _ z z l l l l l l / I 9 9 . . . . '                                           ",
"                                                    . @ + + + + w e $.%. .+.#.%.I I e e > 9 > > > > ; ; = = r a  . .' ' ) I / I #.#.>.<.8.e.t.r.7.e.$.$.+.| J J w y y t w t 9 w : > > > 9 w r t 9 9 : ; e e +.+.' ' d h h k w 9 @ + + + ;                       ; ; + + + + z l #. .' ' I I / / ) ) ( _ I F d d h h i d O & . X # $ b n CXhX2X,XjXrXrXeXrXrX,X,X@X@X@X@X@X@X@X@X@X@X@X@X@X@X@X@X#X@X@X@X@X@X@X@X#X@X@X@X@X@X@X@X@X@X@X@X@X@X@X@X@X@X@X@X@X@X.X.X X X|.|.|.|.|.|.|..X.X#X>X<X,X<X>X>X#X#X+X.X.X.X.X.X.X.X.X.X.X X.X X@X@X@X@X@X@X@X@X@X@X@X@X@X@X@X.X@X@X.X@X@X@X@X@X#X$X$X$X#X#X#X#X#X@X.X.X X X X X X X X X X.X$X@X#X@X#X$X$X$X,X$X@X@X.X.X.X.X.X.X.X.X.X.X+X#X,X,XrX<X>X>X>X>X>X>X>X>X>X>X>X#X#X#X#X#X#X#X#X#X>X#X#X#X#X#X#X#X#X#X#X#X#X#X#X@X#X#X#X#X#X#X#X#X#X#X#X#X#X#X#X#X#X@X#X@X#X#X#X@X#X#X#X@X#X@X#X#X>X#X>X>X>X>X>X#X#X#X#X@X+X+XOX.XOX.X.X.X.X@X$X=X-X=X=X=X=X=X$X$X$X$X$X$X$X$X$X$X$X$X#X#X#X>XrXrXrXrXrXrXrXrX,X,X@X@X@X@X+X$X+X+X@X@X@X@X@X@X@X@X@X@X@X@X@X$X$X$X#X#X#X#X#X#X#X#X#X#X#X#X#X#X#X#X#X#X>X#X#X#X>X#X#X#X#X#X#X#X#X>X>X>X>X>X>X#X#X>X>X>X#X#X>X>X#X#X>X>X>X>X>X>X>X<X>X>X#X#X#X$X$X@X#X#X@X#X#X#X#X#X+X+X+X@X+X+X+X+X:X:X:X$X@X@X$X$X:X:X$X+X;X;X:X*X%X}.}.7XL E R R U _ _ _ _ ` ` ` ` ` ` ] ] ] ' ' ' ' ' ' ' ' ' ' _ ' ' ' ' ' ' ' ' ' ' ' ' ' ' _ ' ' ' ' ' ' ' ' ' ' ' ' ' ' ' ' ' ' ' ' ' ' ' ' ' ' ' ' ' ' ' ' ' ' ' ' ' ' ' ' ' ' ' ' ' ' ' ' ' ' ' ' ' ' ' ' ' ' ' ' ' ' ' ' ' ' ' ' ' ' ' ' ' ' ' ' ' ' ' ' ' ' ' ' ' ' ' ' ' ' ' ' ' ' ' ' ' ' ' ' ' ' ' ' ' ' ' ' ' ' ' ' ' ' ' ' ' ' ' ' _ ' ' ' ' ' ' ' _ ' ' ' ' ' ' ' ' ' ' ' ' ' ' ' ' ' _ _ _ ' ' ' _ _ ' ' ' ' _ _ ' ' ' ' _ ' ' ' ' ' ' ' ' ' ' ' ' ' ' ' ' ' ' ' ' ' ' ' ' ' ' ' _ ' ' ' ' ' ' ' ' ' ' ' ' ' _ _ ' ' ' ' ' ' ' ' ' ' ' ' ' ' _ _ ' ' ' ' ' ' ' ' ' ' ' ' ' ' ' ' ' ' ' ' ' ' ' ' ' ' ' ' ' ' ' ' ' ' ' ' ' ' ' ' ' ' ' ' ' ' ' ' ' ' ' ' ' ' ' ' ' ' ' ' ' ' ' ' ' ' ' ' ' ' ' ' ' ' ' ' ' ' ' ' ' ' ' ' ' ' ' ' ' ' ' ' ' ' ' ' ' ' _ _ _ ' ' ' _ _ _ _ ' _ ' ' _ ' ' ' ' ' ' ' ' ' ' _ ' ' ' ' ' ' ' ' _ _ _ ' ' ' ' ' ' _ _ ' ' ' ' ' ' ' ' ' ' ' ' ' ' ' ' ' ' ' ' ' ' ' ' ' ' ' ' ' ' ' ' ' ' ' ' ' ' ' ' ' ' ' ' ' ' ' ' ' ' ' ' ' ' ' ' _ ' ' ' ' ' ' ' ' ' ' ' ' ' ' ' ' ' ' ' ' ' ' ' ' ' ' ' ' ' ' ' ' ' ' ' ' ' ' ' ' ' ' ' ' ' ' ' ' ' ' ' ' ' ' ' ' ' ' ' ' ' ' ' ' ' ' ' ' ' ' ' ' ' ' ' ' ' ' ' ' ' ' _ ' ' ' ' ' ' ' ' ' ' ' ' ' _ _ ' ' ' ' _ _ ' ' _ _ _ _ _ _ ' ' _ _ _ _ ' ' _ _ _ ' ' ' ' ' ' ' ' ' ' ' ' ' ' ' ' ' ' ' ' ' ' ' ' ' ' ' &.+.> > . @ . @ = = l l z l z l ( / ' ' ) ) l z k k h k h k J J 9 9 . . . . '                                           ",
"                                                    . O = + + + t t $.$.'  .#.<.z J 9 e > 9 > > : > ; , = ; a d |  .' ' _ / / I +.+.>.<.w.e.r.w.7.7.$.$.#.#.z J y w y w y t 8 8 > > > 9 9 w r t 9 9 , , r e  . ._ _ a d d d 9 w @ + + + ;                       ; ; + + + + z k  . ._ _ I I / / ) I I ( F F d d h h i d O O . X # $ b n VXhX2X-XjXrXrXrXrXrX$X$X@X@X@X@X@X@X$X@X@X@X@X@X@X@X$X@X@X@X@X@X@X@X@X@X@X@X@X@X@X@X@X@X@X@X@X@X@X@X@X$X@X@X@X$X@X@X.X X X X X X XE. X|.|. X.X$X,X,X,X,X>X,X=X@X@X.X.X X.X.X.X X X X X X X X@X@X@X@X@X@X@X@X@X@X+X@X@X@XOXOXXXXXXXXX.X.X@X$X-X-X-X=X=X=X@X$X$X$X.X X|. X X X XE.E.E. XXX;X$X$X$X=X=X=X=X=X;X;X&XOX.X X XOX%X%XOX.X.X+X=X,X,X,XrX,X,X,X,X,XrXrXrX<X>X#X#X#X$X#X$X=X=X=X=X$X#X#X#X#X$X$X$X@X$X#X$X@X@X@X@X$X$X$X$X$X$X$X$X=X=X=X=X$X=X$X$X$X$X$X$X$X$X$X@X$X$X@X+X+X$X$X$X$X#X#X#X#X#X$X=X=X=X;X&X&X&X%X%X%XoXOXOXOX%X2X2X2X-X-X-X-X-X-X-X-X-X-X-X-X-X-X-X-X-X-X=X=X=X,XrXrXrXrXrXrXjX,X,X@X+X@X+X%X;X;X;X:X:X@X+X$X$X$X@X:X$X$X$X$X$X$X$X$X$X$X$X$X$X$X@X$X$X$X$X$X$X$X@X$X$X$X=X=X=X=X=X=X=X=X=X=X=X=X=X,X,X,X=X,X=X,X,X,X=X,X=X,X,X,X,XrXrXeX>X>X<X<X,X,X,X$X=X=X=X=X=X#X#X#X#X$X$X=X$X+X+X&X&X&X;X;X&X;X;X;X;X;X&X;X;X;X;X;X*X2X2X*X*X`.}.}.{.L E R P U ) _ ) _ ` ` ` ` ` ` ` ` ] ' ' ' ' ' ' ' ' ' ' _ _ ' ' ' ' ' ' ' ' ' ' ' ' _ _ ' ' ' ' ' ' ' ' ' ' ' ' ' ' ' ' ' ' ' ' ' ' ' ' ' ' ' ' ' ' ' ' ' ' ' ' ' ' ' ' ' ' ' ' ' ' ' ' ' ' ' ' ' ' ' ' ' ' ' ' ' ' ' ' ' ' ' ' ' ' ' ' ' ' ' ' ' ' ' ' ' ' ' ' ' ' ' ' ' ' ' ' ' ' ' ' ' ' ' ' ' ' ' ' ' ' ' ' ' ' ' ' ' ' ' ' ' ' ' ' _ _ ' ' ' ' ' ' _ _ _ ' ' ' ' ' ' ' ' ' ' ' ' ' ' ' _ _ _ ' ' ' _ _ ' ' ' ' _ _ ' ' ' ' _ _ ' ' ' ' ' ' ' ' ' ' ' ' ' ' ' ' ' ' ' ' ' ' ' ' ' ' ' _ _ ' ' ' ' ' ' ' ' ' ' ' _ _ ' ' ' ' ' ' ' ' ' ' ' ' ' ' ' _ ' ' ' ' ' ' ' ' _ ' ' ' ' ' ' ' ' ' ' ' ' ' ' ' ' ' ' ' ' ' ' ' ' ' ' ' ' ' ' ' ' ' ' ' ' ' ' ' ' ' ' ' ' ' ' ' ' ' ' ' ' ' ' ' ' ' ' ' ' ' ' ' ' ' ' ' ' ' ' ' ' ' ' ' ' ' ' ' ' ' ' ' ' ' ' ' ' ' _ _ ' ' ' ' ' _ _ _ ' _ ' ' ' ' ' ' ' ' ' ' ' ' _ _ ' ' ' ' ' ' ' ' _ _ _ ' ' ' ' ' ' _ ' ' ' ' ' ' ' ' ' _ ' ' ' ' ' ' ' ' ' ' ' ' ' ' ' ' ' ' ' ' ' ' ' ' ' ' ' ' ' ' ' ' ' ' ' ' ' ' ' ' ' ' ' ' ' ' ' _ ' ' ' ' ' ' ' ' ' ' ' ' ' ' ' ' ' ' ' ' ' ' ' ' ' ' ' ' ' _ ' ' ' ' ' ' ' ' ' ' ' ' ' ' ' ' ' ' ' ' ' ' ' ' ' ' ' ' ' ' ' ' ' ' ' ' ' ' ' ' ' ' ' ' ' ' ' ' ' _ ' ' ' ' ' ' ' ' ' _ ' ' ' ' ' _ _ _ _ _ ' ' ' _ _ _ _ _ _ _ _ _ ' _ _ ' ' _ ' _ _ _ ' ' ' ' ' ' ' ' ' ' ' ' ' ' ' ' ' ' ' ' ' ' ' ' ' +.' ' &.+.> > . @ . @ = = l l z l z l _ ( _ ' _ ) l l k k k l h k J J w 9 . . . . O.                                          ",
"                                                    . . + + + + 9 9 / I _ _ +.#.d t O . ; ; : : ; ; = = = = = + = = ; = : ; ; = d k ) ) w.w.r.t.w.w.,.,.h a 8 8 o + @ + < < + < + + + + = ; ; ; < + + . , = +. .+. .l l l l 8 8 @ + + + +                       ; ; + + + + h h _ ' ( I ( ( ( _ _ _ _ _ I I d d d d i d % & X X # $ b n {.1X*X+X=X@X#X#XrXrX@X@XK.K. X X X X X X X X X X X X X X|. X X X X X X X X X X X X X X X X X X X X X X X X X X X X XK.K.J.J.J.J.J.J.K.K.K.K. X.X-X,X,X=X$X,X=X$X X XK. XK.K.K.K.K.K.K.K.K.K. X X.X.X X X X X X XE. XK.E.J.J.J.J.J.J.J.J.K.E.OX+X.X.X.X.X.XOX+XOXK.K.J.J.J.J.J.J.J.J.J.J. X|.|.|. X X|.|. X|.|.K.I.I.I.I.I.I.I.I.I.I.|.|.+X.X.X.X.X.X+X+X+X+X+X+X+X.X.X.X.X.X.X.X.X X.X.X.X.X.X.X.X.X.X.X.X X|.|. X X|.|. X X X X|. X|.|.|.|.|.|.|.|.|.|. X|.|.|.|. X X|.|. X X X|.|.|. X.X@X@X@X.X.X.X+X|. XI.I.I.I.I.I.I.I.I.I.I.I.K.K.K.K.K.K.|.K.K.K.K.K.K.K.K.K.K.K.K.K.K.K. X.X=X-X#X#X#X$X$X$X@X$XE.K.K.K.K.K.K.K.K.K.K.K.K.K.E.E.E.E.E.E. XE. X X X X X X X X X X X X X X X X X X X X.X.X.X.X.X X.X.X.X X.X.X.X.X.X.X.X.X.X.X.X.X.X.X.X.X.X.X.X.X#X#X#X#X#X#X#X#X@X+X X.X|. X X X@X@X@X@X@X$X@X@XK.K.K.K.K.K.K.K.J.J.K.K.K.J.J.J.J.J.J.J.J.J.J.D.S.P.[.[.L E R P T _ _ ) ] ] ` ` *.` ` ` ` ` ' ' ' ' ' ' _ _ ' ' _ ' ' ' ' ' ' ' _ ' ' ' ' ' ' ' _ _ _ ' ' ' ' ' ' ' ' ' ' ' ' ' ' ' ' ' ' ' ' ' ' ' ' ' ' ' ' ' ' ' ' ' ' ' ' ' _ ' ' ' ' ' ' ' ' ' ' ' _ ' ' ' ' ' ' ' ' ' ' ' ' ' ' ' ' ' ' ' ' ' ' ' ' ' ' ' ' ' ' ' ' ' ' ' _ ' ' ' ' ' ' ' ' ' ' ' ' ' ' ' ' ' ' ' ' ' ' ' ' ' ' ' ' ' ' ' ' ' ' ' ' ' _ _ ' ' ' ' _ ' ' ' ' ' ' ' ' ' ' ' _ _ _ _ ' ' ' ' ' ' ' ' ' ' ' ' ' ' ' ' _ _ ' ' ' ' ' ' ' ' ' ' ' ' ' ' ' ' ' ' _ _ _ _ ' ' ' _ ' ' ' ' ' ' ' ' ' ' ' ' ' ' ' ' ' ' ' ' ' ' ' ' ' ' ' ' ' ' ' ' ' ' ' ' _ ' ' ' ' ' ' ' ' ' ' ' ' ' ' ' ' ' ' ' ' ' ' ' ' ' ' ' ' ' ' ' ' ' ' ' ' ' ' ' ' ' ' ' ' ' ' ' ' ' ' ' ' ' ' ' ' ' ' ' ' ' ' ' ' ' ' ' ' ' ' ' ' ' ' ' ' ' ' ' ' ' ' ' ' ' ' ' ' ' ' ' ' ' ' ' ' ' ' ' _ _ _ ' ' ' ' ' ' ' ' ' ' ' ' ' ' ' ' ' _ _ _ _ ' ' ' ' ' ' ' ' ' ' ' ' ' ' ' ' _ _ ' ' ' ' ' ' ' ' ' ' ' ' ' ' ' ' ' ' ' ' _ _ ' ' _ _ _ ' ' ' ' ' ' ' ' ' ' _ ' ' ' ' ' ' ' ' ' ' ' ' ' ' ' ' ' ' ' ' ' ' ' ' ' ' ' ' ' ' ' ' ' ' ' ' ' ' ' ' ' ' ' ' ' ' ' _ ' ' ' ' ' ' ' ' ' ' ' ' ' ' ' ' ' ' ' ' ' ' ' ' ' ' _ _ _ _ ' ' ' ' ' ' ' ' ' ' ' _ ' ' ' ' ' ' ' ' ' ' _ _ _ _ ' ' ' ' ' ' ' ' _ _ ' ' ' ' _ _ _ _ _ _ ' ' ' _ _ _ _ _ _ _ ' ' _ _ ' ' ' ' ' ' ' ' ' ' ' ' ' ' ' ' ' ' ' ' ' ' ' ' ' { ' ' &.+.> > . @ . . = ; l l l z l z _ _ ' ' _ _ z l h d h k k l I I 9 9 . . . . '                                         w ",
"                                                    . . + + + + > > I I _ _ &.&.r r + @ ; ; ; ; ; ; = = = = + + ; ; ; = : ; ; < h h | | w.w.t.t.w.w.,.,.h h 8 8 @ + + + < < + + + + + + < = ; ; + O O . , ;  . .+.+.l l l l 9 9 @ @ + + +                       ; ; + @ + + k j _ _ _ I U U ( _ _ _ _ _ I I d d d d d d & & X X # $ b n {.1X%X%X;X$X$X$X-X-X@X.XK.K.E. XE.E.E. XE.E.E.E. X X X XK.E. X X XE.E.E.E.E.E.E.E.E.E.E. X X X X X X XE. XE. X X X XK.K.J.J.J.J.J.J.J.J.J.K. X.X-X-X-X-X-X-X-X;X X XK.K.K.K.K.K.K.J.K.J.J.K. X XXXXX X X X XE. XK. XK.E.D.D.J.J.J.D.D.D.E.E.%X%XXXOX.XOXOX%X%X%XK.J.J.J.J.D.D.D.D.D.D.D.E.K.|. X X X|.|.|.K.K.K.I.I.I.I.I.I.L.I.I.I.K.|.%XOX.X.X.X.X.X+X.X+X+X.X.X.X.X.X X X X X X XOX X.X.X.X.X.X X.X X X X X X X X X X X X X X X X|.|.|.|. X|.|.|.|.|. XK.|.K.|. X XK.|.|. XK.K.K.|. XOX@X+X+X@XOXOX%X X|.I.I.I.I.I.j.j.j.I.I.A.A.K.K.K.K.E.E.E.K.K.K.E.E.K.K.K.K.K.K.E.K.K.K. X X;X=X=X$X$X$X=X;X$X&XE.K.J.J.K.R.K.K.K.E.K.E.E.E.E.E.E.E.E.E.E.E.E.E. X X X X X X XXX X X X X X X X X X X X X X.X X X.XXX X X X X.X.X.X.X X.X.X.XOX.XOX.X.X.X.X.XOX@X@X@X#X#X#X@X#X@X@X+X|. X|. X X X@X@X@X$X@X&XOXOXK.K.K.K.K.J.K.K.L.J.J.J.J.J.J.J.J.J.J.J.L.L.L.D.F.(.[.[.L E R P U U ( ) ] ] ` ` *.` ` ` ` ` ' ' ' ' ' _ _ _ ' ' _ ' ' ' ' ' ' ' ' ' ' ' ' ' ' ' _ _ ' ' ' ' ' ' ' ' ' ' ' ' ' ' ' ' ' ' ' ' ' ' ' ' ' ' ' ' ' ' ' ' ' ' ' ' ' ' ' ' ' ' ' ' ' ' ' ' ' ' _ ' ' ' ' ' ' ' ' ' ' ' ' ' ' ' ' ' ' ' ' ' ' ' ' ' ' ' ' ' ' ' ' ' ' ' ' ' ' ' ' ' ' ' ' ' ' ' ' ' ' ' ' ' ' ' ' ' ' ' ' ' ' ' ' ' ' ' ' ' ' ' ' ' ' _ _ ' ' ' ' ' ' ' ' ' ' ' ' ' ' ' ' ' _ _ ' ' ' ' ' ' ' ' ' ' ' ' ' ' ' ' _ _ ' ' ' ' ' ' ' ' ' ' ' ' ' ' ' ' ' ' ' _ _ ' ' ' ' _ ' ' ' ' ' ' ' ' ' ' ' ' ' ' ' ' ' ' ' ' ' ' ' ' ' ' ' ' ' ' ' ' ' ' ' ' ' ' ' ' ' ' ' ' ' ' ' ' ' ' ' ' ' ' ' ' ' ' ' ' ' ' ' ' ' ' ' ' ' ' ' ' ' ' ' ' ' ' ' ' ' ' ' ' ' ' ' ' ' ' ' ' ' ' ' ' ' ' ' ' ' ' ' ' ' ' ' ' ' ' ' ' ' ' ' ' ' ' ' ' ' ' ' ' ' ' ' ' ' ' ' ' ' ' ' ' _ _ ' ' ' ' ' ' ' ' ' ' ' ' ' ' ' ' ' ' _ _ _ _ ' ' ' ' ' ' ' ' ' ' ' ' ' ' ' ' _ _ ' ' ' ' ' ' ' ' ' ' ' ' ' ' ' ' ' ' ' ' ' ' ' ' ' _ _ _ ' ' ' ' ' ' ' ' ' ' ' ' ' ' ' ' ' ' ' ' ' ' ' ' ' ' ' ' ' ' ' ' ' ' ' ' ' ' ' ' ' ' ' ' ' ' ' ' ' ' ' ' ' ' ' ' ' _ ' ' ' ' ' ' ' ' ' ' ' ' ' ' ' ' ' ' ' ' ' ' ' ' ' ' ' ' ' ' ' ' ' ' ' ' ' ' ' ' _ _ ' ' ' ' ' ' ' ' ' ' _ _ _ _ ' ' _ ' ' ' ' ' _ _ ' ' ' ' _ _ _ _ ' ' ' ' ' ' _ _ _ _ _ _ ' ' _ _ ' _ ' ' ' ' ' ' ' ' ' ' ' ' ' ' ' ' ' ' ' ' ' ' ' o.' ' &.+.> > . @ . . = ; z z l z l z _ _ ' ' _ _ z z k d h l l l I I 9 9 . . . . '                                       w w ",
"                                                    . . = + + + : : j d r w r r , : . . + @ + O o o . o @ O O O . @ O + > > > > 9 9 ) _ <.<.7.7.9.9.%.$.s r : : . @ @ @ + + + @ . . . . . . O O + @ . . = = ) ) / I r r e r , : @ + @ + +                       ; ; + @ + + l z ( ( _ ( I I U / _ _ _ _ F F d d h d d d & & O # # $ b n {.`.%XOX;X$X$X$X-X-X:X:XK.K.K.E.E.E.E.E.!.!.!.!.oXoXoX!.E.!.oXoX!.!.E.E.oXoXoXoXoXoXoX~.oXoXoXoX%XoXoXoXoXE.oX XoXE.E.K.K.L.L.L.L.L.L.J.J.J.K.K.OX X X X X X X XK.K.K.K.E.E.!.E.!.E.E.E.E.E.%X%X%X%X XXXoXXX XoXE.!.R.Q.L.).Q.).Q.J.D.D.R.E.%X%XoXOXOXOX%X%X%X*XK.L.J.L.L.L.G.D.I.D.L.L.!.!.!.oX%XoXoXoX%X%X_._.I.I.I.I.P.P.).L._.L.%XoX&X&X%XOXOX+X+X+X&X&X+X+XOX.X.XOXOXOXOXOXOXOX%XOXOXOXOXOXOXOXOXOXOXOXOXOX X XOXOXoXoX%XOXoX XoX XoX XoX XOX XOXoXoXoXoX!.oXoXoXoXoX!.oXE. XE.oX X;X;X;X;X;X;X;X2X*X%XL.L.P.).P.P.P.P.P.P.).L.).L._.K.!.!.!.K.!.!.K.E.K.E.!.!.!.L.K.K.K.K.oX%X2XjX-X-X-X-X-X-X-X;XE.E.K.R.E.^.!.E.!.E.!.!.!.!.oXW.oX~.oXoXoXoXoXoXoXoXOXoXOXoXoXoXOXoXOXoXOXoXOXOXoXXXOXXXOXOXOXXXOXOXOXXXOXXXOXOXOXOXOXOXOXOXOXOX%XOXOXOX X X%X+X,X,X,X=X,X-X=X-X;X;X XOX X XoXoX;X$X-X-X-X2X*X*XK.J.J.J.J.J.J.L._.).).).).L.L.J.L.J.R.Q.).).)./.P.(.[.[.L E R P U U _ ) _ ` ` ` ` ` ` ` ` ` ' ' ' ' _ _ ' ' ' ' ' ' ' ' ' ' ' ' ' ' ' ' ' ' ' ' ' ' ' ' ' ' ' ' ' ' ' ' ' ' ' ' ' ' ' ' ' ' ' ' ' ' ' ' ' ' ' ' ' ' ' ' ' ' ' ' ' ' ' ' ' ' ' ' ' ' ' ' ' ' ' ' ' ' ' ' ' ' ' ' ' ' ' ' ' ' ' ' ' ' ' ' ' ' ' ' ' ' ' ' ' ' ' ' ' ' ' ' ' ' ' _ ' ' ' ' ' ' ' ' ' ' ' ' ' ' ' ' ' ' ' ' ' ' ' ' ' ' ' ' ' ' ' ' _ ' ' ' ' _ _ ' ' ' ' ' ' ' ' ' ' ' ' ' ' ' _ _ ' ' ' ' ' ' ' ' ' ' ' ' _ _ ' ' ' ' ' ' ' ' ' ' ' ' ' ' ' ' ' ' ' _ ' ' _ ' _ _ ' ' ' ' ' ' ' ' ' ' ' ' ' ' ' ' ' ' ' ' ' ' ' ' ' ' ' ' ' ' ' ' ' ' ' ' ' ' ' ' ' ' ' ' ' ' ' ' ' ' ' ' ' ' ' ' ' ' ' ' ' ' ' ' ' ' ' ' ' ' ' ' ' ' ' ' ' ' ' _ ' ' ' ' ' ' _ _ ' ' ' ' ' ' ' ' ' ' ' ' ' ' ' ' ' ' ' ' ' ' ' ' ' ' ' ' ' ' ' ' ' ' ' ' ' ' ' ' ' ' ' ' ' ' ' ' _ ' ' ' ' ' ' ' ' ' ' ' ' ' _ ' ' ' ' ' ' ' ' ' ' ' ' ' ' ' ' ' ' ' ' ' ' ' ' ' ' ' ' ' ' ' ' ' ' ' ' ' ' ' ' ' ' ' ' ' ' ' ' ' ' ' ' _ ' ' ' ' ' ' ' ' ' ' ' ' ' ' ' ' ' ' ' ' ' ' ' ' ' ' ' ' ' ' ' ' ' ' ' ' ' ' ' ' ' ' ' ' ' ' ' ' ' ' ' ' ' ' ' ' ' ' ' ' ' ' ' ' ' ' ' ' ' ' ' ' ' ' ' ' ' ' ' ' ' ' ' ' ' ' ' ' ' ' ' ' ' ' ' ' ' ' ' ' _ ' ' ' ' ' ' ' _ ' _ _ _ _ _ ' _ _ _ ' _ ' ' ' ' ' _ _ ' ' ' ' ' ' ' ' ' ' ' ' ' ' ' ' _ _ _ ' ' ' _ _ _ ' ' ' ' ' ' ' ' ' ' ' ' ' ' ' ' ' ' ' ' o.' +.' ' @.+.9 9 . @ . . = = l z l l l l _ _ | | _ _ z z k k z J z I ) ) e e . . . . '                                       . . ",
"                                                    . . = + + + = ; d d r r r r = = . . + @ @ O . . . . @ O O + . . O + > > > : 9 9 | +.<.<.7.7.w.w.%.$.s r : > . @ @ @ + + o @ . . . . . @ O + . . . . ; ; / / ) / d r e e : > @ + @ + +                         < + @ + + z F ( / _ _ I F U I ( ) ( I z z d d h h d d & = O # # $ b b {.}.%XoX*X&X$X$X-X-X%X%XE.!.!.!.!.Q.!._.^.^.^.^.!.!.!.!.!.!.!.!.!.!.!.^.~.~.~.~.~.~.~.~.!.!.~.~.~.!.~.~.oX!.oXoXoXoXE.E.J.L.L.Q.Q.L.L.L.L.!.E.E.oX X X X XoX X X!.E.K.!.!.!.E.R.E.R.R.R.R.E.oXoXoXoXE.W.oXoX%X%X_._.J.Q.P.P.).).).Q.G.D._.!.%X%X%X%X%XoXoX%X%X%XK.L.L.L.L.L.G.G.D.G.L.L._._._._.!.!.!.!.%X%X).).I.I.P.P.P.P.).)._._.%X%X*X%X%XOX%X%X&XOX%X%X%X%XOXOXOXOXOXoXOXoX%X%X%X%XoXoXOXoXOXOXOXOX XoXOXoX X XOXOXoXoXoXoXoXoX!.!.oXoXoXoXoXoXoXoXoX!.!.!.oX!.oX!.!.!.!.!.!.!.oXoX2X2X2X2X2X2X2X1X%X%XL.P.P.P.P.P.P.P.P.P.).L.).L.!.!._._.!.!.!._.!.E.!.R.!.)._._.!.Q.J.K. XoX2X2XgX-X-X2X2X2X2X2XE.E.R.R.!._._.!._.!.!.!.!.!.~.~.oXoXoXoX%X%XoXoXoXoXoXoXoXoXoXoXoXoXoXoX%XoXoXoXoXoXoXoXoXoXoXoXoXoXoXoXOXOXOXoXOX%XOX%X:X%XOXOXOXOXOXOX XOX%X%X-X=X=X=X=X=X-X-X;X;X X XE.E.E.oX;X*X2X2X2X2X1X1XJ.J.J.J.L.L.L.L.).).).).).).L.L.Q.L.L.Y.Y.).)./.(.(.[.[.L E R P U _ _ ) _ ] ` ` ` ` ` ` ` ` ' ' ' ' _ _ ' ' ' ' ' ' ' ' ' ' ' ' ' ' ' ' ' ' ' ' ' ' ' ' ' ' ' ' ' ' ' ' ' ' ' ' ' ' ' ' ' ' ' ' ' ' ' ' ' ' ' ' ' ' ' ' ' ' ' ' ' ' ' ' ' ' ' ' ' ' ' ' ' ' ' ' ' ' ' ' ' ' ' ' ' ' ' ' _ ' ' ' ' ' ' ' ' ' ' ' ' ' ' ' ' ' ' ' ' ' ' ' ' _ ' ' ' ' ' ' ' ' ' ' ' ' ' ' ' ' ' ' ' ' ' ' ' ' ' ' ' ' ' ' ' ' ' ' ' ' ' ' ' _ _ _ ' ' ' ' ' ' ' ' ' ' ' ' ' ' ' ' ' ' ' ' ' ' ' ' _ ' ' ' ' _ ' ' ' ' ' ' ' ' ' ' ' ' ' ' ' ' ' ' ' ' ' ' ' ' ' ' ' ' ' ' ' ' ' ' ' ' ' ' ' ' ' ' ' ' ' ' ' ' ' ' ' ' ' ' ' ' ' ' ' ' ' ' ' ' ' ' ' ' ' ' ' ' ' ' ' ' ' ' ' ' ' ' ' ' ' ' ' ' ' ' ' ' ' ' ' ' ' ' ' ' ' ' ' ' _ _ ' ' ' ' ' ' _ _ ' ' ' ' ' ' ' ' ' ' ' ' ' ' ' ' ' ' ' ' ' ' ' ' ' ' ' ' ' ' ' _ ' ' ' ' ' ' ' ' ' ' ' ' ' ' ' ' ' ' ' ' ' ' ' ' ' ' ' ' ' ' ' ' ' ' ' ' ' ' ' ' ' ' ' ' ' ' ' ' ' ' ' ' ' ' ' ' ' ' ' ' ' ' ' ' ' ' ' ' ' ' ' _ ' ' ' ' ' ' ' ' ' ' ' ' ' ' ' ' ' ' ' ' ' ' ' ' ' ' ' ' ' ' ' ' ' ' ' ' ' ' ' ' ' ' ' ' ' ' ' ' ' ' ' ' ' ' ' ' ' ' ' ' ' ' ' ' ' ' ' ' ' ' ' ' ' ' ' ' ' ' ' ' ' ' ' ' ' ' ' ' ' ' ' ' ' ' ' ' ' ' ' ' ' ' ' ' ' ' ' ' ' ' ' ' ' ' ' ' ' ' ' ' ' ' ' _ _ ' _ ' _ _ _ ' _ _ _ _ ' ' _ _ _ ' ' ' ' ' ' ' ' ' ' ' ' ' ' ' _ _ ' ' ' ' _ _ _ ' ' ' ' ' ' ' ' ' ' ' ' ' ' ' ' ' ' ' ' ' ' +.' ' &.&.9 9 . @ . o = = z z l l l l ( _ | ' _ _ z z k k z z z J I I 9 9 . . . . '                                       . . ",
"                                                    . . = + + + : > l l r e 9 9 < < . . + + + O + + O + + + + + @ @ + + : : : ; , , ' | $.&.%.&.<.<.| | w w , , + + + < ; ; + + . . . . @ O + ; ; = O . O . : ; = ; O + ; > : 5 @ @ @ @ +                         ; + @ + + z F _ _ [ _ U I ( ( / / ( I z z d d j h f j & = X # # $ b b {.}.*X%X2X;X;X$X;X;XOXoXJ.J.D.D.D.D.D.D.D.D.D.R.Q.Q.Q.Q.R.R.Q.Q.R.Q.R.Q.R.^.^.~.~.~.!.!.~.~.~.~.!.~.~.~.!.!.!.!.~.!.!.E.J.R.R.R.R.R.L.L.J.J.J.J.J.J.J.K.K.J.J.J.K.J.J.J.L.Q.Q.Q.R.R.R.R.R.R._.~.~.W.E.E.R.E.!._.J.G.A.A.z.z.z.A.A.A.z.z.D.D.R.J.J.K.K.J.E.E.!.oXJ.R.J.D.D.D.D.D.D.D.D.L._.Q.Q.Q.R.K.K.L.L.L.L.L.j.H.j.j.H.j.j.j.I.I.L.J.!.E.E.|. X X X XOXOXOX X X X XOXoXoXOX X X X XoXoXoXoXE. XE.!.!.E.E.oX!.E.E.oXoX^.^.^.!.!.E.E.E.E.E.E.E.E.E.E.E.E.E.E.E.E.E.!.E.E.E.E.E.K.E.E.!.oXoXoXoXoXE.E.^.!._.I.P.H.H.P.P.P.P.P.P.P.G._.Q.Q.Q.!.!.).).!._.!.Q.Q.Q.Q.Q.).).Q.Q.R.J.oX%X2XgXgX-X-X-X-X2X2X2XE.R.R.R.R.Q.Q.Q.!.^.^.^.R.R.E.E.E.E.E.E.E.E.E.E.~.~.W.W.W.W.W.W.~.~.~.~.W.W.W.W.XXXXW.W.XXoXXXXXXXXXoXXX X X XXX XXXOXoXOXOXOXOXOX XOXOX X X%X%X-X-X=X=X-X-X-X2X;X;X XE.E.^.^.E.oXoX%X%X*X*X%X%XJ.J.D.D.D.D.G.G.S.S.G.G.D.D.D.D.D.D.G.D.G.G.G./.(.(.[.[.L R R P U _ _ _ _ ] ` ` ` ` ` ` ` ` ' ' ' ' ' ' ' ' ' ' ' ' ' ' ' ' ' ' ' ' ' ' ' ' ' ' ' ' ' ' ' ' ' ' ' ' ' ' ' ' ' ' _ _ _ ' ' ' ' ' ' ' ' ' ' ' ' ' ' ' ' ' ' ' ' ' ' ' ' ' ' ' ' ' ' ' ' ' ' ' ' ' ' ' ' ' ' ' ' ' ' ' ' ' _ _ ' ' _ _ ' ' ' ' ' ' ' ' ' ' ' ' ' ' ' ' ' ' _ _ ' ' ' ' ' ' ' ' ' ' ' ' ' ' ' ' ' ' ' ' ' ' ' ' ' ' ' ' ' ' ' ' ' ' ' _ _ _ ' ' ' ' _ _ ' ' ' ' ' ' ' ' ' ' ' ' ' ' ' ' ' ' ' ' ' ' ' ' ' ' ' _ ' ' ' ' ' ' ' ' ' ' ' ' ' ' ' ' ' ' ' ' ' ' _ _ ' ' ' ' ' ' ' ' ' ' ' ' ' ' ' ' ' ' ' ' ' ' ' ' ' ' ' ' ' ' ' ' ' ' ' ' ' _ ' ' ' ' _ ' ' ' ' ' ' ' ' ' ' ' ' ' ' ' ' ' ' ' ' ' ' ' ' ' ' ' ' ' ' ' ' ' ' ' ' ' ' ' ' ' ' ' ' ' ' ' ' ' ' ' ' ' ' ' ' ' ' ' ' ' ' ' ' ' ' ' ' ' ' ' ' ' ' ' ' ' _ _ ' ' ' ' ' ' ' ' ' ' ' ' ' ' ' ' ' ' ' ' ' ' _ _ ' ' ' ' ' ' ' ' ' ' ' ' ' ' ' ' ' ' ' ' ' ' ' ' ' ' ' ' ' ' ' ' ' ' ' ' ' ' ' ' ' ' ' ' ' ' _ _ ' ' ' ' ' ' ' ' ' ' ' ' ' ' ' _ ' ' ' ' ' ' ' ' ' ' ' ' ' ' ' ' ' ' ' ' ' ' ' ' ' ' ' ' ' ' ' ' ' ' ' ' ' ' ' ' ' ' ' ' ' ' ' ' ' ' ' ' ' ' ' _ ' ' ' ' ' ' ' ' ' ' ' ' ' ' ' ' ' ' ' ' ' ' ' ' ' ' _ _ _ ' ' ' ' ' ' ' ' ' ' ' ' ' ' ' _ _ _ _ ' ' ' _ _ _ ' ' ' _ _ _ _ ' ' ' ' ' _ _ _ _ ' ' ' ' ' ' ' ' _ ' ' ' ' ' ' ' ' ' ' ' ' ' _ ' ' ' ' ' ' ' ' ' ' ' ' ' ' ' ' ' ' ' ' o.' +.' ' &.&.9 9 . . . . = = l z l l k k I I ' ' _ _ z z l l z z l z Y Y 9 9 . . . . '                                       . . ",
"                                                    . . = + + + , : d h r e 9 9 + + . . + + + O O O O O + + + + . @ + + : : > : , , ' ' $.$.$.$.5.<. . .y y , , ; ; < < ; ; + + . @ @ @ @ + + ; & ; + + + + , ; = = + & ; : : : + @ @ @ +                         ; + @ + + z z [ _ _ _ U U U I I I I I z z d h j h f j & - X # # $ b b {.}.1X*X2X;X;X:X$X%XOXoXR.R.D.D.D.D.D.D.D.D.D.D.D.Q.Q.Q.R.R.R.R.R.R.R.R.R.R.^.^.~.^.~.^.~.W.~.W.~.~.~.~.~.E.!.E.!.W.!.E.R.R.R.R.R.R.Q.Q.Q._.R.R.J.J.J.J.J.J.J.J.!.Q.!.Q.L.Q.Q.Q.R.R.R.R.Q.Q._._.!.!.R.E.E.~._._.).Q.A.z.z.z.v.H.H.H.A.A.G.D.Q.R.J.E.K.K.E.E.E.!.J.R.J.J.D.J.L.J.L.J.J.J.Q.Q.Q.R.J.J.K.L.L.L.L.G.j.j.j.j.H.j.H.j.I.I.L.J.!.E.E.K. X X XE. XE. XE. XE. X XoXoX XE.E. X X X X!.E.E.K.E.E.E.E.E.E.^.E.E.E.^.R.R.E.E.^.E.^.E.^.E.^.E.^.E.E.E.^.E.E.E.E.E.E.E.E.E.E.E.E.E.E.E.~.~.oX~.oX~.!.!.!._.D.I.H.v.H.P.P.P.P.H.P.S.).Q.Q.R.R.R.R.Q.Q.Q.R.R.R.R.Q.Q.).).Q.Q.R.R.oX%X2X2XgXgX2X2XgXgXgXgXE.R.R.R.R.Q.Q.^.^.E.^.R.R.R.R.E.E.E.E.E.E.E.E.E.W.W.E.E.E.E.E.E.W.W.W.W.W.W.W.W.W.W.W.W.W.W.W.W.W.W.W. X X X X X XW.XXXXXXXXoXXXoX X XXX XXXoX:X-X-X-X-X-X-X2X2X;X;XE.E.E.^.^.!.oX~.%X%X*X*X%X%XJ.D.D.S.S.S.G.I.A.S.G.G.D.D.D.D.D.D.U.Y.Y.Y.Y.Y.(.(.[.[.L R R T U _ _ _ ' ` ` ` ` ` ` ` ` ` ' ' ' ' ' ' ' ' ' ' ' ' ' ' ' ' ' ' ' ' ' ' ' ' ' ' ' ' ' ' ' ' ' ' ' ' ' ' ' ' ' ' _ ' _ ' ' ' ' _ ' ' ' ' ' ' ' ' ' ' ' ' ' ' ' ' ' ' ' ' ' ' ' ' ' ' ' ' ' ' ' ' ' ' ' ' ' ' ' ' ' ' ' ' _ ' ' ' _ _ _ ' ' ' ' ' ' ' ' ' ' ' ' ' ' ' ' ' _ ' ' ' ' ' ' ' ' ' ' ' ' ' ' ' ' ' ' ' ' ' ' ' ' ' ' ' ' ' ' ' ' ' ' ' ' ' ' _ _ ' ' ' _ _ ' ' ' ' ' ' ' ' _ ' ' ' ' ' ' ' ' ' ' ' ' ' ' ' ' ' ' _ ' ' ' ' ' ' ' ' ' ' ' ' ' ' ' ' ' ' ' ' ' ' ' ' ' ' ' ' ' ' ' ' ' ' ' ' ' ' ' ' ' ' ' ' ' ' ' ' ' ' ' ' ' ' ' ' ' ' ' ' ' _ ' ' ' ' _ ' ' ' ' ' ' ' ' ' ' ' ' ' ' ' ' ' ' ' ' ' ' ' ' ' ' ' ' ' ' ' ' ' ' ' ' ' ' ' ' ' ' ' ' ' ' ' ' ' ' ' ' ' _ _ ' ' ' ' ' ' ' ' ' ' ' ' ' ' ' ' ' ' ' ' ' ' _ _ ' ' ' ' ' ' ' ' ' ' ' ' ' ' ' ' ' ' ' ' ' ' _ _ ' ' ' ' ' ' ' ' ' ' ' ' ' ' ' ' ' ' ' ' ' ' ' ' ' ' ' ' ' ' ' ' ' ' ' ' ' ' ' ' ' ' ' ' ' ' ' ' ' ' ' ' ' ' ' ' ' ' ' ' ' ' ' _ ' ' ' ' ' ' ' ' ' ' ' ' ' ' ' ' ' ' ' ' ' ' ' ' ' ' ' ' ' ' ' ' ' ' ' ' ' ' ' ' ' ' ' ' ' ' ' ' ' ' ' ' ' ' ' ' ' ' ' ' ' ' ' ' ' ' ' _ ' ' ' ' ' ' ' ' ' ' ' ' ' _ _ _ _ _ _ ' ' ' ' ' ' ' ' ' ' ' _ ' _ _ _ _ ' ' ' ' ' ' ' ' ' _ _ _ _ _ ' ' ' ' _ _ _ ' ' _ ' ' ' ' ' ' _ _ ' ' _ _ ' ' ' ' ' ' ' ' ' ' ' ' ' ' ' ' ' ' ' ' ' ' ' ' ' ' ' ' ' o.' +.' ' &.&.9 9 . . . . = = z z l z k k I I ( _ I _ z z l k z z l l I I 9 9 . . . . '                                       . . ",
"                                                    . . + + + + ; = 9 0 > > , , = & + + < = + + o o O + = ; ; ; + + + + ; ; : > > , _ _ $.%.&.$.>.%.' ' w w < + , ; < + < + + + O O O O O + < ; ; ; @ + + + + + O O O + ; : : : + @ @ @ +                         ; @ @ + + z z [ _ U I U I F I I I I I z z d h j h d j & = O # # $ b b {.}.1X*X2X*X*X:X*X*XoX%XD.D.D.D.S.S.S.S.S.S.D.D.D.Q.Q.Q.R.R.R.R.R.R.R.U.D.U.U.U.U.U.U.U.R.R.R.R.R.R.R.E.~.W.E.W.~.W.E.E.E.E.^.E.R.R.R.Q.J.Q.J.R.R.!.J.!.!.Q.Q.J.).L.L.D.D.D.D.D.D.D.D.D.D.D.Q.R.J.R.J.R.J.J.J.Q.D.D.j.h.h.h.h.h.h.j.z.j.G.D.Q.R.J.R.R.R.E.E.E.E.J.R.R.R.R.R.Q.R.Q.R.J.R.R.R.R.R.R.R.R.R.J.J.D.S.j.j.h.h.j.h.j.h.j.j.A.A.!.!.oXoX X X X X X X X X X X XoX X X X X X X X XE. X XE.E.E.E.E.E.E.E.E.E.^.E.E.E.E.E.W.E.E.E.E.E.E.E.E.E.E.E.E.E.E.E.E.E.E.E.E.E.E.E.E.E.E.E.E.R.R.R.R.E.R.R.R.J.Q.j.j.g.g.g.h.h.h.h.h.j.j.G.D.R.R.R.R.R.R.R.R.R.R.R.R.Q.Q.Q.).Q.Q.R.J.E.R.XXW.XXXXXXXXXXW.W.W.E.R.R.R.^.Q.).Q.R.R.E.E.E.E.E.E.W.W.W.W.W.W.W.W.W.W.W.W.W.W.W.W.W.W.W.W.W.W.W.W.W.W.W.W.W.W.W.W.W.W.W.XXXXXXXXXXXXW.XXW.XXXXXXXXoXXXXXXXXXXXXXXX.X.X.X.X.X.XOXXXOX%XK.R.J.R.J.R.J.D.R.D.J.R.J.J.D.S.S.S.G.F.P.H.G.G.G.Q.Q.R.R.^.U.R.Q.Q.Y.Y.Y./.(.(.[.[.L R R T U _ _ ) _ ] ` ` ` ` ` ` ` ` ' ' ' ' ' ' ' ' ' ' ' ' ' ' ' ' ' ' ' ' ' ' ' ' ' ' _ _ ' ' ' ' ' ' ' ' ' ' ' ' ' ' ' _ ' ' ' ' ' _ ' ' ' ' ' ' ' ' ' ' ' ' ' ' ' ' ' ' ' ' ' ' ' ' ' ' ' ' ' ' ' ' ' ' ' ' ' ' ' ' ' ' ' ' _ _ ' ' ' ' _ _ ' ' ' ' ' ' ' ' ' ' ' ' ' ' ' _ _ ' ' ' ' ' ' ' ' ' ' ' ' ' ' ' ' ' ' ' ' ' ' ' ' ' ' ' _ ' ' ' ' ' ' ' ' ' ' ' ' ' ' ' _ _ ' ' ' ' _ _ ' ' ' ' ' ' ' ' ' ' ' ' ' ' ' ' ' ' ' ' ' _ ' ' ' ' ' ' ' ' ' ' ' ' ' ' ' ' ' ' ' ' ' ' ' ' ' ' ' ' ' ' ' ' ' ' ' ' ' ' ' ' ' ' ' ' ' ' ' ' ' ' ' ' ' ' ' ' ' ' ' ' ' ' ' ' ' ' _ ' ' ' ' ' ' ' ' ' ' ' ' ' ' ' ' ' ' ' ' ' ' ' ' ' ' ' ' ' ' ' ' ' ' ' ' ' ' ' ' ' ' ' _ ' ' ' ' ' ' ' ' ' _ _ ' ' ' ' ' ' ' ' _ _ _ _ ' ' ' ' ' ' ' ' ' ' ' _ ' ' ' ' ' ' ' ' ' ' ' ' ' ' ' ' ' ' ' ' ' ' ' _ ' ' ' ' ' ' ' ' ' ' ' ' ' ' ' ' ' ' ' ' ' ' ' ' ' ' ' ' ' ' ' ' ' ' ' ' ' ' ' ' ' ' ' ' ' ' ' ' ' ' ' ' ' ' ' ' ' ' ' ' ' ' ' ' ' ' ' ' ' ' ' ' ' ' ' ' ' ' ' ' ' ' ' ' ' ' ' ' ' ' ' ' ' ' ' ' ' ' ' ' ' ' ' ' ' ' ' ' ' ' ' ' ' ' _ _ ' ' ' ' ' ' ' ' ' ' ' ' ' ' _ _ ' ' ' ' ' ' ' ' ' ' ' ' ' ' ' _ ' ' ' ' ' ' ' ' ' ' ' ' ' ' ' ' ' ' ' ' ' ' ' ' ' _ ' ' ' ' _ _ ' ' ' ' ' ' ' ' ' ' _ _ _ _ _ _ ' _ _ _ ' _ _ _ _ ' ' ' _ _ ' ' ' ' ' ' ' ' ' ' ' ' ' ' ' ' ' ' ' ' ' ' ' ' ' +.' ' &.@.9 9 . . . o = = z z z z k k I I I I I U l S l l l f g g l l 9 9 . . . . '                                       . . ",
"                                                    . . + + + = , = 9 9 , > > > = & < + < < + + o O O + = ; ; ; + + + + ; ; > w > , _ ) $.>.&.$.>.%.'  .y y ; + > : ; < < + + + + O + O O O + = ; , @ + + + + + O O + = : : : ; + @ @ @ +                         ; @ @ + & z z { [ U G U Y F I I Y Y Y S z j k j h d j & ; O X # $ b b {.}.1X*X2X*X*X:X*X*XoX~.D.D.D.D.D.S.S.S.S.A.S.D.D.U.Q.R.R.J.U.U.U.U.U.U.U.U.U.U.U.U.U.U.U.U.R.^.^.^.^.^.~.~.~.~.~.~.E.E.E.E.^.^.R.R.Q.Q.Q._.R.!.R.Q.J.J.J.J.Q.J.).D.L.G.G.G.S.D.D.D.D.D.G.G.Q.Q.J.R.J.R.R.D.D.Q.D.G.j.h.h.h.h.h.h.z.z.z.G.D.).Q.J.R.R.E.E.E.E.E.J.R.Q.R.^.R.R.R.J.J.R.R.D.J.R.R.R.R.J.J.J.J.D.S.j.h.h.h.h.h.j.j.j.j.A.A.!.!.~.oX X X X XE. X X XE. X X XE.E.E.E.E.E.E.E.E.E.E.E.E.E.E.E.E.E.E.E.^.~.^.R.E.E.^.^.E.E.R.R.E.E.E.E.E.E.E.E.E.E.E.E.E.E.E.E.R.E.E.E.^.R.R.R.R.R.R.R.R.R.R.R.^.Q.j.h.g.g.g.g.h.h.g.g.h.h.D.Q.^.R.R.R.R.R.R.R.R.R.R.R.^.^.).Q.Q.R.R.R.^.R.W.E.XXXXW.W.W.W.~.~.^.R.R.R.^.^.).Q.R.R.R.E.E.W.E.E.E.W.W.W.E.E.E.E.W.W.W.W.W.W.E.E.E.E.E.E.E.E.E.W.W.W.E.W.W.W.W.W.W.W.W.W.W.XXXXXXXXW.W.W.XXW.XXW.oXXXXXXXXXXXXXXXXXXXXXXXXXXXXX XoX%XJ.E.R.R.R.R.R.D.D.D.D.Q.D.).S.H.F.F.P.P.P.S.Y.G.D.J.R.Q.^.^.U.R.Q.Q.Q.Y.Y.Y.(.(.[.[.L R R T U ( _ _ _ ` ` ` ` ` ` ` ` ` ' ' ' ' ' ' ' ' ' ' ' ' ' ' ' ' ' ' ' ' ' ' ' ' ' ' _ _ ' ' ' ' ' ' ' ' ' ' ' ' ' _ ' ' ' ' ' ' _ _ ' ' ' ' ' ' ' ' ' ' ' ' ' ' ' ' ' ' ' ' ' ' ' ' ' ' ' ' ' ' ' ' ' ' ' ' ' ' ' ' ' ' ' ' _ _ ' ' ' ' ' ' ' ' ' ' ' ' ' ' ' ' ' ' ' ' ' _ _ _ ' ' ' ' ' ' ' ' ' ' ' ' ' ' ' ' ' ' ' ' ' ' ' ' ' ' _ _ ' ' ' ' ' ' ' ' ' ' ' ' ' ' _ _ _ ' ' ' _ ' ' ' ' ' ' ' _ _ ' ' ' ' ' ' ' ' ' ' ' ' ' _ ' ' ' ' ' ' ' ' ' ' ' ' ' ' ' ' ' ' ' ' ' ' ' ' ' ' ' ' ' ' ' ' ' ' ' ' ' ' ' ' ' ' ' ' ' ' ' ' ' ' ' ' ' ' ' ' ' ' ' ' ' ' ' ' ' ' ' ' ' ' ' ' ' ' ' ' ' ' ' ' ' ' ' ' ' ' ' ' ' ' ' ' ' ' ' ' ' _ ' ' ' ' ' ' ' ' ' ' ' _ _ _ ' ' ' ' ' ' ' ' _ _ ' ' ' ' ' ' ' ' _ _ _ _ ' ' ' ' ' ' ' ' ' _ _ _ ' ' ' ' ' ' ' ' ' ' ' ' ' ' ' ' ' ' ' ' ' ' ' ' ' ' ' ' ' ' _ _ ' ' ' ' ' ' ' ' ' ' ' ' ' ' ' ' ' ' ' ' ' ' ' ' ' ' ' ' ' ' ' ' ' ' ' ' ' ' ' ' _ ' ' ' ' ' ' ' ' ' ' ' ' ' ' ' ' ' ' ' ' ' ' ' ' ' ' ' ' ' ' ' ' ' ' ' ' ' ' ' ' ' ' ' ' ' ' ' ' ' ' ' ' ' ' ' ' ' ' ' ' ' ' ' ' ' ' _ _ ' ' ' ' ' ' ' ' ' ' ' ' ' _ _ ' ' ' ' ' ' ' ' ' ' ' ' ' ' ' ' ' ' ' ' ' ' ' ' ' ' ' ' ' ' ' ' ' ' ' ' ' ' ' ' ' _ ' ' ' ' ' ' ' ' ' ' _ ' ' ' ' ' _ _ _ _ _ _ ' _ _ _ _ _ _ _ ' ' ' ' _ _ ' ' ' ' ' _ ' ' ' ' ' ' ' ' ' ' ' ' ' ' ' ' ' O.' +.' ' &.+.9 9 . . . o = = z z z F l l U I S S S Y f S S S S Z g g S S 0 9 . . . . )                                       . . ",
"                                                    . . = + + + < = ; < < + + = = & = = = = = < o o o . , = : > = = ; = : ; : : : > J J 7.<.7.7.e.w.$.#.e e . + ; < + + + = : : i e u 0 6 6 6 6 & & O . O + . + O + . . + = ; ; + @ @ @ +                         ; @ @ + + l l ( U I P C C D Z U T U Y I S l l j j j j & = O X $ 1 b b }.}.1X%X*X;X%X:XXX*XE.~.J.D.D.D.D.D.D.G.S.A.G.D.Q.Y.D.D.R.D.R.U.U.U.D.D.Y.Y.D.D.D.U.U.D.U.U.D.G.x.A.x.z.A.A.A.A.D.D.Q.^.^.^.E.R.R.R.R.R.R.R.R.R.R.R.R.R.R.R.J.J.G.).G.)./././././.G.S.S.Y.G.).Q.^.^.R.R.R.Q.).(.G.G.z.j.h.l.n.v.l.l.l.z.Y.Y.).).Q.R.R.R.E.R.R.R.R.R.R.R.R.R.R.R.R.R.R.R.Q.Q.Q.R.R.J.J.J.Q.Q.L.G.j.h.h.h.h.h.j.j.h.j.H.A._._.!.oXoXoXOXOXoXoXoX X X XW.W.W.W.~.W.E.E.E.E.W.E.E.E.E.E.E.E.E.E.E.E.^._.^.~.~.Q.~.^.!.E.~.^.E.^.W.W.E.E.^.E.E.E.E.E.E.E.E.E.^.^.E.R.E.R.R.R.Q.R.R.R.R.R.R.^.).Y.z.h.g.g.g.g.g.h.h.g.h.h.D.Y.Q.R.R.R.R.R.R.R.U.R.R.R.R.R.R.U.R.R.R.R.R.R.R.R.R.R.R.R.R.R.R.^.R.R.Q.R.Q.Q.Q.Q.Q.E.E.R.^.^.!.E.^.E.W.W.E.E.E.W.W.W.W.W.W.W.W.W.W.W.W.W.W.W.W.W.W.W.W.W.W.W.W.R.E.W.W.W.XXXXoXoXoXoXoXoXoXXXW.W.W.W.W.W.W.W.W.W.XX XE.XX X XW.W.E.E.!.!.R.R.Q.R.Q.Y.U.U.D.D.S.S.h.h.k.k.k.j.j.j.).Q.Y.).Q.Q.Q.^.^.Q.R.Y.Y.Y.U.Y.(.(.[.[.L R R P U U _ _ ' ` ` ` ` ` ` ` ' ' ' ' ' ' ' ' ' ' ' ' ' ' _ _ ' ' ' ' ' ' ' ' ' ' ' ' ' ' ' ' ' ' ' ' ' ' ' ' ' ' ' _ ' ' ' ' ' ' ' ' ' ' ' ' ' ' ' _ _ ' ' ' ' ' ' ' ' ' ' ' ' ' ' ' ' ' ' ' ' _ _ _ ' ' ' ' ' ' ' ' ' ' ' ' ' ' ' ' ' ' ' ' ' ' ' ' ' ' ' ' ' ' ' ' ' _ ' ' ' ' ' ' ' ' ' ' ' ' ' ' _ ' ' ' ' ' ' _ ' ' ' ' ' ' ' ' _ _ ' ' ' ' ' ' ' ' ' ' ' ' ' ' ' ' ' ' ' ' ' ' ' ' ' ' ' ' ' ' ' ' _ _ ' ' ' ' ' ' ' ' ' ' ' ' ' ' ' ' ' ' ' ' ' ' ' ' ' ' ' ' ' ' ' ' ' ' ' ' _ _ ' ' ' ' ' ' ' ' ' ' ' ' ' ' ' ' ' ' ' ' ' ' ' _ _ ' ' ' ' _ ' ' ' ' ' ' ' ' ' ' ' ' _ _ _ _ ' ' ' ' ' ' ' ' ' _ _ _ ' ' ' ' ' ' ' ' ' ' _ _ ' ' ' ' ' ' ' ' ' ' ' ' ' ' ' ' ' ' ' ' ' ' ' ' ' ' ' ' ' ' ' ' ' ' ' ' ' ' ' ' ' ' ' ' ' ' ' ' ' ' ' ' ' ' ' ' ' ' ' ' ' ' ' ' _ _ _ _ ' ' ' ' ' ' ' ' ' ' ' ' ' ' ' ' ' ' ' ' ' ' ' ' ' ' ' ' ' ' ' ' ' ' ' ' _ ' ' ' ' ' ' ' ' ' ' ' ' ' ' ' ' ' ' ' ' ' _ _ ' ' ' ' ' _ ' ' _ ' ' ' ' ' ' ' ' ' ' ' ' ' ' ' ' ' ' ' ' ' ' ' ' ' ' ' ' ' ' ' ' ' ' ' ' ' ' ' ' ' ' ' ' ' ' ' ' ' ' ' ' ' ' ' ' ' ' ' ' ' ' ' ' ' ' ' ' ' ' ' ' ' ' ' ' ' ' ' ' ' ' ' ' ' ' ' ' ' ' ' ' ' ' ' _ _ ' ' ' ' ' ' ' ' ' ' ' ' ' ' ' ' ' ' ' _ ] ] _ _ _ ' ' _ _ _ _ _ _ _ ' ' ' ' _ _ _ ' ' ' ' _ _ _ ' ' ' ' ' ' ' ' ' ' ' ' ' ' ' ' ' ' ' ' ' ' ' ' ' +.' ' &.+.9 9 . o . o = = l l l S S f G S S Z D D Z Z Z Z S S p u Z S 0 e . . . . )                                       . . ",
"                                                    . . = + + + ; ; = < + + = = = < = = = = & < o o + o , = : : + & & & , , : : : ; J I >.7.8.7.r.w.$.#.9 9 . o < + + O O O , , u e e e 6 6 6 6 % % o . + + @ O + + . . + & ; ; @ @ @ @ +                         ; @ @ + + F l U U G D Z A D D T T P P P S j j j j j j & = O # $ 1 b b }.}.1X%X*X%XOXOXXX*XW.~.J.D.D.D.Y.Y.G.G.G.A.G.D.).Q.U.D.R.J.R.U.Y.Y.S.G.Y.G.G.D.D.D.D.D.Y.Y.T.T.x.z.z.z.v.H.H.A.S.S.).Q.^.^.^.E.R.R.R.^.R.R.R.R.R.R.R.R.R.R.J.R.G.).S.G./././././.P.G.S.G.S.Q.Q.^.Q.R.R.Q.Q.(._.G.P.z.l.l.l.c.l.l.l.l.l.Y.Y./.Q.^.^.^.R.R.R.R.R.R.R.R.R.R.R.R.R.R.R.R.R.Q.Q.Q.R.R.R.J.R.Q.Q.G.G.j.j.k.k.j.k.k.k.h.j.H.A._._.!.E. X XoXoXE.E. X X X XW.W.E.W.W.W.^.^.^.W.E.E.E.E.E.E.E.E.W.~.E.~.Q._.Q.)._.Q._.^.!.^.~.E.E.^.W.^.!.^.!.!.E.E.E.E.E.E.^.^.^.R.Q.Q.E.E.E.R.Q.Q.R.R.R.R.R.R./.Y.j.h.g.g.g.g.h.h.h.g.h.h.G.Y.).Q.R.R.R.R.R.R.R.R.R.R.R.R.R.R.R.R.R.R.R.R.R.R.Q.Q.Q.R.R.R.R.^.R.R.R.R.Q.Q.Q.Q.Q.Q.^.^.!.!.^.!.^.!.~.~.^.^.E.W.W.W.W.W.W.W.W.W.E.E.W.W.W.W.W.W.W.W.W.W.W.W.W.R.E.W.W.W.XXoXoXoXoXoXoXoXoXoXW.W.~.W.W.W.W.W.W.W. X XW.W.W.W.W.W.E.E.~.!.R.R.Q.Q.).)./.Y.Y.U.S.F.h.k.k.k.h.j.j.z./.Q.Y.).^.^.^.^.^.Q.Q.Q.Q.Y.Y.Y.(.(.[.[.L R R P U _ _ _ _ ` ' ` ` ` ` ` ' ' ' ' ' ' ' ' ' _ ' ' ' _ _ _ ' ' ' ' ' ' ' ' ' ' ' ' ' ' ' ' ' ' ' ' ' ' ' ' ' ' ' ' ' ' ' ' ' ' ' ' ' ' ' ' ' ' _ _ ' ' ' ' ' ' ' ' ' ' ' ' ' ' ' ' ' ' ' ' ' ' _ _ ' ' ' ' ' ' ' ' ' ' ' ' ' ' ' ' ' ' ' ' ' ' ' ' ' ' ' ' ' ' ' ' ' _ ' ' ' ' ' ' ' ' ' ' ' ' ' ' ' ' ' ' ' ' ' ' ' ' ' ' ' ' ' ' ' ' ' ' ' ' ' ' ' ' ' ' ' ' ' ' ' ' ' ' ' ' ' ' ' ' ' ' ' ' ' ' ' ' _ _ ' ' ' ' ' ' ' ' ' ' ' ' ' ' ' ' ' ' ' ' ' ' ' ' ' ' ' ' ' ' ' ' ' ' ' ' _ _ ' ' ' ' ' ' ' ' ' ' ' ' ' ' ' ' ' ' ' ' ' ' ' _ _ ' ' ' ' ' ' ' ' ' ' ' ' ' ' ' ' ' ' _ _ _ ' ' ' ' ' ' ' ' ' ' _ ' ' ' ' ' ' ' ' ' ' ' ' _ ' ' ' ' ' ' ' ' ' ' ' ' ' ' ' ' ' ' ' ' ' ' ' ' ' ' ' ' ' ' ' ' ' ' ' ' ' ' ' ' ' ' ' ' ' ' ' ' ' _ ' ' ' ' ' ' ' ' ' ' ' ' ' ' _ _ _ ' ' ' ' ' ' ' ' ' ' ' ' ' ' ' ' ' ' ' ' ' ' ' ' ' ' ' ' ' ' ' ' ' ' ' ' ' ' ' ' ' ' ' ' ' ' ' ' ' ' ' ' ' ' ' ' ' ' ' ' _ ' ' ' ' ' ' ' ' ' ' ' ' ' ' ' ' ' ' ' ' ' ' ' ' ' ' ' ' ' ' ' ' ' ' ' ' ' ' ' ' ' ' ' ' ' ' ' ' ' ' ' ' ' ' ' ' ' ' ' ' ' ' ' ' ' ' ' ' ' ' ' ' ' ' ' ' ' ' ' ' ' ' ' ' ' ' ' ' ' ' ' ' ' ' ' ' ' ' ' ' ' ' ' ' _ _ ' ' ' ' ' ' ' ' ' ' ' ' ' ' ' ' ' ' ' _ _ ] ' ' ' ' ' ' ' ' _ _ _ _ ' ' ' _ _ _ _ ' ' ' _ _ _ _ ' ' ' ' ' ' ' ' ' ' ' ' ' ' ' ' ' ' ' ' ' ' ' ' ' +.' { &.+.9 9 . o . . = = l z l S Z f S S Z Z D D A A A A A A g g S S 6 9 . @ . . )                                       . . ",
"                                                    . . = + + + = ; 9 e 9 8 , = + + + < = , = = < = : , 9 8 9 9 : : ; ; ; , = = 9 > #.#.>.5.<.<.r.w.%.&.w w + + , ; ; + O O 5 5 S l f Z 0 6 6 6 6 ; + O & + + + & + + + , , ; ; @ @ @ @ +                         ; @ @ + + F S _ U S C Z C A A H P D S P G j f j j j j & - X # $ 1 b b }.}.1X%X*X%XOXXXXX*XW.%XR.R.L.Q./././././.F./.D.Y.Q.R.R.R.D.Q.D.Y./.G./.P.G.G.D.Y.U.U.U.Y.Y.T.T.z.x.z.z.z.z.z.z.A.A.Q.^.!.!.^.^.E.R.^.^.R.R.E.E.R.R.R.R.R.R.J.R.G.Q.A.S.z.z.x.x.x.z.z.z.A.A.D.U.R.^.U.R.Y.Y.)./.F.F.h.l.l.c.v.v.l.l.z.l./././.Q.^.^.R.R.Q.Q.Q.Q.!.Q.Q.Q.!.!.^.Q.Q.Q.^.!.Q.Q.Q.R.R.R.R.R.Q.Q.G.G.j.j.k.k.k.j.k.k.j.j.A.A.).!.!.E.E.E. X XE.E.E. X X XE.E.E.E.E.E.^.W.W.E.!.!.E.E.E.E.E.E.R.E.J.R.R.).D.G.G.D.Q.D.R.D.Q.R.^.!.^.^.E.E.E.W.E.E.E.E.E.E.^.^.^.E.E.^.E.E.^.E.Q.Q.^.R.R.R.U.U././.z.j.g.h.h.k.Z.Z.h.h.j.z.P.Y.Y.Y.U.U.U.U.R.R.R.R.Q.Q.Q.R.R.R.^.R.R.R.R.R.Q.R.!.!.^.Q.R.R.R.R.R.R.Q.Q.Q.Q.R.R.^.E.R.^.^.^.!.!.!.!.W.W.E.E.W.W.W.W.W.W.W.W.W.W.R.R.E.E.E.E.E.E.R.R.R.E.E.E.E.R.W.W.W.W.oXoXoXoXoXoXoXoXoXoXXXW.~.~.W.W.oXoXW.W.XX XW.W.W.W.W.W.W.^.~.~.R.R.Q.Q.Q.Y.G.D.D.S.A.z.h.g.g.g.g.h.h.j.Y.Y.Q.).Q.Q.^.Q.R.R.R.R.Q.Q.Y.Y.(.(.[.[.L E R P T _ _ _ _ ' ' ` ` ` ` ` ' ' ' ' ' ' ' ' _ ' ' ' ' ' _ _ ' ' ' ' ' ' ' ' ' ' ' ' ' ' ' ' ' ' ' ' ' ' ' ' ' ' ' ' ' ' ' ' ' ' ' _ ' ' ' ' ' _ ' _ ' ' ' ' ' ' ' ' ' ' ' ' ' ' ' ' ' ' ' ' ' ' ' ' ' ' ' ' ' ' ' ' ' ' ' ' ' ' ' ' ' ' ' ' ' ' ' ' ' ' ' ' ' ' ' ' ' ' _ ' ' ' ' ' ' ' ' ' ' ' ' ' ' ' ' _ _ ' _ _ ' ' ' ' ' ' ' ' ' ' ' ' ' ' ' ' ' ' ' ' ' ' ' ' _ _ ' ' ' ' ' ' ' ' ' ' _ _ ' ' ' ' ' ' ' ' ' _ ' ' ' ' ' ' ' ' ' ' ' ' ' ' ' ' ' ' ' ' ' ' ' ' ' ' ' ' ' ' ' ' _ ' ' ' ' ' ' ' ' ' ' ' ' ' ' ' ' ' ' ' ' ' ' ' ' ' ' ' ' ' ' ' ' ' ' ' ' ' ' ' ' ' ' ' ' ' ' ' ' ' ' ' ' ' ' ' ' ' ' ' ' ' ' ' ' ' ' ' ' ' ' ' ' ' ' ' ' ' ' ' ' ' ' ' ' ' ' ' ' ' ' ' ' ' ' ' ' ' ' ' ' _ _ _ ' ' ' ' ' ' _ _ ' ' ' ' ' ' ' ' _ _ _ ' ' ' ' _ ' ' ' ' ' ' ' ' ' ' ' ' ' ' ' ' ' ' ' ' ' ' ' ' ' ' ' ' ' ' ' ' ' ' ' ' ' ' ' ' ' ' ' ' ' ' _ ' ' ' ' ' ' ' ' ' ' ' ' ' ' ' ' ' ' ' ' ' ' ' ' ' ' ' ' ' ' ' ' ' ' ' ' ' ' ' ' ' ' ' ' ' ' ' ' ' ' ' ' ' ' ' ' ' _ _ ' ' ' ' ' ' ' ' ' ' ' ' ' ' ' ' ' ' ' ' ' _ ' ' ' ' ' ' ' ' ' ' ' ' ' ' ' ' ' ' ' ' ' ' ' ' ' ' ' ' ' ' ' ' ' ' ' ' ' ' ' ' ' ' ' ' ' ' ' ' ' ' _ ' ' ' _ _ ' ' ' ' ' ' ' ' ' ' ' _ _ _ _ _ ' ' ' ' ' ' ' ' ' ' ' ' ' ' _ _ _ _ ' ' ' ' _ _ ' ' ' ' ' ' _ _ ' ' ' ' _ ' ' ' ' ' ' ' ' ' ' ' ' ' ' +.' ' &.&.8 8 . o . . = = l z S S f g D S D D D D A A H A T T U P P I 0 e . @ . . )                                       . . ",
"                                                    . . + + + + : = t e , 9 = : + = + < , , = = = = > : 9 8 9 9 ; ; + = ; : & = > , #. .>.5.7.8.r.w.>.%.8 9 O o < < + + O . 5 5 f j f Z 0 0 0 6 % & + + = + + . ; = o + = > + ; . . . @ +                         ; @ @ + + S S ( U Z C S Z A A A Z A Z G S f f j j j j = - X # $ 1 b b }.}.`.%X%X%XOXOXXX*XW.oXQ.).).Y././././.F.F./.D.Y.Y.R.R.D.D.U.G.Y./.F.G.F.F.F.T.Y.Y.Y.Y.Y.Y.T.T.z.z.z.z.z.z.z.z.A.A.Q.R.!.!.^.^.E.R.^.^.R.R.R.R.R.R.R.R.R.R.J.R.G.G.z.A.x.x.x.x.x.x.z.z.z.z.D.U.Q.Q.U.U.U.Y./.(.F.F.h.l.l.l.l.l.l.l.z.l././.).Q.Q.^.R.R.R.R.R.R.R.R.R.R.^.Q.Q.R.R.R.R.R.).^.Q.Q.R.R.R.R.Q.Q.G.F.j.j.k.k.j.k.k.k.j.j.A.A.).Q.^.E.E.E.E. XE.E. X X X XE.E.W.E.E.E.E.E.E.E.!.!.E.E.E.E.E.E.R._.J.Q.G.G.G.G.G.F.G.D.G.D._.!.~.!.^.E.E.E.E.W.E.E.E.E.E.E.^.^.E.E.E.E.E.E.^.^.!.Q.R.R.R.R.U.U.Y./.z.j.g.g.g.h.k.h.h.h.j.z.P.Y.).Y.U.U.U.R.R.R.Q.Q.R.R.R.Q.Q.Q.Q.R.R.R.R.^.Q.Q.!.^.Q.R.R.R.R.R.R.R.R.Q.Q.Q.^.^.^.^.^.^.^.^.~.~.!.~.W.W.W.W.W.W.W.W.W.W.W.W.W.W.R.R.R.E.E.E.E.E.R.R.R.R.E.E.E.E.W.E.E.W.oXoXoXXXoXoXoXoXoXoXoXoXoX~.~.~.oXoXW.W.XX XW.W.W.W.~.W.W.^.~.~.R.R.R.^.Q.Q.Q.U.D.S.A.z.h.h.g.g.g.h.j.j.G.U.Q.Q.R.R.^.Q.R.R.R.R.Q.Q.Y.Y.(.(.[.[.L E R P T _ _ _ _ ] ' ` ` ` ` ` ' ' ' ' ' ' ' ' ' ' ' ' ' ' _ _ ' ' ' ' ' ' ' ' ' ' ' ' ' ' ' ' ' ' ' ' ' ' ' ' ' ' ' ' ' ' ' ' ' ' ' _ ' ' ' ' ' ' ' ' ' ' ' ' ' ' ' ' ' ' ' ' ' ' ' ' ' ' ' ' ' ' ' ' ' ' ' ' ' ' ' ' ' ' ' ' ' ' ' ' ' ' ' ' ' ' ' ' ' ' ' ' ' ' ' ' ' ' _ ' ' ' ' ' ' ' ' ' ' ' ' ' ' ' _ _ _ _ ' ' ' ' ' ' ' ' ' ' ' ' ' ' ' ' ' ' ' ' ' ' ' ' ' ' _ _ _ ' ' ' ' _ ' ' _ _ _ _ ' ' ' ' _ _ ' ' ' ' ' ' ' ' ' ' ' ' ' ' ' ' ' ' ' ' ' ' ' ' ' ' ' ' ' ' ' ' ' ' ' ' ' ' ' ' ' ' ' ' ' ' ' ' ' ' ' ' ' ' ' ' ' ' ' ' ' ' ' ' ' ' ' ' ' ' ' ' ' ' ' ' ' ' ' ' ' ' ' ' ' ' ' ' ' ' ' ' ' ' ' ' ' ' ' ' ' ' ' ' ' ' ' ' ' ' ' ' ' ' ' ' ' ' ' ' ' ' ' ' ' ' ' ' ' ' ' ' ' ' ' ' _ _ _ _ ' ' ' ' ' ' _ _ ' ' ' ' ' ' ' ' ' _ ' ' ' ' ' _ ' ' ' ' ' ' ' ' ' ' ' ' ' ' ' ' ' ' ' ' ' ' ' ' ' ' ' ' ' ' ' ' ' ' ' ' ' ' ' ' ' ' ' ' _ _ _ ' ' ' ' ' ' ' ' ' ' ' ' ' ' ' ' ' ' ' ' ' ' ' ' ' ' ' ' ' ' ' ' ' ' ' ' ' ' ' ' ' ' ' ' ' ' ' ' ' ' ' ' ' ' ' ' ' ' ' ' ' ' ' ' ' ' ' ' ' ' ' ' ' ' ' ' ' ' ' ' ' ' ' ' ' ' ' ' ' ' ' ' ' ' ' ' ' ' ' ' ' ' ' ' ' ' ' ' ' ' ' ' ' ' ' ' ' ' ' ' ' ' ' ' ' ' ' ' ' ' ' ' ' ' ' _ _ _ _ _ ' ' ' ' ' ' ' ' _ _ _ ' ' ' ' ' ' ' ' ' ' ' ' ' ' ' ' _ ' ' _ ' ' ' ' _ _ _ ' ' ' ' _ _ _ _ _ _ _ _ _ ' ' ' ' ' ' ' ' ' ' ' ' ' o.' ' &.&.8 8 . . . . = = l S l S g g D D D D D D A A A Z T U U U G S 9 9 . @ . . )                                       . . ",
"                                                    . . < + + + 9 e t.i.7.7.z l , : < < , = = = , ; 9 8 9 9 9 w ; ; & ; , : = = : ;  .' y.r.<.>.r.r.7.7.t d > > 8 8 : ; ; + 9 5 S G p p 6 q C f 6 > o . . o 9 w 9.w.6.9.{ ' + . . . . . +                         ; @ o + O S l U U Z A D D D P H H A Z S S g p f f j j = = O # $ 1 b b }.}.`.%X%X%X:X:X:X*XE.!.A.A.A.A.H.A.z.x.A.x.G.D.).Q.R.J.R.R.Q.Y.G.P.A.z.h.l.l.l.z.z.x.x.T.Y.Y.Y.z.l.h.l.v.x.z.z.S.S.).Q.^.^.^.R.R.R.R.R.R.R.R.R.R.R.R.R.R.^.R.R.L.G.z.z.h.h.h.h.h.h.h.h.z.x.G.Y.).Q.D.D.D.Y./.(.F.F.l.l.l.h.h.h.Z.h.l.l.F.Y./.).^.^.Q.Q.).).).).).).).).Q.).).).).Q.Q.Q.^.^.^.R.R.R.R.R.R.Q.G.P.j.h.k.k.k.h.k.k.j.j.H.A.Q.R.E.E.E.E.E.E.E.XX X X X XE.E.W.E.E.E.E.E.E.E.~.~.~.~.!._.!.!.L.).A.A.A.j.j.j.j.j.j.h.j.j.J.D.~.~.E.E.E.E.E.W.E.E.E.E.E.E.E.E.E.E.E.R.R.^.^.^.!.Q.R.R.R.R.U.U.).).A.H.h.h.h.h.k.j.h.h.H.A././.).Q.Q.R.R.Q.Q.Q.Q.R.R.R.R.Q.Q.Q.Q.R.R.R.R.Q.Q.Q.^.R.R.R.R.R.Q.Q.R.R.R.R.R.^.^.^.!.!.!.!.!.!.W.W.^.^.^.^.W.W.W.W.W.W.W.W.W.W.W.W.E.E.W.E.E.E.E.E.E.E.E.E.E.E.E.W.W.E.W.W.oXoXoXXXoXoXoXoXoXoXoXoXoXoX~.oXW.W.W.W. X XW.W.W.oX~.~.^.E.~.!.R.R.R.R.G.G.Y.D.D.D.A.A.j.j.j.j.j.z.A.A.D.G.Q.Q.Q.Q.Q.Q.Q.Q.).).).).)./.(.(.[.[.L E R P T _ _ _ _ ` ` ` *.` ` ` ' ' ' ' ' ' ' _ ' ' _ _ ' ' ' ' ' ' ' ' ' ' ' ' ' ' ' ' ' ' ' ' ' ' ' ' ' ' ' ' ' ' ' ' ' ' ' ' ' ' ' _ ' ' ' ' ' ' ' ' ' ' ' ' ' _ ' ' ' ' ' ' ' ' ' ' ' ' ' ' ' ' ' ' ' ' ' ' ' ' ' ' ' ' ' ' ' ' ' ' ' ' ' ' ' ' ' ' ' ' ' ' ' ' ' ' ' ' ' ' ' ' ' _ ' ' ' ' ' ' ' ' ' ' ' ' ' ' ' ' ' ' ' ' ' ' ' ' ' ' ' ' ' ' ' ' ' ' ' ' ' ' ' ' _ _ ' ' ' ' _ _ ' _ _ _ ' ' ' ' ' ' ' ' ' ' ' ' ' ' ' ' ' ' ' ' ' ' ' ' ' ' ' ' ' ' ' ' ' ' ' ' ' ' ' ' ' ' ' ' ' ' ' ' ' ' ' ' ' ' ' ' ' ' ' ' ' ' ' ' ' ' ' ' ' ' ' ' ' ' ' ' ' ' ' ' ' ' ' ' ' ' ' ' ' ' ' ' ' ' ' ' ' ' ' ' ' ' ' ' ' ' ' ' ' ' ' ' ' ' ' ' ' ' ' ' ' ' ' ' ' ' ' ' ' ' _ _ ' ' ' ' ' ' ' ' ' ' ' ' ' ' ' ' _ _ ' ' ' ' _ _ ' ' ' ' ' ' _ _ ' ' _ ' ' ' ' ' ' ' ' ' ' ' ' ' ' ' ' ' ' ' ' ' ' ' ' ' ' ' ' ' ' ' ' ' ' ' ' ' ' ' ' ' ' ' ' ' ' _ _ _ _ ' ' ' _ ' ' ' ' ' ' ' ' ' ' ' ' ' ' ' ' ' ' ' ' ' ' ' ' ' ' ' ' ' ' ' ' ' ' ' ' ' ' ' ' ' ' ' ' ' ' ' ' ' ' ' ' ' ' ' ' ' ' ' ' ' ' ' ' ' ' ' ' ' ' ' ' ' ' ' ' ' ' ' ' ' ' ' ' ' ' ' ' ' ' ' ' ' ' ' ' ' ' ' ' ' ' ' ' ' ' ' ' ' ' ' ' ' ' ' ' ' ' ' ' ' ' ' ' ' ' ' ' ' ' ' ' ' _ _ _ _ ' ' _ ' ' ' ' ' ' _ _ _ ' ' _ _ ' ' ' ' _ _ ' ' ' ' ' ' _ _ ' ' ' _ ' ' ' _ _ _ ' ' ' ' _ _ ' ' ' ' ' ' ' ' ' ' ' ' ' ' ' ' ' ' ' +.' +.&.&.8 8 . o . @ = = S l j Z C C D D D H D H A A C C P U ..X. .[ e w . @ . . )                                       . . ",
"                                                    . . = + + + e 9 MXqX7.<.k k > 9 + + , = = = , ; 9 9 > 9 > 9 = = = ; : : = = : > ' ' u.y.<.<.r.w.8.5.h a : , > v + < ; ; 9 9 S C p u 6 6 C C 6 , O @ . . 9 9 9.w.<.9._ { + + . . . . +                         ; @ o + O S l [ T D A A A D P A A A A Z Z g g j j j j & = O X $ 1 b b }.}.`.%X%X%X:X:X:X:XE.^.D.S.S.A.A.H.H.z.z.z.S.S.).Q.J.J.R.R.).Y.P.P.z.z.h.l.l.l.z.x.x.x.S.G.G.F.l.l.h.h.v.v.z.z.S.S.).).Q.^.^.R.R.R.R.R.R.R.R.R.R.R.R.R.R.^.R.^.Q.Y.z.z.j.z.z.l.l.l.h.h.z.x.G././.Y.S.A.A.D.Y./.F.F.l.l.l.h.h.h.h.h.l.z.G.Y./.Q.Q.R.R.Q.).).).Q.Q.Q.Q.Q.Q.Q.Q.Q.).Q.Q.Q.^.Q.R.R.R.R.R.R.Q.Q.G.P.h.h.h.h.h.h.j.k.j.j.H.A.Q.^.E.E.E.E.E. XXXXX X X X XE.E.W.E.E.E.E.E.E.E.~.~.!.!._._._._.)._.A.A.z.j.j.j.h.j.h.h.j.j.L.L._.~.!.E.E.E.E.E.E.E.E.E.E.E.E.E.E.E.E.R.R.R.R.Q.^.Q.R.R.R.R.U.D.D.Y.z.z.h.h.h.h.h.h.h.h.z.z.S.S.).Y.Y.Q.Q.R.Q.R.Q.R.R.R.R.R.Q.Q.Q.Q.R.R.R.Q.Q.Q.R.R.R.R.R.R.Q.Q.^.^.R.R.^.^.^.~.!.!.!.!.~.~.W.W.W.^.^.^.W.W.W.W.W.W.~.~.W.W.W.W.W.W.W.E.R.R.E.R.E.E.E.E.E.E.E.E.E.E.W.W.oXoXoXW.oXoXoXoXoXoXoXoXXXoX~.oXW.W.W.W.W. XW.W.W.oX~.W.W.E.~.!.R.R.R.R.D.D.D.D.D.D.S.S.j.j.j.j.j.j.z.z.G.Y.Q.Q.Q.Q.Q.Q.Q.Q.).).).).)./.(.(.[.[.L E R P T _ _ _ ' ` ` ` ` ` ` ` ' ' ' ' ' ' ' ' ' ' _ _ ' ' ' ' ' ' ' ' ' ' ' ' ' ' ' ' ' ' ' ' ' ' _ _ ' ' ' ' ' ' ' ' ' ' ' ' ' ' ' ' _ ' ' ' ' ' ' ' ' ' ' ' _ _ ' ' ' ' ' ' ' ' ' ' ' ' ' ' ' ' ' ' ' ' ' ' ' ' ' ' ' ' ' ' ' ' ' ' ' ' ' ' ' ' ' ' ' ' ' ' ' ' ' ' ' ' ' ' ' ' ' _ ' ' ' ' ' ' ' ' _ _ ' _ ' ' ' ' ' ' ' ' ' ' ' ' ' ' ' ' ' ' ' ' ' ' ' ' ' ' ' ' _ _ ' ' ' ' _ _ ' _ ' ' ' _ ' ' ' ' ' ' ' ' ' ' ' ' ' ' ' ' ' ' ' ' ' ' ' ' ' ' ' ' ' ' ' ' ' ' ' ' ' ' ' ' ' ' ' ' ' ' ' ' ' ' ' ' ' ' ' ' ' ' ' ' ' ' ' ' ' ' ' ' ' ' ' ' ' ' ' ' ' ' ' ' ' ' ' ' ' ' ' ' ' ' ' ' ' ' ' ' ' ' ' ' ' ' ' ' ' ' ' ' ' ' ' ' ' ' ' ' ' ' ' ' ' ' _ _ ' ' ' ' _ _ ' ' ' ' ' ' ' ' ' ' ' ' ' ' ' ' _ _ _ ' ' ' ' ' _ ' ' ' ' ' ' _ ' ' ' ' ' ' ' ' ' ' ' ' ' ' ' ' ' ' ' _ ' ' ' ' ' ' ' ' ' ' ' ' ' _ ' ' ' ' ' ' ' ' ' ' ' ' ' ' _ _ _ ' ' ' ' ' _ _ ' ' ' ' ' ' ' ' ' ' ' ' ' ' ' ' ' ' ' ' ' ' ' ' ' ' ' ' ' ' ' ' ' ' ' ' ' ' ' ' ' ' ' ' ' ' ' ' ' ' ' ' ' ' ' ' ' ' ' ' _ _ ' ' ' ' ' ' ' ' ' ' ' ' ' ' ' ' ' ' ' ' ' ' ' ' ' ' ' ' ' ' ' ' ' ' ' ' ' ' ' ' ' ' ' ' ' ' ' ' ' ' ' ' ' ' ' ' ' ' ' ' ' ' ' ' ' ' _ _ ' ' _ ' _ _ ' ' _ _ _ _ ' ' ' _ _ _ _ ' _ _ _ ' ' ' _ _ ' ' ' ' ' ' _ _ ' ' ' ' ' ' ' _ _ _ _ _ ' ' ' ' ' ' ' ' ' ' ' ' ' ' ' ' ' ' ' ' ' ' ' +.' +.&.&.8 8 . o . . ; = S S f C C C D D D H D H A C C g U U .. . .' w w @ @ . . /                                       . . ",
"                                                    . . + + + + d r SXSXi.qXr.t.> 9 + + , = : : 9 9 d d e r 9 9 , : > 9 t d d a / I | / #.+./ _ a d ) | +.&.>.<.^ ^ > : ; + = = f f C f C C } } e e O O . . y e DXDXSXSX&.@.O @ @ @ . . +                         ; . @ + + F S [ [ U D A C H D A A C C Z Z f f j j j j & = X X $ 1 b b }.}.`.%X*X*X%X*XXXoXR.R.z.z.j.j.j.j.h.h.h.h.S.S.).Q.J.J.D.D.Y.G.P.P.z.h.g.g.g.g.h.g.Z.l.F.S.x.F.l.l.l.l.l.l.z.z.S.S.).Q.Q.!.!.Q.R.R.R.R.Q.Q.Q.Q.Q.R.R.R.R.R.R.^.Q./.z.z.z.l.z.z.l.l.h.h.z.z.F.T.T.F.A.x.x.A.F.F.z.x.l.l.l.l.l.l.h.h.z.x.Y././.Y.U.U.D.D.D.D.D.S.S.S.D.D.D.D.D.D.D.D.D.D.U.R.R.R.R.R.R.R.Q.Y.G.P.h.h.h.h.h.h.j.k.j.j.A.A.Q.^.E.W.W.W.W.W.W.W.W.W.W.E.E.E.E.E.!.!.!.!.!.!.!.!.^.Q.).).)._.S.P.h.j.h.h.j.h.h.h.h.h.h.h.G.G.~.~.^.^.E.E.E.E.E.!.^.^.^.^.E.E.R.R.R.R.R.R.R.R.).Q.Q.Q.Q.Q.Y.Y.Q._.G.P.H.F.P.P.P.P.P.P.(.F././.G.D.D.D.Y.Q.).D.Q.Q.R.R.R.R.R.R.^.Q.R.R.^.Q.^.^.R.R.R.R.^.Q.Q.R.!.!.^.^.^.^.!.~.!.!.!.!.^.^.^.^.W.W.^.^.W.W.W.W.W.W.~.~.~.~.~.~.~.~.^.^.^.^.^.R.R.R.R.R.R.R.R.R.E.E.W.~.oXoXoXoXXXXXoXoXoXoXoXoXoXoXoXoXW.W.W.W.~.W.W.W.~.~.~.~.~.~.~.~.R.R.R.D.U.U.U.D.Q.Q.Q.).).).).).).).).).).).Q.Q.Q.Q.Q.Q.^.Q.Q.Q.Q.Q.)./.(.(.[.[.L R R P T _ _ _ ' ` ` ` ` ` ` ` ' ' ' ' ' ' ' ' ' ' ' ' _ _ _ _ ' ' ' ' ' ' ' ' ' ' ' ' ' ' ' ' ' ' ' ' ' ' ' ' ' ' ' ' ' ' ' ' ' ' ' ' ' ' ' ' ' ' ' ' ' ' ' ' _ _ _ ' ' ' ' ' ' ' ' ' ' ' ' ' ' ' ' ' ' ' ' ' ' ' ' ' ' ' ' ' ' ' ' ' ' ' ' ' ' ' ' ' ' ' ' ' ' ' ' ' ' ' ' ' ' ' ' _ ' ' ' ' ' ' ' ' ' ' ' ' ' ' ' ' ' ' ' ' ' ' ' ' ' ' ' ' _ _ _ _ ' ' ' ' ' ' ' ' ' ' ' ' ' ' ' ' ' ' ' ' _ _ ' ' ' ' ' ' ' ' ' _ ' ' ' ' ' ' ' ' ' ' ' ' ' ' ' ' ' ' ' ' ' ' ' ' ' ' ' ' ' ' ' ' ' ' ' ' ' ' ' ' ' ' ' ' ' ' ' ' ' ' ' ' ' ' ' ' ' ' ' ' _ ' ' ' ' ' ' ' ' ' ' ' ' ' ' ' ' ' ' ' ' ' ' ' ' ' ' ' ' ' _ ' ' ' ' ' _ ' ' ' ' ' ' ' ' ' ' ' ' ' ' ' ' ' ' ' ' ' ' ' ' ' ' ' ' ' ' ' ' ' _ _ ' ' ' ' _ _ _ ' ' ' ' _ _ _ _ ' ' ' ' ' ' ' _ ' ' ' ' ' ' ' _ _ ' _ ' ' _ _ _ _ ' ' ' ' ' ' ' ' ' ' ' ' _ _ _ ' ' ' ' ' ' ' ' ' ' ' ' ' ' ' ' ' ' ' ' ' ' ' ' ' ' ' ' ' ' ' ' ' ' ' ' ' ' ' ' ' ' ' ' ' ' ' ' ' ' ' ' ' ' ' ' ' ' ' ' ' ' ' ' ' ' ' ' ' ' ' ' ' ' ' ' ' ' ' ' ' ' ' ' ' ' ' ' ' ' ' ' ' ' ' ' ' ' ' ' ' ' ' ' ' ' ' ' ' ' ' ' ' ' ' ' ' ' ' ' ' ' ' ' ' ' ' ' ' ' ' ' ' ' ' ' ' ' ' ' ' ' ' ' ' ' ' ' ' _ ' ' _ ' ' ' ' _ _ ' ' ' ' _ ' ' ' ' ' _ _ ' ' _ _ _ ' ' ' ' _ _ _ ' ' ' ' ' ' ' ' _ _ _ _ _ _ _ _ _ _ ' _ ' ' ' ' _ ' ' ' ' ' ' ' ' ' ' ' ' ' ' ' ' +.' +.&.&.v v @ @ @ @ ; = S S S S C C D D D H D H Z C Z Z } [  ._ { ' 9 w . . . . /                                       . . ",
"                                                    . . = + + + r s SXSXMXu.t.8.9 9 O o , = : : 9 9 d d e r 9 8 , : 8 9 d t d d / / _ ' #.%./ I d a _ / >.+.5.%./ ] ; ; < ; = ; i f f f C p } } u e O o . . r e DXSXSX8X&.#.O O @ @ . . +                         ; . . + + I I ..[ U P A C D D A A C C C C g g f f j j & = O X $ 1 b n }.}.`.%X1X*X*X:XoXoXR.R.z.z.j.z.z.z.j.j.h.h.F.S.Q.Q.J.J.R.D.).G.P.P.h.h.g.g.g.g.g.g.Z.h.x.S.x.b.l.l.l.l.l.l.z.z.A.S.).).).Q.!.^.R.R.R.R.!.^.!.^.Q.^.R.R.Q.R.R.Q.Q./.z.z.l.l.z.z.z.l.l.h.l.z.F.F.G.G.A.A.x.x.x.x.l.z.l.l.l.l.l.l.h.h.x.A././.Y.G.Y.D.D.D.D.S.S.S.D.S.D.D.D.S.S.S.S.S.D.D.U.U.U.U.R.R.R.R.U.Y.G.F.j.h.h.h.j.j.k.k.j.j.A.A.Q.^.E.E.W.W.W.W.E.E.E.W.W.E.E.E.E.E.!.!.!.!.!.~.!.!.Q.Q.Q.)._._.P./.h.j.h.h.j.h.h.k.h.h.j.h.P.G._.!.!.^.!.E.E.E.!.^.^.^.^.^.E.E.E.E.R.R.R.R.R.Q.).).).Q.Q.Q.Q.Y.D.Q.S.G.A.F.G.P.P.P.P.P./.H.G.S.G.S.S.D./.).).Y.Q.Q.R.R.R.U.U.R.^.Q.R.R.^.^.^.^.R.R.R.^.!.!.^.Q._._.!.!.^.^.!.!.!.!.^.!.E.^.E.^.~.W.^.W.W.W.W.W.W.W.~.~.~.~.~.~.~.Q.Q.^.^.R.R.R.R.R.R.R.R.R.R.R.E.E.W.~.oX~.oXoXXXXXoXoXoXoXoXXXoXoXoXoXW.W.W.W.~.~.W.W.W.~.~.~._.~.~.~.^.R.R.D.D.D.D.D.D.R.).).).).).).).Q.Q.Q.).).Q.Q.Q.Q.R.R.!.^.Q.Q.Q.Q.).).(.(.[.[.L R R P T _ _ _ ' ` ` ` ` ` ` ` ' ' ' ' ' ' ' ' ' ' ' ' ' _ _ _ ' ' ' ' ' ' ' ' ' ' ' ' _ ' ' ' ' ' ' ' ' ' ' ' ' ' ' ' ' ' ' ' ' ' ' ' ' ' ' ' ' ' ' ' ' ' ' ' ' ' ' ' ' ' ' ' ' ' ' ' ' ' ' ' ' ' ' ' ' ' ' ' ' ' ' ' ' ' ' ' ' ' ' ' ' ' ' ' ' ' ' ' ' ' ' ' ' ' ' ' ' ' ' ' ' ' ' _ ' ' ' ' ' ' ' ' _ ' ' ' ' ' ' _ ' ' ' ' ' ' ' ' ' ' ' ' _ _ _ _ ' ' ' ' ' ' ' ' ' ' ' ' ' ' ' ' ' ' ' ' _ ' ' ' ' ' ' ' ' ' ' _ ' ' ' ' ' ' ' ' ' ' ' ' ' ' ' ' ' ' ' ' ' ' ' ' ' ' ' ' ' ' ' ' ' ' ' ' ' ' ' ' ' ' ' ' ' ' ' ' ' ' ' ' ' ' ' ' ' ' _ _ _ ' ' ' ' ' ' ' ' ' ' ' ' ' ' ' ' ' ' ' ' ' ' ' ' ' ' ' ' ' _ _ ' ' ' ' _ _ ' ' ' ' ' ' ' ' ' ' ' ' ' ' ' ' ' ' ' ' ' ' ' ' ' ' ' ' ' ' ' _ _ _ _ _ ' ' _ _ _ ' ' ' ' _ _ _ ' ' ' ' ' ' ' _ ' ' ' ' ' ' ' ' ' _ _ _ ' ' _ _ _ _ ' ' _ ' ' ' ' ' ' ' ' ' _ _ _ _ ' ' ' ' ' ' ' ' ' ' ' ' ' ' ' ' ' ' ' ' ' ' ' ' ' _ _ _ ' ' ' ' ' ' ' ' ' ' ' ' ' ' ' ' ' ' _ ' ' ' ' ' ' ' ' ' ' ' ' ' ' ' ' ' ' ' ' ' ' ' ' ' ' ' ' ' ' ' ' ' ' ' ' ' ' ' ' ' ' ' ' ' ' ' ' ' ' ' ' ' ' ' ' ' ' ' ' ' ' ' ' ' ' ' ' ' ' ' ' ' ' ' ' ' ' ' ' ' ' ' ' ' ' ' ' ' ' ' ' ' ' ' ' ' ' ' ' ' _ _ _ _ ' ' ' _ ' ' ' ' ' ' ' ' _ ' ' ' ' ' ' ' _ _ ' ' ' ' _ _ _ _ _ ' ' ' ' _ ' ' _ _ _ _ ' _ _ _ _ _ ' ' ' ' ' ' _ ' ' ' ' ' ' ' ' ' ' ' ' ' ' ' ' +.' +.&.&.v v @ @ @ @ ; ; S S S S f p D D H A A A A Z S S [ [  ._  .{ > w . . . . /                                       . . ",
"                                                    . . + + + + d s SXNXSXSXt.t.> 9 = ; > 9 : : r r z z l h 9 : = = 9 :  ._ <.<.7.7.h h ; ; , : . . 8 w y.r.qXi.&.4.< + ; + : 5 j j U U f p A C p d - ; + O h d MXi.8X8X_  .o + . . . . @                         ; . @ O O U U ;.;.P T C A D H A A A A D D C Z j f d j & & O # $ $ b n }.}._._.1X%X%XoX%X%XE.Q.z.x.z.z.z.l.l.h.h.h.F.S.).Q.D.D.D.D.G.G.P.P.h.k.h.g.g.g.g.g.Z.h.b.x.b.z.l.l.l.l.l.l.j.z.z.A./.).).).Q.Q.Q.).).Q.Q.Q.Q.Q.Q.Q.Q.^.Q.R.Q.)._./.F.z.l.l.l.l.l.l.l.l.h.l.x.F.F.F.A.A.x.A.x.x.z.l.l.l.l.l.x.T.(.(.F.x././.)./.G.A.x.z.z.z.A.A.A.A.A.x.A.x.z.z.z.x.A.A.Y.U.Q.Q.R.U.U.Y.Q.).G./.h.h.h.h.h.h.h.h.h.j.j.j.).^.W.E.W.W.W.~.E.E.E.^.W.W.W.^.~.~.!.!.~.~._._.D.D.j.j.A.A.P./.P.P.j.h.h.k.h.h.h.k.g.h.h.h.G.D.).Q.Q.^.R.R.R.^.Q._.Q.!.!.!.R.R.^.^.R.R.R.^.D.Q.G.G.G.G.G.G.G.Y./.G.G.G.D.G.G.G./.G.P.F.F.F.S.A.z.z.z.z.A.A.A.A.U.U.U.U.U.U.U.R.U.R.Q.Q.R.R.Q.^.R.R.^.^.R.Q.).)._._._.R._.Q.~.~.~.~.~.~.~.~.~.~.W.W.~.~.~.~.~.W.~.:XW.~.~._.~.~.~.).).^.Q.Q.Q.Q.Q.Q.^.Q.Q.R.R.R.U.^.~._._.~.oXoXoXoXXXoXoXW.~.W.~.~.W.W.~.W.^.E.~.!.!.!.!._._._.Q.Q.~.~.Q.U.U.D.Q.Q.D.Q.G.G.).Q.).).G.Q.).).).Y.G.Y.).).Q.Q.Q.Q.Q.Q.Q.Q.).).)./.(.}.[.[.L E R P T _ _ ' ' ' ` ` ` ` ' ' ' ' ' ' ' ' ' ' ' ' ' ' ' ' ' ' ' ' ' ' ' ' ' ' ' ' ' ' ' ' ' ' ' ' ' ' ' ' ' ' ' ' ' ' ' ' ' ' ' ' ' ' ' ' ' ' ' ' ' ' ' ' ' ' ' ' ' ' ' ' ' ' ' ' ' ' ' ' ' ' ' ' ' ' ' ' ' ' ' ' ' ' ' ' ' ' ' ' ' ' _ _ _ _ ' ' ' ' ' ' ' ' ' ' ' ' ' ' _ _ _ _ ' ' ' ' ' ' ' ' ' ' ' ' ' ' ' ' ' ' ' ' ' ' ' ' ' ' _ _ ' ' ' ' _ _ ' _ ' _ _ _ ' ' ' ' ' ' ' ' ' ' ' ' ' ' ' ' ' ' _ _ ' ' ' ' _ _ ' ' ' ' ' ' ' ' ' ' ' ' ' ' ' ' ' ' _ ' ' ' ' ' _ _ ' ' ' ' ' ' ' ' ' ' ' ' ' ' ' ' ' _ _ ' ' ' ' ' ' ' ' ' ' ' ' ' ' ' ' ' ' ' ' ' ' ' ' ' ' ' ' ' ' ' ' ' ' ' ' ' ' ' ' ' ' ' ' ' ' ' ' ' ' ' ' ' ' ' ' ' ' ' ' ' ' ' ' ' ' ' ' ' ' ' _ _ _ _ ' ' ' ' ' ' ' ' ' ' ' ' ' ' ' _ _ ' _ _ _ _ _ _ ' ' ' _ _ _ ' ' ' ' ' ' ' ' ' ' ' ' ' ' ' _ ' ' _ _ ' ' _ ' ' ' ' ' ' ' ' ' ' ' _ ' ' ' ' ' ' ' ' ' ' ' ' ' ' ' ' ' ' ' ' ' ' ' ' ' ' ' ' _ _ _ ' ' ' ' ' ' ' ' ' ' ' ' ' ' ' ' ' ' ' ' ' ' ' ' _ _ ' ' ' ' ' ' ' ' ' ' ' ' ' ' _ ' ' ' ' ' ' ' _ _ ' ' ' ' ' ' ' ' ' ' ' ' ' ' ' ' ' ' ' ' ' ' ' ' ' ' ' ' ' ' _ _ ' ' ' ' ' ' ' ' ' ' ' ' ' ' ' ' ' ' ' ' ' ' ' ' ' ' ' ' ' ' ' ' ' ' ' ' ' ' ' ' ' ' _ ' ' ' ' ' _ _ ' ' _ _ ' ' ' _ _ _ ' ' _ _ ' ' ' ' _ _ _ _ ' _ _ _ ' ' ' ' ' ' ' ' _ _ ' ' ' ' _ _ ' _ ' ' ' ' ' ' ' ' ' ' ' _ _ ' ' ' ' ' ' +.' ' &.&.v v @ @ @ @ = = F F G S C C D D D D A D C C S G [  . .{ _ ) > > . . . . /                                       . . ",
"                                                    . . + + + + r r NXSXSXSXt.t.> 9 = ; > > ; , r e l l h d 9 9 = = > :  .' 5.<.7.8.h k , , , , . . > w w.w.qXqX%.%.; < = + : : S l U U f p Z A p i - = + + k l SXi.8X8X .+.+ . . . . . @                         + . @ O O U U -.;.U T C A D D A C A A D G f f f f f j & = o O # $ b b }.}._._.1X%X%XoX%X*X^.Q.A.x.z.z.z.z.l.l.z.z.F.S./.Q.R.D.G.G.Y.G.P.P.h.l.h.h.g.g.g.g.Z.l.x.x.x.z.l.l.l.l.l.l.z.z.z.A.G./._.).).Q.).).).).).).).).).).).Q.Q.Q.Q.).).Y.F.z.l.l.l.l.l.l.l.l.l.l.x.F.F.F.A.A.x.x.x.x.z.l.l.l.z.x.b.F././.F.F././././.D.A.x.x.A.x.A.A.A.A.A.A.x.x.x.x.x.A.A.A.Y.U.Q.Q.Y.Y.Y.Y././.F.P.h.h.h.h.h.h.h.h.j.j.j.z.).Q.^.E.E.W.W.~.~.W.!.E.!.E.!.!.!.^.^.^.^.!._._.D.D.j.j.A.A.P.P.P.H.j.h.h.h.g.h.h.h.g.h.h.h.G.D._._._.Q.^.^.^.^.).).Q.R.!.^.R.^.R.^.R.R.U.Q.D.Y.G.G.P./.P.Y.Y.Y.Y.G.Y.Y.D.D.Y.D./.Y.G.G.P.P.F.F.z.z.z.z.A.A.A.A.U.U.U.U.R.R.R.Q.Q.Q.Q.Q.Q.Q.^.^.R.R.^.^.R.Q.Q.Q.Q.Q.).R._.Q.~.~.~.~.~.~.~.~.~.~.W.W.~.~.~.~.~.W.oX:XW.~._.%X~.Q.Q.Q.Q.Q.Q.Q.Q.Q.Q.Q.Q.R.R.R.R.R.^.^.!.~._.%X%X~.oXoXXXXXXXW.W.W.~.~.W.W.W.W.W.!.~.~._.~._._._._.Q.~.~.Q.Q.U.U.U.D.D.D.Q.Y.Y.).Q.Q.Q.U.Q.U.Q.Y.Q.G.Y.).).Q.Q.Q.Q.Q.Q.Q.Q.).).)./.(.(.[.[.L E R R [ _ _ ' ' | ' *.` ` *.' ' ' ' ' ' ' ' ' ' ' ' ' ' ' ' ' ' ' ' ' ' ' ' ' ' ' ' ' ' ' ' ' ' ' ' ' ' ' ' ' ' ' ' ' ' ' ' ' ' ' ' ' ' ' ' ' ' ' ' ' ' ' ' ' ' ' ' ' ' ' ' ' ' ' ' ' ' ' ' ' ' ' ' ' ' ' ' ' ' ' ' ' ' ' ' ' ' ' ' ' _ _ _ ' ' ' ' ' ' ' ' ' ' ' ' ' ' ' _ _ _ ' ' ' ' ' ' ' ' ' ' ' ' ' ' ' ' ' ' ' ' ' ' ' ' ' ' _ _ _ ' ' ' ' _ _ _ ' ' ' _ _ ' ' ' ' ' ' ' ' ' _ ' ' ' ' ' ' ' ' ' ' ' ' ' ' ' ' ' ' ' ' ' ' ' ' ' ' ' _ ' ' ' ' ' ' _ ' ' ' ' ' _ _ ' ' ' ' ' ' ' ' ' ' ' ' ' ' ' ' ' ' ' ' ' ' ' ' ' ' ' ' ' ' ' ' ' ' ' ' ' ' ' ' ' ' ' ' ' ' ' ' ' ' ' ' ' ' ' ' ' ' ' ' ' ' ' ' ' ' _ _ ' ' ' ' ' ' ' ' ' ' ' ' ' ' ' ' ' ' ' ' ' ' _ _ _ _ _ ' ' ' _ ' ' ' ' ' ' ' _ ' _ _ _ ' ' ' ' _ _ ' ' ' ' ' _ ' ' ' ' ' ' ' ' ' ' ' ' ' ' ' ' ' _ _ ' ' ' _ _ ' ' ' ' ' ' ' ' ' ' ' ' ' ' ' ' ' ' ' ' ' ' ' ' ' ' ' ' ' ' ' ' ' ' ' ' ' ' ' ' ' _ _ ' ' ' ' _ _ ' ' ' ' ' ' ' ' ' ' ' ' ' ' ' ' ' ' _ ' ' ' ' ' ' ' ' ' ' ' ' ' ' ' _ ' ' ' ' ' ' ' _ ' ' ' ' ' ' ' ' ' ' ' ' ' ' ' ' ' ' ' ' ' ' ' ' ' ' ' ' ' ' ' ' ' ' ' ' ' ' ' ' ' ' ' ' ' ' ' ' ' ' ' ' ' ' ' ' ' ' ' ' ' ' ' ' ' ' ' ' ' ' ' ' ' ' _ _ ' ' ' ' ' ' ' ' ' _ _ ' ' _ _ _ _ ' ' _ _ ' ' ' _ _ _ ' _ ' ' _ _ _ ' ' ' _ ' ' ' _ _ ' ' ' ' _ _ ' ' _ _ ' ' ' ' ' ' ' ' ' ' ' ' ' ' ' ' ' +.' ' &.&.v v . @ @ @ = = F F G G f f A A D P D P C S G S [ ' ' ' _ _ > 9 . . . . ^                                       . . ",
"                                                    . . + + O O r r SXSXSXDXi.u.z z e w 9 9 9 9 r r l z d d 9 > , , 9 9 #.#.7.<.w.w.y y . o < ; < < v > +._ #.+.&.%.l z z z z l S j F G f C U U ;.-.-.<.&.#.5.<.u.i.8X8X/ / + = . . . . @                       + + . @ O O I I @.;.U [ C Z D D A A A S P P Z f f f d j & ; o # # $ b b {.}.}._.1X1X*X%X*X*X^.).x.x.x.x.z.z.z.l.z.l.F.A.G.Y.D.D.G.D.G.G.F.P.h.h.g.g.g.g.g.Z.Z.l.l.z.z.z.l.l.l.l.z.z.z.z.x.A.F.Y.D.D.S.S.S.S.S.S.D.D.D.S.S.S.S.S.G.D.D.G.G.A.z.l.z.z.l.l.l.l.l.l.l.l.b.F.F.F.A.F.A.A.b.b.b.x.x.x.(.(./././././.P.F.G./.G.G.A.A.A.A.A.H.x.H.H.F.A.z.A.F.A.H.A.F.F.Y.U.Y.U.Y.Y.Y.Y././.G.P.h.h.h.h.h.h.j.j.h.h.j.z.).Q.^.^.^.^.^.^.Q.!.!.^.!.^.!.!._._.!.!._.~._._.S.S.j.j.A.z.H.z.z.H.j.z.H.P.P.P.b.C.v.b.H.A././.G.G.S.D.D.D.S.S.G.G.D.D.Q.R.R.R.R.R.R.U.D.Y.A.A.z.z.z.z.z.x.x.x.G.G.Y.Y.D.D.Y.D.Y.U.U.U.G.G.F.F.j.j.j.j.z.z.z.z.G.U.Y.Y.Y.Y.Q.Q.Q.Q.Q.Q.Q.Q.Q.Q.R.U.R.R.D.D.G.D.L.L.Q.D.~.!.~.~.~.~.~.~.~.~.~.~.oX~.~.~.oXoX~.W.W.W.R.W.~.~.D.D.G.G.G.Q.Q.Q.Q.Y.Q.Q.Q.Q.Y.Y.Y.Y.R.R.R.R.!._.!.R.W.W.W.W.^.W.E.E.R.R.R.R.^.^.^.Q.J.D.D.D.D.D.D.D.D.D.D.D.D.S.D.D.S.S.S.G.G.G.Q.D.R.^.R.^.R.Q.G.Q.D.G.Y.Y.U.U.R.Q.R.R.U.Q.Q.Y.Y./.(.(.[.[.L E R R [ _ _ ' ' | *.*.*.*.*.*.' ' ' ' ' ' ' ' ' ' ' ' ' ' ' ' ' ' ' ' ' ' ' ' ' ' ' ' ' ' ' ' ' ' ' ' ' ' ' ' ' ' ' ' ' ' ' ' ' ' ' ' ' ' ' ' ' ' ' ' ' ' ' ' ' ' ' ' ' ' ' ' ' ' ' ' ' ' ' ' ' ' ' ' ' ' ' ' ' ' ' ' ' ' ' ' ' ' ' ' ' ' ' ' ' ' _ _ ' ' ' ' ' ' ' ' ' ' ' _ ' ' ' ' ' ' ' ' ' ' ' ' ' ' ' ' ' ' ' ' _ ' ' ' ' ' _ _ ' ' ' ' ' ' ' ' ' ' ' ' _ ' ' ' ' ' ' ' _ _ _ _ ' ' ' ' ' ' ' ' ' ' ' ' ' ' ' ' ' ' ' ' ' ' ' ' _ _ _ _ _ _ ' ' ' ' ' ' ' ' ' ' ' ' ' ' ' ' ' _ ' ' ' ' ' ' ' ' ' ' ' ' ' ' ' ' ' ' ' ' ' ' ' ' ' ' ' ' ' ' ' ' ' ' ' ' ' ' ' ' ' ' ' ' ' ' ' ' ' ' ' ' ' ' ' ' ' ' ' ' _ _ ' ' ' ' ' ' ' ' ' ' ' ' ' ' ' ' ' ' ' ' ' ' ' _ ' _ _ _ _ _ _ _ _ ' ' ' _ _ ' ' _ _ _ _ ' ' ' ' ' ' _ _ ' ' ' ' ' ' ' _ _ ' _ _ ' ' ' ' ' ' ' ' _ _ ' ' _ _ ' ' ' ' ' ' ' ' ' ' ' ' ' ' _ ' ' ' ' ' ' ' ' ' ' ' ' ' ' ' ' ' ' ' ' ' ' ' ' ' ' ' ' ' ' ' ' ' _ ' ' ' ' ' ' ' ' ' ' ' ' ' ' ' ' ' ' ' ' ' ' ' ' ' ' ' ' ' ' ' ' ' ' ' ' ' ' ' _ _ ' ' ' ' ' ' ' ' ' ' ' ' ' ' ' ' ' ' ' ' ' ' ' ' ' ' ' ' ' ' ' ' ' ' ' ' ' ' ' ' ' ' _ _ _ ' ' ' ' ' ' ' ' ' ' ' ' ' ' ' ' ' ' ' ' ' ' ' ' ' ' ' ' ' ' ' ' ' _ ' ' ' ' ' ' ' ' ' _ ' ' ' _ ' _ _ ' ' _ _ ' ' ' ' _ _ _ _ _ ' _ _ _ _ ' ' _ _ _ _ _ _ _ ' ' ' ' ' ' ' _ _ _ _ _ _ ' ' ' ' ' ' ' ' ' ' ' ' ' ' ' ' &.&.> > . @ . @ + + F S S G C g D S Z Z C Z f f f f _ _ _ _ _ _ 9 9 . . . . /                                       . . ",
"                                                    . . + + O @ r t SXSXSXSXi.i.z z r w 9 8 8 9 e r k h t r 9 8 = = 9 e  .#.7.7.8.9.y t + + ; < + + > > / / #.&.%.&.) / l l l l F l G F f S U U -.-.-.&. .&.7.9.i.MXi.8X{ _ = O . . . . @                       + + . . o O / I @.@.[ X.S S S D C C Z S P Y f l f f j j & ; o O # $ b b }.}.(.(.1X1X*X%X*X*X~._.A.A.x.x.z.z.z.z.z.l.F.A./.Y.G.U.G.D.G.G.P.P.h.h.h.g.f.l.l.l.l.l.l.l.v.z.l.l.v.n.n.b.z.x.H.A.F.F.G.D.G.G.G.D.G.D.G.G.G.D.G.G.G.G.S.D.G.G.A.x.z.z.b.v.z.z.l.l.z.z.z.z.b.b.x.F.A.F.A.A.b.b.b.b.x.x.(.(.(.(././././.G.G.Y.T.S.A.A.F.H.H.H.H.H.F.F.F.z.H.F.F.F.F.F.F./././.Y./.Y././././.F.P.h.h.h.h.h.h.j.j.j.j.j.z.).).Q.^.Q.Q.Q.).).Q.).Q.).Q.~._.!.!.!.!.!._._._.S.H.j.j.z.z.z.z.j.j.j.j.z.H.H.H.v.b.z.z.A.A.G.S.).Q.G.G.G.G.S.S.A.A.S.D.).Q.Q.^.R.R.R.Y.Y.U.x.x.z.z.v.H.H.A.A.A.F.G././.Y.G.Y.U.U.U.Y.Y././.P.F.h.j.j.j.j.j.z.z.G.U.Y.Y.Y.Y.Q.Q.Q.Q.Q.Q.Y.Y.Q.Q.R.U.R.Q.D.S.D.S.D.D.D.D._.~.~.~._.~.~.~._.!.!.!.oX~.~.~.~.~.~.E.W.W.W.~.~.~.D.D.D.D.D.G.Y.U.U.D.Y.Q.).Q.Y.Y.Y.Y.).Q.Q.^.!.~._.^.E.E.W.E.E.W.R.R.R.R.R.R.R.Q.Q.Q.Q.Q.G.D.D.D.D.D.D.D.D.D.D.D.D.D.S.S.A.D.S.G.Q.D.R.R.R.R.R.Q.S.D.D.D.D.Y.U.Q.Q.Q.R.Y.U.U.Y.Y.Y./.(.}.[.[.L E R T [ [ ' ' ' *.O.*.*.*.*.*.o.*.' ' ' ' ' ' ' ' ' ' ' ' ' ' ' ' ' ' ' ' ' ' ' ' ' ' ' ' ' ' ' ' ' ' ' ' ' ' ' ' ' ' ' ' ' ' ' ' ' ' ' ' ' ' ' ' ' ' ' ' ' ' ' ' ' ' ' ' ' ' ' ' ' ' ' ' ' ' ' ' ' ' ' ' ' ' ' ' ' ' ' ' ' ' ' ' ' ' ' ' ' ' ' _ _ _ ' ' ' ' ' ' ' ' ' ' ' ' ' ' ' ' ' ' ' ' ' ' ' ' ' ' ' ' ' ' ' ' _ _ ' ' ' ' _ _ ' ' ' ' ' ' ' ' ' ' ' ' ' ' ' ' ' ' ' ' ' ' ' ' ' ' ' ' ' ' ' ' ' ' ' ' ' ' ' ' ' ' ' ' ' ' ' ' ' ' _ _ _ ' ' ' ' ' ' ' ' ' ' ' ' ' ' ' ' ' ' ' ' ' ' ' ' ' ' ' ' ' ' ' ' ' ' ' ' ' ' ' ' ' ' ' ' ' ' ' ' ' ' ' ' ' ' ' ' ' ' ' ' ' ' ' ' ' ' ' ' ' ' ' ' ' ' ' ' ' ' _ ' ' ' ' ' ' ' ' ' ' ' ' ' ' ' ' ' ' ' ' ' ' ' ' ' _ ' ' _ _ _ _ _ _ _ ' ' ' ' _ ' ' _ _ _ _ ' ' ' ' ' ' _ _ ' ' ' ' ' ' ' ' _ ' ' ' ' ' ' ' ' ' ' ' _ _ ' ' ' ' ' ' ' ' ' ' ' ' ' ' ' ' ' _ _ _ ' ' ' ' ' ' ' ' ' ' ' ' ' ' ' ' ' ' ' ' ' ' ' ' ' ' ' ' ' ' ' _ _ _ ' ' ' ' ' ' ' ' ' ' ' ' ' ' ' ' ' ' ' ' ' ' ' ' ' ' ' ' ' ' ' ' ' ' ' ' ' ' _ _ _ ' ' ' ' ' ' ' ' ' ' ' ' ' ' ' ' ' ' ' ' ' ' ' ' ' ' ' ' ' ' ' ' ' ' ' ' ' ' ' ' ' ' ' ' ' ' ' ' ' ' ' ' ' ' ' ' ' ' ' ' ' ' ' ' ' ' ' ' ' ' ' ' ' ' ' ' ' ' ' ' ' ' ' ' ' ' ' ' ' ' ' ' ' _ _ ' ' ' _ ' ' ' ' _ _ ' ' ' ' ' ' ' ' ' ' _ _ _ _ _ _ ' _ ' _ _ ' ' ' _ _ _ _ _ _ ' ' ' ' ' ' ' ' ' ' ' ' ' ' ' ' &.&.> > . @ . . + + l F S S f f S S S S C S f f l j _ _ _ _ _ ' 9 9 . . . . /                                       . . ",
"                                                    . . + + @ . r r qXMXi.i.t.t.<.8.<.7.<.<.<.<.&.#.%.#. . .#.%.#.#.%.#.<.<.%.%.7.7.w t o o @ o < < < o ; < 8 8 s.s.7.9.<.7.9.r.<.-.<.-.....@.@.6.6.i.i.y.t.u.i.y.y.6.6./ ( = = . . . . @                       + ; . . . @ I I  . ._ _ f g g p f f C Z G Y f l j d h h & = o X % $ b b }.}.(.(.)./.Q.R.~._.U.U.S.S.A.S.x.x.b.b.x.z.F.F./././.Y.).).).).(.}.j.h.c.c.n.b.C.n.n.n.b.b.b.n.b.n.b.C.b.b.b.b.F.F.F.F.x.x.x.x.A.x.A.A.A.A.A.x.A.x.A.A.A.A.A.A.H.x.b.b.n.b.v.b.x.x.z.z.x.x.x.x.A.F.F.F.A.A.A.x.x.x.x.x.(.(.(.(././._._.(.(.(./.F.x.x.F.x.b.b.b.b.b.b.b.v.b.F.F.b.b.b.F.H.A.A.A.A.A.A.A.F.A.F.F.z.z.z.z.j.j.z.z.j.z.H.A./.Y.Q.R.Q.U.G.G.D.D.S.D.G.Q.Q.)._._.~.~.~._._._.D.G.j.j.v.z.H.v.z.z.F.A./././././././.(././.).Y.G.S.A.A.A.A.x.z.x.A.F.G._._._._.Q._._._.).(.x.z.z.l.z.z.z.z.z.z././._._.).Y.).).).).(._.(._.(.(.z.z.z.j.z.z.v.H.Y.Y.).).).Q.Q.Y.Q.Q.Q.Q.Q.Q.Q.).Q.U.Y.U.S.A.A.A.H.A.S.D._.~.~.~._._._._.!.!.!.!._._.!.~.~.~.!.R.:X:X*X*X%X%XD.D.D.S.S.S.D.D.D.D.D.D.G.D.D.D.D.D.G.D.G.D.J.J.J.R.1X1X1X1X4X1X*X_.R.R.^.Q.Q.)._._.).G.G.D.S.S.A.A.F.G.G.F.F.T.G.G.D.D.S.G.F.G./.Y.1X*X`.`.1X1XQ.).G.F.G.Y./.).).Q.Q.Q.)./././././.(.}.[.[.E E R T [ [ ' ' | | O.*.*.*.*.` *.' ' ' ' ' ' ' ' ' ' ' ' ' ' ' ' ' ' ' ' ' ' ' ' ' ' ' ' ' ' ' ' ' ' ' ' ' ' ' ' ' ' ' ' ' ' ' ' ' ' ' ' ' ' ' ' ' ' ' ' ' ' ' ' ' ' ' ' ' ' ' ' ' ' ' ' ' ' _ _ ' ' ' ' ' ' ' ' ' ' ' ' ' ' ' ' ' ' ' ' ' ' ' ' ' _ _ ' ' ' ' ' ' ' ' ' ' ' ' ' ' ' ' ' ' ' ' ' ' ' ' ' ' ' ' ' ' ' ' _ _ ' ' ' ' _ _ ' ' ' ' ' ' ' ' _ _ _ _ _ _ ' ' _ ' ' ' ' ' ' ' ' ' ' ' ' ' ' ' ' ' ' ' ' ' ' ' ' ' ' ' ' ' ' ' ' ' ' ' ' ' _ _ ' ' ' ' ' ' ' _ ' ' ' ' ' ' ' _ ' ' ' ' ' ' ' ' ' ' ' ' ' ' ' ' ' ' ' ' ' ' ' ' ' ' ' ' ' ' ' ' ' ' ' ' ' ' ' ' ' ' ' ' ' ' ' ' ' ' ' ' ' ' ' ' ' _ _ ' ' ' ' ' ' _ ' ' ' ' ' ' ' ' ' ' ' ' ' ' ' ' ' ' ' ' ' ' ' ' ' _ ' ' ' ' ' ' _ _ ' ' ' ' ' ' ' ' ' ' ' ' _ ' ' ' ' ' ' ' ' ' ' ' ' ' ' ' ' ' ' ' ' ' ' _ ' ' ' ' ' ' ' ' ' ' ' ' ' ' ' ' ' _ _ _ ' ' ' ' ' ' ' ' ' ' ' ' ' ' ' ' ' ' ' ' ' ' ' ' ' ' ' ' _ ' ' _ ' _ _ ' ' ' ' ' ' ' ' ' ' ' ' ' ' ' ' ' ' ' ' ' ' ' ' ' ' ' ' ' ' ' ' ' ' ' ' _ _ ' ' ' ' ' ' ' ' ' ' ' ' ' ' ' ' ' ' ' ' ' ' ' ' ' ' ' ' ' ' ' ' ' ' ' ' ' ' ' ' ' ' ' ' ' ' ' ' ' ' ' ' ' ' ' ' ' ' ' ' ' ' ' ' ' ' ' ' ' ' ' ' ' ' ' ' ' ' ' ' ' ' ' ' ' ' _ ' ' ' ' ' ' ' ' ' ' ' ' ' ' ' ' ' ' ' ' ' ' ' ' ' ' ' ' ' _ _ _ _ _ _ ' _ _ _ _ ' ' ' ' ' ' ' ' ' ' ' ' ' ' ' ' ' ' ' ' _ ' _ ' ' ' +.+.> > . . . . + + l l l l g p f f Y Y S G f j F l _ ) / _ ) _ 9 9 . . . . /                                       . . ",
"                                                    . . + + . . t a i.i.y.r.r.r.<.7.<.7.<.<.<.<.#.#.#. .'  .#.<. . .$.%.<.<.%.<.5.>.y w + + + + < < + + + + w w 7.s.8.7.$.<.r.u.%.%.-.-.@.@.@.@.q.8.i.u.r.y.y.u.i.u.q.6._ _ + = . . . . @                       ; ; . . . . I I #.+.' [ f l d u g g f f S S f f h d h h + = O # % $ b b [.}.(.(.(.).).Q._.`.).).D.D.S.S.A.x.b.b.x.z.F.F./././.Y.).).)._.}.}.z.l.n.n.b.b.b.n.n.n.b.b.b.n.b.b.b.C.b.b.b.b.F.F.A.A.x.x.A.A.A.A.A.A.A.A.A.A.A.A.A.A.x.x.x.z.z.z.v.b.v.n.n.b.b.b.x.x.x.x.x.x.A.F.F.F.F.A.A.x.x.x.x.x.(.(.(.(.(._._.}.(.(././.F.F.F.F.z.z.v.v.v.b.b.b.v.b.b.b.b.v.b.b.F.F.H.A.S.A.A.A.A.x.z.H.z.x.v.v.z.z.v.v.z.v.H.H.(.).).Q.Q.Q.).).G.G.G.G.Y.)._._._._._.~.~._._._.G.G.z.j.v.v.H.H.h.z.x.x./././.(.Y.Y./././.Y.Y.D.G.S.A.A.H.H.z.x.z.x.P.F.}._.`._._._._._._.(.x.z.z.v.v.v.v.z.z.x././._._.(.).(.).).)._._._._.(.(.b.z.z.l.h.z.v.F./.).(.(.).Q.).Q.Y.Q.Q.Q.Q.Q.Q.Q.Q.Q.Q.Y.A.A.H.A.A.A.H.S._.).).Q.Q.Q.).).Q.Q.Q.R._.Q.^.^.^.^.R.R.:X:X*X*X*X%XD.S.S.S.S.S.G.G.D.D.G.G.G.F.F.D.D.D.Y./.).).L.J.Q.!.1X*X1X2X1X1X~.~.D.R.R.^.Q.Q.)._.).G.G.S.S.S.S.A.A.S.G.G.G.S.S.S.G.G.S.S.A.A./.Y.1X*X`.`.*X1XD.G.G.G.D.Y.)._.).).).).)./././././.(.}.[.[.E E T T [ [ ' | | | *.*.*.*.' ` *.o.' ' ' ' ' ' ' ' ' ' ' ' ' ' ' ' ' ' ' ' ' ' ' ' ' ' ' ' ' ' ' ' ' ' ' ' ' ' ' ' ' ' ' ' ' ' ' ' ' ' ' ' ' ' ' ' ' ' ' ' ' ' ' ' ' ' ' ' ' ' ' ' ' ' ' ' ' _ ' ' ' ' ' ' ' ' ' ' ' ' ' ' ' ' ' ' ' ' ' ' ' ' ' ' ' ' ' ' ' ' ' ' ' ' ' ' ' ' ' ' ' ' ' ' ' ' ' ' ' ' ' ' ' ' ' ' ' ' _ _ ' ' ' ' ' _ ' ' ' ' ' ' ' ' ' ' _ _ ' _ _ ' _ ' ' ' ' ' ' ' ' ' ' ' ' ' ' ' ' ' ' ' ' ' ' ' ' ' ' ' ' ' ' ' ' ' ' ' ' ' ' ' ' ' ' ' ' ' ' ' ' ' ' ' ' _ ' ' ' ' ' ' ' ' ' ' ' ' ' ' ' ' ' ' ' ' ' ' ' ' ' ' ' ' ' ' ' ' ' ' ' ' ' ' ' ' ' ' ' ' ' ' ' ' ' ' ' ' ' ' ' ' ' ' _ _ ' ' ' ' ' ' ' _ _ ' ' ' ' ' ' ' ' ' ' ' ' ' ' ' ' ' ' ' ' ' ' ' ' ' ' ' ' ' ' ' _ _ ' ' ' _ ' ' ' ' ' ' ' ' ' ' ' ' ' ' ' ' ' ' ' ' ' ' ' ' ' ' ' ' ' ' ' _ ' ' ' ' ' ' ' ' ' ' ' ' ' _ ' ' ' ' _ ' _ ' ' ' ' ' ' ' ' ' ' ' ' ' ' ' ' ' ' ' ' ' ' ' ' ' ' ' ' ' ' ' ' _ ' ' ' ' ' ' ' ' ' ' ' ' ' ' ' ' ' ' ' ' ' ' ' ' ' ' _ _ _ _ ' ' ' ' ' ' ' _ ' ' ' ' ' ' ' ' ' ' ' ' ' ' ' ' ' ' ' ' ' ' ' ' ' ' ' ' ' ' ' ' ' ' ' ' ' ' ' ' ' ' ' ' ' ' ' ' ' ' ' ' ' ' ' ' ' ' ' ' ' ' ' ' ' ' ' ' ' ' ' ' ' ' ' ' ' ' ' _ _ ' ' ' ' ' ' ' ' ' ' ' ' ' ' ' ' ' ' ' ' ' ' ' ' ' ' ' ' ' ' ' ' ' ' ' ' ' _ _ ' _ _ ' _ _ ' ' ' ' _ _ ' ' ' _ _ _ _ _ ' ' ' ' ' ' ' ' _ _ _ ' _ _ +.+.: > . . . . + + j k j j d i Z Z U U S G f f l l ) / / ) _ _ 9 9 . . . . ^                                       . . ",
"                                                    . . + + @ @ d h MXi.y.r.r.w.t.t.8.8.<.<.<.<.<.<.1.6.-.-.<.7.8.8.8.7.<.>._ _ z z > > ; ; < < : , + < . . , , ,.s.w.r.9.8.9.9.<.<.<.6.7.8.r.t.8.6.r.w.7.7.7.7.#.#...-.<.6.= + . . . . @                       = = . . . . I I  .' I I t i 0 0 f f S j l l f j d d d d + = O X # $ b b [.}.(.P.F.S.D.D.U.Q.U.Y.S.S.A.A.A.x.x.x.x.l.F.x.Y.Y.G.D.).).).).(.(.j.l.l.l.l.l.c.l.l.v.v.v.b.v.c.c.n.b.n.b.b.b.F.F.H.H.H.H.F.F.H.z.z.H.F.F.F.z.z.z.H.A.x.x.b.b.F.b.b.b.v.n.n.n.x.x.z.z.x.x.F.x.A.F.H.F.F.F.A.A.x.x.x.x.T.T.T.T.Y.T././.P.G.F.F.F.F.T.T.v.v.z.l.z.z.z.v.v.v.v.v.b.b.v.v.b.v.v.z.H.H.z.z.b.x.z.z.x.z.v.z.z.z.z.z.v.v.H.H.A.A.A.A.A.A.A.A.A.z.z.z.A.S.D.G.Q.Q.U.U.J.R.R.Q.A.P.j.j.z.z.v.b.z.z.x.x.Y.U.U.U.U.D.Y.U.D.G.D.D.S.A.x.z.v.v.v.v.z.l.F.A._.)._.).).(._._._.(.z.z.l.c.c.l.l.l.l.z.F.Y.(._.).).).^.Q.U.Y.)._.(.(.(.v.z.h.h.h.l.v.z./.).(.(.).Q.Y.Y.D.D.Q.Q.Q.Q.Q.Q.(.).).Y.S.A.H.H.A.A.H.A.).Q.Q.Q.J.L.L.Q.Q.Q.L.L.R.R.R.R.R.R.R.R.*X*X1X2X1X1XD.D.S.S.S.S.G.D.D.D.G.G.F.F.G.G.G.G.G.G.G.D.D.D.L.Q.1X*X4X1X1X1X~.Q.S.D.D.D.D.D.Q.).S.F.A.H.A.A.A.A.F.F.F.F.G.F.S.G.A.S.A.A.x.x.Y.Y.1X1X`.`.1X1XD.G.A.A.A.G./._._.(.Q.Q.)./.Y.Y.Y./.(.(.[.[.L E T T [ [ ' | | | ' | *.*.` ' o.O.o.' ' ' ' ' ' ' ' ' ' ' ' ' ' ' ' ' ' ' ' ' ' ' ' ' ' ' ' ' ' ' ' ' ' ' ' ' ' ' ' ' ' ' ' ' ' ' ' ' ' ' ' ' ' ' ' ' ' ' ' ' ' ' ' ' ' ' ' ' ' ' ' ' ' ' _ _ ' ' ' ' ' ' ' ' ' ' ' ' ' ' ' ' ' ' ' ' ' ' ' ' ' ' ' ' ' ' ' ' ' ' ' ' ' ' ' ' ' ' ' ' ' ' ' ' ' ' ' ' ' ' ' ' ' ' ' ' ' ' ' ' ' ' ' ' ' ' ' ' ' ' ' ' ' ' ' ' ' ' _ _ ' ' ' ' ' ' ' ' ' ' ' ' ' ' ' ' ' ' _ _ ' _ ' ' ' ' _ _ _ _ _ ' ' ' ' ' ' ' ' ' ' _ _ ' ' ' ' ' ' ' ' ' ' ' _ _ ' ' ' ' ' ' ' ' ' ' ' _ _ _ ' ' ' ' ' ' ' ' ' ' ' ' ' ' ' ' _ _ ' ' ' ' ' ' ' ' ' ' ' ' ' ' ' ' ' ' ' ' ' ' ' ' ' ' ' ' ' ' ' ' ' ' _ _ ' ' ' ' ' ' ' ' ' ' ' ' ' ' ' ' _ ' _ ' ' ' ' ' ' ' ' ' ' ' ' ' ' ' ' _ ' ' ' ' ' ' ' ' ' ' ' ' ' ' _ _ _ _ ' ' ' ' ' ' ' ' ' ' ' ' ' _ ' ' ' ' ' ' ' ' ' ' ' ' ' _ _ _ ' ' ' ' _ _ ' ' ' ' ' ' ' ' ' ' ' ' ' ' ' ' ' ' ' ' ' ' ' ' ' ' ' ' ' ' ' ' ' ' ' ' ' ' _ _ ' ' _ _ _ _ _ _ _ _ _ _ _ _ ' ' _ _ _ _ _ _ _ _ _ _ _ _ _ _ ' ' ' ' ' _ _ _ _ ' ' ' ' ' ' ' ' ' ' ' ' ' ' ' ' ' ' ' ' ' ' ' ' ' ' ' _ _ _ ' ' ' ' ' ' ' ' ' ' ' _ _ ' ' ' ' _ _ _ _ ' ' _ ' ' ' ' ' _ _ _ _ _ _ _ _ _ _ _ _ _ _ _ ' ' ' _ _ ' ' ' _ ' ' ' ' ' ' ' ' ' ' ' ' ' ' ' ' ' ' _ _ _ ' ' ' ' ' ' ' ' ' ' _ ' ' ' ' ' _ _ _ _ _ _ _ _ _ _ _ ' ' ' _ _ ' ' ' _ ' _ ' _ _ +.+.: : . . . . + + h h d d d f Y U [ [ Y Y f j l l / / / ) ( _ 9 9 . . . . z                                         + ",
"                                                    . . + O @ O d h qXi.y.w.9.8.t.t.8.e.<.<.1.<.<.<.<.<.-.-.7.8.8.<.<.7.<.<.| ' z k > , + ; ; : , ; + < . . : , >.7.8.e.8.7.r.r.<.<.<.<.6.7.r.t.8.6.9.w.7.8.7.<.%.%.&.$.<.5.+ < . . . . .                       ; = . . . . I I  . .) I d d 0 0 g g S f f f p d f d d d + = O X # $ b b [.[.(.P.F.F.F.D./._.Y./.S.S.S.S.x.x.x.x.x.l.b.x././.P.F.).).(.(.(.(.l.l.l.l.l.l.l.l.v.v.l.l.v.n.n.c.c.n.n.v.v.b.b.b.b.z.b.b.b.b.b.z.v.x.b.b.b.x.v.z.v.x.b.x.x.b.b.b.n.v.n.n.v.v.x.x.z.z.x.x.F.x.x.F.A.F.A.x.A.x.x.x.x.x.x.T.T.T.(.(.(.(./.P.P.F.T./.(.(.b.v.z.l.l.l.l.z.v.v.v.v.b.b.v.v.b.b.b.b.b.b.x.z.z.z.z.z.x.z.H.v.H.b.v.v.b.b.v.v.H.x.A.A.A.A.H.H.H.x.z.z.A.S.G././.Y.Y.Y.Q.R.L.G.A.P.z.z.v.z.v.b.l.l.z.z.Y.Y.Y.Y.U.G.Y.G.D.D.G.G.A.A.z.z.z.v.v.v.z.l.F.H.}.)._.).).(._._.(.(.x.z.l.c.c.c.l.l.z.b.T./.(.(.(.(.).).).).)._._.(.(.(.v.z.l.h.h.l.z.x./.)._._._.).).Q.G.U.).Y.).Y.).).)./.)./.H.A.F.F.z.H.H.H.).G.G.G.D.D.D.J.Q.Q.J.J.D.D.R.R.R.R.J.R.*X*X1X4X1X1XD.S.D.S.S.G.D.G.G.G.S.F.F.F.G.F.G.Y.G.G.G.G.D.D.G.).1X*X1X1X1X1X_._.A.S.G.Y.G.G.Y./.A.A.F.A.F.A.F.A.F.F.F.F.x.x.F.S.A.D.A.A.x.x.Y./.1X1X`.`.1X3XS.G.x.x.A.G./._._._.)./.)./.Y.Y././.(.(.[.[.L E R T [ [ ' | | | ' ' *.*.' ' O.O.o.' ' ' ' ' ' ' ' ' ' ' ' ' ' ' ' ' ' ' ' ' ' ' ' ' ' ' ' ' ' ' ' ' ' ' _ _ _ ' ' ' ' ' ' ' ' ' ' ' ' ' ' ' ' ' ' ' ' ' ' ' ' ' ' ' ' ' ' ' ' ' ' ' ' ' _ _ ' ' ' ' ' ' ' ' ' ' ' ' ' ' ' ' ' ' ' ' ' ' ' ' ' ' ' ' ' ' ' ' ' ' ' ' ' ' ' ' ' ' ' ' ' ' ' ' ' ' ' ' ' ' ' ' ' ' ' ' ' ' ' ' ' ' ' ' ' ' ' ' ' ' ' ' ' ' ' ' ' ' ' ' ' ' ' ' ' ' ' ' ' ' ' ' ' ' ' ' ' ' ' _ _ ' ' ' ' _ _ _ _ _ _ ' _ _ ' _ ' ' ' ' ' ' _ ' ' ' ' ' ' ' ' ' ' ' ' _ ' ' ' ' ' ' ' ' ' ' ' _ _ _ ' ' ' ' ' ' ' ' ' ' ' ' ' ' ' ' _ _ ' ' ' ' ' ' ' ' ' ' ' ' ' ' ' ' ' ' _ _ _ _ ' ' ' ' ' ' ' ' ' ' ' ' _ _ ' ' ' ' ' ' ' ' ' ' ' ' ' ' ' ' ' ' ' ' ' ' _ _ ' ' ' ' ' ' ' ' ' ' ' _ ' ' ' ' ' ' ' ' ' ' ' ' _ _ _ _ ' ' ' _ ' ' ' ' ' ' ' ' ' ' ' ' ' ' ' ' ' ' ' ' ' ' ' ' _ _ _ _ ' ' ' ' _ _ ' ' ' ' ' ' ' ' ' ' ' ' ' ' ' ' ' ' ' ' ' ' ' ' ' ' ' ' ' ' ' ' ' ' ' ' ' ' _ _ _ ' _ _ _ _ _ _ _ _ _ _ _ _ _ ' _ _ _ _ _ _ _ _ _ _ _ _ _ ' ' ' ' ' _ _ _ _ _ ' ' ' ' ' ' ' ' ' ' ' ' ' ' ' ' ' ' ' ' ' ' ' _ _ _ _ _ _ _ ' ' ' ' ' ' ' ' ' ' ' ' _ _ ' ' ' ' _ ' _ ' ' _ _ _ _ _ _ _ _ _ _ _ _ _ _ _ _ _ _ _ _ _ _ ' ' ' _ ' ' ' ' _ ' ' ' ' ' ' ' ' ' ' ' ' ' ' ' ' ' _ _ _ _ ' _ ' ' ' ' ' ' ' _ ' ' ' ' ' _ _ ] _ _ _ _ _ _ _ _ ' ' _ _ _ _ ' ' _ _ _ ' _ _ +.+.: : . . . . + + h h i i i f U [ [ [ U U f d j j / / / ) / _ 9 9 . . . . z                                         + ",
"                                                    . @ @ . + . : > J l I z |  .7.7.<.<.#.#.#. .%.<.<.<.&.+. .| #.&.>.%.%.+./ I ; ; o + + + : , ; > < ; + + 8 v %.$.7.7.&.<.<.<.$.$.<.8.8.r.t.t.7.7.<.<.$.<.'  .r a t t r t @ + . . . . +                       + + . . . . I I  . ._ _ d d e e G Z [ U f S u u g f d d & % O X # $ b b [.[.P.P.H.F.H.P.(.(././.F.F.b.F.F.F.b.b.n.n.n.n.v.z.l.l.z.v.v.v.z.l.l.l.c.c.c.c.l.l.l.l.c.c.c.c.n.n.c.b.b.b.b.b.n.v.b.b.n.n.b.n.n.v.b.b.b.b.b.b.b.n.b.v.z.z.x.b.b.x.x.x.b.b.b.b.x.x.z.z.b.b.b.b.b.b.b.b.F.b.b.x.x.x.b.x.b.x.l.z.z.z.z.z.z.z.v.z.b.b.b.b.v.v.v.v.l.l.l.l.l.l.z.z.l.v.v.v.z.z.z.z.x.x.x.x.z.z.l.z.z.z.z.z.v.n.v.v.v.v.v.v.v.v.v.v.v.v.v.v.j.z.z.z.z.z.z.H.z.z.j.j.z.z.z.z.j.j.z.z.z.j.z.z.z.z.z.x.A.A.F.G.G.F.S.A.S.G.F.F.x.z.l.l.v.l.v.v.l.l.l.l.l.l.l.z.z.l.l.l.l.l.l.l.h.k.h.h.h.l.l.l.h.l.z.z.z.z.z.x.z.z.z.z.z.z.z.z.l.z.z.h.h.h.z.z.G.Y./.Y.G.D.F.G.G.D.S.D.S.G.G.G.G.G.G.A.A.x.x.A.z.z.z.A.F.G.G.G.D.D.D.D.G.G.G.G.D.D.G.D.G.D.G.D.Q.Q._._.).G.S.A.A.x.A.A.S.S.A.A.S.S.A.A.A.A.A.S.A.A.S.A.A.A.x.A.A.A.S.S.A.A.x.z.j.j.z.z.z.z.z.z.l.l.l.z.z.l.l.l.z.l.l.l.z.x.x.z.z.z.z.l.z.z.z.z.T.T.S.S.T.F.z.l.z.z.z.A.F.Y./.Y.F.T.F.G.G.S.A.x.b.C.B.'.K E E T T [ { | ' ' o.o.*.' | | ' ' ' ' | | ' ' ' ' ' o.' ' ' ' ' ' ' ' ' ' ' ' ' ' ' ' ' ' ' ' o.' ' ' ' ' ' ' ' ' ' ' ' ' ' ' ' ' ' ' ' ' ' ' ' ' ' ' ' ' ' ' ' _ _ _ ' _ _ ' ' ' ' ' ' ' ' ' ' ' _ _ ' ' _ ' ' ' ' _ _ _ _ _ _ _ ' ' ' ' ' ' ' o.' ' ' ' ' ' ' ' ' ' ' ' ' ' ' ' ' ' ' ' ' ' ' ' ' ' ' ' ' ' ' o.' ' ' ' ' ' ' ' ' ] ' ' ' _ _ _ _ _ _ ' ' ' _ _ ' ' ' ' ' _ ' ' ' ' ' ' ' _ ' ' ' ' ' ' ' ' _ _ _ _ ' ' ' ' ' ' ' O.' ' ' ' ' ' ' _ ' | ' ' ' ' ' ' ' ' ' ' ' ' ' ' ' ' ' ' ' ' _ _ ' ' ' ' ' ' ' ' ' ' ' ' ' ' ' ' ' ' ' ' ' ' ' ' ' ' ' ' ' ' ' ' ' ' ' ' ' ' ' ' ' ' ' ' ' ' ' ' ' ' ' ' ' ' ' ' ' ' ' ' ' ' _ _ ' ' ' ' ' ' ' ' ' ' ' ' ' ' ' ' ' ' ' ' ' ' ' ' ' ' ' ' ' ' ' ' ' ' _ _ ' ' ' ' ' ' ' ' ' ' ' ' ' ' ' ' ' ' ' ' ' ' ' ' ' ' ' ' ' ' ' ' ' ' ' ' _ _ _ ' ' ' _ _ ' ' ' ' ' ' ' ' ' ' ' ' ' ' ' ' ' ' ' ' ' _ _ _ _ _ ' ' _ _ ' ' ' ' _ _ ' ' ' _ _ ' ' ' _ _ _ ' ' ' _ _ _ _ _ ' ' ' ' ' ' ' ' ' ' ' ' ] _ _ ' ' ' _ _ ] ] ] _ _ _ _ ' ' ' ' _ _ ' ' _ _ ' ' _ ] ' ' ' ' _ _ _ _ ' ' ' ' ' _ _ _ ' ' ' ' ' ' _ _ ) _ _ _ _ _ ' _ ] _ _ ' ' ' ' _ ' ' ' ' ' ' ' _ ' ' ' ] ] ] _ ] ' ' _ ) _ _ _ ' ' ' { ' ' *.' ' { { ' ' ' ' ' ' ' _ _ _ _ _ ' ' ' ' ' ' ' ' ' ' _ _ _ _ _ _ _ _ _ _ _ _ _ _ _ _ _ _ _ _ _ _ _ _ _ _ _ _ _ _ _ _ ] _ ) _ _ ' +.+.: : . . . . + + h a d d h l {  . .{ [ _ f f l l _ _ I I / _ 9 9 . . . . z                                           ",
"                                                    . . @ @ + + > > l l / z +.| 5.7.%.>. . .#.+.%.<.<.<.#.+. .| &.$.>.%.%.+.( / , , O + + + , , , > + < + + w w >.%.7.7.&.<.<.<.&.#.<.7.r.t.u.t.8.8.<.7.>.<.|  .t r t t t t + + @ @ . .                         + + . . . . I I  . ._ _ d d e e S Z T T g Z q u g g d d O O O X # # b b [.[.C.b.H.F.P.P.(.(././.b.b.b.b.b.b.b.b.b.n.b.b.c.l.c.c.n.b.b.v.v.l.v.v.l.l.l.l.l.l.l.l.l.l.c.c.n.n.n.n.n.n.n.n.c.c.n.n.n.n.n.n.n.n.n.n.n.n.b.b.n.n.n.n.b.b.b.b.b.n.v.v.b.b.n.n.n.b.b.b.n.n.b.b.b.b.b.b.b.b.b.v.v.v.n.n.x.x.l.z.z.v.v.v.v.v.v.b.b.b.b.b.v.v.v.c.l.l.l.l.l.l.l.v.v.c.v.v.n.n.n.n.n.n.b.b.z.l.c.c.z.z.z.l.n.v.v.v.v.v.v.v.c.c.c.c.c.c.v.v.j.z.z.z.z.v.v.v.v.v.v.v.v.v.v.v.j.j.z.z.z.j.j.j.v.v.v.b.F.F.P.P.F.F.b.b.F.F.P.P.b.n.c.v.n.n.n.n.c.l.c.l.c.l.c.l.c.l.c.l.c.l.c.c.N.N.V.V.V.c.c.c.c.v.n.v.v.z.v.n.b.n.b.n.b.b.C.n.h.h.k.j.h.j.v.v.P.P.(././.P.P.G.P.F.P.F.F.F.P.P.P.P.P.F.H.z.H.H.H.H.H.H.P.P.P.P.G.G.G.G.G.P.P.P.P.P.P.P.P.P.P.P.(.}.}._.).P.F.F.z.z.H.H.F.F.F.H.P.P.F.F.F.F.F.F.F.F.F.F.H.H.H.H.H.F.P.P.H.v.v.z.j.z.l.l.l.z.z.z.l.l.l.l.c.c.c.l.l.l.l.v.v.n.b.b.v.v.l.l.l.z.z.v.P.P.b.b.P.P.v.z.z.z.v.b.P.P.P.F.F.F.F.F.P.P.P.F.n.C.B.'.K E E T T [ { { ' ' o.o.O.*.| | | | ' ' O.| | | ' ' ' ' ' ' ' ' ' ' ' ' ' ' ' ' ' o.' ' ' ' ' ' ' ' ' ' ' ' ' ' ' ' ' ' ' ' ' ' ' _ _ ' ' ' _ _ ' ' ' _ ' ' ' ' ' _ _ _ _ _ _ ' ' ' ' ' ' _ _ _ _ _ _ _ _ _ _ _ ' ' _ _ _ _ _ _ _ _ _ ' ' ' ' ' ' ' ' ' _ _ _ _ _ ' _ _ ' _ _ _ ' ' _ _ ' ' ' ' ' ' ' ' ' ' ' ' ' ' ' ' ' ' ' ' ' ' ' ' _ _ _ _ _ _ _ _ _ _ _ _ _ _ _ ' _ _ _ _ _ _ _ _ _ _ _ _ _ _ _ _ ' ' _ _ _ _ _ _ ' ' ' ' ' ' ' ' ' ' ' ' ' _ _ ] ' ' ' _ _ _ ' ' ' ' ' ' ' ' ' _ ' ' ' ' ' ' _ _ _ _ ' ' _ _ ' ' ' ' ' _ _ _ _ ' ' ' ' ' ' ' ' ' ' ' ' ' ' ' ' _ ' ' ' ' ' ' _ _ ' _ ' ' _ _ _ _ ' _ _ _ _ ' ' _ _ _ _ ' _ _ _ _ _ ' ' _ _ _ _ _ _ _ _ _ ' ' _ _ ' ' ' ' ' ' ' ' ' ' ' ' _ _ ' ' ' ' _ _ ' ' ' ' ' ' ' ' ' ' ' ' ' ' ' ' ' ' ' ' _ _ ' ' ' ' ' ' ' ' ' ' ' ' _ _ _ _ ' ' ' ' _ _ _ _ _ _ _ _ _ _ ' ' ' ' ' ' ' ' ' ' ' ' ' _ _ _ _ _ _ _ _ _ _ _ ' _ _ _ _ _ ' _ _ _ _ _ _ _ _ _ _ _ _ _ _ _ _ _ ' ' ] ] ] ] ' ' ] ` ` ] _ ' ' ' _ ] ] ] ] ] _ _ _ _ _ _ _ _ _ _ ' ' _ _ ' ' _ _ ' ' _ _ _ _ _ _ ' ' _ ' ' ' ' ' ' ' ' ' ' _ _ _ _ _ _ _ ' ' _ _ ] _ _ _ ' ' ' ' ' _ ' ' ' ' _ _ ' ' ' ' _ _ _ _ _ _ _ ) _ _ _ _ ' ' ' ' ' ' ' ' { { { ' ' ' ' ' _ _ _ _ ' ' ' ' ' ' ' ' _ _ ' ' _ ' _ _ _ _ _ _ _ _ _ _ _ _ _ _ _ _ _ _ _ _ _ _ _ _ _ _ _ _ _ _ ] _ ) _ _ _ +.+.: : . . . . + + h a h h d k { {  .{ ( ( j j l l [ _ U I U _ 9 9 . . . . z                                           ",
"                                                    . . . . . . @ . O . 9 r %.<.5.8.<.7.<.<.<.<.9.9.8.7.+. ._ / ' ' +.#.&.&.' ' , : + + + + , : > > + < + + t t 7.7.w.w.$.&. . . . .$.%.<.<.7.<.7.7.7.r.7.7. .' t w 9 > + + @ . . . . .                         + + . . . . I I  . .U Y e e e u S S X.X.S P u u d f i d O O . X # # b b [.[.C.n.z.z.v.F.P.F.A.S.b.x.x.x.b.x.x.x.x.b.x.l.l.l.l.l.l.l.l.l.h.h.l.l.l.l.l.l.l.l.l.l.l.l.l.l.l.l.l.l.l.v.z.z.l.l.z.v.l.z.z.z.l.z.v.v.b.b.b.b.v.v.v.v.v.v.v.n.n.n.c.c.C.n.n.n.n.n.b.b.n.n.n.n.n.n.n.n.n.n.c.v.c.c.c.l.l.l.l.l.l.v.v.v.h.h.h.h.l.l.c.c.V.V.V.V.V.N.N.N.N.N.V.V.V.V.V.c.c.c.c.c.c.c.c.c.c.c.V.V.c.c.k.k.z.l.l.l.l.l.l.h.l.l.h.h.k.k.k.h.k.N.N.N.N.N.N.V.N.N.N.N.N.N.N.N.N.N.N.N.N.N.N.k.k.k.Z.k.c.V.V.n.c.c.c.c.n.n.n.V.c.V.N.N.N.N.N.N.m.f.m.f.f.g.f.g.g.g.g.g.g.g.g.g.g.f.f.f.f.f.f.f.f.g.k.h.g.g.h.f.f.g.g.g.f.g.g.g.N.N.N.N.N.N.V.N.h.h.c.v.c.l.c.j.v.v.k.j.k.j.c.v.v.c.V.v.c.k.c.h.k.h.k.j.V.c.V.c.c.v.z.z.z.z.z.v.v.v.z.z.j.j.j.j.z.v.v.v.z.j.j.v.v.c.v.n.C.C.C.C.n.c.c.c.c.c.c.c.h.h.k.h.h.h.h.h.h.h.h.k.k.h.h.g.g.g.g.g.g.g.h.h.g.g.g.f.f.N.N.N.g.g.f.Z.Z.Z.Z.N.g.g.g.g.g.g.h.Z.g.g.g.g.g.g.g.g.h.g.Z.c.V.V.V.c.c.c.c.c.n.n.C.b.C.B.'.'.Q W E T T [ {  .+.+.| ' ' ' ' ' ' | ' ' ' ' ' ' ' ' ' ' ' ' ' ' ' ' ' ' _ _ _ _ ' ' ' ' ' ' ' ' ' ' ' ' ' ' ' ' ' ' ' ' _ ' ' ' ' _ ' ' ' ' ' ' _ ' _ _ ' _ _ ' ' _ _ _ _ _ _ _ ' ' ' ' ' _ _ _ _ _ _ _ ' ' _ _ ' ' _ _ _ _ _ _ _ _ _ _ ' _ ' ' ' ' ' ' _ _ _ _ _ _ _ _ _ _ _ _ ' ' _ _ ' ' ' ' ' ' ' ' ' ' ' ' ] ] ' ' _ _ _ _ ] _ _ ' _ _ _ _ _ _ _ _ _ _ _ _ _ _ ' ' _ _ _ _ _ _ _ ' _ _ _ _ _ _ ' _ _ _ _ _ _ ' ' ' _ _ _ _ _ _ _ _ ' ' ' ' ' ' _ _ ' ' ' ' ' ' ' ' ' ' ' ' ' ' ' _ _ _ _ _ ' ' _ _ ' ' ' ' ' ' ' ' ' ' ' ' ' ' ' ' ' ' ' ' ' ' ' ' ' ' ' ' ' ' ' ' _ _ ' ' ' ' ' _ ' ' ' ' ' ' ' ' ' _ _ _ _ ' ' _ ' ' _ _ _ _ _ _ _ _ _ _ _ _ _ _ _ _ _ _ ' ' _ _ _ _ _ _ _ _ _ _ _ _ _ _ _ _ _ _ _ _ _ _ _ _ _ _ ' ' ' ' ' ' ' ' ' _ _ _ ] ] ] _ _ _ _ _ _ _ _ _ _ _ _ _ _ _ _ _ ' _ _ _ _ _ _ _ _ _ _ _ ' ' _ _ _ _ _ _ _ _ _ _ _ _ ' ' _ _ _ _ _ ' ' _ _ _ _ ' ' ' _ _ _ _ _ _ _ _ ' _ _ _ _ _ ' ' ' _ ' ' ' ' ' ' ' ] ] ] ' ' ] ] ] ] ' ' ' ' ] ] ] _ _ _ _ _ _ _ _ _ _ _ _ _ ' ' ] _ _ ' _ _ ' _ ' _ _ _ _ _ ' ' ' ' ' ' ' ' ' ' ' ' _ _ _ _ _ _ _ _ ' ' ' _ _ _ ] ] ] _ _ ' _ _ ] ] _ _ _ _ ] ] ] ] ] ] ] ] ) ) _ _ ] ] _ _ _ _ ] ' ' ' ' ' ' ' ' ' ' ' ' ' ' ' _ _ ' ' ' ' ' ' ' _ _ _ _ _ ' ' ' _ ' ' _ _ _ _ _ _ _ _ _ ] _ ] ) ) _ _ _ _ _ _ _ _ _ _ _ _ _ ' ] _ _ _ +.+.; ; . . . . + + k h l h d d ( _ _ _ F I j l S S _ _ / I ) _ 9 9 . . . . z                                           ",
"                                                    . . . . @ @ + . . . 9 r <.5.5.7.<.<.<.<.<.<.r.r.9.9.+. ._ / ' | #.#.%.$. . .: > + O + @ ; ; > , + + + + a a 5.5.9.w.$.&. . . . .#.#.7.<.8.1.5.7.7.w.7.7.+. .w r : > + + @ @ . . .                           + + . . . . I I  . .Y I 0 e r u f Z [ [ S S e 0 d d u u O O . X X # b b [.[.V.l.n.b.b.b.P.F.F.T.z.v.v.z.x.x.x.x.x.x.z.l.l.l.l.c.c.c.c.l.Z.Z.g.l.Z.g.l.c.c.c.c.c.h.h.l.l.l.l.l.l.l.l.l.l.l.l.l.l.l.l.l.l.l.l.l.l.v.v.n.v.v.z.v.v.c.V.V.V.V.V.V.V.C.C.V.n.n.C.C.C.C.C.V.n.V.V.V.V.V.V.V.c.c.c.c.c.l.l.l.c.c.c.c.c.c.c.c.V.n.n.C.C.V.V.N.N.N.N.N.N.N.N.N.m.N.N.N.N.V.V.V.V.V.V.V.V.N.c.V.V.V.V.V.c.c.l.l.l.c.c.l.h.l.l.l.l.Z.Z.Z.Z.V.V.V.V.V.V.V.V.V.V.V.V.V.V.V.V.N.N.N.N.N.N.N.N.V.V.V.V.V.V.C.C.V.V.V.V.V.V.V.V.V.V.V.V.V.N.N.m.V.V.V.m.m.m.m.f.f.f.f.f.f.f.f.m.m.m.m.m.m.m.m.m.m.m.f.f.f.f.f.f.m.m.m.m.f.f.f.m.f.m.m.m.N.N.N.N.V.V.V.V.V.V.V.V.C.V.V.k.V.N.C.C.C.C.V.C.C.C.V.N.V.C.V.C.C.C.C.C.V.V.V.V.V.V.C.C.v.v.v.V.v.v.v.v.V.V.k.k.k.V.C.C.C.C.C.C.C.C.C.C.C.C.V.V.V.V.V.C.N.V.V.V.N.N.V.V.N.N.N.f.f.f.m.N.f.f.m.f.f.f.m.f.m.m.f.m.m.N.N.N.f.f.m.m.m.m.m.m.m.m.m.m.m.m.m.N.m.f.g.g.m.m.m.m.m.m.B.V.B.V.V.V.V.V.V.V.C.C.C.C.B.B.'.'.W E T T [ [ ' ' ' ' ' ' O.' | | | | ' ' O.| ' ' ' ' ' ' ' ' ' ' ' ' ' ' _ _ _ _ ' ' ' ' _ _ _ _ _ _ _ _ _ _ _ _ _ ' _ _ _ _ _ _ ' ' _ _ _ _ _ _ _ _ _ _ _ _ _ _ _ _ _ _ _ _ _ _ _ _ _ _ _ _ _ _ _ _ ] ) ' _ _ _ _ _ _ _ ) ) _ _ _ _ _ ) _ _ _ _ ' ' _ _ _ _ _ _ _ _ _ _ _ _ _ _ _ _ _ _ _ _ _ _ ] ] ] _ ] _ _ _ ] ] ] ] ] ] ) ] ] ] ] ] ] ) ] ] _ _ _ _ ] ] ] ] ] ] _ _ _ _ _ _ _ _ _ _ _ _ _ _ _ _ _ _ ] _ _ _ _ _ _ _ ) ] ] ] ] ] ) ) ' ' _ _ ] _ ] _ _ ] ] _ _ _ ] _ ' ' ' ' ' ' ] ] _ _ _ ] _ _ _ _ ' ' _ _ _ _ _ _ _ _ _ _ _ _ _ _ _ _ _ _ _ _ ' ' ' ' ' ' ' ' _ _ _ _ _ _ _ _ _ _ _ _ _ _ _ _ _ _ _ _ _ _ _ _ _ _ _ _ _ _ _ _ _ _ _ _ _ _ _ _ _ _ _ _ _ _ _ _ _ _ _ _ ) ) ] _ _ _ _ _ _ _ ] ] _ _ ] ] ) ) ] ] ] ] ] ] ] ] ] ] ] ] ] ] ] ] ] ] ] ] ] ] ] ] _ _ _ _ _ _ _ ] _ _ _ _ _ _ _ _ _ _ ) ) _ _ _ _ _ _ _ _ _ _ _ _ _ _ ] ] ] ] _ _ _ _ _ _ _ _ _ _ _ _ _ _ _ _ _ _ _ _ _ _ ' _ _ _ _ _ _ _ ' ' _ _ _ ' _ _ ' ] ] ] ] ] ] ] ] ] ] ] ' ] ] ] ] ] ] ] _ _ _ _ _ _ _ ) ] _ _ _ ] ] ] ] _ _ _ _ _ ] _ ] ] _ _ _ _ _ _ _ _ _ _ _ _ _ _ ] ] _ _ _ _ _ _ _ ' ' ' _ _ _ ] ] ] ] ] _ _ _ ) ] ] _ _ ] ] ) ) ] ] ] ) ) ) ) ) ) ] ] _ _ _ _ ] ] ' ' ' ' ' ' ' ' _ _ ' ' ' ' _ _ ' ' ' ' ' _ _ _ _ _ _ _ ' ' ' _ ' _ ] ] _ _ ) ] ] ] ] ] ) ) ) ) ) ) ] ] ) ) ] ] ] ] ] ] ] _ ) ) ) ] o.+.; ; . . . . o + l k l h d d / / _ _ l S k l I I _ _ I I Y _ 9 9 . . . . ^                                           ",
"                                                      . . . . . . . . . w w $.&.<.%._ _ _ ' '  .&.&.&.$.| | _ / #.#.%.>.5.5.&.&.: : . . + @ + + + + @ o . . y t 7.5.5.7.+.&.<.<.<.<.>.>.8.7.w.8.<.<. . . . . .+.+.' ; ; @ + . . @ .                             + < . . . . I I '  .I _ t r t u f f [ [ S S 0 0 d d r r O O . X X # b b ].'.B.V.c.V.V.V.V.l.l.l.l.l.l.c.n.n.n.l.l.l.l.l.h.h.l.Z.V.V.V.V.f.f.g.g.g.g.g.g.f.f.f.Z.Z.l.c.l.c.l.c.l.c.l.c.l.c.l.c.l.V.c.c.c.c.c.V.c.c.c.c.c.c.l.c.c.c.c.c.n.n.n.n.V.n.c.c.c.c.c.V.V.b.V.n.n.n.c.c.c.n.c.c.c.c.c.c.V.c.V.V.V.C.C.V.V.N.N.N.N.N.V.N.V.V.V.V.V.V.V.V.V.V.V.V.V.V.V.m.m.f.f.f.f.f.f.f.f.f.V.V.V.V.V.V.V.V.V.V.V.V.V.V.V.V.V.V.V.V.V.N.m.m.m.m.N.N.m.m.m.m.m.m.f.f.f.f.f.V.m.m.m.V.V.N.m.f.f.g.f.f.f.f.f.Z.Z.Z.Z.f.f.f.f.f.g.f.f.f.f.f.f.f.m.m.M.M.M.f.f.f.f.f.f.f.f.f.f.m.m.m.m.m.m.m.m.f.f.g.g.f.f.g.g.m.f.f.g.g.g.f.f.f.m.m.m.m.m.m.m.m.f.f.g.f.f.m.f.m.f.m.f.N.f.N.f.f.f.f.f.f.f.f.g.f.f.f.f.f.f.f.f.f.g.g.g.g.f.f.f.Z.Z.N.f.f.f.f.k.V.V.V.N.f.f.m.m.V.V.V.V.V.V.V.V.m.m.m.m.m.m.m.m.m.m.m.m.m.m.m.m.m.m.m.f.m.f.m.f.f.g.f.f.f.f.f.f.g.g.g.g.g.g.g.g.f.g.g.g.g.f.g.g.f.f.M.f.M.f.M.f.f.g.g.g.M.f.M.f.g.m.m.M.B.m.m.m.m.m.m.B.B.B.B.B.B.'.].].E E T T X. . . .+.+.+.O.O.O.O.O.O.O.O.O.+.+.+.+.o.' ' ' O.O.' | O.O.O.' O.O.' ' ' | ' O.' ' ' ' ' ' o.o.' ' ' ' o.o.o.o.' ' ' ' +.+.' ' o.o.o.' ' ' ' o.' ' ' ' o.o.o.o.' ' ' ' o.{ { { ' ' ' ' ' ' ' ' o.' ' ' ' ' ' ' ' ' | | ' ' ' ' ' ' ' ' ' ' ' ' ' ' ' ' ' ' ' ' ' ' ' ' ' ' ' ' ' ' ' o.o.' ' ' _ ' o.o.' ' ' ' ' ' ' | | | ' ' ' ' ' ' ' ' ' ' _ ' ' ' ' ' ' ' ' ' ' ' ' ' ' ' ' ' ' ' ' ' ' ' ' ' ' ' ' ' ' ' ' | | | ' ' ' ' | | ' ' ' ' ' ' | ' | O.| ' ' ' O.| O.' | | | | +.' ' ' ' ' ' ' +.+.' ' ' ' ' ' o.o.' o.' ' o.o.' ' ' ' ' o.+.+.o.o.o.o.' ' ' ' ' ' ' ' ' ' { ' ' ' ' ' ' o.o.o.' ' ' ' ' ' ' ' o.o.' ' ' ' ' ' o.o.o.' ' o.o.o.' ' ' ' ' ' ' ' ' ' ' ' ' ' +.+.' o.o.o.' ' ' ' ' ' ' ' ' ' ' ' { { ' ' ' ' ' ' ' ' ' ' ' ' ' ' ' ' ' ' ' o.o.o.' ' ' ' ' ' ' ' o.o.o.o.' ' ' ' ' ' ' ' ' ' ' ' o.o.o.o.' ' ' ' o.' o.o.' ' ' o.' ' ' ' ' o.o.o.' ' ' ' ' ' ' ' o.o.o.o.o.o.' ' +.' ' ' ' o.' ' O.O.| ' ' ' | O.' ' O.O.O.O.' ' ' ' ' ' O.o.o.' +.+.' ' ' ' O.O.O.O.O.O.O.O.O.O.O.O.o.o.' ' +.+.o.' ' o.' ' +.+.+.' ' ' ' ' +.+.+.O.O.O.+.+.+.+.+.+.+.+.' ' | | +.o.o.o.o.o.' ' +.+.+.+.+.+.+.+.+.o.o.o.{ { { { o.o.o.+.+.+.+.+.+.+.+.+.+.+.+.+.+.+.+.+.+.+.+.+.+.+.+.+.+.+.+.+.+.+.+.+.+.O.O.O.o.' ' ' ' ' ' ' ' ' ' ' ' ' ' ' ' ' ' ' ' ' ' ' _ ' _ _ _ ' +.+.; ; . . . . o O l h k h h j _ _ _ _ d d d d k j _ _ I I I _ > 9 . . . . ^                                           ",
"                                                          . @ @ O + . @ 9 e +.#.%.%._ _ _ ' _ ' <.%.&.+.+. ._ ) #.#.%.>.5.7.-.-.: : . . + @ @ @ + + + + . . t t 8.7.7.7.+.+.<.<.<.7.#.%.5.7.8.8.<.%. .' ' | #.%.' ' + ; @ @ . .                                 + < . . . . I / ' ' I I r r i r g g U _ f l e u d d e r . o . . X # b b ].].'.B.B.B.B.B.B.V.V.C.V.B.B.V.C.C.V.V.V.V.V.B.m.m.m.m.B.B.B.B.m.M.M.M.M.M.M.M.B.B.B.B.B.B.B.B.B.B.B.B.B.B.B.B.B.B.B.B.B.B.B.B.B.B.B.B.B.B.B.B.V.V.V.V.V.V.V.V.V.V.V.V.V.V.V.V.V.V.V.V.V.V.V.V.V.V.V.V.V.V.V.V.V.V.V.B.B.B.B.B.'.B.B.B.'.'.'.'.'.'.'.'.B.B.B.m.B.B.B.B.m.m.B.B.m.m.m.m.B.B.B.B.B.B.B.B.m.m.m.B.m.m.B.B.B.B.B.B.B.B.B.B.B.B.B.B.B.B.B.B.B.B.B.B.B.B.B.B.m.m.m.m.m.m.m.m.M.M.M.M.M.m.m.m.m.m.m.m.m.B.B.B.B.B.m.m.B.B.B.B.B.B.B.B.B.B.M.M.M.M.M.M.M.M.M.M.M.M.M.M.M.M.M.M.M.M.M.M.M.M.M.M.B.M.M.M.M.M.M.m.M.M.M.M.M.M.K M.M.M.M.M.M.M.M.M.m.m.M.M.M.M.m.m.B.B.B.B.B.B.B.B.B.B.B.B.B.B.B.m.m.m.m.m.m.m.m.m.M.M.f.f.f.f.m.m.f.f.m.m.m.m.f.f.B.B.B.m.m.m.m.M.B.B.B.B.'.B.'.'.B.B.B.B.B.B.B.B.B.B.B.B.B.B.B.B.B.B.B.M.M.M.M.M.M.M.M.M.M.M.M.M.M.M.M.M.M.M.M.M.B.M.M.M.M.M.M.M.M.M.M.M.M.M.M.M.M.M.K K M.M.M.M.K M.M.M.B.B.B.B.B.B.B.B.B.B.B.B.'.].].! E E T X.X. . .+.+.+.O.O.O.O.| O.O.O.O.' O.O.o.o.' ' ' ' ' ' ' ' ' ' ' ' ' ' ' ' ' ' ' ' ' ' ' ' ' ' ' ' ' ' ' ' ' ' ' ' ' ' ' ' ' ' ' ' ' ' ' ' ' ' ' ' ' ' ' ' ' ' ' ' ' ' ' ' ' ' ' ' ' ' ' ' ' ' ' ' ' ' ' ' ' ' ' ' ' ' ' ' ' ' ' ' ' ' ' ' ' ' ' ' ' ' ' ' ' ' ' ' ' ' ' ' ' ' ' ' ' ' ' ' ' ' ' ' _ ' ' ' ' ' ' ' ' ' ' ' ' ' ' ' ' ' ' ' ' ' ' ' _ _ ' ' ' ' ' ' _ ' ' ' ' ' ' ' ' ' ' ' _ _ _ _ _ ' ' ' ' ' ' _ ' ' ' ' ' ' ' ' ' ' ' ' ' ' ' ' O.O.' | ' ' ' ' | ' ' ' | | ' ' ' ' ' ' ' ' ' ' ' ' ' ' ' ' ' ' ' ' ' ' ' ' O.O.' ' ' ' ' ' ' +.o.o.o.' ' ' ' ' ' ' ' ' ' ' { ' ' ' ' ' ' ' ' ' ' ' ' ' ' ' ' ' ' ' ' ' ' ' ' ' ' ' ' ' ' ' ' ' ' ' ' ' ' ' ' ' ' ' ' ' ' ' ' ' ' ' ' ' ' ' ' ' ' ' ' ' ' ' ' ' ' ' ' ' ' ' ' ' ' ' ' ' ' ' ' ' ' ' ' ' ' ' ' ' ' ' ' ' ' ' ' ' ' ' ' ' ' ' ' ' ' ' ' ' ' ' ' ' ' ' ' ' ' ' ' ' ' ' ' ' ' ' ' ' ' _ ' ' ' o.' o.' ' ' ' ' ' ' ' ' ' ' ' ' ' ' ' ' ' ' ' ' ' ' ' ' ' ' ' ' ' ' ' ' ' ' ' ' ' ' ' ' ' ' ' ' ' ' ' ' ' ' ' ' ' ' ' | | | ' ' ' ' ' ' ' ' ' ' ' ' ' ' ' ' ' ' ' ' ' ' ' ' ' ' ' ' ' O.' ' ' O.O.o.' O.O.o.o.' ' ' ' ' ' ' ' ' ' ' ' o.o.o.o.o.' ' ' o.' ' ' ' ' ' { o.o.o.o.o.+.o.o.O.O.O.O.+.+.+.+.+.+.+.+.+.+.o. .+.+.+.+.+.+.+.+.+.+.O.| O.o.' ' ' ' ' ' _ _ _ _ ' _ _ _ _ ' ' ' ' ' ' ' ' ' _ _ _ _ ) _ _ _ +.+.; ; . . . . o O z l l k k k _ ( ' ' d d d d k k / / I I / _ 5 9 . . . . ^                                           ",
"                                                                . @ . . + O > : e r 8 9 e e 8 9 5 5 8 9 z I ) _ >.%.%.$.>.>.+.+.h h > > r w > > ; ; : , ; ; z l <.7.7.9.&.$.7.7.9.9._ I F z j j k h e w r r h h w t . . . @ t                                   < ; . . . . I )  .' k k 9 9 t r e u I I g f e r d d r r . o . . X X q b 3.].].].'.'.'.'.'.'.B.B.'.'.'.'.'.'.'.'.'.'.B.'.B.'.'.'.'.'.'.'.'.'.'.'.'.'.'.'.'.'.'.'.'.M.'.'.'.'.'.'.'.'.'.'.'.'.'.'.'.'.'.'.'.'.'.'.'.'.'.'.'.'.'.'.B.B.B.B.B.B.B.B.B.B.B.B.'.'.'.'.B.B.B.B.B.B.B.B.B.B.B.B.B.B.B.B.'.'.'.'.'.'.'.M.'.'.'.'.'.'.'.'.Q K K K K K K K K K K K K K K K K K K K K K K K K K K K M.M.M.M.Q Q M.M.'.'.Q Q Q Q Q Q Q Q Q Q K K K K K K K K K K K K K K K K K K K K K K K K K K K K K K K K K K K K K K K K K K K K K K K K K K K K K K K K K K K K K K K K K K K K K K K K K K K K K K K K K K K K K K K K K K K K K K K K K M.M.K K K K K K M.M.M.M.M.M.M.M.M.M.M.M.M.M.M.M.M.M.M.B.B.M.M.M.M.M.K M.M.M.M.M.M.M.K K K K K K K M.M.K K K K K K K K K K K K K K K K K K K K K K K K K K K K K K K K K K K K K K K K K K K K K K K K K K K K K K K K K K K K K K K K K K K K K K K K K K K K K K K K K K K K K K K K K K K K ! ! ! ! R R T U _ ) _ ) ] ] ] ] ' ' ' ' ' ' ' ' ' ' ' ' ' ' ' _ ' ' ] ] _ ' _ ] ] ] ] ] / ] ] ] ) / / / / / / / / / / / / / / / ) / / / / / / / / / / / / / / / / / / z ~ ~ ~ ~ / / / ^ / / / I / / / / / / / / / / / / / / / / / / / / I I I I / / / / / / / / / / / / / / / / / / / / / / / / ~ ~ ~ / / / / / z z ~ / / ~ z z z z z z J ^ J J / / / / / ~ ~ / z z / / / ~ / / z z / / / ~ z z / / / / ~ ~ ~ / ~ ~ / / / / / ~ / / / / ~ ~ ~ ~ / / ^ ^ / / / / / / / / / / / / / / / / / / J J / / / / / / / / / / / / / / / / / / / / / / / / / / / / / / / ) / / / / / / / / / / / / / / / / / / / / / / / / / / / / / / / / / / / / ~ / / / / / ^ ^ ~ ~ / / / / / / / / / / / / / / / / / / / / / / / / / / ~ ~ / / / / / / / / / ~ ~ ~ z z ~ ~ ~ z / / / / ~ ~ ^ ^ / / / / / / / / / / / / ^ / / / ~ ~ / / / / / / / / / / ^ / / / / ~ / / / / / / / / / / / / / / ) ) / / / / / / / / / / / / / / / / / / / / ~ ~ / / / ~ ^ J z J z z z J z z z z J J ^ ^ z z z z ~ ~ ~ ~ ^ / ^ ^ ^ ^ ^ J ^ / ^ ^ J J J ^ ^ ^ / / / / I I / ~ z z z z z z / / / ~ z z z z J J J J J J J J J J J J J J J J z z z z ~ ~ z z z z z ~ z z z z ~ ~ ~ z F z F F / ~ / ~ / / / / ^ ^ ^ / / / / / / / / ) ) / / / / / / / / / / / / / / / ^ ^ ^ ^ ^ ^ ^ z z z z z z z z z z z z z z z z z z z z z z / z z ~ ~ ) ] ; ; . . . . O O I J I z l f U I S I 9 9 9 9 r r I I J I _ _ 9 9 . . . . ^                                           ",
"                                                                . @ . . + + ; ; 9 r 8 9 e e > 8 w 9 8 : I I _ ' %.$.$.&.>.<.&.$.d h > > r 9 > : ; ; , : , , / z 7.9.8.9.&.&.7.7.w.9.I I l l j k l h w 9 r r k l > 9 . . . . t                                   ; ; . . . . / _ { ' d j 9 9 r r e e I Y f l r d d d e e . o . . . X q q 3.3.! ! ! ! ! ! ! ! ! ! ].].! ! ! ].].].].].].! ! ! ].].].].].].].].! ].! ! ! ! ! ! ! ! ! ! ! ! ! ].].].].! ! ! ].].].].].].].].].].].].].].].].].].].].].].].].].].].].].].].].].].].].! ! ! ! ! ! ! ! Q Q Q Q Q Q Q ! ! Q Q Q Q Q Q W ! ! ! ! ! W W Q Q Q Q Q W W W W W Q Q Q Q Q Q Q W W W W W W W W W W W W W W W W W W Q Q ! ! ! W W Q Q Q Q W W W W W W W W W W W W E W W W W W W W W W W W W W W W W W W W W W W W W W W W W W W E E E E W W W W W W W W E E E E E E E W W W E E E E E E W W W W W W W W W W W W E W W W W W W W W W W W W W W W Q Q Q Q W W W W Q Q ! Q ! Q ! Q Q Q Q Q Q Q Q ! ! ! Q ! Q ! Q Q Q Q Q Q Q Q Q W Q Q Q Q W W W W ! Q Q Q Q W W W ! Q ! Q W Q Q W W W W W W W W W W W W W E E E E E E W W E E E E E E E E E E E W W E E E E E E E E E E E E E E E E E E E E E W W E E E E E E E E E E W E E E E W W W W W W W W W ! ! ! ! R T T U _ _ ' _ ] _ _ ' ' ' _ _ ] ] ] ] _ _ ' ' ' ' _ ] ] ] ] ] ] ] ] ] ] ] ) / / / ) ) ) ) / / / / / / z z z / / / / / ) / / / / / / F / / / / z ~ z / / / / / ~ ~ ~ ~ / / ~ ^ ^ ^ I I / / / / / / / / / / / / / / / / / / / / I I / / I / / / / / / / / / / / / / / / / / / / / / / / ~ ~ ~ ~ / / / / / / z z ~ ~ z z z z z z z ^ ^ ^ / / / / ~ z z z z z z z z z / / z z ~ ~ ~ z z z ~ ~ ~ / / ~ / ~ z ~ / / / / / / / / / ~ ~ ~ ~ ~ / ^ ~ ~ / / / / / / / / I I I I / / / / ^ J J J / / / / / / / / / / / / ~ ~ / / / / / / / / / / / / / / / / / / / / / / / ~ / / / / / / / / / / / / / / / / / / / / / / / / / / ~ ~ ~ ~ ~ / ~ / ^ ^ ^ ^ ~ ~ / / / / / / / / / / / / / / / / / I / / / / / ~ / / / / / / / / / / / / ~ ~ ~ ~ z z ~ ~ ~ z / / / / ~ ~ / / / / / / / / / / / / / / / ^ / / / / / / / / / / / / / / / / / / ^ ^ / / / / / / / / / / / / / / ) ) / / / / / / / / / / / / / / / / / / / ~ ~ ~ ~ ~ ~ ~ z J z J z z z z z z z z z J ^ ^ z z z z z ~ ~ ~ z z ^ ^ ^ J z z ^ ^ ^ ^ J z z J ^ ^ / / / / z z / / ~ ~ z z z z ~ ~ / / z z z z z z J z z z J J z z z z z J J J z z z z z z z x z z z z z z z z z z z z z z z z ~ F z ~ z / / / z ^ ^ ^ ^ / / / z ~ / / / / / / ~ / / / / / / ^ ^ ^ ^ ^ ^ J J z ^ ^ ^ z z z z z z z z z z z z z z z z z z z z z / / z ~ ~ ~ ) ] ; ; . . . . O + I I I I S f U I I I 9 e 0 9 r e z J J / _ ' 9 9 . . . . ^                                           ",
"                                                                  . ; : ; ; O . ; : w w r w , : 9 9 > > I I #.$.<.<.8.7.+. .$.&.&.&.7.8.<.<._ _ J J  .| +.+. .+.%.>.>.<.>.%.5.<.+.&.d l ; ; ; = e r t t h d ; + + + . . . .                                     ; ; . . @ o I /  .' i r 9 9 9 9 i i [  .S Y r r d s e r . . . . . . % # 2 4 2 4 7 4 4 4 3 3 3 3 7 7 7 7 7 7 7 7 7 7 7 7 7 7 7 7 7 7 7 7 7 7 7 7 7 7 7 7 7 7 7 7 7 7 7 7 7 7 7 7 7 7 7 7 7 7 7 7 7 7 7 7 7 7 7 7 7 7 7 7 7 7 7 7 7 7 7 7 7 7 7 7 7 7 7 7 7 7 7 7 7 7 3 3 7 7 3 3 7 3 3 3 3 3 3 3 3 3 3 3 3 2 3 3 3 2 1 1 1 2 2 1 1 1 1 1 1 1 1 1 1 1 2 1 2 2 1 1 2 2 1 1 2 2 2 2 2 2 2 2 3 3 3 3 3 3 3 3 3 2 3 2 3 2 2 2 2 2 1 1 1 1 1 1 1 1 1 1 1 1 1 1 1 1 1 $ 1 $ $ $ $ 1 1 1 $ $ $ $ 1 1 1 $ 2 2 2 1 1 1 1 $ $ $ $ $ $ $ $ $ $ $ 1 1 1 $ 1 $ $ $ $ $ 1 1 1 1 $ 1 1 1 1 1 1 1 1 1 1 1 1 1 1 2 2 2 1 1 1 2 2 2 2 2 2 2 2 2 2 3 3 3 3 3 3 3 3 3 3 3 3 3 3 3 3 3 3 3 3 3 3 3 3 3 3 3 3 3 3 3 3 3 3 3 3 3 3 3 3 3 3 3 3 3 3 3 3 3 3 3 2 2 3 3 3 2 2 3 1 1 $ $ $ $ $ $ $ $ $ $ $ $ $ $ $ $ $ $ $ $ $ $ $ $ $ $ $ $ $ $ $ $ $ $ $ $ $ $ $ $ $ $ $ $ $ $ $ $ $ $ $ $ $ $ $ $ $ $ $ $ $ $ $ $ $ $ $ $ * * * * 2 2 1 1 1 2 2 2 2 2 2 2 4 4 4 2 * % % X + + + + + + + + + + @ + + + + @ + + + + + + + @ + + + + + + + + + + + + o @ + + @ @ + O + @ @ @ @ @ @ @ @ @ @ o @ @ @ @ @ @ . . . . . @ @ @ @ . @ @ @ @ @ @ @ @ @ @ @ @ @ @ @ @ . . . @ @ @ . . @ @ @ . @ . . . . . @ . . . . . . . . . . . . . . . . @ @ @ @ @ @ @ . . @ . . . @ . . . . . @ @ @ @ . . . . . . . . . . . . . . . . . . @ @ @ @ . . . . . . . @ . . . . . . . . . @ @ . . . . . . . . . . . . . . . @ @ @ @ @ . @ @ @ . . . @ @ . . . . . . . . . . . . . . . . @ @ @ @ @ @ . @ @ @ @ @ . . . . . . @ . . . @ @ . . . @ @ @ @ @ . . o o o . o @ . . . . . . . . . o o o . . . . . . @ @ @ . . @ . . . . . . . @ @ @ . . . @ @ @ . . @ @ @ . . . . . . . . . . @ @ @ @ . . . . @ . . . . . . . . . . . . . . . . @ @ @ @ . . . @ . . . . . . . . @ @ @ . . . . . . @ @ @ . . . @ . . . . . . @ @ @ @ @ @ @ @ @ @ . . @ . . . @ @ @ @ @ @ @ @ @ . @ @ @ . . . @ @ @ @ . @ @ @ @ . @ @ . . . @ . . . . o o . . . . . . . . . . . . . . . @ . . . . . . . . . o . . . . . . . . o o . o @ @ . . . . . . . . . . @ @ . . . . . . . . . . . . . . . . . . . . . . . . . . . . . . . . . . @ o o . . . + + o @ @ @ . @ + @ @ @ @ @ + + @ @ @ @ @ @ @ . . @ o O o o . . @ @ @ @ @ @ @ @ @ @ @ @ @ @ @ @ @ @ @ @ . . . . . . . . . . . . . . . . . . . . . . . . . . . . . . o + & = w 5 ( _ _ _ I G Y G Y Y 0 e e 9 a r z z / ) ' ' w w . . @ . /                                           ",
"                                                                        + ; . O > : w w w 9 : : 9 9 8 9 ) _ #.#.7.7.9.7.#. .&.#.%.%.7.7.%.%._ _ J I  . .+.#. .+.5.5.>.>.<.<.5.<.&.$.d d = ; = : r r t t t t ; = O + . . .                                       + ; . . @ . I I ' _ i i 9 9 9 9 f d [ [ S S r r d d r r o o . . . . % % * 2 2 4 4 2 2 2 2 2 2 2 4 4 4 4 4 4 4 4 4 4 4 4 4 4 4 4 4 4 4 4 4 4 4 4 4 4 4 4 4 4 4 4 4 4 4 4 4 4 4 2 4 4 4 4 4 4 4 4 4 4 4 4 4 4 4 4 4 4 4 4 4 4 4 4 4 4 4 4 4 4 4 4 4 4 4 4 4 4 2 2 4 4 2 2 2 2 2 2 2 2 2 2 2 2 2 2 2 2 2 2 2 2 2 2 2 * $ $ $ * * $ * * * * * * $ $ * * * * * * * * * * * * * * 2 * * * * 2 2 2 2 2 2 2 2 2 2 * $ $ * * * * * * * * # # $ $ $ $ $ $ $ $ $ $ $ $ $ $ $ % % % % # % # % # % # # # # # * * * * $ $ # # # $ * % % # % # # # $ $ $ $ $ $ % % $ $ $ $ $ $ $ $ * $ * * * * * * * * * * * 2 2 2 2 * 2 2 2 * 2 2 2 2 2 2 2 2 2 2 2 2 2 2 2 2 2 2 2 2 2 2 2 2 2 2 2 2 2 2 2 2 2 2 2 2 2 2 2 2 2 2 1 2 2 2 2 2 2 2 2 1 1 2 2 2 2 2 2 2 2 2 2 2 * * $ $ $ $ $ $ # # # # # # # # # # # # # # # # # # # # # # % # # # % # # # # # % # # # # # # # # # # # # # % % # # # # # # # # # # # # # # # % # % # % $ $ $ * * * * * * * 2 2 2 2 2 * * % % + + + + + + + + + + + + + + + + + + + + + + + + + + + + + @ @ @ @ + + + + + + + + @ @ @ @ @ @ @ @ @ @ @ @ @ @ @ o @ @ @ @ @ @ @ @ @ @ @ @ @ @ . . @ @ @ @ @ @ @ @ . . . . @ @ @ @ @ @ . . . . . @ @ @ @ . . . . . . . . . . . . . . . . . . . . . @ @ @ @ @ . . . @ @ . . . . . . . . . . . . . . . . . . . . . . . . . . . . . . . . . . . . . @ . . . . . . . . . . . . . . . . . . . . . . . . . . . . . . . . @ @ @ @ @ @ @ @ @ @ @ . . . @ @ . . . . . . . o @ . . . . . . . @ @ @ @ @ @ @ @ @ @ @ @ @ @ @ @ . . @ . . . . . . . . . @ @ @ @ o o o o . . . . . . . . . . . . . . . . . . . . . . . . . . . . . . @ @ @ @ @ @ @ @ @ . . . . . @ @ @ @ . . . . . . . @ . . . . @ @ @ . . . . . . . . . . . . @ . . . . . . . . . @ @ @ @ @ . . @ @ @ @ . . @ @ . . . . . @ . . o @ @ . . . . . . . . . . @ @ @ @ @ @ @ @ @ @ @ . . @ . . . @ @ @ @ @ @ @ @ @ @ @ @ @ . . . . . @ @ @ @ @ @ . . @ @ . . . @ @ . . . . . . . . . o . . . . . . . . . . . . . . . @ o . . . . . . . . . . . . . . . @ @ @ @ @ . . . . @ . . . @ @ . . . . @ @ @ @ . . . . . . . . . . . . . . . . . . . . . . . . . . @ @ o . . o o o @ @ @ @ . . @ o o o o O @ O O O O O O o O O o O O o O o O O @ @ @ O + + @ @ @ @ @ @ @ @ @ @ @ @ @ . . . . . . . . . . . . . . . . . . . . . . . . . . . . . . @ + o + + 5 9 I U U U G S U U Y Y 0 0 0 9 r r z z / / ' _ e w . . @ . /                                           ",
"                                                                          z @ . @ . + o + O + + d r 9 8 I I | | _ _  . .' ' &.&.>.<.7.8.<.<.#.%.7.7.r.8.5.5. . .I I I ) <.<.w.9.'  .h l > > ; : ; ; + + O + @ + t h t h                                         < ; . . @ . z z I I r i 9 9 9 9 f f U _ l S r r r r d k e r a t + + . X X X X X X X X X X X X X X X X X X X X X X X X X X X X # # $ # # # # # # $ # # # # # # # # # # # # # # # # X # # # # # # # # # # # # # # # # # # # # # # # # # # # # # # # # # # # # # # # # # # # # # # # # # # # # # # # # # # # # # # X X X X X X X X X X X X X X X X X X X X X X X X X X X X X X X X X X # # # # # # # X # # # # # X X X X X X X X X X X X X X X X X X X X X X X X X X X X X X X X X X X X X X X X X X X X X X X X X X . . . . . . . . . . X X X X X X X X X X X X X X X X X X X X X X X X X X X X X X # X X # X X X # X X X X X X X # # # # # # # # # # # # # # # # # # # # # # # # # # # # # # # # $ $ $ # # # # # # # # # # # # # # X X X X X X X X X X X X X X X . . . . X X X X X . X X X X X . . . . . . . X X . X . . . X X . . . . . . . . . . . . . . . . . X . . . X X . . . . . . . . X X X X X X X X X X X X X X # X # # # # % % X O O . . . . . . . @ @ o o o @ @ @ @ @ @ @ @ @ . . @ @ @ @ @ @ @ @ @ @ . . . o @ @ @ @ . . . . . . . . . . . . . . . . . . . . . . . . . . . . . . . . . . . . . . . . . . . . . . . . . . . . . . . . . . . . . . . . . . . . . . . . . . . . . . . . . . . . . . . . . . . . . . . . . . . . . . . . . . . . . . @ @ . . . . . . . . . . . . . . . . . . . . . . . . . . . . . . . . . . . . . . . . . . . . . . . . @ @ . . . . @ @ @ @ . . . . . @ . . . . . . . @ . . . . . . . . . . . . . . . . . . . . . . @ @ . . . . @ @ @ @ . . . . . . @ @ . . . . . . . . . . . . . . . . . . o @ @ @ @ @ @ . . . . . . . . . . . . . . . . . . . . . . . . . . . . . . . . . . . . . . . . . . . . . @ @ . . . . . . @ @ @ . . . . . . . . . @ @ @ . . . . . . . . . . . . . . . . . . . . . . . . . . . . . . . . . . @ . . @ @ . . . . . . . . . . . . . . . . . . . . . . . . . . . . . . . . . . . . . . . . . . . . . . . . . . . . . . . . . . . . . . . . . . . . . . . . . . . . . . . . . . . . . . . . . . . . . . . . . . . . . . . . . . . . . . . . . . . . . . . . . . . . . . . . . . . . . . . . O . . O @ @ . @ @ @ @ @ @ @ @ . O X O X O . O O X . . . O O O . . . . . . . . . . . . . . . . . . . . . . . . . . . . . . . . . . . . . . . . . . . . . . . . . . . . . . . + = l z l h _ _ _ U U P } } T T u 0 e 9 e r z z / / _ _ e e . . @ . /                                           ",
"                                                                            . . + . + . . . O @ t r e 9 ) )  . . .| +. . . .#.+.5.5.7.7.$.%.#.$.5.7.r.r.5.5. .+.) ) ) ) 5.5.9.9.' ' d r ; > ; 5 ; ; + + . O O + t d                                             < ; . . . . l l I I d d 9 9 w e l l U U l l r r d d k k r r a r = , . O . . . . . . . . . . X X . . . . . . X X X X X X X X X X # # # X X X X X # # X X X X X X X O O O X X X O # X X X X X # X X X O O X X X X X X X X X X X X # X X X X # X X X X X X X X X X X X X X X X X X X X X X X X X X X X X X X X X X X X X X X X X X . . X . X . X X X . . . . . X . . . . . . X X X X X X X X X X X X X X X X X X X X X X . X X X . . . . . . . . . . . . . . . . . . . . . . . . . . . . . . . . . . . . . . . . . . . . . . . . . . . . . . . . . . . . . . . . X . . . X X . . . X . X X X X X O X X X X X X X X X X X O O O X X X X X X X X X X X X # # # # # # # # # # # # # # # # # # # # # # % # # # # # # # # # X X X X X X X X X X X X X X X X . X . X X . . . . . . . . . . . . . . . . . . . . . . . . . . . . . . . . . . . . . . . . . . . . . . . . . . . . . . . . . . . . . . . . . . . . . . . . . X X X X X X X X X X X X X O . . . . . . . . @ @ o o @ @ @ @ @ @ @ @ @ @ . . . . o o o o @ @ @ @ @ @ @ @ o o @ @ . . . . . . . . . . . . . . . . . . . . . . . . . . . . . . . . . . . . . . . . . . . . . . . . . . . . . . . . . . . . . . . . . . . . . . . . . . . . . . . . . . . . . . . . . . . . . . . . . . . . . . . . . . . . . . @ @ . . . . . . . . . . . . . . . . . . . . . . . . . . . . . . . . . . . . . . . . . . . . . . . . . . . . . . . @ . . @ @ . . . . . . . . . . . . . . . . . . . . . . . . . . . . . . . . . . . . . . . . . . . . . . . . . . . . . . . . . . . . . . . . . . . . . . o o @ . . . . . . . . . . . . . . . . . . . . . . . . . . . . . . . . . . @ . . . . . . . . . . . . . . @ @ . . . . . . . @ @ o . . . . . . . . @ @ @ . . . . . . . . . . . . . . . . @ . . . . . . . @ @ . . . . . . . . . . . . . . . . . . . . . . . . . . . . . . . . . . . . . . . . . . . . . @ @ . . @ . . . . . . . o . . . . . . . . . . o o . o o . . . . . . . . . . . . o o . . . . . . . . . . . . . . . . . . . . . . . . . . . . . . . . . . . . . . . . . . . . . . . . . . . . . . . . . . . . . . O O O O . . . . . . . . . . . . O O O X X X X O X X X O X X O O o o o o o O O @ @ @ o @ @ . . . . o . . . . . . . . . . . . . . . . . . . . . . . . . . . . . . @ . . . . . = + l l j l U U U U P P } X.T T q 0 0 0 9 r / I / / _ _ e w . . @ @ /                                           ",
"                                                                            . . . . . . . . O @ & = > : J l z l d a l z _ ' &.%.7.7.7.5.#.#. .#.,.<.7.7.%.$.) _ l z z z #. .&.#._ _ z z w w ; ; ; ; ; ; + @ . .                                                 ; ; . . . . l l _ _ h l 9 w t t U U [ _ S l e 0 r s j l l J _ ' t t O O . . . . . . . . . . . . . . . . . . . . . . X X X X X X # # # O X X O % % % O % O % & & & % & % + O & O % O O O % O % O O % & & & & + O O % & & & & & O % % % % % % % X % % % % % % X X X X O X X X X X X O O O X X X O X O O O X X O O X O % O O X O X O O X O O . . . X o X o X o X O o o o o o X X % & % % % % % # # & & # # X X X X X X o X X X . . . . . . . . . . X . X . . . . . . . . . . . . . O . . . . o . . . . O . . . . . . . . . . . . . . . . . . . . . . . . . . . . . O O X . O . X . O . O o O O O O X X X X X X X X % X X X X X X O O X X X X X X X X X # # % % % % X X X X X X X X X X # # X X X X X X X X X X O O X X X O O O O O X O X O X X . . . . . . . . . . . . . . . . . . . . . . . . . . . . . . . . . . . . . . . . . . . . . . . . . . . . . . . . . . . . . . . . o o . . o O O O O o + + + + + O O O & & & & & & % % & = = = = & + < = = + + + + + + = = = = + + + + + + & & & & + + + + + + + & & & + + + + + + + O O + + + + O O O O + + + O + + O + + + + + + + + + + + + + + + + = & + + + + + + + + + + + + + + O + + + + + + + + + + + + + O O & & + + & & & + + & = = = + + + = + + + + + + + + + + + + + O @ + + + + + + + + + + + + + + + + + + + + + O o o + + + + + + + + + + + + + + O O O + + + + + + + + + + + O O + + + + + + + + + + + + + + + + + + + + + + + + + + + + + + + + + + + + + + + O o o + + + + + + + + + + + + + + + + + + + + O @ @ . O O O O @ o O O + + @ o . . . . @ @ O O O . O O + + + o O O O @ o O O O O O O O + + O o O o o o O O O o o . . . O O O O @ @ @ @ + + O @ @ @ . . + + @ @ @ @ @ . @ @ @ @ @ @ @ @ @ @ @ @ . . . . . @ o o O O O + O O O @ @ @ @ O @ @ . @ @ O O O + O @ @ @ @ . . @ @ o @ o @ @ . o o @ @ . . . . @ @ . o @ @ @ @ O O O O O O O + O + + + O @ @ O + + + O O O O @ O O O O O O O + o o o o o @ @ . . . . . @ @ @ @ @ . . . @ @ @ @ @ @ @ @ o . . . @ @ . . . . . . @ . . . . . . . @ . . . . . . . @ @ . . . . . . . . . . . . . . @ O O @ . . . . O O O O O . . . O O O O O O O O + + + + + + + + + + + + & & & & # # % % X X # % % # X X X X o O O O O O O O o O O O O O O O X . O O O O . . O O O . . . . . . . . . . . . . . . @ @ . . + + . . . . + + l l f j S S S Z D D T T T T q q u u d d ) / _ / _ ( 0 w . . @ @ /                                           ",
"                                                                              . @ @ . . . . . . + = 8 8 I z z l h d l l ' | %.%.7.5.<.<. .#. . .%.%.7.5.>.&._ _ k l z J  . .&.&.) I z k 9 w ; ; ; ; + ; + + . .                                                 ; ; . . . . l z ' ' l z 9 w i i _ _ _ U S S u u s s k l z I _ ' d d O O . . . . . . . . . . . . . . . . . . . . . . . . X O o o X X O X X X X O O O + + O + + + + O & % O O O O & & & & & & & & O O + O + O + O O O + & & % + O O X % % % % X X X X X X X X X X X X X X X X X X X o O O X X O O O X O X X X O O O O O O O X O O & X o o O . . . o o o o X o o o o o o o o o X X & % % % % % # # % # % # # X X X X X O O X X . . . . . . . . X . X . X . . . X . . . . . . . . . O . . . O o . . . . O . . . . . . . . . . . . . . . . . . . . . . . . . . . O . o O . O o o . . O O O O O O O X X X X X X X X X % % O X o o o o X X X X X X X X X % % % % % % & X X X % % % % % X X X X X X X X O X O X X X X X O O X O o o o o O O O O O X . . . . . . . . . . . . . . . . . . . . . . . . . . . . . . . . . . . . . . . . . . . . . . . . . . . . . . . . . . . . . . . . . . . . O O O O O O o o O + + + O O + + + + + O % & = ; ; = = + + + + + + + + + + + + + + + + + + + + + + + + + + + + + + + + + + + = + + + + + + + O O O o O O o @ O O O O O O O + + + + + + + + + + + + + + + + + + + + + + + + + + + + + + + + + O O + + + O + O + + + + + + + + & + + + + + + + + + + + + & + + + + + + + + + O + + + + + + + O + + + + + + + + + + + + + + O o + + + + + + O O + + + + + + O O + + O O + + O O + + + + + + O O @ O O O O O O + + + O O O O + + O O + + + + + + O + + + + + + + + + + < + + + + + + + + + O o o + + + + + + + @ + + + + + + @ @ + + O O + O @ . O O O O O O O @ o @ @ o . . . . @ @ @ O O O O o + + + o O O @ @ o O O + + O O O O o . o o o o . O O o o O o o o @ O + + O O O O + + O O O O @ @ + + @ @ @ @ @ @ + + @ @ @ @ @ @ @ o o @ @ @ . @ . . @ @ o o O O @ @ . . . . @ @ @ @ @ @ @ O O O O o @ @ @ @ @ . @ @ @ @ o @ @ . o . . @ . . @ . O O o O O + O + O O + O O O + + O O + + + O + + + + + + + + + O + + + + O O + + + + + + o o o o . @ o o o @ @ @ o @ . . @ @ @ @ @ o o o @ o o o @ @ . . . . . . @ @ @ @ . @ @ . @ . . . . . . . @ @ . . . . . . . @ @ @ o . . o . @ @ . . . . @ O O O O O . O . O O O O O O o O + + + + + + + O + + + & % % % % # % # % # # # % % % % % X X O O o O O O o O O + O O O O O X X O O O O O O O O O O . . . . . . . . . @ @ @ @ @ @ @ @ . . + @ . . @ . = ; l z l f l f S C D D } T P P p p q u u d ' _ ' ) _ ( 0 w @ @ + @ /                                           ",
"                                                                                  t ; < ; ; @ . . . , , I / / ) r e r r z J _ _ 7.5.%.%.' _ I z l z '  .%.<.$.$.l k h h l l z l t w l l > > O . + + . @ @ . .                                                   ; ; . . . . z z _ _ z F w w t r U U I Y S S g g f l l l k k h k d k r i i i w w d a a a d d d h k k k h h h k k k k l l l S F F U I F I ( ( ( I F F I I I F I I I I I I I I F F F F F S l l G S F F F z z z F I F F F F F I I I U ( ( ( ( ( ( ( ( ( ( ( ( ( ( ( _ _ _ _ ( ( ( ( _ _ _ _ [ [ _ _ ( _ _ _ _ _ _ [ [ ( ( ( ( [ [ [ _ _ _ _ { [ _ _ U U ( _ _ ' _ _ / U _ U U U ( U U Y G G G D G G G G D D U U U U U ( ( ( ( U U F F F F F F F F F F F F F F F F I I I I I I I F F I I I I F z F F F F F F F F F S I I F I I I / / _ ( ( _ _ _ ( ( ' ( ( ( { { ' _ ' _ _ ' ' { ' ' { ' ' { { { { { { { { { { { { [ ' ' ' ' ' ' ' ' ' ' ' _ ' ' ' ' ' { { { { { { {  . . . . . . . .+.+.#.@.#.@. .{ { { { { { { {  .{ { ' ' ' ' ' ' ' { ' ' ' ' ' _ _ _ _ _ ' _ _ ] / ) ( ) ] ] _ _ _ _ ( _ _ ] _ ] _ _ _ _ _ _ _ _ _ ( ( ( ( _ _ _ ( _ ( _ ( _ ( _ ( ( ( ( _ _ ' _ { ' { ' { ' { { {  .+.+.@.+.+. . . . . .+.+.+.+.+.+.+.+. .+.#.#.<.<.-.%.&.+.+.+.+.+.+.+.+.+.+.+.+.+. . . . . . . . . . . . . . .{ { { { { { { { ' _ _ _ ( ( ( _  . . . . . .+.+.+.+.+.+.+.+.+.+.+.+.+.+.+.+.+.+.+.+.+.+.+.&.&.&.{  . .+.+.+.+.+. . .+.+. . .' '  .+.+.+.+. . .+.' ' ' ' '  . . .{ ' ' ' ' ' ' ' { ' _ _ ' { { ' ) ) _ _ _ _ ' ' _ _ ' ' '  . . .' ' ' ' ' ' '  . . . . .' ' ' ' ' ' ' ' ' | | | ' ' ' ' ' ' _ _ ' _ _ _ ' ' ' ' ' ' ' ' ' ' _ _ ) ) _ _ _ _ _ _ ' ' ' ' _ _ ' ' _ ' ' ' _ _ _ _ _ _ _ _ _ _ '  .| | | | | | | | | | +.+.#.#.#.#.+.+.o.+.+.+.+.+.+.+.+.+.+.+.+.+.' ' ' '  . . . .' _ _ ' '  .' _ ' ' ' '  .+.+.+. . .+.+.+.+. . .' ' ' ' | | ' ' ' ' ' ' ' ' ' ' | ' ' ' |  . . . . . . . .#.#.&.+.+.+.+.&.&.&.&.+.+.+.+.&.%.%.%.+.+.+.+.&.&.&.&.&.+.+.+.+.+.+.+.#.#.#.+.+.+.+.+.+.+.+.+.+. . . . . . .'  . .+.+.+.+.+.+.+.+.+.+. .+.+.+.+.+.+.&.+.+.+.+.+.@.+.+.+.+.+.+.+.&.&.&.&.&.+.&.&.&.&.&.+.+.&.&.+.+.&.&. . .+.+.&.%.%.%.+.+.+.+.&.$.%.%.&.&.&.#.+.+.&.&.%.%.&.&.&.&.&.&.%.>.>.>.%.%.%.%.s.%.%.%.%.s.5.s.%.%.%.%.4.s.s.5.7.0.5.5.5.5.5.5.%.>.<.<.%.%.-.-.%.&.&.&.&.%.%.%.&.&.&.&.%.%.&.&.+.@.@.@.+.+.@.&. . .'  .+.+.+.+. . . .+.+.#.&.&.$.&.#.+.#.+.+. . .| |  . .| | | ' ' ' [ [ [ ( ( T T T T D U T T T T T U U U U U I ( _ _ ( ( _ _ ( ( ( U U F F I F F F F F F F F F F F I ( ( ( I l l l z z z ~ ~ x k k k k k k h k h k t d t F U G S G D T T =.=.=.T T T g f l k  .' ' _ _ _ 9 e @ @ + @ /                                           ",
"                                                                                    + + ; : . . @ . , : / ) / / r e r e J I _ _ <.<.&.&.' _ I l z l _ ' >.<.$.#.l k a d h l J z r w z l : : O O + ; . @ + @                                                     ; ; . . @ . z z / ( F I e 0 r e [ T G S Z Z g f f S f S f l f f l l u i r t r t d a d d d d d h k k h h d d h h l k j l l S S F I F F F ( ( U F F I ( I I I I I I I I I I I I F F I F F S l S F I I z z l z F I I I F F F I I ( I I ( U / I ( ( ( ( / I ( ( _ _ _ { { ( ( ( ( _ { ' { { { { { [ ( _ _ _ _ _ _ [ [ ( U U ( [ } [ [ _ _ [ { { _ ( I U ( [ { [ _ _ / U U U U Y Y Y Y G G G G D D G D G D D T T U U G Y U U U U Y F F F F F F F F / I / F F F I ( / / / _ ( / F F l / ( _ ( F F S F F F F F F F F F F F F F I / / ) ( _ _ ' ' ' ' ' ' ' ( ' { { { _ ' _ _ ' { { o.{ { { { { o.o.o.{ { { { { { { { { ' ' ' ' { { ' ' { ' ' ' ' ' ' '  .{ { { { { { { @.@.@.+.+.+.+.+.+.@.@.@.@.+.+.o.{ { { { { { o.+.o.o.' ' o.' ' ' ' ' ' ' ' ' ' _ ' ' ' ' ' ' _ ] / / ( ] _ ] _ _ _ ] _ ] ' ' ' ] ' ' ' _ _ _ _ _ ' ' ' ' { { { { ( _ ( _ _ _ _ _ ( ) ( _ _ ' { ' { { { { { { { { { o.@.@.@.+.+.{ ' {  . .+.+.+.+.+.+.+.+.+.+.&.%.5.5.5.%.&.+. . . . .+.+.+.+.+.+.+. .' |  . . . . . . . . . . . . . .{ { { { { _ ' ' _ _ ( ( _ '  .' ' ' '  .+.+.+. . .+.+.+.+.+.+.+.+.+.+.+.+.+.+.+.+.+.+.&.&.&.' ' | +.+.+.+.+.+.+.+.+.+. .' '  . . . .' '  .+.' ' ' ' '  . . .' ' ' ' ' ' ' _  .' _ _ {  .{  .( _ _ _ _ _ ' _ _ _ _ ' '  . . ._ _ ' ' '  . . .'  .' ' ' ' ' ' ' ' ' ' | | | | _ ' ' ' ' ' _ _ _ ) ) ) _ ' ' ' ' ' ' ' ' ' _ _ / ) _ _ _ _ _ _ ' ' ' _ _ _ _ _ ' ' ' ' _ _ _ _ _ _ _ / / _ '  . . .| | |  .+.+.| | | +.+.#.#.#.o.' ' ' +.+.+.+.o.+.' ' +.+.+.+. .' ' '  . . . .' _ _ ' +.+. .' _ _ _ ' '  . . . . . .+.+.+. . ._ ' ' ' | |  . . .' ' ' ' ' ' ' ' _ _ ' |  . . . . . . .+.#.&.&.+.+.+.+.&.&.&.&.+.+.+.+.&.%.%.%.+.+.+.+.&.&.&.%.+.+.+.+.+.+.+.+.&.&.&.#.+.+.+.+. .+.+.+.+. .' ' ' ' ' ' {  .+.+.+.+.+.+.+.+.+.+. .+.+.+.+.+.+.+.+.+.@.@.&.&.&.&.+.+.+.+.@.&.&.%.&.&.&.&.&.&.%.&.+.&.&.&.&.&.&.&.+. . .+.&.%.%.&.+.+.+.#.&.$.%.%.&.&.&.&.#.#.&.&.%.%.&.&.&.&.%.%.<.5.5.>.>.%.%.%.5.%.%.&.%.5.5.5.>.%.%.%.4.s.0.0.7.0.5.5.5.5.<.>.>.>.5.5.<.<.<.<.&.&.&.&.&.%.%.%.@.&.&.%.%.%.&.&.$.$.%.#.+.+.&.%.+.{ ' ' +.#.+.+. . . .+.+.#.#.@.$.@.#.+.+.+.+. . .|  . . . .| | ' ' [ [ [ U U T T T T T T T T T T T T T T U U U I U _ _ _ _ ( [ ( _ ( U F S F I F F F I I I F F l S F U ( _ U U l l z z I / / / x k l k h h k k l k h h t t I I G S D A T T :.=.T T T T C g l f  .|  ._ _ _ e e . @ + @ )                                           ",
"                                                                                        5.%.. . . . w > I / l z w r r t z l ) / &.%.%.>.<.>.I I I z +. .5.7.&.%.z J t d l l z l h d z z 8 > + O O + '                                                           ; ; . . . . l F U U S f q 0 q u C C D D p p A Z f g Z Z S f Y Y _ [ [ [ _ _ ( /  .' ) / _ ' ' ' ' _ / / _ ' {  ._ _ ' {  .+. . .%.&.5.<.%.&.%.&.-.<.6.5.6.5.&.#. . . .{ ' ' ' { _  . .{ $.{ q.q.r.r.9.9.+.+.{  .{ {  .{ &.$.-.<.<.<.6.6.1.-.-.1.-.-.-.<.$.$.<.5.6.8.q.q.8.7.6.7.8.8.w.8.8.7.7.7.6.6.1.6.q.q.q.q.1.q.q.q.q.6.-.-.-.1.1.1.<.-.-.<.<.<.1.6.q.q.6.6.1.1.q.e.-.-.2.2.;.;.} } T D T D D D } =.....} } ....-.-.$.#... .{  .{  .#.&.$.&.#.#.$.$.-.$.-.$.%.%.<.<.<.<.<.6. .[ ..{ ( [ } } U G [ ( } [ { { { { #.+.7.5.7.5.6.6.7.6.0.0.5.5.6.6.7.7.6.6.6.0.8.8.8.8.8.8.8.8.8.9.9.9.9.9.9.9.9.9.9.9.w.9.w.w.9.9.9.9.9.9.w.w.w.w.9.9.8.9.9.r.w.r.r.r.r.w.9.9.9.w.w.r.r.r.w.w.w.w.w.w.r.r.w.w.9.8.9.7.7.7.7.6.6.8.8.9.9.9.8.0.5.0.8.8.0.5.%.%.s.5.5.5.5.%.%.%.%.%.%.%.%.%.5.5.5.5.s.5.5.5.5.s.5.0.0.0.5.5.5.0.0.0.5.0.5.5.5.5.0.5.5.0.6.7.6.0.5.5.5.0.7.8.9.9.8.8.8.8.9.8.8.8.9.9.w.w.9.9.w.r.9.8.7.7.8.9.w.w.r.r.9.8.8.9.r.y.SXSXSXSXi.i.qXMXMXMX7.9.5.5.r.r.7.7.7.7.8.8.8.8.w.9.r.r.r.r.8.8.7.7.r.r.9.r.u.i.r.t.&.&.-.%.9.r.7.7.9.9.r.r.r.y.p.y.y.p.p.p.i.p.p.p.p.i.i.p.p.y.9.9.p.p.i.i.y.p.y.p.u.i.i.p.p.p.i.p.y.y.5.7.7.9.9.8.8.8.9.r.r.r.9.8.8.9.9.9.r.r.8.8.y.r.9.r.$.-.$.-.1.1.q.6.6.1.-.6.1.6.8.8.6.7.<.<.<.<.<.<.<.5.5.5.5.0.0.7.7.8.9.9.9.9.9.9.8.0.5.5.7.8.9.9.9.8.0.5.9.9.8.8.%.%.+.%.0.9.9.8.8.9.5.5.7.0.%.&.%.%.%.%.%.%.%.<.5.5.%.<.<.<.-.%.<.5.<.<.<.<.-.%.#.#.{  .{  . .#.<.7.<.<.5.7.w.r.9.7.7.8.w.w.w.w.w.w.9.9.9.9.9.9.9.9.9.9.r.r.9.8.7.0.5.5.0.7.8.9.9.9.0.7.<.<.9.9.5.5.%.5.7.9.9.8.8.9.7.8.9.9.9.9.7.0.>.>.>.>.5.5.5.5.<.%.%.&.%.%.<.5.%.%.%.<.5.6.7.7.6.6.7.9.y.y.y.r.9.w.y.p.p.p.p.p.y.p.i.i.i.i.p.u.u.p.i.i.i.i.i.i.p.u.u.p.i.i.u.p.y.y.t.y.y.r.y.y.9.9.%.>.>.$.5.<.5.5.5.5.5.5.5.5.9.9.8.8.7.7.0.5.5.5.5.5.0.7.7.8.0.0.7.7.7.8.9.9.8.8.8.8.9.9.r.r.r.r.y.y.p.p.u.p.9.9.r.y.p.y.r.9.0.7.y.y.MXi.u.p.r.r.t.t.MXi.i.u.t.t.7.8.7.5.t.t.y.y.y.p.p.p.SXSXp.p.p.i.p.p.p.p.p.p.p.p.r.r.y.y.y.p.p.p.p.t.u.i.i.qXqXAXAXAXqXqXp.i.i.i.i.i.p.p.y.y.y.p.p.y.y.r.9.9.r.y.u.u.p.y.t.t.SX8Xu.u.r.t.6.6.t.t.t.u.t.t.y.y.t.u.i.8Xu.t.t.t.8X8Xt.y.9.9.7.8.9.9.7.7.7.7.7.7.q.q.1.;.;.=.=.:.:.3.3.3.3.3.3.3.3.3.2.1.;.=.....-.;.;.;.1.1.-.1.2.2...} .. ._ _ ( U _ _ _ _ $...q.q.q.t.q.q.-.<.#.$.-.-.+.+.) | +.#.#.+.' ' l l k l I z #...U U C A T R T T T T T T g p Z g U _ I / _ / r r . . @ . )                                           ",
"                                                                                        %.%.@ . . . > > / / l l 9 e r d z z / / +.#.%.<.<.<.I I I J +.+.7.8.$.$.l z t a l l z z h h z z 8 > + O ; .                                                             ; ; . . o . j l U Y C f 0 0 q q A A D D p p A C C C S S Z g P P [ [ [ _ _ _ _ _ ' ' _ _ '  .' { ' _ ( ( _ ' ' ' ' {  . . . . .+.<.%.<.%.-.$.-.%.<.<.5.5.6.5.$.#. . . .{ ' ' ' { {  . .' #. .8.8.9.r.8.9.+.#. . . . .+. .%.%.-.<.<.<.6.1.<.-.-.-.;.-.1.<.-.%.<.1.6.8.q.q.7.7.7.7.7.7.8.8.7.7.7.7.6.6.1.6.q.q.q.q.q.q.q.q.q.q.-.-.1.<.<.1.<.<.-.-.<.<.1.6.q.q.8.1.1.1.2.2.1.1.2.1.=.;.} } T T T T D T } } ....[ [ ....@.-.@.#.#... . . .+.+.&.&.&.#.&.$.$.&.&.$.%.%.%.%.%.-.-.<.5.@. .[ [ [ } { [ G G [ [ [ ( [ [ { { #.+.7.5.7.0.6.6.7.6.6.6.6.6.7.7.7.7.7.7.7.6.7.7.8.8.8.9.9.9.8.9.9.9.9.9.9.9.9.w.9.w.w.w.9.9.9.9.9.9.9.9.w.9.r.w.9.9.9.9.w.r.r.y.y.y.r.r.9.9.w.r.r.r.r.w.r.r.w.w.9.w.r.r.r.w.w.9.8.9.8.8.7.7.9.9.9.9.9.9.8.0.5.0.0.0.0.0.5.-.s.s.5.5.5.%.%.%.&.&.%.%.%.5.5.5.5.s.s.s.5.5.-.%.5.5.5.5.5.5.5.0.0.0.0.0.0.0.0.0.0.0.0.7.8.8.6.0.5.5.5.0.0.7.7.8.9.8.8.8.8.8.8.9.9.9.9.9.9.9.w.9.9.8.7.7.9.w.r.r.r.r.9.9.9.9.r.y.MXSXSXSXMXi.MXqXqXMX8.9.5.5.9.9.7.7.7.7.7.8.8.8.w.9.w.r.r.r.9.8.9.9.r.r.r.r.u.i.r.r.#.#.-.%.9.w.7.7.9.9.r.r.y.y.p.p.y.p.p.i.i.i.p.p.p.p.p.p.y.y.9.9.y.p.i.qXp.p.y.y.p.p.p.p.p.p.i.i.y.y.7.8.9.9.9.8.8.9.9.r.r.r.9.9.8.9.9.9.9.9.9.9.r.r.w.r.@.$.$.-.1.1.q.6.2.2.-.-.-.1.8.8.6.8.<.<.<.<.<.<.<.5.5.5.5.0.7.8.8.8.8.8.8.9.9.9.8.7.5.5.0.7.7.7.7.7.6.0.9.9.8.8.%.%.&.%.0.8.7.7.7.8.5.5.0.5.%.%.<.>.%.%.%.%.%.%.<.5.%.%.%.%.%.%.>.<.<.<.<.<.-.%.&.#. .+. . . .#.<.7.<.<.<.7.9.9.9.7.7.8.9.w.r.r.y.y.9.9.9.9.9.9.9.9.9.9.9.r.9.9.8.8.0.0.0.7.9.9.9.9.5.7.<.<.9.8.5.5.<.5.0.8.9.9.9.8.9.9.9.9.9.9.9.7.>.>.>.>.5.5.5.5.<.<.%.%.&.%.%.%.%.%.%.<.5.6.7.7.8.7.8.9.y.y.y.y.w.r.y.p.p.p.p.y.p.p.i.i.i.i.p.i.p.p.u.p.i.i.i.i.u.u.u.u.i.p.u.p.t.y.y.y.y.y.y.y.9.9.%.>.>.%.5.<.5.5.0.0.5.5.5.5.7.7.7.7.7.7.6.0.5.5.5.5.0.0.7.7.0.0.0.7.7.7.8.9.8.8.8.8.9.9.y.y.r.r.r.y.u.u.u.p.y.r.r.y.p.y.r.9.8.8.y.y.MXMXp.u.r.r.t.r.qXi.i.u.u.u.7.7.7.7.t.y.y.p.y.y.p.p.SXi.y.p.p.i.p.p.p.p.p.p.p.p.y.y.y.y.p.p.p.p.t.u.u.i.i.qXqXqXAXqXqXqXi.i.i.i.i.i.p.p.y.y.y.y.y.y.y.r.y.y.y.y.y.p.y.r.u.t.NXMXi.i.r.r.8.8.r.r.u.u.t.t.y.y.y.u.8X8X8X8X8X8X8X8Xu.t.9.9.7.7.8.8.7.7.7.5.9.8.w.q.1.;.;.:.:.:.:.3.3.3.3.3.3.3.3.3.2.2.;.;.....;.;.;.;.;.;.1.1.2.2....... ._ _ _ _ _ _ _ _ ;.@.q.q.q.q.2.2.-.-...-.-.-.&.&._ |  . .&.+.| _ I I l z I I @...U U C A D T T T T T T T C p A g U U U I _ _ r r . . @ . )                                           ",
"                                                                                          5.. . @ . > > ) _ / I d d l h z l d d z l '  .+.$.J J ) _ >.&.&. .J I z I / _ +. ./ / l l I z > : o . . +                                                             ; ; . . + O j d S l p p 6 6 0 q q q p p q p C g 0 q p p g f U [ U Y S f d u t t z z z z / ) / / _ ( I I I I I I ( _ _ _ _ ( _ _  .{  .{ &.&.$.$.#.#.&.$.<.5.$.%.' ' ' {  . .{ ' { { ' _  . .8.8.t.t.9.8. . .( ( z F I ( #.$.<.<.$.-.-.-.-.;.-.-...} ..{ [ [ {  .$.$.$.$.@.@.@.$.-.-.<.<.-.-.-.<.-.-.;.@.-.;.=.=.;.;.6.q.q.q.;...[ [ [  .....X. . . .....@.@.@.@.X.X.X.......=.......U G C f C C D D T } } ..[ [ U ( [ [ [ [ { { _ _ _ ' ' {  . . . . . .{ ' {  .+.+.+.+.+.#.$.%...{ G G Y U } [ ....=.=.[ [ ( ( F F ( _ %.&.-.%.%.%.%.%.%.%.%.%.%.%.%.%.%.%.%.%.%.%.%.-.-.5.5.5.5.<.<.5.5.5.5.5.5.5.0.0.6.5.5.5.5.5.5.5.5.5.5.5.5.5.5.<.-.<.5.5.6.6.0.5.0.5.5.5.5.5.5.0.0.0.5.5.5.0.5.5.0.0.6.0.5.5.5.<.<.<.<.-.5.5.5.<.5.<.-.%.&.&.&.&.%.%.&.+.&.%.&.&.%.%.&.&.+.+.+.&.&.%.s.s.s.s.%.%.%.%.%.%.s.%.%.%.%.s.s.5.%.%.%.%.%.%.s.%.%.%.%.<.<.<.<.%.5.5.0.0.0.0.0.0.8.0.0.0.5.0.6.6.6.0.7.8.9.9.9.9.5.5.<.<.5.7.7.7.7.7.5.5.5.6.7.8.y.y.i.i.y.r.y.r.u.t.5.<.%.&.<.<.<.<.<.<.<.<.<.<.<.<.<.<.<.<.<.<.%.%.<.<.%.-.5.6.<.-.( ( ' { %.%.%.%.>.<.5.0.0.0.5.5.5.0.8.9.9.9.9.9.9.9.9.8.8.7.%.%.<.5.9.y.7.7.0.0.7.9.r.r.r.9.9.9.0.5.+.&.&.&.<.<.<.<.<.<.5.5.<.<.>.%.<.<.<.<.<.-.<.5.<.5._ _ ( ( [ [ -.;.;.;. .....#.-.-.-.<.+. . .+.#.#.#.+.+.+.+.&.$.%.%.%.%.%.%.%.>.>.%.$.&.&.$.%.%.%.%.%.#.+.&.&.$.&. .' '  .&.%.%.<.<.5.+. . . . . .+. .+.+.+.+.+.+.#.#.+.#.#.#.#.+.+.+.&.#.#.+. . . . .( _ I / ( _ +.#.%.&.$.%.<.<.<.<.%.>.<.5.0.7.7.7.5.5.5.5.5.5.5.5.5.5.5.5.5.5.5.<.%.%.%.%.<.5.<.<.<.5.%.%.<.>.&.&.+.&.$.>.<.<.<.>.&.&.$.%.%.$.&.&.#.#.#.#.&.&.&.&.&.&.+.+.+.+.+.+. . . .+.#.$.%.%.$.&.&.%.-.<.5.<.7.7.7.9.9.9.9.8.7.7.w.r.y.p.y.y.r.r.r.y.p.u.p.p.y.y.y.y.p.p.y.y.w.w.w.r.r.r.r.w.w.w.<.<.>.$.<.%.-.<.<.<.<.%.%.%.-.-.-.-.<.<.<.<.%.>.>.<.<.<.<.<.<.<.<.<.<.5.<.<.%.%.%.%.5.5.0.0.0.0.7.7.9.9.9.7.8.7.0.7.8.8.5.%.&.+.%.%.r.y.9.9.<.<.5.5.r.r.y.y.7.5.+.#.#.#.<.<.<.5.%.%.9.w.u.p.i.i.i.p.9.8.7.0.y.w.w.r.y.p.p.y.w.w.w.w.r.p.i.qXp.u.u.u.i.u.u.u.u.u.p.p.u.u.y.r.7.7.7.7.7.5.5.5.5.<.<.>.<.<.<.<.6.1.q.q.q.q.;.-.{ { ;.-.t.t.t.t.6.6.6.8.q.q.q.q.q.q.q.q.q.8.5.<.%.<.<.<.<.>.%.%.-.%.-.-...} ..} :.:.:.:.:.:.:.T :.:.=.=.=.=.=...X.X.........=.=.=...=.=.T T T Y U U U I G S l l [ [ ....;.;...=.;.;.{ [ [ _ I I I I _ _ %.&.%.&.J z d d j f _ U [ T A C A C A A A C C C q q p u f g S I '  .d d . . @ . )                                           ",
"                                                                                          %.. @ O . > > / _ / / d d l k l k r a l k  . .+.$./ / _ | <.%.&.| z I z l / /  .+.I I l l I J > : o . + O                                                             ; ; . . + O j d j f u p 6 6 6 0 q q p C p C C p q p p p g g U [ U U S j g d d d z z z J ) _ _ _ _ ( I I I I I I ' ' ' ' _ _ _ _  . . .{ %.%.$.$.#.#.&.$.<.<.%.%._ _ _ '  . . .{  . .' '  . .6.7.r.r.7.<. . .' ' I I _ _ &.%.-.-.-.@.@.;.;.;.;.-.@.....} } [  . .@.$.$.@.@.@.@.@.$.$.%.%.%.%.%.%.-.;.;.@.=.@.....-.;.6.2.q.q.@.@.[ [ [  .......X. . .....@.@.@.#. .X. .X.;.;...=...} T G C C C C D D T T [ } [ ( U ( _ _ _ _ { { ' ' ' ' { { { {  . . . .{ ' {  .+.+.+.+.+.#.@.$.....S G ( ( ..} ....=.;.[ ( I F I I _ _ &.%.%.%.%.%.-.%.%.%.%.%.-.<.<.<.<.<.-.-.<.<.<.<.5.5.0.6.5.5.<.5.5.5.5.5.0.0.6.6.6.6.6.5.0.0.0.0.5.5.5.5.5.5.5.5.5.5.5.0.7.7.0.5.5.5.5.5.5.5.0.0.0.0.5.5.6.0.0.0.6.6.6.0.6.5.5.5.5.<.<.<.5.5.5.<.<.<.<.-.%.&.&.&.%.5.%.&.%.&.+.&.&.&.&.+.+.+.+.+.&.%.%.%.%.s.%.%.%.&.&.&.%.%.&.%.%.%.%.%.5.5.s.s.s.s.5.5.<.<.<.5.5.5.<.<.5.0.0.7.7.7.7.0.8.0.6.0.0.0.8.8.9.8.0.8.9.9.9.8.7.7.5.7.7.8.8.8.7.7.7.7.7.7.8.9.r.r.y.y.r.r.r.r.y.y.7.5.<.-.5.<.%.%.-.-.<.<.<.<.<.<.<.<.<.<.<.-.<.<.<.<.-.<.5.6.%.$._ _ ' ' $.&.<.>.>.<.5.5.5.5.0.5.5.0.8.9.9.9.8.8.8.8.8.8.7.0.<.%.5.5.9.y.8.8.5.5.0.8.9.r.9.9.r.9.7.7.%.%.%.%.<.<.<.<.<.<.<.<.<.>.%.%.<.<.<.%.<.-.-.<.<.<.[ _ ( _ [ [ ;.;.;.;.{ { { ..$.-.-.-.+. . . .+.#.#.+.#.+.+.&.%.>.>.%.%.%.%.%.>.>.%.%.+.+.&.&.&.$.$.&.#.+.+.+.#.+. .| '  .#.&.%.%.<.<.+. . . . . .+.+.+.+.+.+.+.+.+.+.+.+.#.+.+.+.+.+.#.+.+.+. . . . ._ _ / _ _ ' +.+.%.&.&.%.<.<.<.<.<.<.<.5.7.7.8.7.5.5.5.0.0.0.0.0.0.5.5.5.0.0.5.5.<.<.<.<.5.5.5.<.<.<.%.$.%.$.+.+.&.&.%.<.<.<.<.<.%.%.%.%.%.%.%.%.#.#.#.#.+.&.&.&.&.&.+.+.+.+.+.+. . . .+.+.&.%.%.%.%.%.%.<.<.5.5.9.9.7.8.9.9.8.7.7.0.9.w.y.p.y.p.9.9.9.r.y.u.p.y.y.y.y.y.p.p.y.r.w.9.9.w.r.r.w.9.9.9.<.<.%.%.>.%.<.<.<.<.-.%.%.%.%.%.%.%.%.-.<.<.%.>.>.<.<.<.<.>.<.<.>.>.<.<.<.<.<.<.%.>.5.5.0.0.8.6.6.7.8.8.8.7.8.8.0.7.7.7.5.<.&.&.<.<.r.y.r.r.<.<.<.<.w.r.y.y.7.5.&.&.&.$.<.<.5.5.%.&.9.9.r.y.i.i.p.p.9.9.7.0.w.9.w.y.p.i.i.u.w.w.9.w.y.u.qXMXu.u.i.u.u.u.u.p.i.u.t.t.u.t.y.r.7.7.5.5.5.5.5.5.7.5.<.<.<.<.<.<.6.1.q.q.q.6.<.;.....-.;.t.t.r.t.6.6.6.6.q.q.q.q.q.q.q.q.q.8.7.5.%.%.<.<.>.>.%.%.-.%.-.@.....=.=.:.:.:.:.:.:.:.:.:.:.=.=.=.=.=.=.X.X.......X.} } =.=...=.T [ T T U _ _ U G S S l [ [ } [ =.=.} ..;.;.[ [ ( ( ( ( / I _ / $.#.%.$.I I k k j j U U T T A C C C A C C C C q p p p p g u Y I _  .e r @ . o @ )                                           ",
"                                                                                            + . + + > > z z z z d d k h h k r d z l | ' ) ) k k z z / ) ' ' h a / I |  .<.5._ _ r t l l : , o o O .                                                             ; ; . . O @ h j F F f f 0 6 6 0 0 0 q q C C C p q q q q u q Z S f f i u 0 0 w e r r r t d h h h k j d d d d k k k k j j j j h d z z I I  . . . .{  .{ _ _ U F I d d d j l z z z l k k d l k I I [ _ ( I l l l l f f j j I I U I U U G G G G F F G G G S C Z S l S F F F S S S S S S z z z F F z G G S j G G Z Z } [ ........G S j f l l l S l f S l l S S S S S l I l f S l f f g S S G C C p f C C C C C Z f f f f f f j j h h j h d d d d d d j j j j j j d d j j l l l l S S j l 0 u g p Z C U ( U ( S j i i i i d d l l l l h h j j j j j l l l l l l l l l l h j j k l l z l j h j l l l l l l l l z z z z z z z z l l l l z z z z l z z z I F z z z z z z z z z z z z z z z l l l z z z z l l l l l l l l k k k k k k h h h h h h h k k h l k k k k k k h t t c h k k k h k k k k h h h h h h k k l l k k k k k k k k k k k k k k k k k k l l l z z z l z z z z z z F I I I I F F I I I I J J J J I I I I I J J J F I I I ( I I / I I I I I I F z z z I I z F F F I I I I I I F z z F F z F z F z l z I z z z d d d d z z l l j l l z l l l l l l z z F I z z l l l l l l k k l l I / z z z l z z I I J z I I z I l z l z F F z I I I I F F z z z F I F z I I F I I I d d f f f f G S S S j l j l F I I I l k d d k k k k h d d h l l l l l l l l l l l k k l l l z z z z z l k k l l l k k l z z z z z z l k l k h k z z l l l l l l l l l l l l l l l l F F l l l l l l j l j j l l F F z z z I I I I z z z z z I I I J z z z z F I F F F z z z z F z z l l l l z z z l z z z l z l l l d h l l l l l l l l l k l l l l l l l l l l l z l l l l l l l l h h h h j l l l j j h h j l z z / F z z z I z z z z / / ) _ / / I I I / ) _ _ _ _ _ _ _ _ _ _ / ( I I I ( _ U I I I I I I F I I I I I z z z z z I F F z F I I I z J J I I J J z I J z J I I I z l l l l l z z z z z z z z z z z z z z z z l l l l l J l / / I I z z z l / / ) ) I J l l k h l l l l h h / I / )  .' _ ' / / / I / ) ) _ ' ' ' ' ' _ _ _ '  . . . . . . . .| | '  .' _ _ ' _ _ / I z z z z z z z F z z l k k k k I G U U F G S S f f G j [ [ U _ U I I I U U T T [ [ _ U Y I I z F I I I I I I I I I I S Z Z G G T D D R P H H H H H H H H P P P P U T T T P D D T D D D C C C C Z l l l f f g g C C f f A S C Z S S p g r u d d h h l d I I / I k d p p u u f f C D A A H A H H C C C q p p q q f f U I _ [ 9 e @ . @ @ _                                           ",
"                                                                                            . @ + + > : l l z z l k d d a d r t J z _ / ) / z z I I I / ) ) d t J I | +.<.5.) I e r l l : , o o . O                                                             ; ; . . @ @ j l S S f g 6 6 q q 0 q q p C A C C p q q q p p Z C f f d u e 0 e e a d a a h h d h d d d d d d h k l k j j k k k j k l I _ #.#.#. .{  . ._ _ I z I d d d d h j k k z z z l z z z z [ ( U I l l S S f j l l I I U ( ( U G G G F U U G G G S C C S Z S S l S S S l l S S z z z z z z S S S f Z Z f f U ( ......} G S l l l l S l l l S S l l l l l l j l f f l f g f g g Z S f C p f f p C f f f p g j j f f j j h h k j h d d d d j j f d j k k j d j j j l l l l l f l i g g p f f ( ( U U S f d i d f d d h h h h j l l l l l l l l l l l l l l l l l l l l l l z l l l l l l l l z z z z z z z z I z z z z z z z z z z z z z z z I F z z z z z z z z z z z z z z z z l l z z z z l l l l l l l l k k l k l k k k h k k k k k k x k k h h h h h h i t c c h h h c h h h h h h h h h h h k k k k h k k k k k k x x l l l k k k k l l z z z z F z z z z F I / / / / / / I I I / / / I J J J I I I I I I I I I I I I ( I I I I I I I I F I I I I I I F F F F F F I I z z z z l l z z I z F F z z z z k l k k d d l k l l l l l z l l l l l l l l z z z z l l l l z z l l z l z z l z z z z z I I J z I J J I l J z z z z z z z z z z z z l l z z z z z I F F S S f j f f j f G S Z l S S l l F I I I l j d d d k k k l l l l l l l l z z l l l l l l k l l l l l l z l l d h h h l k l l l z z z l l k h l l h h l l l l l l l l l l l l l l l l l l F F l l l l S F l l l S S l F S z z F z F z z z z z J I I I I J z z z F I I I F I z z z z z z z z z z z z z z z l l l l l k l l k l z z l l z z l l l l l l l l l l l l l l l l l l l l l l l l h h h h h h j l l l l l l l l z I I F F z z z z z z / / / / I / I I I / ) _ _ ) _ _ _ _ _ _ / / / I I I ( ( I I I I I I I I I I F z z l l l l z z z z z z z z z z z z z z z z z z z z z z z z z z z z z z z z z z z z z z z z z z z z z l l z J l l I z I I z I J J I z / I / / z J J z l l l z k l h h I z / / +.+.' ' / / / I / ) _ _ ' ' ' ' ' ' ' ' '  . . . . . .| | | ' '  .' _ _ ' _ _ I I I z z z z F F z z z z l l l l F G Y Y S S I I f j I S [ _ _ [ ( I U U Y U U U [ [ U U Y I I I I I I I I J I I I F S S l S G G T T T T T D H H H H D P P P P P P U T T T P D D D D A A C Z Z S C l l l C f g g C C C f C C C C G G f f u u d d j h k d I F I I d d g f u p f f C A A A A A A A q C q q p q q q g g S S U _ e r @ @ @ @ )                                           ",
"                                                                                            @ . + + : : l l / / h h r t t d d d l z z l _ ) ) ) / ) ) _ / / k k I J I I |  .I / d d / / w 9 + + = =                                                             ; ; . . O o h h f g u u 6 0 q q 6 q q q p p q q u 0 0 0 0 0 p q 0 0 0 0 0 9 9 e 9 9 9 9 e e w w e e r r r r d d u u r r t t t r t r d d k j k d j d h d d h d d d d d d d d d d i i d d d d d d f d d d i d f f d d d i f d f j f p f f j j j j j f j j f f f f j j j j j j l l f f f f j j h d l S S j j f p p S Z f f S G S S j k k k k k k l k k k h d d d j d j k d f f g f l f f f p f p p p u p p i f i d i u r r r t t t i u u r e r u i u u i i d d i i i i i i i d d d u i i i e 0 0 0 p p i p p u i u f f i i d d d h t i d d d d d d d d d d d d d d d d i i i d d d i i i t t i d d d d d d d d d d h h h h h h d h d h h h d d h h h h d i i i h h h h h h h d d h h h h h h h h h d d h i t t t i i i d i i i i i t t t t t t c c c h h c c c c c t t t t t t t t c c t h h h d t t c h h h h h h t t t t t t t t t t t t t t t t t a d d h d d d i d h h h h h h j j h h d d h k k k k k d h k k h k k k k k k l z k k k j j l k k j z j z k l k l l l l l l l l z z z l l l l l k h j j d d j d j d h j d d h d t i d d d d d d d d h d d h h h h h d d d h h h j j l h j l h l d d d h h j l l l l l z h l l l l l z z l l l l l l l l l l l l F F l S l l j l i d f d l f f f f f d d d d d d j d d d d d d d d a a a t t t t a a a a t t a d d d d d d d d d d h d d d t h h d d d d d h h h d d h h d d d d d d d d d d d d d d h h d d d d d d d d d f j j j j j j j f j j f f f j f f d d d d d d d d d d d d d d h d d d d d d d d d d d d d d d d d d d h h h h d a d d d d d d d d d d d d d d d d d d d h h d d d d d d d j j j j j j h h h h d d h h h h h h d d d h h h h h h h h h d d k h h l h k h h h h h h h h l l k h h h h d d d d d d d d d h d h d d d d d h h h d d d d h h h d d h h h h h h h h h h h h d h h h h h h h d d d d d d d d h h h d d d d d d d h h d d h l h d l d z l l l h h h d l h l l h k l k d d d d d h d t d r d d I z l l d h k l d d h l l z z z k k l z z F F I J J z l l k l l z l l l l k j h f f g d g g g g l l f f f f f f l f S l f f S S g d f g f f f f l l l l f f g g Z Z f f f f S S k k k k k k l l k k l l f f Z C f C D D D H D P H P D P P P P P S D P P D D D D A A C A C Z C Z S S S S S S C g f f C C f p C C C C f C u p j l l l S l S l f l f f f S p g f f C C A A H H A A C C A A C C g g Z f f j S I 9 9 @ . @ @ _                                           ",
"                                                                                            . . + + ; ; l l / / l l e t t d d d z J h h _ / _ _ ) ) I / I / k k z I / / | | I / t d I / w 9 + + + +                                                             ; ; . . O o h d f d 0 u 0 0 u 0 6 q q q p p p p q 0 q q e 0 p u 9 0 0 0 9 9 9 9 9 e e e r e w w 9 e r r r r r d r r u r r r t i r r d d k j F k k j d d d j d j i d d d t t t i d d d d d d i d f d d d d d f d d f f i f d f j f f f f j j j j f d j j i i f i j j f f f j l l j f f f j j h d f l S j f p u p C C f f G G F S S l k l l l k j k k k d d d d f j j d d d d d d f g f f i f u p p u p p i d u u i u u u t i i i i u u e e r u d i d d d i i d d t t t t i i i i i u f d 0 0 0 0 f p g u p u d i f f i i i i t d d d d d d d d d d d d d d d d d d d i i i i d d t i i i t t d d d d d d d d d d h h h h h h d d h h h h h h h h h h h d d d h h h h h h h d d h h d d d d d h d d d h i t t t t h h h d d d h h c t c t h h h h t c c c c t h h t t t t t t t c c c t t h h t t t c h c c t c h t c t t c c c c t t t t t t t t d h h h h h d d h h h h h h j j j k k j h h k l k k k d d d d k d k k k k k k l l k k k j j l k k d z h z k l l l l l l l l l l l l l l l l l l l d j k d d j d j d d j d d d t t d d d d d d d d d d d d d h h h h d d d h h j j h h d h l h k h h h h h h j j j j j z j z l l l l l l l j j l l l l l l l l l F F f l l l l l i d f g f g f f j j f d d j d d d d d d d d a a d d d d a a d d a d d d d d d d d d d d d d d d t d a d d t h d h d d d d d d d d d d h d d d a d d d d d d d d d d h h h d d d j j f f j j j j j l j l j d j j f f f f f f d d d d h h d d d d d d d d h d d d d d d d d d d d d d d d d d d h d d h h a a h h h d d d d d d d d d d d h d d d h h h h d d d d d h j j j j j j d d d d d d d d h h j h d d d d h h k h h h h k h h l h d h d k h h h h h h h h l k h h h h d d h d d d d d d d d d h d d j d h d d d d i i d d h d d d d h d d d d d d d d d d d d h h d d d d d d d d d d d d h h d d d d d d h h d d h h l l l h k d l l h h l l k d l h h k h k l h d d d d d d d a t r h h I I z z d h k l h h h l l l k k l z z z z z z F z z l l k k k l l l l l l k k j f f f f f f f f f f f f f f f f f f f f g f S S f g f g g f f f l S S S f f g g Z S f S f f S S k k k k h k k l k j l S l j f g C S S D G D D D H H H P P Y P P S D D D D D D D C A C A C Z C Z C S S S S S S C f f C S f p C C f C C S p i j j l S l l l l g g d f S Y g f g f A C C A D H A C C C A C C g f p f f d f S I e e @ . @ @ )                                           ",
"                                                                                            . . . O ; = ' / <.<.I I J z r.r.<.<.l a e 9 9.r.FXFXSXSXd h I z DXSXFXFX>.+.h h k l r d z I 9 w . @ > 9                                                               ; . @ . O t e j f i p g f p p p p p p p g g g f g i p p u i d r u i t r r a d d d a t r r r r d d d h h d d d h h d h h h h h d d h h j j h h j j l l l l l l j j j l l l l l l l l l h j h h j j j l l j j j F l l l l l l j j j l l l l z z F F l l l l l S F F I I I I I F F F z I I / / I U ( ( I F j f f S S S S G F F F F z z F F I I I I I z z z F F F I I F F F F F z F F F F F l j f j j j j j j l l l h h h h h k j j j j k j h h h k l l z z z z l l l j l l l l l S S S j f i i i f Z Z j j f f j l l l j k j l l l l l l l l l l l l j j l l l l k k h h h h h h k l l l l l l l l l l l z z z z z z z z l l l l l l l l l l l l l l k k h h k k l l l l l l k l l l l l l l l l l x l l k k k k l l l l l l l l x k k l l l l k l l x x k k l l h h k h t t c h x x k k k k k k k k x l x l l l k k k x l l l x k k k k h h k k l l l z l l l l l l l l z z z z z z l l l l z z J z z z z z z z z z z J F z z z z z z z z z z z I F z z z z I I z z z z z z z z I I F z z z z l l l l l z l l l l l l l l l j k l l l l l l l l l l l l l l l l l l l l l l l z l l l l l z z z z z l l z z z z F z z z z z z z F z z z z z z F F F z z z z z z I I I I I F S S l l l l l S S l l l k k k l l l k d h k k k k k l k k h h h h h k k k k k l l l l l k k l l l l l l l l k k h h l l l l l l l l l l l l l k k k l l l j h h h h j j l l l l l l j j j j j l l l l l l l l l l l l l j j l S l k l l l l l z l l l l l l l l l l l l l l l l l j l l l l l l l l l l l l l l l l l l l l l l l l l l k h k l l l l l l l l l l l l l l l l l l F l l l l l l j j z l l l j j l l l z z z z z z z z z z z J J J J z z z z J J J J I J z z z J z l z z z l z z l k z z z z l l l l z z l l l l l z z z z l l l l l z l l l l l l l l l l l l l l l z z l z l l l l z z l l l l l z z z z z z J z z I J J J J J J I J z l z z I J z z z J J J z z z J z z l l z J I _ _ / I I J I I z z z I I / I I I I I I _ _ _ _ ' ' _ _ _ _ I I _ _ _ ( U U U U I I I I I I I I I I Y Y I I S S U I I I I I I Y I S l S I I I I I I U U U I F S Y Y I I I I I I I F z I I I I J I I I I I I S S U U U U [ T U T T U T T [ [ _ T T U Y P D G D P D S A Z Z Z S S G G G G G G G G G G S S S D G G C S G S S S S l I I F S l l j f S I Y Y G S Z f S D P P P P H H D D Z A Z S S S l f S l I F 9 5 . . + O /                                           ",
"                                                                                              @ + . ; + _ ) 5.<.I I z z r.w.<.<.a l 9 w y.7.GXGXSXMXk d z I SXDXFXFX$.%.d d l l d d z I 9 9 . . w                                                                 ; . . + + r e h d u u f g p p p u p d i d d d f d i i i i d d r u i i t t a d d d a t t r t r d d d d d d d d d d d d d h h h d h h j l j k k j k l l l l l l l l l l l l l l k l l l k k j j j j l l l l l l l l l l l l l j j j l l l l l l l l l l l l l l F F F F I F F F F F z F I I I I I I I I F l S j G S S G G F F F F F F F F I I F I F z F z F I I I I I F z z z z F F F F F l l j j j j j j j l l h h h d h h h k j j j k j h h h z z z z z z z z h h j j l l l l l l l j d i i i f j j j j f f j l j j j h h h h j j l l l l l l z l l l l z z l l k h h h h h h k k k k k l l l l l l l l l l l z z z z l l l l l l l l l l l l l l k k h h k k l l l l l k l l l l l l k k l l l l l l k k k k l l k l l k k k k k k k l l x k x x x x k k x x h h k h c t h h x x k k k h h h x x x x x k k k k k k k x l x x k k k k k h k k l l l l l l l l l l l l z z z z z l l l k l z z z z z z z z z z z z z z z z z z F F F F z z z F F z z z z z F I z z z F F z z z F F z z z z z l l l l l l l l l l l l l l k j j l k k k k k k k l l l l l l l l l l l l h h l l z z z z z z z I I z z z F F F F I F z z F F F z I I F F F F I F I I I F F F F F I I I F F F F S S l l l l S l l l l k k l l z l d d d h k k k d h h h h h h h h h h h h h h h h l h h h h h k h l l l l l k k h l l l l l l l l l l l l l l k k j j h h h h h h j j j j j j l l j j j j j j j j l l l l l l l l l j j j l l l k k k k k k k k k l l l l l l l l l l l l l k l j l l l l l l l l l l l l l l l k l l l l k k l l l k h h h h k l l l l j j h j j l l j j j l l l l l j j j j j h l l j h h h j j z z z z z z z z z z z z / / / / J J J I I I J J / I I J I I z z z z z z z z z l z z z z z z z z l l l l l l l l z z z z z z z l l l l l l l l l l l l l l l l l l l l l l k k h l l l k k l l l J J z J J I J J J I I I I I I I z z z z z J J z z z z J J J z z J z z z z z J I / / I I J J I I F F F I I I I I I I I _ _ ' ' _ ' ' _ _ _ _ _ ( _ _ _ _ ( ( ( ( I I I I I I I I U Y Y U I I I I U I U Y I I I I I F F S I U U I I I U U U I I S U I I I I I I I I F z J I I I J I I I I I S S S U U ( ( [ _ U U U U [ _ [ U _ U U U Y P G D G P D Z C C C Z S S G G G G G S S S G G G S S S S S C Z S l l l l l F F F S S l l l S S Y I G S S S G G P P P P D D D Z C C Z S S S S l l d F z 9 w . . . = /                                           ",
"                                                                                              . . . 9 : I z +.%.h l h z qXMXFXFX ._ w > qXi.GXGXFXFXh J  .' GXGXGXGX#. .= , d d l h z / : w @ O >                                                                 ; . . . . @ + ; ; = = , , ; - - - - = - = - ; , , , ; ; ; ; ; = ; ; ; = = ; ; ; ; ; ; ; ; ; ; ; ; , : : : : : : : : : : : : : : : : > > > > > > > > 9 9 9 9 9 9 9 9 9 9 9 9 9 9 9 9 9 9 w w w w w 9 9 9 9 w w w w w w w w w 5 9 9 9 9 9 w w w 5 8 > 5 5 5 9 9 5 5 5 5 5 > > > > 5 > 9 w w w 9 9 9 9 5 5 5 5 5 5 5 5 5 5 5 5 5 9 9 9 9 9 5 5 9 9 9 5 5 9 9 9 9 9 9 9 > > > > > 9 5 > > : : , : > : > : > > > > > > : : : > > : > > > > > > > > : : : : : : , , : : : : > > > : : : 6 6 , , , : : : : : : : : 5 5 : : : : > > > > > > > > > > > > > > > > > > > 9 9 > > > > > > > > > > > > > > > > > > > 8 > w w w w w w w w > w w w w w v v v > > > > : : > > > > > > > > > > v v v v > > > > > v v v > > > > > > > > > > : : > > > > > > > : > > > > > > > > > > > > : : > > v v > > : : : : > : : > : : : : : : : : > > > > : : : : : : : : 9 > > > : > > > > > > > 9 > > > 8 8 > > > 8 9 9 > 8 > > > > > > > > > > > > > > : : : : : : : : > > > > > > > > > > > > > > > > > > > > : : : : : : : : : : : : : : : : : : : : > > > > > > > : : : > > > > > > : : : : : : : : ; ; ; ; ; : , , ; : : ; ; ; ; : ; ; ; ; ; ; ; ; ; ; ; ; ; ; ; ; ; ; ; ; ; ; ; ; , ; = = = = = = , ; ; ; ; ; ; = , ; ; ; , , , , , , : : : > : , : : : : : : : : : : : : : : : : : : : : : : : : ; ; ; ; ; ; ; ; ; ; ; ; ; ; ; ; ; ; ; ; ; ; ; ; ; ; ; ; ; ; , , : : : : : : : : : : : , : : : : , , : : : : : : : : : : > > > > : : > > : : : : : : : : : : > > > > > > > > > : > > > : : : : : > > > : : : : : : : > : : : : : : : : : : : : : : : : : : : : : > > > : : : : : > > > > > > > : > > : : : : : : : : : : : : : : : ; ; , : : : : : : : : : : : , > > > : : : : , > > : : > > : : , , : : : : : : > > > > > : : : ; ; ; : : : ; ; : : : : : : : : : : : : : : : : : : : : : : : : : : : : : : : > : : : : : : : : : : : : : : : : : > : > > > > > > > > > > > > > 9 > > > > > 9 9 w w 9 8 9 9 9 9 9 9 9 9 9 9 9 9 9 9 9 9 9 9 9 9 9 9 9 9 9 9 9 9 9 9 9 9 9 9 9 9 9 9 9 9 9 9 9 5 5 > 5 > > > > > 5 > 5 5 5 5 > > > > > > 5 5 > > 5 > > 5 5 > > : 5 > > > 5 5 5 5 9 9 9 9 w w w 9 w w 9 9 9 9 9 9 0 0 0 0 0 0 0 9 0 0 0 0 9 9 9 0 0 0 0 9 6 6 6 6 0 6 6 6 6 6 6 6 0 9 9 9 6 6 6 6 6 5 5 5 6 6 6 6 6 : : : : : : > : : : : , , , , : , : 5 : : : 6 6 6 6 6 6 6 6 6 6 6 6 - 6 6 6 6 5 : : ; : : O + . O . .                                             ",
"                                                                                                + O ; ; z / &.%.l l l h i.y.FXFX'  .9 > MXu.GXGXFXFXk l _ _ GXGXGXGX .$.= = a r z h ) z w > O .                                                                   @ . . @ . + . ; ; = = , , - , ; = ; = ; ; ; ; ; ; ; ; ; ; ; ; ; ; ; ; ; ; ; ; ; ; ; ; ; ; ; ; , ; ; ; ; ; : : ; : : : : : : : : : : > > > : : > > > > > > > > > > > > > > 8 9 > > 9 9 9 9 9 9 w w 9 9 5 5 9 w w 9 9 9 w 9 5 5 5 9 9 9 8 8 8 8 > > > > > > > > 9 5 5 5 5 > 5 5 9 9 9 9 w w w 9 9 9 9 9 5 5 5 w 9 5 5 5 5 w w 5 9 9 9 9 9 9 w w 9 9 9 9 9 9 w w 9 9 9 > 9 > > 5 9 5 > > > > : > : : : : : : : , : : : : : : : : : : : : : : : : > > > > > > : : ; ; , , : : : : ; ; : : : : > : , , , , , , , : : : , , : : > : > > > > > > > > 9 9 9 w w 9 > > > > > > > > > > > > > > > > > > > > > > > > > > 9 9 9 9 > > > > > > > > > > > > > > > : : : : : > : : : : : > > > > > > > > > > > > > > > : : : > : : : : : : : : : : : : : : : : : > > : : : : > > > > > > > > > > > : : : ; ; : : : : : : ; , , , ; , : : : : : : : : : : : : > : : : : : : : : : > > > > > : > > > > > > > > 8 8 8 8 > > > > > > > > > > > > > > > > > > > > > > > > > > > > > > > > > > > > > > > > > > : : > : : : : : : : ; ; ; ; : : : : : : : : : : : : : : : : : : , , ; ; ; ; ; ; ; : : : : : : : : : : : : : : : : : : : ; ; : : : : , , : : : : ; ; , , , ; ; , , , ; ; ; = ; ; ; ; ; ; ; ; ; ; = = ; ; ; ; , , ; ; , , ; , : : , , : : : : : : ; ; : : : : : : : : ; ; ; ; ; ; ; ; ; ; ; ; ; ; ; ; ; ; ; ; ; ; ; ; ; ; ; ; ; ; ; ; ; ; ; ; ; ; ; ; ; ; ; ; ; ; ; ; , , , ; ; ; ; ; , , , , ; ; ; ; , , , : : : > : : : , : : , , , : : : : : : : : : : : : : : : : : : : : ; ; ; : : : : : ; ; ; : : : : : ; ; ; ; ; , , , ; ; ; ; : , , ; ; ; : : : : : : , ; , ; : : : : : : : : : : : : , , : : : : : : : : : : : : : : > > > > > > > > > > > : > > > > > > > > > > > > > > > > > > > > > > : : : : : : : : : : : : : : : > : : , , ; ; ; ; ; ; ; ; ; ; ; ; ; , ; : : ; : ; ; ; ; ; : : : : : : : > > > > : > > > > > > > > > > > > > > > > > > > > > 9 9 9 9 9 9 9 9 9 9 9 9 w 9 9 9 9 9 9 9 9 9 9 9 9 9 9 9 9 9 9 9 9 9 9 9 9 9 9 9 9 9 9 9 9 9 9 9 9 9 9 9 9 9 9 9 9 9 9 5 5 9 9 5 5 5 > > > 9 5 9 9 5 5 > > > > 5 5 5 5 5 5 9 9 5 5 5 5 > > 5 5 5 5 9 9 9 9 9 9 9 9 w w 9 9 w w w 9 9 9 9 9 e e e w e 9 e 9 9 9 9 9 9 9 9 9 9 0 9 0 9 9 0 0 6 6 6 6 6 6 6 6 6 5 6 5 6 5 6 5 6 5 5 : 6 : : - , , , : : , : : : : : : , , , , , , , , : , : : : : : : : - - - : - - - : 6 : : : : , = ; ; + = . @ . .                                             ",
"                                                                                                  l : ; w w h h e e r e MXSXHXHXr.u.= = w.5.HXHXGXGXI I _ _ GXGXHXHX%.%.= = l l / / z I ; : .                                                                         _ . . . @ . . . . . . . . . . . . . . . . . . . . . . . . . . . . . . . . . . . . . . . . . . . . . . . . . . . . . . . . @ @ @ @ @ @ @ @ @ @ @ @ @ @ @ @ @ @ @ @ @ @ @ @ @ @ @ @ @ @ @ @ @ @ @ @ @ @ @ @ @ @ @ @ @ @ @ . @ @ @ @ o o o o o o @ @ @ @ @ @ . . . . . . . . @ . . @ o o o . . . . . . . X . . . . . . . . . . . . . . . . . . . . . . . . . . . . . . . . . . . . . . . . . o o . o . . . . . . . . . . . . . . . . . . . . . . . . . . . . . . . . . . . . . . . . . . . . . . . . . . . . . . . . . . . . @ @ @ @ @ @ @ @ . . . . . . . . @ @ @ @ @ @ @ @ @ @ @ @ @ @ @ @ @ @ @ @ @ @ o o @ @ @ o o @ @ @ @ @ @ @ @ @ @ @ @ @ @ @ @ @ @ @ o @ o o o o @ @ @ o o . . . . . . . @ @ . . . . . . . . . . . . . . . . . . . . . . . . . . . . . . . . . . . . . . . . . . . . . . . . . . . . . . . . . . . . . . . . . . . . . . . . . . @ @ @ @ @ @ @ @ @ @ o o @ @ @ @ @ @ . . . . . . . . . . . . . . . . @ o o . o . o o o o o . . . . . . . . . . . . . . . . . . . . . . . . . . . . . . . . . . . . . . . . . . . . . . . . . . . . . . . . . . . . . . . . . . . . . . . . . . . . . . . . . . . . . . . . . . . . . . . . . . . . . . . . . . . . . . . . . . . . . . . . . . . . . . . . . . . . . . . . . . . . . . . . . . . . . . . . . . . . . . . . . . . . . . . . . . . . . . . . . . . . . . . . . . . . . . . . . . . . . . . . . . . . . . . . . . . . . . . . . @ . . . . . . . . . . . . . . . . . . . . . . . . . . . . . . . . . . . . . . . . . . . . . . . . . . . . . . . . . . . . . . . . . . . . . . . . . . . . . . . . . . . . . . . . . . . . . @ @ @ @ @ @ o . . . . . . . . . . . . . . . . . . . . . . . . . . . . . . . . . . . . . . . . . . . . . . . . . . . . . . . . . . . . . . . . . . . . . . . . . . . . . . . . . . @ . . . . . . . . . . . . . . . . . . . . . . . . . . . . . . . . . . . . . . . . . . . . . . . . . . . . . . . . . . . . . . . . . o . . o o . . . . . . . . . . . . . . . . . . . . . . . . . . . . . . . . . . . . . . . . . . . . . . . . . . . . . . . . . . . . . . . . . . . . . . . . . . . . . . . . . . . . . . . . . . . . . . . . . O X O X X X X X X O X O O O O O O O O O O X o X o X o O O O O O O O o . . @ @ @ . . . o o o o o o O o o o o O O o X X X X X o X X X X X X X O O . @ . . o . . t                                               ",
"                                                                                                    + : w r l l t r t w u.i.HXHXi.y.& & 5.9.HXHXGXGXF I / / GXGXHXHX<. .; = d h _  .l I 9 :                                                                             . . + . . . . . . . . . . . . . . . . . . . . . . . . . . . . . . . . . . . . . . . . . . . . . . . . . . . . . . . . . @ @ @ @ @ @ @ . . . . . . . . . . . . . . . . . . . . . . . . . . . . . . . . . . . . . . . . . . . . . . . . . o o . . . @ @ @ @ o @ @ @ @ @ @ @ @ @ @ @ @ @ @ @ @ @ @ o o X X X o X . . . . . . . . . . @ @ @ @ @ @ @ @ @ . . @ . . . . . . . . . . . . . . . . . . . . . . . . . . . . . . . . . . . . . . . . . . . . . . . . . . . . . . . . . . . . . . . . . . . . . . . . . . . . . . . . . . . . . . . @ @ @ @ . . @ @ . . . . . . . . @ @ @ @ . . . . @ @ @ @ o o o @ @ @ o o o o o o @ @ . . @ . . @ @ @ @ @ . . . . . o o o . . o o . . . . . . . . . . . . . . . . . . . . . . . . . . . . . . . . . . . . . . . . . . . . . . . . . . . . . . . . . . . . . . . . . . . . . . . . . . . . . . . . . . . . . . . . @ @ . . . . . . . . . . . . . . @ @ @ @ @ @ @ @ @ @ @ @ @ . . @ @ @ @ @ o . o o @ @ @ o @ o @ @ o o o o o o o o o o o o o o o o . . . . . . . . . . . . . . . . . . . . . . . . . . . . . . . . . . . . . . . . . . . . . . . . . . . . . . . . . . . . . . . . . . . . . . . . . . . . . . . . . . . . . . . . . . . . . . . . . . . . . . . . . . . . . . . . . . . . . . . . . . . . . . . . . . . . . . . . . . . . . . . . . . . . . . . . . . . . . . . . . . . . . . . . . . . . . . . . . . . . . . . . . . . . . . . . . . . . . . . . . . . . . . . . . . . . . . . . . . . . . . . . . . . . . . . . . . . . . . . . . . . . . . . . . . . . . . . . . . . . . . . . . . . . . . . . . . . . . . . . . . . . . . . . . . . . . . . . @ @ o . . . . . . . . . . o o . . . . . . . . . . . . . . . . . . . . . . . . . . . . . . . . . . . . . . . . . . . . . . . . . . . . . . . . . . . . . . . . . . . . . . . . . . . . . . . . . @ @ . . . . . @ . . . . . . . . . . . . . . . @ . . . @ @ . . . @ @ @ . . . . . . . . @ . . @ @ . . . . . . . . . . . . . . . . . . . . . . . . . . . . . . . . . . . . . . . . . . . . . . . . . . . . . . . . . . . . . . . . . . . . . . . . . . . . . . . . . . . . . . . . . . . . . . . . . . . . . . . . . . . . . O O O X O O O O O O O . . O . o o O O . . o O o O . . O O O o o o . . . . . . . . . . . . . . . . . . . . . . O o . . o o o o X X X X O O o . . . o O . . t                                               ",
"                                                                                                    + . . @ : > r r a r %.+.t.y./ _ 9 > _ I %.<.%.-.d h t d ( _ I ' e d 8 9 d d r 9 > ;                                                                                   . . . . . . . . . . . . . . . . . . . . . . . . . . . . . . . . . . . . . . . . . . . . . . . . . . . . . . . . . . . . . . . . . . . . . . . . . . . . . . . . . . . @ @ @ @ . . . . . . . . . . . . . . . . . . . . . . . . . . . . . . . . . . . . . . . . . . . . . . . . . . . . . . . . . . . . . . . . . . . . . . . . . . . . . . . . . . . . . . . . . . . . . . . . . . . . . . . . . . . . . . . . . . . . . . . . . . . . . . . . . . . . . . . . . . . . . . . . . . . . . . . . . . . . . . . . . . . . . . . . . . . . . . . . . . . . . . . @ @ . . . . . . . . . . . @ @ o o . . o o @ o . . . . o o @ . . @ @ @ @ . . . . . . . . . . . . . . . . . . . . . . . . . . . . . . . . . . . . . . . . . . . . . . . . . . . . . . . . . . . . . . . . . . . . . . . . . . . . . . . . . . . . . . . . . . . . . . . . . . . . . . . . . . . . . . . . . . . . . . . . . . . . . . . . . . . . . . . . . @ o o . . . . . . . . . . . . . . . . . . . . . . . . . . . . . . . . . . . . . . . . . . . . . . . . . . . . . . . . . . . . . . . . . . . . . . . . . . . . . . . . . . . . . . . . . . . . . . . . . . . . . . . . . . . . . . . . . . . . . . . . . . . . . . . . . . . . . . . . . . . . . . . . . . . . . . . . . . . . . . . . . . . . . . . . . . . . . . . . . . . . . . . . . . . . . . . . . . . . . . . . . . . . . . . . . . . . . . . . . . . . . . . . . . . . . . . . . . . . . . . . . . . . . . . . . . . . . . . . . . . . . . . . . . . . . . . . . . . . . . . . . . . . . . . . . . . . . . . . . . . . . . . . . . . . . . . . . . . . . . . . . . . . . . . . . . . . . . . . . . . . . . . . . . . . . . . . . . . . . . . . . . . . . . . . . . . . . . . . . . . . . . . . . . . . . . . . . . . . . . . . . . . . . . . . . . . . . . . . . . . . . . . . . . . . . . . . . . . . . . . . . . . . . . . . . . . . . . . . . . . . . . . . . . . . . . . . . . . . . . . . . . . . . . . . . . . . . . . . . . . . . . . . . . . . . . . . . . . . . . . . . . . . . . . . . . . . . . . . . . . . . . . . . . . . . . . . . . . . . . . . . . . . . . . . . . . . . . . . . . . . . . . . . . . . . . . . . . . . @ . . . . . . . . . . . . . . . . o o @ @ . . . @ . . . . @ @ o @ @ . . . @ o o o . . . . . . . . . . . . . . @ . . .                                                 ",
"                                                                                                    . . @ @ > w r t r t +.#.w.r.' _ > > I / 5.5.%.%.h h r d I / _ ' r r 9 9 a d t t ; ;                                                                                       . . . . . . . . . . . . . . . . . . . . . . . . . . . . . . . . . . . . . . . . . . . . . . . . . . . . . . . . . . . . . . . . . . . . . . . . . . . . . . . . . . . . . . . . . . . . . . . . . . . . . . . . . . . . . . . . . . . . . . . . . . . . . . . . . . . . . . . . . . . . . . . . . . . . . . . . . . . . . . . . . . . . . . . . . . . . . . . . . . . . . . . . . . . . . . . . . . . . . . . . . . . . . . . . . . . . . . . . . . . . . . . . . . . . . . . . . . . . . . . . . . . . . . . . . . . . . . . . . . . . . . . . . . . . . . . . . . . . . . . . . o o o . . . . . . . . . . . . o . . . . . . . . . . . . . . . . o o . . . . . o . . . . . . . . . . . . . . . . . . . . . . . . . . . . . . . . . . . . . . . . . . . . . . . . . . . . . . . . . . . . . . . . . . . . . . . . . . . . . . . . . . . . . . . . . . . . . . . . . . . . . . . . . . . . . . . @ . . . . . . . . . . . . . . . . . . . . o . . . . . . . . . . . . . . . . . . . . . . . . . . . . . . . . . . . . . . . . . . . . . . . . . . . . . . . . . . . . . . . . . . . . . . . . . . . . . . . . . . . . . . . . . . . . . . . . . . . . . . . . . . . . . . . . . . . . . . . . . . . . . . . . . . . . . . . . . . . . . . . . . . . . . . . . . . . . . . . . . . . . . . . . . . . . . . . . . . . . . . . . . . . . . . . . . . . . . . . . . . . . . . . . . . . . . . . . . . . . . . . . . . . . . . . . . . . . . . . . . . . . . . . . . . . . . . . . . . . . . . . . . . . . . . . . . . . . . . . . . . . . . . . . . . . . . . . . . . . . . . . . . . . . . . . . . . . . . . . . . . . . . . . . . . . . . . . . . . . . . . . . . . . . . . . . . . . . . . . . . . . . . . . . . . . . . . . . . . . . . . . . . . . . . . . . . . . . . . . . . . . . . . . . . . . . . . . . . . . . . . . . . . . . . . . . . . . . . . . . . . . . . . . . . . . . . @ @ . . . . . . . . . . . . . . . . . . . . . . . . . . . . . . . . . . . . . . . . . . . . . . . . . . . . . . . . . . . . . . . . . . . . . . . . . . . . . . . . . . . . . . . . . . . . . . . . . . . . . . . . . . . . . . . . . . . . . . . . . . . . . . . . . . . . . . . . . . . . . . . . . . @ . o o o . . . . . . . . . @ @ @ @ o @ . . . . . . . . . . . . . . . . . . . . @ .                                                     ",
"                                                                                                        k l 9 w ; ; ; ; O + + & = = : : = = = = = = ; : : : = O + = ; , ; ; ; ; : ; .                                                                                                           t t t t t t t t t t t y y t t t w t t t t t t t t t t t t t t t t                                                                                                                                                                                                                                                                                                                                                                                                                                                                                                                                                                                                                                                                                                                                                                                                                                                                                                                                                                                                                                                                                                                                                                                                                                                                                                                                                                                                                                                                                                                                                                                                                                                                                                                                                                                                                                                                                                                                                                                                                                                                                                                                                           k h h d h h                                                                             ",
"                                                                                                          h r w ; ; ; ; + + + + = = ; , = = = = = = ; , : : & + = ; : : ; ; ; ; = :                                                                                                                                                                                                                                                                                                                                                                                                                                                                                                                                                                                                                                                                                                                                                                                                                                                                                                                                                                                                                                                                                                                                                                                                                                                                                                                                                                                                                                                                                                                                                                                                                                                                                                                                                                                                                                                                                                                                                                                                                                                                                                                                                                                                                                                                                                                                                                                                                                 ",
"                                                                                                            ) ) . O + = + + + + = = , : ; ; ; ; ; = : : : : = = ; ; : ; ; + + + : ;                                                                                                                                                                                                                                                                                                                                                                                                                                                                                                                                                                                                                                                                                                                                                                                                                                                                                                                                                                                                                                                                                                                                                                                                                                                                                                                                                                                                                                                                                                                                                                                                                                                                                                                                                                                                                                                                                                                                                                                                                                                                                                                                                                                                                                                                                                                                                                                                                                 ",
"                                                                                                              ' @ @ + = + = = & = = ; ; = ; ; = = = , ; ; ; = ; : : : : ; = = + :                                                                                                                                                                                                                                                                                                                                                                                                                                                                                                                                                                                                                                                                                                                                                                                                                                                                                                                                                                                                                                                                                                                                                                                                                                                                                                                                                                                                                                                                                                                                                                                                                                                                                                                                                                                                                                                                                                                                                                                                                                                                                                                                                                                                                                                                                                                                                                                                                                   ",
"                                                                                                              z @ . @ @ . . . . . . . o . @ o . . . O @ . @ . @ . . . . . . . .                                                                                                                                                                                                                                                                                                                                                                                                                                                                                                                                                                                                                                                                                                                                                                                                                                                                                                                                                                                                                                                                                                                                                                                                                                                                                                                                                                                                                                                                                                                                                                                                                                                                                                                                                                                                                                                                                                                                                                                                                                                                                                                                                                                                                                                                                                                                                                                                                                     ",
"                                                                                                                . . O @ o . O @ . . . @ . . . . . . @ . . . . . . . . . @ @ .                                                                                                                                                                                                                                                                                                                                                                                                                                                                                                                                                                                                                                                                                                                                                                                                                                                                                                                                                                                                                                                                                                                                                                                                                                                                                                                                                                                                                                                                                                                                                                                                                                                                                                                                                                                                                                                                                                                                                                                                                                                                                                                                                                                                                                                                                                                                                                                                                                       ",
"                                                                                                                                        _ _ _ _ ] / _                                                                                                                                                                                                                                                                                                                                                                                                                                                                                                                                                                                                                                                                                                                                                                                                                                                                                                                                                                                                                                                                                                                                                                                                                                                                                                                                                                                                                                                                                                                                                                                                                                                                                                                                                                                                                                                                                                                                                                                                                                                                                                                                                                                                                                                                                                                                                                                                                                                               ",
"                                                                                                                                                                                                                                                                                                                                                                                                                                                                                                                                                                                                                                                                                                                                                                                                                                                                                                                                                                                                                                                                                                                                                                                                                                                                                                                                                                                                                                                                                                                                                                                                                                                                                                                                                                                                                                                                                                                                                                                                                                                                                                                                                                                                                                                                                                                                                                                                                                                                                                                                                                                                                    ",
"                                                                                                                                                                                                                                                                                                                                                                                                                                                                                                                                                                                                                                                                                                                                                                                                                                                                                                                                                                                                                                                                                                                                                                                                                                                                                                                                                                                                                                                                                                                                                                                                                                                                                                                                                                                                                                                                                                                                                                                                                                                                                                                                                                                                                                                                                                                                                                                                                                                                                                                                                                                                                    ",
"                                                                                                                                                                                                                                                                                                                                                                                                                                                                                                                                                                                                                                                                                                                                                                                                                                                                                                                                                                                                                                                                                                                                                                                                                                                                                                                                                                                                                                                                                                                                                                                                                                                                                                                                                                                                                                                                                                                                                                                                                                                                                                                                                                                                                                                                                                                                                                                                                                                                                                                                                                                                                    ",
"                                                                                                                                                                                                                                                                                                                                                                                                                                                                                                                                                                                                                                                                                                                                                                                                                                                                                                                                                                                                                                                                                                                                                                                                                                                                                                                                                                                                                                                                                                                                                                                                                                                                                                                                                                                                                                                                                                                                                                                                                                                                                                                                                                                                                                                                                                                                                                                                                                                                                                                                                                                                                    ",
"                                                                                                                                                                                                                                                                                                                                                                                                                                                                                                                                                                                                                                                                                                                                                                                                                                                                                                                                                                                                                                                                                                                                                                                                                                                                                                                                                                                                                                                                                                                                                                                                                                                                                                                                                                                                                                                                                                                                                                                                                                                                                                                                                                                                                                                                                                                                                                                                                                                                                                                                                                                                                    ",
"                                                                                                                                                                                                                                                                                                                                                                                                                                                                                                                                                                                                                                                                                                                                                                                                                                                                                                                                                                                                                                                                                                                                                                                                                                                                                                                                                                                                                                                                                                                                                                                                                                                                                                                                                                                                                                                                                                                                                                                                                                                                                                                                                                                                                                                                                                                                                                                                                                                                                                                                                                                                                    ",
"                                                                                                                                                                                                                                                                                                                                                                                                                                                                                                                                                                                                                                                                                                                                                                                                                                                                                                                                                                                                                                                                                                                                                                                                                                                                                                                                                                                                                                                                                                                                                                                                                                                                                                                                                                                                                                                                                                                                                                                                                                                                                                                                                                                                                                                                                                                                                                                                                                                                                                                                                                                                                    ",
"                                                                                                                                                                                                                                                                                                                                                                                                                                                                                                                                                                                                                                                                                                                                                                                                                                                                                                                                                                                                                                                                                                                                                                                                                                                                                                                                                                                                                                                                                                                                                                                                                                                                                                                                                                                                                                                                                                                                                                                                                                                                                                                                                                                                                                                                                                                                                                                                                                                                                                                                                                                                                    ",
"                                                                                                                                                                                                                                                                                                                                                                                                                                                                                                                                                                                                                                                                                                                                                                                                                                                                                                                                                                                                                                                                                                                                                                                                                                                                                                                                                                                                                                                                                                                                                                                                                                                                                                                                                                                                                                                                                                                                                                                                                                                                                                                                                                                                                                                                                                                                                                                                                                                                                                                                                                                                                    ",
"                                                                                                                                                                                                                                                                                                                                                                                                                                                                                                                                                                                                                                                                                                                                                                                                                                                                                                                                                                                                                                                                                                                                                                                                                                                                                                                                                                                                                                                                                                                                                                                                                                                                                                                                                                                                                                                                                                                                                                                                                                                                                                                                                                                                                                                                                                                                                                                                                                                                                                                                                                                                                    ",
"                                                                                                                                                                                                                                                                                                                                                                                                                                                                                                                                                                                                                                                                                                                                                                                                                                                                                                                                                                                                                                                                                                                                                                                                                                                                                                                                                                                                                                                                                                                                                                                                                                                                                                                                                                                                                                                                                                                                                                                                                                                                                                                                                                                                                                                                                                                                                                                                                                                                                                                                                                                                                    ",
"                                                                                                                                                                                                                                                                                                                                                                                                                                                                                                                                                                                                                                                                                                                                                                                                                                                                                                                                                                                                                                                                                                                                                                                                                                                                                                                                                                                                                                                                                                                                                                                                                                                                                                                                                                                                                                                                                                                                                                                                                                                                                                                                                                                                                                                                                                                                                                                                                                                                                                                                                                                                                    ",
"                                                                                                                                                                                                                                                                                                                                                                                                                                                                                                                                                                                                                                                                                                                                                                                                                                                                                                                                                                                                                                                                                                                                                                                                                                                                                                                                                                                                                                                                                                                                                                                                                                                                                                                                                                                                                                                                                                                                                                                                                                                                                                                                                                                                                                                                                                                                                                                                                                                                                                                                                                                                                    ",
"                                                                                                                                                                                                                                                                                                                                                                                                                                                                                                                                                                                                                                                                                                                                                                                                                                                                                                                                                                                                                                                                                                                                                                                                                                                                                                                                                                                                                                                                                                                                                                                                                                                                                                                                                                                                                                                                                                                                                                                                                                                                                                                                                                                                                                                                                                                                                                                                                                                                                                                                                                                                                    ",
"                                                                                                                                                                                                                                                                                                                                                                                                                                                                                                                                                                                                                                                                                                                                                                                                                                                                                                                                                                                                                                                                                                                                                                                                                                                                                                                                                                                                                                                                                                                                                                                                                                                                                                                                                                                                                                                                                                                                                                                                                                                                                                                                                                                                                                                                                                                                                                                                                                                                                                                                                                                                                    ",
"                                                                                                                                                                                                                                                                                                                                                                                                                                                                                                                                                                                                                                                                                                                                                                                                                                                                                                                                                                                                                                                                                                                                                                                                                                                                                                                                                                                                                                                                                                                                                                                                                                                                                                                                                                                                                                                                                                                                                                                                                                                                                                                                                                                                                                                                                                                                                                                                                                                                                                                                                                                                                    ",
"                                                                                                                                                                                                                                                                                                                                                                                                                                                                                                                                                                                                                                                                                                                                                                                                                                                                                                                                                                                                                                                                                                                                                                                                                                                                                                                                                                                                                                                                                                                                                                                                                                                                                                                                                                                                                                                                                                                                                                                                                                                                                                                                                                                                                                                                                                                                                                                                                                                                                                                                                                                                                    "
};
