/* XPM */
static char *_d5211a4938747328e71b32c62ee7b43[] = {
/* columns rows colors chars-per-pixel */
"64 65 212 2 ",
"   c None",
".  c #060502",
"X  c #0B0603",
"o  c #070805",
"O  c #0C0A06",
"+  c #0E0D09",
"@  c #120704",
"#  c #120A06",
"$  c #1B0906",
"%  c #130E0A",
"&  c #1A0E0A",
"*  c #0E1209",
"=  c #0B1007",
"-  c #14120D",
";  c #1A130E",
":  c #141A0D",
">  c #181C0F",
",  c #161511",
"<  c #1B1611",
"1  c #161A12",
"2  c #1D1913",
"3  c #1C1D1A",
"4  c #240B07",
"5  c #2C0C06",
"6  c #230E09",
"7  c #2C0F0A",
"8  c #330E09",
"9  c #380F08",
"0  c #23130D",
"q  c #2D160E",
"w  c #32140D",
"e  c #3A140C",
"r  c #35180F",
"t  c #221611",
"y  c #2A1711",
"u  c #221C16",
"i  c #2B1C14",
"p  c #231E18",
"a  c #2E1E18",
"s  c #341D15",
"d  c #3B1A12",
"f  c #331B14",
"g  c #1C2112",
"h  c #232617",
"j  c #2B2017",
"k  c #25211A",
"l  c #2B241C",
"z  c #242D19",
"x  c #2D281E",
"c  c #33241C",
"v  c #3B251B",
"b  c #32281E",
"n  c #3B291F",
"m  c #2B341E",
"M  c #2E2921",
"N  c #272522",
"B  c #332C23",
"V  c #3A2D23",
"C  c #2E3520",
"Z  c #363026",
"A  c #3B3126",
"S  c #363129",
"D  c #3C342A",
"F  c #3E392D",
"G  c #343D26",
"H  c #3C3932",
"J  c #45140D",
"K  c #4D160D",
"L  c #4A190F",
"P  c #51160E",
"I  c #54180E",
"U  c #431D14",
"Y  c #4C1C13",
"T  c #531D14",
"R  c #5A1D12",
"E  c #44231A",
"W  c #4A241A",
"Q  c #42291E",
"!  c #4D261B",
"~  c #5B2216",
"^  c #522319",
"/  c #5A291E",
"(  c #55241A",
")  c #612B1E",
"_  c #442D23",
"`  c #4B2D22",
"'  c #532D22",
"]  c #5B2E23",
"[  c #423226",
"{  c #4C3226",
"}  c #42352A",
"|  c #4C362A",
" . c #43392E",
".. c #4B3A2E",
"X. c #533126",
"o. c #5C3127",
"O. c #53352A",
"+. c #5C362A",
"@. c #563A2E",
"#. c #5A3A2E",
"$. c #443C32",
"%. c #493E32",
"&. c #543F31",
"*. c #5A3D31",
"=. c #642E22",
"-. c #61372B",
";. c #643A2D",
":. c #653226",
">. c #643D30",
",. c #693E31",
"<. c #3C442A",
"1. c #454234",
"2. c #4C4235",
"3. c #4D453A",
"4. c #4F4C39",
"5. c #534234",
"6. c #5C4235",
"7. c #51463A",
"8. c #5D4639",
"9. c #544A3D",
"0. c #5B4B3D",
"q. c #535A3E",
"w. c #624335",
"e. c #6A4435",
"r. c #624639",
"t. c #624B3D",
"y. c #6B4C3C",
"u. c #6B473B",
"i. c #744B3C",
"p. c #7A4C3D",
"a. c #744335",
"s. c #71503F",
"d. c #544C41",
"f. c #5A4E41",
"g. c #575047",
"h. c #5D5244",
"j. c #5E5549",
"k. c #634D40",
"l. c #684E40",
"z. c #645344",
"x. c #6C5344",
"c. c #635649",
"v. c #6B5648",
"b. c #64594C",
"n. c #6B5B4C",
"m. c #6F5947",
"M. c #735344",
"N. c #725D4C",
"B. c #7B5D4D",
"V. c #725846",
"C. c #6C5E51",
"Z. c #765F52",
"A. c #6F604F",
"S. c #72604E",
"D. c #7C614E",
"F. c #6E6254",
"G. c #6F665B",
"H. c #736455",
"J. c #7B6454",
"K. c #736857",
"L. c #736658",
"P. c #7B6759",
"I. c #756A5A",
"U. c #7B6C5C",
"Y. c #7C6A57",
"T. c #7C705F",
"R. c #7E6F60",
"E. c #7D7161",
"W. c #845F4E",
"Q. c #836555",
"!. c #816A56",
"~. c #836C5B",
"^. c #8C6F5D",
"/. c #816758",
"(. c #85715E",
"). c #88705E",
"_. c #90695A",
"`. c #806F60",
"'. c #827363",
"]. c #8B7463",
"[. c #857867",
"{. c #8D7967",
"}. c #867969",
"|. c #8D7C6B",
" X c #957664",
".X c #917D6C",
"XX c #977A66",
"oX c #91806F",
"OX c #95816C",
"+X c #9A846F",
"@X c #8E8070",
"#X c #928271",
"$X c #958372",
"%X c #968675",
"&X c #948473",
"*X c #988675",
"=X c #9C8573",
"-X c #9A8977",
";X c #9D8E7C",
":X c #9B8B79",
">X c #A28A77",
",X c #A28E7B",
"<X c #A88F7A",
"1X c #A28572",
"2X c #A8927D",
"3X c #B1937E",
"4X c #AA9682",
"5X c #A69582",
"6X c #B29C87",
"7X c #B09F8B",
"8X c #BBA691",
"9X c #B8A48D",
/* pixels */
"                                                                                                                                ",
"                                                                                                                                ",
"                b.}.%X#X$X}.U.E.K.L.I.L.F.h.$.b f %.d.b.F.F.F.L.H.H.K.K.L.F.F.C.                                                ",
"              7.P.'.|.Q.].&X%X*X{.$X#X|.&X*X:XB.Q.*X;X5X5X;X:X;X%X$X;X:X;X&X#X#X~.].{.#X|.@X|.|.|.}.'.J.H.                      ",
"              z.e.B.~.,.Q.].{.'.B..XoX|.#X#X.X/.oX%X%X}.L.H.F.F.U.'.oX#X$X#X|.|.-X|.J..X'.&X|.#X#XoX/.y.{.f.                    ",
"            5.V./.Q.,.^ ^.M.].-X#X|.%X%X*X%X-XoX#X%X[.j.G.b.g.3.$.E.#XoX#X{.'.|.#XoX.X%X:X:X#X$X.X~.;.Q.U.2.$.                  ",
"            } } _ _ d e _ _ 5.f.c.n.F.H.L.E.'.K.U.I.7.j.3.$.$.S l H.|.|..XM.M.{.&X-X;X:X#X{..X{.B.o.:.V.5.V  .                  ",
"            B p - - ; & & < 0 u j k l l B D F D  .B F d.< l 3.2 p D 2.2.| s d | f.b.b.c.H.t.6.6.U e W W s V %.$.                ",
"            B l O o . . . . . X X X + + + % - % % % g.S - D $.X % < 2 < < & $ ; p k j x b i i t 0 0 0 6 i D } 2.                ",
"              B ; O O . . X X # # % % % % % + + - + $.3.F $.p O + + + + + + X O O X X X X X O o o o ; y l  .} 7.                ",
"              B M + + O . X # & - % - - ; ; < ; ; - - 2 , , + % - - - - - - % % % % % # # # . X X . X b a  .$.2.F               ",
"                S p + + o X % & ; - - < < < 2 2 2 2 , ; - - , , , , < , , , , ; ; ; - - % # # # @ @ X l n Z $.2.3.              ",
"                M B - - + . % ; ; < ; ; 2 2 p p p 2 2 2 2 2 2 2 2 2 2 2 2 2 2 2 < 2 ; < ; @ ; & & @ # < } c $.2.3.b             ",
"                  S k % - O X - ; ; < 2 2 2 p p p p p p p p p p p p p p p p p p p p 2 2 < ; ; ; & & & # B V A $.2.%.            ",
"                  B Z < - + O % - ; < p 2 p p p p p p p p p p p p p p p p p p p p p p p 2 < ; ; ; ; & X 2 } b $.%.2.            ",
"                    B l - - O X - ; < ; 2 p p p p p p p p p p p p p p p p p p p p p p p p < < 2 ; ; ; # - A n  .$.2.            ",
"                    l S 2 - + O & ; ; & < u 2 2 u p p u < p p p p p k p p p p p u p u p p u 2 2 ; < < & X x [ V  .$.Z           ",
"                      M M - - X # & ; ; ; 2 ; ; t u 2 ; 2 2 p 2 p p p p p p p p < t ; 2 p p p 2 ; < < - # ; [ s } %.3.          ",
"                        Z p - % X # & & $ ; ; 2 < < < < 2 2 2 2 2 2 2 p 2 2 p 2 2 ; & 2 2 p 2 < < ; < ; - X B v v  .2.          ",
"                        B B - - O X # # @ @ ; ; ; < ; < 2 2 2 2 2 2 2 2 2 2 2 2 2 2 ; 2 2 2 < ; < ; ; & & X u v q  .2.$.        ",
"                          S p % + . . . X X # # % % - ; ; , ; 2 2 2 2 2 2 2 2 2 2 2 < ; 2 - ; ; ; ; & & # # # b y } 2. .        ",
"                          l B - + o o . . . X X X X X X + + + % % % % - - - - - ; ; ; - - & - - & # & @ # @ X l v n $.$.Z       ",
"                            S p O # # # @ @ & & & ; & - % + + + + + + % % % + + + + X X O O O o X X X X X . . % A c $.1.x       ",
"                              M % X # # # & & & - ; < 2 2 2 2 2 2 2 2 p p p p 2 , - - - - % + + + X X X . . . o B V A  .k       ",
"                              k k p j j j y t 0 t u u x k p p p 2 2 < 2 2 p p 2 p p p 2 2 2 2 < ; ; ; & # # # X < V c A p       ",
"                                2 2 2 2 < ; t < 2 p 2 < p l l l 2 3 1 , , 2 l N l k k k k p p 2 ; ; - & % & # X O x c i         ",
"                            F k - ; < - + - - - - - - - < ; ; , S N N N 3 , - , < 2 p p k j B x j l j j j u u < < u y @         ",
"                          $.B - O - - j %.z.n.h.2.V < - 2 < ; + H d.S N 3 + + 2 < 2 2 < < % - ; - ; < - - - 2 2 2 < &           ",
"                        3.M ; + O + u | r.s.D.).~.m.2.u + - - O k H k 2 - o + ; 2 2 2 2 2 - - - + + + X - ; < p u p l           ",
"                      7.M - ; + o < &.x.M.B.M.#.w.J.z. .; + - - + 1 * O o O O X - 2 2 < - - % % % % % % - ; < 2 ; ; Z           ",
"                      x ; < - O < &.~.i.:.W.2X{.V.6.0...u - m z g > * O * : 1 + + ; ; j 2.7.7.2.%.} A V x 2 % ; % 2 %.          ",
"                    B - ; , + ; Q Y / R R i.=X,X].0.} } j - G q.q.<.m z z h > O O X u z.S.H.N.X.r.J.S.n.v.2.- + + B 3.          ",
"                9.M - < ; + - 5.M.;.R ~ ) T / ).U.z...V 2 * g C <.G m z 1 - + + . - 0.!.w.O.! J +.y.~.Y.S.} - X p %.F           ",
"              2.S - < ; % ; 7.].].=.R p.>Xi.e.).A.0.} l - : F 4.1.D M x h 2 - * O 3.OXXX^.a.K / +.-.].{.0.l + % %.F  .          ",
"            f.D , < ; - ;  .{.6X<X_.p.XX7X>X).n.0...V t . : h.4X4XB.N.H.0.x - * F :X4X6X9XXXp.1X6X<X2X).A i + l  .V [           ",
"          $.S < ; , - %  .P.<X3X8X8X6X:XOX{.H.z.%.A j % . - h.>XXX~ ;.~.z.x * ; N.U.U.].XX XXX>X2X2X:X0.c & < $.D V n           ",
"           .2 - < ; % - } @.u.e.Q.^.+X.XP.n.h.2.A b ; o . * g.i.~ K Y W 5.M * - H.Y.H.N.+.Y e.B.!.V.N.A f 0  .F S } } ..        ",
"          z.U.H.F.0.V D A b c f y s ..%.D V B B u ; . + O * 2.V.e.L U { 5.l = - N.N.w.J.;.^ !.B.D.V.m.V 0 b 3.S D A V |         ",
"          H..XU.K.H.$.d.L.b.3.M 6 v 0.C.b.h.%.3.$.$.D Z x k Z 7.2.w v 2.F < o % 0.6.d #.! J e.X.' V.z.b t  .V S F D } 2.        ",
"          R.|.H.U.H.F 2 $.F 2 ; f 6.P.U.U.[.[.[.E.[.U.t.n.H.F.L.b.f.0.h.0.2.F M x j t i y 0 Q v v 5...p [ V B D F D $.$.        ",
"          E.%XR.U.K.2.M B M - ; V z.U.H.H.`.U.K.K.K.U.H.U.F.H.U.U.[.U.H.H.K.n.5.d.d.g.H S u %.%. .} V l c i b Z D D 2.2.        ",
"          R.#X'.'.U.3.S l 2 2 < D H.'.R.'.[.[.'.'.T.~.U.'.'.'.U.T.E.R.b.c.H.C.2.B 1.g.M l t 0.w.t.m.5.s & j V V A D 2.F         ",
"          E.%X'.[.U.2.F k ; l 2 $.K.'.'.[.[.[.'.'.M.] ] -.x.'.U.T.'.[.U.F.'.U.7.p M B < - 2 9.8.v.>.w.V ; b V V D } $.S         ",
"          K.|.U.'.'.0.x B l l < 7.U.'.[.[.'.U.m.[.u.P R I ;.[.'.'.'.'.U.U.'.U.9.B k k , p p c.H.H.n.t.} u l l V F F $.S         ",
"          U.|.m.U.'.n.V y 0 0 a h.R.'.'.'.'.U.P.'.u.I I P >.'.'.'.'.'.U.'.[.'.f.S B 2 p l k n.U.H.n.m.$.p B l c D F $.B         ",
"          F.[.w.Z.'.U.8.` O.{ &.H.'.'.[.'.U.-.o.e.] I P K o.N.J.P.'.'.'.'.'.'.c.M F M M u l C.`.U.U.H.$.k B b b D D F M         ",
"          F.E.Z.P.'.U.H.8.y.N.x.U.U.[.'.'.P.) I K I P K K K Y T ' P.'.R.'.'.'.I.2.u ; & 0  .H.U.U.E.H.$.j B B V S S F l         ",
"          F.[.L.P.U.U.'.N.H.U.U.'.'.R.E.U.P./ P I P K K K K P K ^ J.U.E.'.'.E.T.b.5...Q v z.J.U.U.U.n.3.k B S b S D F l         ",
"          z.H.v.N.x.M.'.H.U.'.R.T.'.E.U.U.H.] ~ T Y K K K K K K Y N.T.U.E.E.E.U.U.H.H.y.@.U.l.V.P.J.6.A u b S Z D S S l         ",
"          0.P.X.' x.U.U.U.U.U.U.I.K.E.U.K.K.N.N.n.#.K K K ^ +.] o.H.U.I.E.U.U.U.E.U.L.v.w.U.m.x.y.v.{ v ; x Z S D S D k         ",
"          U y.*.U N.K.H.K.U.K.I.K.H.I.K.U.I.U.E.I.6.K K K +.K.H.L.I.I.I.U.I.I.U.U.U.K.N.x.K.H.r.U W t.%.u B B Z S B B k         ",
"          ..y.0.O.n.H.b.H.I.K.H.K.F.c.F.U.I.U.U.I.6.J J J +.K.L.I.I.I.I.K.K.K.U.K.K.K.H.n.U.H.H.' ' x.2.k B B Z S B B p         ",
"          f.N.t.*.n.F.z.n.L.L.L.L.n.k.H.U.K.K.K.K.k.' W Y #.K.K.K.L.I.L.L.L.I.K.K.K.L.F.H.K.K.K.6.v.k.%.l B B B B b l p         ",
"          f.U.n.#.k.v.t.t.H.F.H.n.*.r.m.m.z.z.H.L.F.C.n.z.C.L.L.L.I.F.H.F.L.L.I.L.L.L.L.H.F.H.H.z.n.c.$.l B B B B j u 2         ",
"          9.z.z.X.' 6.O.z.k.n.F.t.E w.6.6.X.+.8.k.#.6.*.O.6.H.K.C.v.H.C.H.C.F.F.F.F.H.H.b.k.n.b.b.F.b. .k B B l x t ; ;         ",
"          d.z.6.X.U W O.t.@.c.F.0.E 0.6.6.+.>.6.6.@.t.k./ r.F.F.6.*.n.*.k.X.6.b.F.F.F.F.z.0.6.k.k.z.h. .k B B j j & ;           ",
"          7.t.{ X.e 9 | X.t.z.z.6.X.F.6.*.` O.8.b.*.@.n.O.C.F.z.X.*.r.#.8.*.*.t.F.F.F.C.n.z.` t.6.5.0. .k M x t 0 ;             ",
"          } O.r d 8 9 U { f.| @.0.8.n.0.t.#.t.O.8.@.*.z.X.b.F.k.! ' r.#.8.*.*.8.C.C.z.z.z.8.` 6.@.| 5.} 2 j u u ;               ",
"          l _ d 8 4 4 8 e _ ` 0.h.c.b.z.b.b.b.c.c.6.h.b.8.b.b.z.6.8.8.6.t.` @.z.b.b.0.O.t.@.` ` O.{ { D < u 0 p -               ",
"            x v y 4 w s w q n | ..7.d.9.9.h.b.c.c.g.9.b.c.j.j.h.z.h.c.b.z.6.t.b.b.z.0.O.6.@.U W ` d | Z ; t t -                 ",
"                    0 u t i j i l x V F $.2.7.f.h.f...h.f.d.9.9.9.9.f.g.g.f.9.f.h.b.0.@.' ! 9 U r v 5.b ; 2 ;                   ",
"                                      p p k x B Z S b Z } }  . .%.2.2.7.7.%...3.7.9._ | U 5 5 4 7 v n c ; -                     ",
"                                                          u j l x x x x b b V  . .V q Q n s 5 4 $ 4 q i %                       ",
"                                                                              p p ; & y j i 0 q 0 0 0 &                         ",
"                                                                                                                                "
};
