/* XPM */
static char *ab1fb0a80fc64d278731c650dd415c7e6bj7WoAsOlZjbfJR[] = {
/* columns rows colors chars-per-pixel */
"64 65 111 2 ",
"   c #030302",
".  c #0B0604",
"X  c #0C0A06",
"o  c #0E0C09",
"O  c #120704",
"+  c #130A06",
"@  c #190B07",
"#  c #120E09",
"$  c #1A0E09",
"%  c #0F100A",
"&  c #15120C",
"*  c #1B140E",
"=  c #1F180F",
"-  c #161410",
";  c #1B1611",
":  c #171810",
">  c #1D1A13",
",  c #1F1D18",
"<  c #230F0A",
"1  c #280F0A",
"2  c #22150E",
"3  c #2A120C",
"4  c #21180F",
"5  c #221610",
"6  c #2E1711",
"7  c #231C14",
"8  c #2A1D14",
"9  c #231E19",
"0  c #281F18",
"q  c #301710",
"w  c #321C15",
"e  c #331F18",
"r  c #1F2017",
"t  c #1F2018",
"y  c #222017",
"u  c #2C2016",
"i  c #24231B",
"p  c #28221A",
"a  c #2A231A",
"s  c #2A231B",
"d  c #2B241B",
"f  c #2C251B",
"g  c #2A241C",
"h  c #2C241C",
"j  c #2E271E",
"k  c #26281E",
"l  c #2A291F",
"z  c #2F281E",
"x  c #332117",
"c  c #33241B",
"v  c #3A241B",
"b  c #30291F",
"n  c #31291F",
"m  c #3C281F",
"M  c #2A2621",
"N  c #272920",
"B  c #2B2A22",
"V  c #322B22",
"C  c #332B22",
"Z  c #352D22",
"A  c #362D23",
"S  c #372F25",
"D  c #3A2D23",
"F  c #342F28",
"G  c #353026",
"H  c #3A3126",
"J  c #3B3327",
"K  c #35312A",
"L  c #3B3328",
"P  c #3C3328",
"I  c #3E362A",
"U  c #3F362B",
"Y  c #3F382C",
"T  c #422D24",
"R  c #443126",
"E  c #40372A",
"W  c #42362A",
"Q  c #4A362B",
"!  c #42392C",
"~  c #43392D",
"^  c #453B2F",
"/  c #453C2F",
"(  c #4B3B2E",
")  c #503B2E",
"_  c #453C30",
"`  c #493F31",
"'  c #483E32",
"]  c #483F32",
"[  c #493F32",
"{  c #523F31",
"}  c #4A4033",
"|  c #4B4134",
" . c #4C4134",
".. c #4C4235",
"X. c #4C4335",
"o. c #4E4437",
"O. c #4F4538",
"+. c #514536",
"@. c #504537",
"#. c #504538",
"$. c #514639",
"%. c #534739",
"&. c #524839",
"*. c #544A3C",
"=. c #554A3C",
"-. c #564B3D",
";. c #5A4D3D",
":. c #574E40",
">. c #594E40",
",. c #5C5243",
"<. c #625443",
/* pixels */
"& # # # # o + # o o o # * # & a 0 9 > * ; > 7 9 ; > > & > 9 7 7 > ; # * 7 ; & ; ; 7 ; ; & > 9 & # & o > 7 7 5 # # # # o o # # o ",
"* * * * = = * = & # & * 7 * a J Z b j a a C C Z g Z Z a Z J J S Z j > 7 C a 9 a g Z a d 7 f b > & ; & a d j a * = = * * # * * & ",
"& & & = = * = = * & # ; j > z J J Z Z j j J S Z C J S j S I L S L Z a j S Z a a j Z z C 0 j C 7 ; 7 > a 0 a & & = = 8 * # * & # ",
"* = # 5 5 5 = 5 4 * ; a C 7 Z I I J S g Z _ / D S L J j J _ _ I E I j C I J a a S P S J g C C a 7 a 7 j j 0 & = 5 5 u 4 * 5 = * ",
"= 4 * 5 5 8 5 5 > # ; d P j I / ' E I C Z E I C ~ ^ I C E ' .._ ' _ C Z J S 0 g I I J I j Z S j 9 9 7 Z b j a 5 = = 5 = * 5 4 = ",
"& = = = = # & 5 j ; 9 b E b ~ } ..' ~ z C ' ~ I ~ _ ' I ..#.o.' o...J I ~ I a S ' _ ~ ^ J ~ I C a a 9 b S J I 5 = = 4 * 5 5 = = ",
"* = = 8 8 ; z j C ; a J } S I #..._ E ~ _ ~ I ' | =.#.~ #.=.&...o.#.I ~ o.| g L O.o.@...E ' ~ D C a a J J E ~ j * 4 5 5 4 = = * ",
"8 8 8 u 5 a Z j b 9 b L ..S L ~ E ' =...&.I C ~ #.=.#.' #...o.o.O.=._ #.#...Z ~ #.@.&.&...o.^ I J j j I Z C Z > 5 x c 8 8 5 8 4 ",
"5 5 = * * * 9 C C 9 C L ' I _ ~ ' =.=.#.#.I | _ o.=.;.| ..o.#.#.} &.o.=.O.&.L ~ =.;.&.=.#.#...I ~ C C ~ ^ P j & = 5 5 5 = = 5 = ",
"5 u 5 = 7 g j S S 0 d ^ | ~ _ } =.=.=.&.#.~ =.=.o.=.=.~ &.' _ ;.O.| #.&.=.,.~ _ =.=.#.o.#.=...E E C D } | } Z 5 8 8 5 u u 8 u 5 ",
"* 5 = * j J E a a > 7 C S C Z ~ I I ~ I I I ~ _ I I ~ Z L L g G L g L @.=.;.I I ..&.O.......| ~ _ J ~ =.#.~ a = 5 8 5 8 5 8 8 * ",
"8 c 8 9 I L L > g M M B C B B F F B F F K K F K K F B B B B B M B a 9 _ =.&.~ | o.o._ ' _ #.&.~ | P ~ #.@.L J b 5 c c c 9 x u 5 ",
"; 5 = * J _ L > i , , , 9 > , 9 9 9 y a a a a , 9 a 9 9 9 9 > > > 7 9 _ =.:.' #.=._ L ' ..#...^ ..I ~ | _ ~ o._ S 5 8 9 5 5 9 = ",
"8 ; a ; Z ~ J 7 M -       . .       X .       .       . X       X a a ~ =.>.| =.,.O.~ =.&.&.=.} ..E I } o.@.o...I 5 8 j j 8 c 8 ",
"; a Z a ^ ~ I > M -       X .       X .       o .       o       o g 7 | ,.,.#.#.=.=._ ..;.=.#.| | P I o.=.&.#./ Z > = 8 5 5 5 = ",
"5 J Z a ^ ^ ~ a M ;       & X       & X       ; X     . -       & M g | ,.,.o.O.| | | } &.=.#.#.o.I P &.=.o.} _ ~ I a 8 8 5 8 8 ",
"B b L j I .._ 0 B >       - X       ; X       9 X       ;       - B M | ,.;.o.=.O.G S I ' ' &.o.} C Z ^ ' / L ~ o.' I * * j C * ",
"j Z J j / o.| a M ; X & & > > ; - - 7 > ; ; & , - - & & 7 - - # & M a | ,.,.=.#.I Z x J J D D D Z c j Z D J c Z j ^ E 7 C S J C ",
"z I ^ b o.#._ a B > . X X # # o o o & o o o X o X o o o & o o X & M g | ,.>.:.| C x x m v v v e w w x m m v w 8 9 ~ I 0 P I I J ",
"C I ' J #.| _ a B >       & X       & .       & .     . -       # M g | ,.=.:.#.D D ' Q D R Q ) { ( T R R T E x a ^ ~ 0 J ~ _ b ",
"J ~ / Z ' &.| a B >       - X       ; X . X . 9 X     . >       & M g | >.,.,.#.C x R Q T Q T R R R T v T R Q v 9 ~ ~ C L ' ~ J ",
"I L ~ S ..=.O.a B 7       ; o       , # ; 7 > a X     . 7       - M g O.;.,.:.| Z w 6 e w e w e w w e w q w 6 6 a _ ' C ~ } _ I ",
"^ _ ..J =.&.' 9 B >       ; #       > & a S j a o     . 9 o & X - M a ..,.=.=.| b w 3 3 3 D D ( ( R T m < 3 3 3 8 _ _ S ~ } ..~ ",
"=.} ..J &.&.' g B ,   X & > > > X   9 # o 0 & ; o     X a > a * ; M a | ,.&.;.&.Z 6 3 3 3 R Q R R T R T 3 1 3 6 j ~ } Z / / ..~ ",
"&.o.| L =.:...a B > . & g a g S & . 9 & 5 0 7 a o     o a ; 7 # ; M a _ >.=.>.=.j 8 6 w w x v v x x x x 6 e w w 9 I | C _ | o.~ ",
"&.| _ P &.=._ a B 9 X > B 9 0 b &   ; # = + # 0 X     o > & > # ; B a | ,.=.:.#.D @.@.@.@.#.;.=.#...@...@.=.@.Q j ~ ..I | @.o./ ",
"O...~ D =.=.| 9 a ; . & # > & * #   ; X o + . > & a ; X > o + # ; B M &.,.#.:.| S ;._ L I I L L L S ~ ~ E ~ ~ ( a _ ..I #.o.o.' ",
"=.^ D D E O.O.a M ; . ; 5 5 = j > . > X . + . > a I j # ; . . . ; B a =.,.=.=.| J ;.| ~ _ | I ~ _ _ ' ' ^ ~ I @.c ' #./ =.=.=._ ",
"E ~ Z J D #.| 0 M >   * 9 * # 5 #   > # . . X ; & 7 # & 7 o +   & g a O.,.:.,.O.J ;.,.o.#...#.@.#.#.o...' ..=.;.C O.=./ o.o.o._ ",
"^ E c 8 E =...0 M ; . o + # + + o o > & o . o * * 0 * & > .   X ; M 9 | :.:.=.| S ;...L I L ~ I I B g g J _ ,.;.b ..=.} &.o.o.| ",
"_ D 3 $ E ..E 0 a ; . . . * # . o & a o X ; ; ; * # * # & o o + & 7 9 | ,.=.:.| D ;.=.&...o.} } ....| ..| ..;.;.Z ..&.' #.| &._ ",
"~ c $ 8 ( E E 9 a > X . X & # . o & y & o 7 & > X . . * a 9 o o X > 7 | ,._ O.| C ( =...;.;.I ~ I #.| <.<.<.=.( j _ #.~ _ I o.} ",
"S Z < $ 5 J _ a M > o o o # # o % & > & # & X ; o . # 8 = Z 7 X X 7 > ~ =.~ &.| j D ....;.@.L J S ' _ ;.=.;.@.R j ^ ' I | ~ o.^ ",
"Z c $ O 4 ^ ' a g ; X # > 7 ; * & o & 7 I S > # o   X 5 $ 8 9 o X 7 7 _ ,.O.=._ f c R ( @.#.@.*.=.#.=.( ' ..( b 9 ' =.J J C L z ",
"E 8 $ $ 5 D I 9 a * X j c S 9 * 5 ; * C C C a * * ; ; * # # # # # 7 9 _ .._ #.#.j 5 5 a Z J C b a b Z C Z j u 7 j ....J a S C 7 ",
"_ x < 3 8 j ~ 9 g ; . ; # ; # + # # # & * ; # o X # o o o o . . # a > B I ' ,.>._ f J J ~ | ~ ~ I ~ Z I I ~ J b ' ' _ J g a & # ",
"L Z 8 4 j S j > 0 & . + @ * o o o X # . o o   # . o . o & . o   X 7 > j I ..,.#.O.^ =...O.=.O.| | &...=.| =.~ P ' _ O.J a ; > 7 ",
"G C 8 5 a J 0 ; 0 *     . o X X . . & X     . # o o . . & . .   o 7 > a I =.O._ =.' #.} O.O.| ..&.#.} =.| ..P E .._ _ G a > a J ",
"j S j 8 j S > & > &       . .       o .   .   o X X . . X       o 7 > > j _ L L | | ~ _ O.| ~ ..O.~ ~ ~ Y ~ ^ ~ Y I _ G a 7 d S ",
"B i > > 7 M > & > ; # + @ @ $ @ * 5 7 = * a 7 5 7 7 * * # $ # * > 5 & > l B l B F B g B F B B K G l B l M l G F g g M y > ; , i ",
"g 7 , 7 y k r # ; > * * * @ @ @ 5 5 7 = = a a 7 7 5 * = * ; ; * > * # y B N k B M M M B N g M N N N B N k k g i y g t > > ; > t ",
"g 9 > 7 , g i & o o o o o . . . o # o o + # & # & o . . o + # o o X # a B N g N N B B B g g N N N N B N g t y 7 , a , ; a > > r ",
"9 , * , , y , > # . . + O . . . O + o . . # # . o o . . . o . . + # * , i g y y g g t y 7 i i g i y y i y ; G g 7 j a 0 9 # > , ",
"a y ; i a g y a * + + = @ + O + + > * + $ 5 7 # & > $ + + * + + > 5 7 y B B k M B k y y g 0 i M g y g g g > g o X o o o o # y , ",
"g k 7 g y l M g > * > y * + + * @ i 7 * > i g = a 7 * + 5 y > * 7 7 y l B M g B N k g 5 7 > 5 g k l B l y - , o : , > & , > y t ",
"k g 7 g g g M k y > l g = O + 7 * a 7 = y g i > a a > * a a > ; g y g k N N N M k g g 9 5 > a a k k k k y ; 0 & , g 7 ; y , y y ",
"i y * i i i r y y ; > 7 > $ + > ; > > ; 7 i y ; , a 5 ; > 9 ; = i y y , i k g g k 7 > 7 $ * 5 9 i t t y t > a & > , , > , > y , ",
"g y * i k k i l g ; 7 7 7 $ + 7 5 y 9 ; > i l 9 y i ; ; 7 0 > * g a l g M l y i B g ; 7 $ @ $ g k i g g r - a & , y 7 > y 7 y > ",
"t i , i i k l k y 7 g a 7 ; ; 7 5 g i > g M g a k k > > a y , 9 M N N l N g y g k g 5 @ $ @ = 9 k g k g , & > & , g , > y , , > ",
"i i , , r y g k g 7 g g y ; > y ; , 9 > y g y , , t > > , y y 7 M k i g g i y y y 9 ; + O O 5 a g y i y , & 7 % , i , > r > > > ",
"> r > , t t , i y ; , i 7 = = y ; 0 y > 9 9 9 9 , 7 , > 9 9 , , i g i r i i , > y y , = O # > y t > , t > & > & > y , > > > , > ",
"> > & & > & & > 7 * * , > & * , * 7 & o # & o & & & & # # > ; & > y , & , y > * y 7 ; ; + * * , , & > , > # 7 % & > > ; & > > & ",
"> > > > > * , 7 i , y y y ; = 7 ; a ; # & & & ; & & ; & o > > > y y i , a g y > a 7 , 7 * * > , , > y > > & > & > , > > , > > > ",
": > > > > & * , y 7 a r y > * , ; 7 ; # * ; & > & & ; & # > ; > i y y , i i , ; , 7 > > * * > > > : > > & & > & > , > : > > > > ",
"& > : & & & & * > > * > 7 * & > * > & & & & # & & # & & # - & ; , , , > , , > & , > ; > * * > > > > > > & o & X & > & & * & & & ",
"# & # & # # o # # # & * = # # * & ; & & & & # & & & & # o ; & # * & & o * & # # * & & * & & & * & & # # o o ; o # & # # # # # o ",
"& & & & & & + # + # * * * & * > * & ; 7 7 7 7 7 7 7 7 > > * & * * & * & * & * > * & & > # & > > & & & # # # ; o & & # # & & & & ",
"# & # # # o o # # + # # # o # & & # # # o o # o o # # # # # & & & & & & & & & # a C 7 & # & & & & & # # o o & X o o o o + & & # ",
"X X X o # ; a o o j L & & o + X o o o o . X X o X o o X X o # o o o & X # j & & I ' I > & j & o ; C > # o o #   X o o & o o o X ",
"& & ; > * a a > * C S > a 9 a * ; & & & * & & & # o + # & * * * > 9 C 7 0 a ; # 5 b 7 * 9 a & * > a ; * & o # # & & * 7 & * & & ",
"* & & * * ; & 7 * a a ; & = > 5 9 a a a 9 9 5 * * $ + $ * 5 9 9 a f d 7 S 9 > 5 > * & $ 4 5 * # * # = * * 7 5 d j ; & ; * & * * ",
"> 7 ; ; 5 > * # @ # + + $ 4 7 8 a 9 7 d a 9 a a u j 5 9 j a c 9 a 9 9 a f a f j j 5 4 2 $ $ + @ O . + @ 5 u 5 j J 7 # 7 > > a 7 ",
"& > 7 a = = = * @ + @ $ * 9 5 5 8 8 C S b Z Z f f z Z S Z Z Z b b Z c c j a 8 5 4 5 5 2 @ * $ @ @ $ 3 5 = 4 4 = ; > > > 7 7 7 > ",
"9 a 7 > 9 j 9 5 8 j 5 a 8 j a a b b b C J Z Z J I I J J J J J D ~ C Z J j a b Z C D x 8 c a 5 x c 5 8 8 c a 9 8 a a j j a 9 9 5 ",
"9 7 5 7 a a a b C C 0 j b Z f J J E Z Z Z C E E ~ ~ ~ C J I J D I J I Z J C b f a J D b b j Z C C 5 j Z f a C C a 7 7 9 7 7 9 > "
};
