/* XPM */
static char *_532933291064528dbd0623bc3e6d76dTpkakY4AjuVEUajR[] = {
/* columns rows colors chars-per-pixel */
"368 677 256 2 ",
"   c None",
".  c #0B0601",
"X  c #0D0B04",
"o  c #0E0D09",
"O  c #060600",
"+  c #1A0602",
"@  c #130D04",
"#  c #1B0D03",
"$  c #130E09",
"%  c #170905",
"&  c #151105",
"*  c #1B1305",
"=  c #1D1905",
"-  c #15120B",
";  c #1B140A",
":  c #1D190B",
">  c #171806",
",  c #161511",
"<  c #1B1611",
"1  c #1C1A13",
"2  c #1B1A16",
"3  c #111008",
"4  c #220D03",
"5  c #290905",
"6  c #380A05",
"7  c #231305",
"8  c #2B1404",
"9  c #231B06",
"0  c #2B1906",
"q  c #22150A",
"w  c #2A150A",
"e  c #241B0C",
"r  c #2B1C0C",
"t  c #321C06",
"y  c #331D0C",
"u  c #381609",
"i  c #241C12",
"p  c #2A1E11",
"a  c #271615",
"s  c #321D11",
"d  c #381A13",
"f  c #2B2406",
"g  c #26210B",
"h  c #2B240C",
"j  c #2E290D",
"k  c #292406",
"l  c #34220D",
"z  c #3B240D",
"x  c #332C0D",
"c  c #382708",
"v  c #3A330D",
"b  c #38320D",
"n  c #252112",
"m  c #2D2313",
"M  c #2E2913",
"N  c #2D2519",
"B  c #332414",
"V  c #3B2513",
"C  c #332B13",
"Z  c #3B2A15",
"A  c #332619",
"S  c #352A1A",
"D  c #3B2C1C",
"F  c #3A2619",
"G  c #363014",
"H  c #3B3414",
"J  c #3E3815",
"K  c #3C331C",
"L  c #3F381B",
"P  c #363119",
"I  c #3C2E20",
"U  c #372B20",
"Y  c #3D3221",
"T  c #3F3920",
"R  c #1F200D",
"E  c #460904",
"W  c #461909",
"Q  c #571806",
"!  c #4A170E",
"~  c #46270C",
"^  c #53260C",
"/  c #432B14",
"(  c #4B2D14",
")  c #432D1B",
"_  c #4B2D1A",
"`  c #462513",
"'  c #542A16",
"]  c #433414",
"[  c #4C3215",
"{  c #433B15",
"}  c #44321C",
"|  c #4C331C",
" . c #433C1B",
".. c #4A3D1B",
"X. c #493E15",
"o. c #533315",
"O. c #53351C",
"+. c #54391D",
"@. c #5B3B1D",
"#. c #5A351A",
"$. c #48350E",
"%. c #672A16",
"&. c #65391C",
"*. c #733015",
"=. c #433423",
"-. c #4B3522",
";. c #453B23",
":. c #4C3A24",
">. c #4C3B2A",
",. c #453929",
"<. c #543B23",
"1. c #5B3D23",
"2. c #533D2B",
"3. c #563824",
"4. c #4D3326",
"5. c #633C25",
"6. c #763A24",
"7. c #611C0A",
"8. c #47401B",
"9. c #4B431C",
"0. c #4B4317",
"q. c #51461C",
"w. c #544A1E",
"e. c #59491D",
"r. c #5C511C",
"t. c #68441C",
"y. c #6C4D1E",
"u. c #4B4422",
"i. c #4C4525",
"p. c #534423",
"a. c #5D4225",
"s. c #544B23",
"d. c #594E23",
"f. c #54422C",
"g. c #5D432B",
"h. c #574C2A",
"j. c #5C5225",
"k. c #5C542B",
"l. c #595328",
"z. c #594634",
"x. c #564D33",
"c. c #634325",
"v. c #6B4424",
"b. c #63452B",
"n. c #6A462B",
"m. c #64492D",
"M. c #6B4B2D",
"N. c #694925",
"B. c #734D2C",
"V. c #764B27",
"C. c #645B2C",
"Z. c #655729",
"A. c #73512E",
"S. c #7B522D",
"D. c #775426",
"F. c #654B33",
"G. c #6C4D32",
"H. c #654A36",
"J. c #724E32",
"K. c #774D34",
"L. c #6D5134",
"P. c #6D533B",
"I. c #665A33",
"U. c #735334",
"Y. c #7B5434",
"T. c #7C5936",
"R. c #74553A",
"E. c #7B563A",
"W. c #75593C",
"Q. c #7B5B3C",
"!. c #755936",
"~. c #6B612D",
"^. c #6C6333",
"/. c #696236",
"(. c #736534",
"). c #756B3B",
"_. c #786838",
"`. c #7B713C",
"'. c #72632F",
"]. c #745B43",
"[. c #7C5D42",
"{. c #745B46",
"}. c #695643",
"|. c #7D6144",
" X c #7B6549",
".X c #7B6E49",
"XX c #5E5244",
"oX c #8B3819",
"OX c #893D24",
"+X c #864627",
"@X c #83552C",
"#X c #835A35",
"$X c #825C3C",
"%X c #845836",
"&X c #944E2C",
"*X c #83613E",
"=X c #8B623D",
"-X c #86673A",
";X c #946A36",
":X c #A16131",
">X c #835E42",
",X c #855F45",
"<X c #836344",
"1X c #8B6544",
"2X c #8C6946",
"3X c #846549",
"4X c #8C6B4B",
"5X c #88674A",
"6X c #936B45",
"7X c #936C4B",
"8X c #9A6E4B",
"9X c #936846",
"0X c #94714D",
"qX c #9B724D",
"wX c #997549",
"eX c #8A6C52",
"rX c #956F51",
"tX c #8D7255",
"yX c #947353",
"uX c #9B7453",
"iX c #9C7955",
"pX c #9C7A5B",
"aX c #97775A",
"sX c #89724B",
"dX c #A5764C",
"fX c #A17653",
"gX c #A37A55",
"hX c #A37C5B",
"jX c #AA7D58",
"kX c #AF764D",
"lX c #987D63",
"zX c #8A7765",
"xX c #A67E61",
"cX c #A5815D",
"vX c #AB825D",
"bX c #A88155",
"nX c #B38756",
"mX c #9C8166",
"MX c #A48262",
"NX c #AB8563",
"BX c #AC8A6A",
"VX c #AB8866",
"CX c #B38A65",
"ZX c #B38D6B",
"AX c #B68A67",
"SX c #B9926D",
"DX c #BB9573",
"FX c #B99675",
"GX c #B28E71",
"HX c #9E805B",
"JX c #C19A78",
"KX c #C1946C",
"LX c #CFA551",
"PX c #C8A687",
"IX c #D0AF8E",
"UX c #C69D85",
/* pixels */
"                                                                                                                                                                                                                                                                                                                                                                                                                                                                                                                                                                                                                                                                                                                                                                ",
"                                                                                                                                                                                                                                                                                                                                                                                                                                                                                                                                                                                                                                                                                                                                                                ",
"                                                                                                                                                                                                                                                                                                                                                                                                                                                                                                                                                                                                                                                                                                                                                                ",
"                                                                                                                                                                                                                                                                                                                                                                                                                                                                                                                                                                                                                                                                                                                                                                ",
"                                                                                                                                                                                                                                                                                                                                                                                                                                                                                                                                                                                                                                                                                                                                                                ",
"                                                                                                                                                                                                                                                                                                                                                                                                                                                                                                                                                                                                                                                                                                                                                                ",
"                                                                                                                                                                                                                                                                                                                                                                                                                                                                                                                                                                                                                                                                                                                                                                ",
"                                                                                                                                                                                                                                                                                                                                                                                                                                                                                                                                                                                                                                                                                                                                                                ",
"                                                                                                                                                                                                                                                                                                                                                                                                                                                                                                                                                                                                                                                                                                                                                                ",
"                                                                                                                                                                                                                                                                                                                                                                                                                                                                                                                                                                                                                                                                                                                                                                ",
"                                                                                                                                                                                                                                                                                                                                                                                                                                                                                                                                                                                                                                                                                                                                                                ",
"                                                                                                                                                                                                                                                                                                                                                                                                                                                                                                                                                                                                                                                                                                                                                                ",
"                                                                                                                                                                                                                                                                                                                                                                                                                                                                                                                                                                                                                                                                                                                                                                ",
"                                                                                                                                                                                                                                                                                                                                                                                                                                                                                                                                                                                                                                                                                                                                                                ",
"                                                                                                                                                                                                                                                                                                                                                                                                                                                                                                                                                                                                                                                                                                                                                                ",
"                                                                                                                                                                                                                                                                                                                                                                                                                                                                                                                                                                                                                                                                                                                                                                ",
"                                                                                                                                                                                                                                                                                                                                                                                                                                                                                                                                                                                                                                                                                                                                                                ",
"                                                                                                                                                                                                                                                                                                                                                                                                                                                                                                                                                                                                                                                                                                                                                                ",
"                                                                                                                                                                                                                                                                                                                                                                                                                                                                                                                                                                                                                                                                                                                                                                ",
"                                                                                                                                                                                                                                                                                                                                                                                                                                                                                                                                                                                                                                                                                                                                                                ",
"                                                                                                                                                                                                                                                                                                                                                                                                                                                                                                                                                                                                                                                                                                                                                                ",
"                                                                                                                                                                                                                                                                                                                                                                                                                                                                                                                                                                                                                                                                                                                                                                ",
"                                                                                                                                                                                                                                                                                                                                                                                                                                                                                                                                                                                                                                                                                                                                                                ",
"                                                                                                                                                                                                                                                                                                                                                                                                                                                                                                                                                                                                                                                                                                                                                                ",
"                                                                                                                                                                                                                                                                                                                                                                                                                                                                                                                                                                                                                                                                                                                                                                ",
"                                                                                                                                                                                                                                                                                                                                                                                                                                                                                                                                                                                                                                                                                                                                                                ",
"                                                                                                                                                                                                                                                                                                                                                                                                                                                                                                                                                                                                                                                                                                                                                                ",
"                                                                                                                                                                                                                                                                                                                                                                                                                                                                                                                                                                                                                                                                                                                                                                ",
"                                                                                                                                                                                                                                                                                                                                                                                                                                                                                                                                                                                                                                                                                                                                                                ",
"                                                                                                                                                                                                                                                                                                                                                                                                                                                                                                                                                                                                                                                                                                                                                                ",
"                                                                                                                                                                                                                                                                                                                                                        2.x.x.z.f.2.f.z.H.}.{. X{.{.{.{.{. X{.{.{.{.{.{.{.{.}.P.z.z.H.H.H.H.P.}.}.XXXX}.XXx.XXXXXX}.XX                                                                                                                                                                                                                                                                                                          ",
"                                                                                                                                                                                                                                                                                                                                                      ,.x.{.{.}.P.P.P.W.3XtXlXlXlXlXlXlXlXlXlXlXlXlXlXmXlXlXtX5X X X X X X X X5X X X X X X{. X X X.X Xf.                                                                                                                                                                                                                                                                                                        ",
"                                                                                                                                                                                                                                                                                                                                                    Z z. XtX5X3X,X>X>X1XyXMXFXFXFXFXFXFXFXFXFXFXFXFXFXFXFXGXMXmXyXaXpXpXaXaXaXaXyXyXtXtXeXeXeXtXlXmXzXx.                                                                                                                                                                                                                                                                                                        ",
"                                                                                                                                                                                                                                                                                                                                                  r -.H. XyX4X1X,X$X,X9XuXBXFXDXJXFXFXFXFXFXFXFXFXFXFXFXFXGXVXMXpXpXmXmXpXpXpXpXyXyXyXyXyX7XyXaXmXmXzXx.                                                                                                                                                                                                                                                                                                        ",
"                                                                                                                                                                                                                                                                                                                                            f.,.D =.g.P.<X4X1X<X$X$X,X6XuXVXDXDXDXSXGXFXFXFXSXGXSXGXGXGXBXMXpXuXyXyXyXyXyXyXyX0XeX4X4X4X4X4X4XyXaXlXeXf.                                                                                                                                                                                                                                                                                                        ",
"                                                                                                                                                                                                                                                                                                                                          f.XXx.f.g.L.W.>X1X*X$X$X$X=X6XuXvXSXSXSXSXGXSXFXDXGXVXBXVXNXNXMXpXyXyX4XyXyX0X4X4X4X4X4X4X4X4X5X1X4XyXyXtX5X2.                                                                                                                                                                                                                                                                                                        ",
"                                                                                                                                                                                                                                                                                                                                          f.{.{.P.P.[.Q.<X1X1X1X1X=X1X8XiXVXDXDXJXFXDXFXJXDXDXZXZXZXBXNXcXhXiXuX0XuXiXiXuXyXuXyX7X7XrX0X7X7X7XyXaXtX3X2.                                                                                                                                                                                                                                                                                                        ",
"                                                                                                                                                                                                                                                                                                                                        S z.{.[.].W.<X<X<X1X1X2X1X1X6XqXgXCXDXJXJXFXFXFXJXDXSXZXZXZXBXMXhXhXiXiXuXiXiXiXuXiXuXiXuXyXyXuXyX0XyXiXpXeX|.a.                                                                                                                                                                                                                                                                                                        ",
"                                                                                                                                                                                                                                                                                                                                      B -.F.[.5X<X<X1X<X*X*X$X<X1X=X1X7XuXvXZXSXDXDXSXSXSXSXCXVXVXVXNXhXhXhXhXhXhXcXcXgXgXiXgXiXuXuXuXuXqX7X0XuXiXyX5XR.1.2.z.z.z.z.f.>.                                                                                                                                                                                                                                                                                        ",
"                                                                                                                                                                                                                                                                                                                                    B } g.R.<X4X1X*X1X<X*XQ.W.>X,X$X1X1X7XuXhXhXNXNXcXNXNXcXhXhXhXhXgXuXgXhXNXNXVXVXvXhXgXgXgXgXhXiXuXuXuX7X7X0XyX7XyX5X|.3X5X5X5X3X X{.}.2.                                                                                                                                                                                                                                                                                    ",
"                                                                                                                                                                                                                                                                                                                            >.:.>.| -.m.Q.<X7X7X6X6X7X5XW.U.P.R.U.Y.T.$X$X<X1X4XrX7X7X7XyXyXyX0X7XuX0X8XqXfXjXNXCXCXCXNXvXjXbXvXNXNXcXhXfXuXqX0X0XuXyXyXyXaXaXaXuXyXyXtX[.H.                                                                                                                                                                                                                                                                                    ",
"                                                                                                                                                                                                                                                                                                                          H.{.{.].G.G.[.4XuXgXgXgXiXuX4XW.F.F.b.b.N.n.M.M.M.J.J.E.Y.E.E.$X$X,X*X1X1X1X1X6XqXgXNXZXZXAXAXCXCXAXAXZXZXCXNXhXfXuXqXuXuXuXuXuXhXhXgXqXqXfXpXeX].2.                                                                                                                                                                                                                                                                                  ",
"                                                                                                                                                                                                                                                                                                                        2.{. X3X3XE.Q.1XqXgXgXgXbXgXiX5XR.m.g.g.b.c.b.b.n.b.n.n.M.M.G.K.E.T.$X$X$X1X$X$X1X8XgXNXSXSXSXSXSXSXSXKXKXSXSXAXvXgXuXuXuXfXuXfXhXhXhXgXdXdXjXhXyX[.g.                                                                                                                                                                                                                                                                                  ",
"                                                                                                                                                                                                                                                                                                                        -.H.R.R.Q.U.Y.1X8XfXgXgXiXuXuX4XR.m.F.b.m.b.m.G.M.n.M.G.U.U.U.E.>X1X1X1X1X1X1X$X1X8XhXCXJXJXKXSXSXSXSXKXKXKXSXAXjXfXuXuXuXqXqXuXgXhXhXgXdXdXdXuX1XW.<.                                                                                                                                                                                                                                                                                  ",
"                                                                                                                                                                                                                                                                                                                        -.G.U.U.Y.B.Y.1XqXfXgXgXgXiXuX4XR.G.m.F.F.G.G.G.G.m.G.G.U.R.U.Q.<X1X2X4X4X7X1X*X1X7XhXCXJXJXKXSXAXAXKXKXKXKXSXCXjXqXuXgXgXuXqXuXfXgXgXfXdXdXdXqX1XR.<.                                                                                                                                                                                                                                                                                  ",
"                                                                                                                                                                                                                                                                                                                      y | N.B.B.B.B.Y.1XuXgXjXcXgXiXuX4XW.G.G.G.L.L.U.U.G.G.G.G.G.G.J.U.Q.<X1X1X1X1X1X,X1X7XfXNXSXSXSXAXAXAXKXKXKXSXAXCXjXgXgXhXhXgXuXuXfXfXfXdXdXdXfXqX<XR.2.V                                                                                                                                                                                                                                                                                 ",
"                                                                                                                                                                                                                                                                                                                      V o.c.N.V.K.B.E.2XuXhXvXvXhXiXuX7X,XE.E.R.R.P.R.R.P.G.G.G.G.G.G.U.Q.<X<X1X1X1X<X<X1X7XqXhXCXCXCXCXCXCXAXSXCXNXvXvXgXgXgXjXjXgXfXfXfXuXdXdX8X8XuXuX5X[.F.) F                                                                                                                                                                                                                                                                               ",
"                                                                                                                                                                                                                                                                                                                  2.f.g.G.E.$X$X$XE.$X7XuXhXcXcXcXhXpXuX4X<X,X<X|.|.<X[.W.L.m.m.M.M.G.U.T.Q.*X*X<X1X<X1X1X1X7XuXqXqXfXfXfXfXdXgXjXfXgXgXgXgXgXjXvXhXgXgXgXfXfXfXjXhXNXNXlXaX3XG.2.2.2.2.z.f.                                                                                                                                                                                                                                                                    ",
"                                                                                                                                                                                                                                                                                                              z.P. X3X<X4X7X7X4X1X1X1X7XiXhXcXcXcXcXhXiXuX4X7X0XyX4X4X5X|.R.b.b.g.m.m.L.W.Q.Q.Q.<X1X1X1X1X1X<X,X$X,X<X<X1X1X1X1X1X6X7XuXuXuXgXgXhXvXvXhXgXgXhXNXVXSXDXFXFXSXMXyX,X$XE.5XeX,XP.                                                                                                                                                                                                                                                                  ",
"                                                                                                                                                                                                                                                                                                            >.P.3XyX7X7XyXuXyX7X7X2X2XuXgXcXcXvXvXvXcXhXyX0XyXyXyXyX4X4X5XR.F.F.b.F.m.G.W.Q.Q.Q.<X1X5X5X5X1X<X[.W.Q.Q.Q.$X$X$X,X<X1X7XuXuXgXhXhXvXNXCXNXMXMXVXZXFXFXPXPXPXJXZXhX8X6X1X7XyX3XR.2.                                                                                                                                                                                                                                                                ",
"                                                                                                                                                                                                                                                                                                            f.{.tXlXiX0XuXiXuX0X0X7X7XiXcXvXvXvXVXNXvXhXiXyXyXyXyXyXyXyX5XW.F.F.F.F.m.G.W.Q.Q.Q.<X1X5X5X1X1X<X[.T.T.T.T.T.T.$X$XQ.<X7XuXhXhXvXNXCXZXZXZXAXAXSXFXPXPXPXPXPXPXJXCXjXdX8XfXpX5XR.-.                                                                                                                                                                                                                                                                ",
"                                                                                                                                                                                                                                                                                                            f.{.tXHXiX0XwXqXqX0X7X7X7XiXcXvXNXVXVXNXNXhXuX0XyXyXyXyXyXyX5XW.m.F.b.F.b.F.W.[.Q.Q.<X<X1X<X<X3X<X[.Q.Q.Q.T.T.T.$X$X*X1X7XiXhXhXvXVXAXZXSXZXAXZXFXJXPXPXPXPXPXPXJXCXgXqX8XfXaX3XG.-.                                                                                                                                                                                                                                                                ",
"                                                                                                                                                                                                                                                                                                            >.P.eXpXuX6X8XwXwX0X6X2X7XiXcXNXVXVXNXvXcXhXuX0XyXyXyXyXyXyX5XW.m.g.g.g.g.m.R.[.Q.|.[.|.|.|.<X<X<X<X<X>XQ.T.Y.T.Q.<X1X4X0XyXiXpXhXNXCXZXZXBXNXBXFXJXPXPXPXPXPXPXDXNXfX8X6XfXuX<XG.|                                                                                                                                                                                                                                                                 ",
"                                                                                                                                                                                                                                                                                                            =.H.eXiXqX6X6X8X8X6X6X2X7XiXvXVXVXCXNXvXNXhXiXyXyXyXyXyXyXtX5XW.m.b.g.g.a.m.R.[.Q.|.[.[.[.[.|.<X3X<X<X<X[.W.Y.T.Q.<X5X4X0XyXuXiXhXNXCXAXAXVXNXAXFXJXPXPXPXPXPXPXDXNXfX8X6XfXuX>Xb./                                                                                                                                                                                                                                                                 ",
"                                                                                                                                                                                                                                                                                                            =.k.3XiXqX6X6X8X6X6X6X7X0XiXNXCXCXCXNXNXcXhXiXyXyXuXyXyXyXtX5XW.m.m.g.g.g.m.R.[.Q.|.|.|.|.|.<X3X3X<X<X<X<X<XQ.Q.<X1X5X4XyXyXuXiXMXBXZXZXZXBXBXGXFXJXPXPXPXPXPXPXDXNXfX8X8XfXuX$X5./                                                                                                                                                                                                                                                                 ",
"                                                                                                                                                                                                                                                                                                            } z.3XiXqX6XwXwX0X6X7X7X0XhXNXCXCXZXVXNXcXhXyXyXyXpXyXyXyXtX5XR.m.b.g.g.g.m.W.[.Q.[.<X3X3X<X<X5X1X<X<X3X1X1X<X[.<X<X<X4X7XyXuXuXhXBXSXGXZXAXBXGXFXJXIXIXIXPXPXPXDXNXgXqX8XgXuX$X5.~                                                                                                                                                                                                                                                                 ",
"                                                                                                                                                                                                                                                                                                S D =.D F D p.F.5X7X7X1X6X9X1X1X2X2X7XuXcXvXvXvXcXhXiXiX0X4X4X7X4X4X4X5X<XW.G.F.G.F.m.G.R.W.|.|.|.3X5X5X3X3X3X<X<X<X<X<X[.[.Q.Q.<X5X4XyXyXuXhXNXCXVXNXNXVXVXZXFXJXPXPXFXJXJXZXvXfX8X8XdXqX1XB.5._ ) Z D D Z S                                                                                                                                                                                                                                                   ",
"                                                                                                                                                                                                                                                                                              K f.g.x.f.:.f.z.P.<X5X1X=X1X1X<X<X<X1X2X0XiXgXgXgXiXiXuX0X4X5X1X4X5X5X5X3X|.W.R.L.P.L.L.L.W.W.Q.Q.|.3X3X3X3X3X3X3X|.|.<X<XQ.Q.W.W.<X1X4XyXyXqXiXcXNXvXhXhXNXMXMXBXFXFXFXFXFXDXNXjXdX8X8XdXfX6X%XY.M.b.g.g.g.g.f.>.S                                                                                                                                                                                                                                               ",
"                                                                                                                                                                                                                                                                                              =.g.F.L.F.z.z.F.P.[.<X<X$X,X,X,X,X*X*X2X7XqXqXqX0X0X0X0X7X5X<X1X5X<X<X<X[.[.Q.[.[.[.[.W.W.W.W.W.W.[.[.[.W.W.W.W.W.R.R.!.!.U.U.W.T.<X4XyXuXuXqXuXgXfXuXuXuXuXuXuXhXNXCXVXNXVXCXhXgXgXdXdXfXfX6X=X$XY.U.U.L.L.P.L.x.=.                                                                                                                                                                                                                                              ",
"                                                                                                                                                                                                                                                                                              ,.g.m.m.m.z.z.F.L.Q.<X*X$X<X1X,X,X*X*X2X7X0X0X6X6X6X6X6X2X5X<X<X1X<X<X[.[.[.[.<X3X3X3X[.[.Q.W.R.U.W.W.R.L.L.L.L.G.m.M.M.M.M.L.R.Q.4X0XiXiXuX0X8XqX8X6X1X6X6X7X1X7X8XfXfXuXhXhXjXjXnXjXgXgXdX6X=X$X%XT.Y.Y.T.W.W.}.>.                                                                                                                                                                                                                                              ",
"                                                                                                                                                                                                                                                                                              =.b.M.M.m.g.m.F.L.T.Q.T.T.$X<X<X<X*X*X1X2X6X6X6X6X6X6X6X2X5X<X<X1X<X<X>X>X,X,X3X3X5X3X<X[.[.W.R.U.R.P.L.G.m.m.m.m.b.m.M.m.b.M.T.<X4X0XuXiXuXqX8X6X6X9X=X1X6X1X1X1X6X8X8X8XfXhXjXjXjXjXjXjXdX8X$X%X%X#X#XT.$XQ.W.].>.                                                                                                                                                                                                                                              ",
"                                                                                                                                                                                                                                                                                              =.b.N.N.a.a.a.b.M.U.T.T.T.$X<X<X*X*X*X1X4X0XqXqX0X0X6X7X7X5X<X<X<X<X<X<X<X,X>X[.|.3X<X<X<X<X[.W.R.P.L.L.G.G.L.G.m.M.M.M.b.b.M.Q.<X4X0XuXuXqXqX8X6X8X6X9X6X8X8X6X6X8XdXdXqXgXjXjXjXgXdXkXkXdX6X%X@X@X@XS.S.Y.Y.U.P.-.                                                                                                                                                                                                                                              ",
"                                                                                                                                                                                                                                                                                              -.b.v.b.c.a.c.b.M.T.Q.T.T.$X*X*X<X*X*X1X7XqXiXiXuX0X0X0X7X5X<X<X<X<X<X<X<X<X,X,X,X,X3X3X3X3X[.W.R.P.P.L.L.L.P.L.G.m.m.M.m.b.L.Q.4X0XqXqXqXqXqX8X8X8X8X8XqXfXuXqXqXdXdXdXdXjXjXjXjXjXkXkXkXdX;X#XS.@X@X@XS.S.Y.U.P.-.                                                                                                                                                                                                                                              ",
"                                                                                                                                                                                                                                                                                              >.G.U.U.G.M.G.U.Y.T.Q.T.T.$X*X*X*X*X*X1X7XqXiXuXqX6X6X7X6X5X<X<X<X<X<X<X<X<X<X<X<X3X3X5X3X5X<XW.R.W.R.R.P.R.P.U.L.m.M.M.M.M.U.<X0XuXuXiXuXqXqXqX8X8XqXqXfXhXfXuXuXfXdXdXfXjXvXvXjXnXjXjXjXdX;X#XS.@X@X@X@X@XT.E.R.-.                                                                                                                                                                                                                                              ",
"                                                                                                                                                                                                                                                                                              f.W.W.W.W.R.R.R.E.Q.Q.Q.Q.Q.$X*X*X<X1X1X7XqXuXuXqX8X7X2X5X1X<X<X1X<X<X<X<X5X<X<X<X5X5X5X5X3X[.W.R.R.R.R.W.W.R.U.A.M.M.M.M.M.T.5XyXpXiXiXiXuX7X8X7XuXqXuXuXhXpXuXuXgXfXfXgXhXjXhXvXjXCXvXjXfX6X#XS.@X@X@XS.#X$XQ.].-.                                                                                                                                                                                                                                              ",
"                                                                                                                                                                                                                                                                                              f.W.W.W.W.R.R.R.R.W.W.W.Q.Q.Q.[.Q.$X$X1X1X7XqXqX0X7X7X2X1X<X*X*X<X>X[.[.<X<X<X5X3X5X5X3X<X<X[.R.U.R.R.R.R.R.U.U.U.M.M.M.M.U.T.<X4XyX0X0X7X2X*X<X<X1X<X1X2X4X4X4X4X7X2X1X1X4X7XrXuXgXhXjXgXqX=XS.S.@XS.S.S.@X%XW.R.-.                                                                                                                                                                                                                                              ",
"                                                                                                                                                                                                                                                                                              f.W.W.W.W.W.R.R.R.R.R.T.W.Q.Q.Q.T.Q.$X*X1X2X7X7X7X4X1X<X<X$XQ.$X*X[.[.[.[.<X<X5X5X5X5X<X[.W.R.U.U.R.R.R.U.R.U.R.Y.U.U.Y.U.U.U.Q.<X5X<X<X$XT.U.U.Y.T.U.U.Y.T.Q.W.Q.>XQ.E.Y.T.$X$X1X7XuXgXuX6X$XS.V.Y.S.S.S.@X$XW.R.-.                                                                                                                                                                                                                                              ",
"                                                                                                                                                                                                                                                                                              f.W.W.W.W.W.E.R.R.U.R.R.T.Q.Q.Q.W.T.Q.Q.$X$X*X<X<X$XT.T.T.Q.$X*X<X>X[.Q.[.[.[.<X<X5X<X[.W.R.R.U.U.R.R.U.U.U.W.Q.Q.Q._._.Q.Q.T.T.Q.T.!.U.U.M.M.M.M.M.M.N.M.J.M.G.M.J.M.M.N.M.N.B.K.$X1X8X6X=X@XV.V.Y.S.S.S.#X$XW.R.4.                                                                                                                                                                                                                                              ",
"                                                                                                                                                                                                                                                                                              f.].W.W.W.W.R.R.R.R.R.W.T.W.W.T.T.T.T.Y.U.U.U.U.U.M.M.U.U.Q.<X<X[.>X[.W.W.W.W.W.[.|.[.W.R.R.R.U.U.U.U.U.U.W.|.1X5X4X4X4X4X1X<XQ.T.G.M.N.c.b.a.c.b.b.c.N.b.m.b.b.c.c.1.1.@.@.@.5.5.N.T.$X$X#XS.B.V.Y.S.S.@X#X$XQ.].>.                                                                                                                                                                                                                                              ",
"                                                                                                                                                                                                                                                                                              f.W.W.W.W.R.R.R.R.R.R.R.R.T.T.T.T.T.T.Y.U.B.M.b.N.c.N.M.U.Q.<X<X[.[.Q.W.W.W.R.R.R.W.W.R.R.R.R.R.U.U.R.U.U.W.<X4X0XyXyX0X0X4X5XQ.T.M.b.a.a.a.1.1.b.b.b.b.b.m.b.1.a.1.1.1.+.@.@.@.@.N.K.T.Y.S.D.V.S.Y.S.Y.@X#X$XQ.].>.                                                                                                                                                                                                                                              ",
"                                                                                                                                                                                                                                                                                              f.P.R.R.R.U.U.U.R.R.R.U.U.U.U.E.E.W.W.W.U.M.M.c.a.1.a.m.U.[.5X3X|.W.W.E.E.R.R.R.R.R.R.R.R.R.R.R.U.U.U.U.L.R.<X4X0XyXyX0X0X0X4X*X!.G.g.1.a.a.a.a.g.b.g.b.b.F.b.g.g.b.b.g.a.a.c.N.N.M.U.Y.A.S.S.S.S.S.S.S.S.#X$XW.].4.                                                                                                                                                                                                                                              ",
"                                                                                                                                                                                                                                                                                              >.P.U.R.U.U.U.U.R.R.R.U.U.U.U.U.Y.T.W.W.U.G.m.c.a.1.a.b.U.[.5X5X<XW.E.R.R.R.U.U.R.R.R.R.R.E.R.R.U.U.U.L.L.U.<X4X0XaXyX0XyXyX7X<XT.m.g.<.g.g.g.g.b.b.b.b.F.F.F.b.b.H.F.b.b.m.m.M.M.M.U.U.B.A.S.D.D.S.D.S.S.#X$XW.].>.                                                                                                                                                                                                                                              ",
"                                                                                                                                                                                                                                                                                              f.P.R.R.R.U.U.U.U.R.R.R.U.U.U.R.E.W.[.[.R.L.m.a.a.1.g.m.G.[.5X5X5X<X[.W.R.R.R.E.E.W.W.W.W.W.W.R.R.R.U.L.L.!.<X4XyXiXyXyXyXyXyX5XQ.G.g.<.g.g.1.g.g.b.g.g.g.b.g.g.F.F.F.m.m.F.G.M.M.M.B.A.U.S.Y.S.S.S.S.S.S.#X#XW.].2.                                                                                                                                                                                                                                              ",
"                                                                                                                                                                                                                                                                                              f.P.R.W.R.U.U.U.U.R.R.U.U.U.U.R.R.T.[.[.R.L.m.a.a.<.g.b.G.[.5X4X5X5X<XW.R.R.R.E.W.[.Q.Q.Q.Q.W.W.R.R.U.L.L.R.<X4XyXaXyXyXyXaXyX5XQ.L.g.1.g.g.1.g.g.g.g.g.g.g.g.g.g.F.m.m.b.m.m.m.b.M.U.U.A.S.Y.S.S.S.S.S.S.#X$XW.].>.                                                                                                                                                                                                                                              ",
"                                                                                                                                                                                                                                                                                              f.P.R.R.U.U.G.G.G.U.U.U.U.U.U.R.U.R.Q.Q.R.L.m.a.<.<.<.a.m.].3X5X4X5X<XW.R.R.R.W.Q.[.[.Q.W.Q.W.W.R.U.U.U.L.U.*X4XyXiXiXiXiXiXyX5XQ.G.g.1.g.1.<.1.a.a.g.a.a.g.a.1.g.b.b.b.b.b.m.M.M.M.B.A.A.B.S.S.S.B.D.D.D.S.Y.R.P.-.                                                                                                                                                                                                                                              ",
"                                                                                                                                                                                                                                                                                              z.P.U.U.L.G.M.M.M.G.G.G.G.U.R.R.U.U.W.W.R.L.b.1.<.<.2.<.g.P.|.5X5X5X<XW.R.R.W.[.>X,X[.Q.W.W.W.E.R.U.R.U.L.U.W.<X4XyXaXiXaXyX4X<XQ.G.b.g.g.1.<.1.1.1.a.a.a.g.a.a.g.g.c.b.a.c.N.b.M.M.A.A.B.V.B.S.S.A.S.D.D.S.Y.U.H.-.                                                                                                                                                                                                                                              ",
"                                                                                                                                                                                                                                                                                              z.W.R.U.L.G.M.M.M.M.G.G.U.E.T.T.U.U.Q.T.U.G.b.<.<.2.<.<.a.L.|.5XeX5X<XW.R.R.W.[.<X<X<X[.[.W.W.W.R.R.R.U.L.U.W._.<X4X4X0X4X4X1X<X[.W.L.G.G.m.g.a.1.a.m.L.R.W.W.W.W.W.W.R.U.U.Y.Y.U.Y.Y.Y.S.S.S.S.S.Y.Y.Y.T.#XQ.W.P.-.                                                                                                                                                                                                                                              ",
"                                                                                                                                                                                                                                                                                              z.].W.R.L.G.M.M.M.M.G.U.R.T.Q.Q.T.T.Q.W.U.G.g.<.<.<.<.<.a.G.W.|.5X5X<X[.W.Q.[.<X<X3X<X[.[.[.W.W.W.W.W.R.U.U.U.W.Q.Q.*X<X<XQ.Q.<X1X<X|.|.[.R.G.b.a.b.R.5XyXlXmXlXpXpXpXyXyX4X4X2X<X*X*X$X#XT.#X#X#X#X#X$X=X1X5X3X{.>.                                                                                                                                                                                                                                              ",
"                                                                                                                                                                                                                                                                                              z.].W.R.U.J.G.M.M.M.U.U.R.T.Q.Q.W.Q.Q.T.U.M.a.<.+.<.2.<.a.b.M.L.U.R.R.U.R.E.Q.[.[.[.[.Q.W.W.W.R.R.R.R.R.U.U.U.U.U.U.U.T.U.U.T.1X4XeXeXyXeX<XR.M.c.b.T.eXMXGXGXBXBXVXBXNXMXcXhXuX7X7X2X1X=X=X=X6X6X1X1X6X0XiXiXyXeXz.                                                                                                                                                                                                                                              ",
"                                                                                                                                                                                                                                                                                              z.].W.W.R.R.U.G.G.G.U.U.R.E.T.W.W.Q.Q.T.G.m.1.+.O.<.<.<.<.1.1.1.c.a.a.b.m.G.U.R.R.W.R.R.R.R.R.R.R.R.P.U.L.L.U.U.M.M.U.U.U.U.T.5XyXyXaXpXpXeX[.U.b.M.Q.yXMXGXFXSXGXSXSXZXZXZXAXcXfXqXwX6X6X6XqXqXqXiXwXgXcXNXVXMXlXz.                                                                                                                                                                                                                                              ",
"                                                                                                                                                                                                                                                                                              z.[.[.W.W.T.U.U.M.U.U.U.U.R.W.[.W.Q.W.R.m.a.<.<.-.-.<.2.<.| | ] | | | -.g.b.G.U.U.L.L.L.L.U.U.L.G.G.G.G.F.m.G.G.M.M.A.U.U.M.U.4XyXpXMXMXMXaX1XE.M.M.<XuXNXDXFXDXDXSXFXFXSXDXSXVXhXfX8X8XqXqXgXjXjXjXbXvXCXAXDXGXmXXX                                                                                                                                                                                                                                              ",
"                                                                                                                                                                                                                                                                                              z.3X,X>X>X[.Q.T.U.T.W.T.U.R.W.W.W.R.U.L.m.<.<.-.-.<.2.g.2.:.| } } | | -.2.g.F.L.G.G.M.G.G.L.L.G.F.F.F.F.m.m.m.G.G.M.L.U.U.M.T.4XyXpXMXMXMXpX4XQ.U.U.1XpXBXFXFXSXSXGXGXZXAXAXCXhXfX8X6X6X8XqXgXvXvXbXbXbXvXCXZXBXmXXX                                                                                                                                                                                                                                              ",
"                                                                                                                                                                                                                                                                                              z.3X,X<X<X<X<X$XQ.Q.Q.T.U.R.W.W.U.L.L.F.g.<.O.-.-.<.2.g.f.:.} ] ] ) ) -.2.g.F.G.G.m.m.m.M.F.F.m.m.m.m.m.m.m.m.M.G.A.U.R.U.A.T.4XuXpXcXhXcXpX7X<XY.Y.1XhXBXDXSXZXVXBXVXNXNXNXNXhXuX6X1X9X6XqXdXjXjXbXbXbXbXvXVXVXmXXX                                                                                                                                                                                                                                              ",
"                                                                                                                                                                                                                                                                                              z.|.>X>X$X$X$X*X*X[.W.R.U.U.U.U.G.F.F.m.a.O.[ | | -.2.2.2.-.) Z Z Z Z ) -.f.F.G.G.m.m.b.b.m.m.b.b.m.m.g.g.c.m.M.G.L.U.W.U.A.T.4XyXpXcXhXhXpXyX1XE.Y.1XuXNXZXZXCXVXZXZXCXVXAXZXNXhXuX7X8XfXgXjXjXjXdXdXdXgXvXNXMXmXH.                                                                                                                                                                                                                                              ",
"                                                                                                                                                                                                                                                                                              z.[.$X$XT.T.Q.*X*X_.T.U.G.G.G.G.G.m.m.g.<.| / / ] | :.2.:.) B B B B B Z } :.g.F.m.m.b.b.b.b.m.b.g.m.m.g.g.a.m.m.M.U.U.T.U.A.T.4XyXhXcXcXhXhX7X1XT.T.1XuXhXCXCXCXCXAXCXCXZXSXSXBXxXpXyXuXhXvXvXjXdXwXdXdXdXvXNXMXlXH.                                                                                                                                                                                                                                              ",
"                                                                                                                                                                                                                                                                                              z.|.$X$XQ.T.Q.*X<X<XQ.U.M.G.m.m.m.m.m.m.<.[ / / ] -.:.>.=.D B B B B B V ) :.g.F.F.b.b.g.g.b.b.b.g.g.b.g.g.a.c.b.M.U.U.T.R.U.T.4XyXhXNXcXcXhXuX7X$X$X7XuXhXvXvXvXvXCXvXvXcXMXMXlXaXeX<X5XuXgXbXjXdXwXdXdXbXvXVXMXlXz.                                                                                                                                                                                                                                              ",
"                                                                                                                                                                                                                                                                                              z.|.*X*X$XQ.*X<X5X<XQ.U.M.m.b.b.b.F.H.F.1.| / } } :.:.>.=.F p p m B m B ) -.f.F.F.g.g.a.g.b.b.b.g.g.b.g.g.a.c.m.M.U.U.W.U.U.T.7XiXhXNXNXcXhXuXuX1X1XqXiXhXcXcXcXcXVXcXuX4X5XeX X{.P.H.L.<X0XgXjXgXiXiXdXbXvXVXmXaXz.                                                                                                                                                                                                                                              ",
"                                                                                                                                                                                                                                                                                              z.|.*X<X*X*X*X<X1X<XQ.U.G.b.g.b.b.F.F.b.<.| ] } } ;.:.:.) B r r p p r B ) -.2.g.g.g.a.a.a.g.b.g.g.g.g.b.g.a.c.b.M.U.U.T.U.U.T.7XiXcXVXNXcXhXiXuX7XyXhXMXNXNXvXcXcXMXuX<XU.F.F.z.2.>.} | m.[.4XiXiXiXwXwXiXcXMXlXtXz.                                                                                                                                                                                                                                              ",
"                                                                                                                                                                                                                                                                                              z.].Q.*X$X*X*X*X<X*XT.G.b.b.b.b.g.b.b.g.<.| } / } :.;.=.D r 7 q w r w y V } <.g.a.a.1.1.1.a.g.b.b.g.g.g.a.c.c.c.m.G.U.U.U.B.Y.4XuXcXVXVXvXNXMXhXhXhXVXGXGXZXSXSXZXBXpXG.( V B p m w q 8 V <.R.5XyX0X4X4X0XpXMXlXzXz.                                                                                                                                                                                                                                              ",
"                                                                                                                                                                                                                                                                                              z.R.Q.$X$X*X*X*XQ.T.Y.M.a.a.g.g.g.g.g.g.<.| } / } ;.=.} Z w 7 7 w 8 8 0 z / :.a.a.a.1.1.1.1.a.1.1.a.g.g.a.c.c.b.G.U.R.T.U.B.Y.1XuXNXCXAXNXNXNXhXhXxXVXBXBXVXBXBXBXMXeXg.t 4 @ . @ . . . 7 B 2.P.].W.W.W.Q.3XeXeX X>.                                                                                                                                                                                                                                              ",
"                                                                                                                                                                                                                                                                                              f.P.R.Q.*X*XQ.T.Y.U.M.N.1.1.a.g.g.g.g.g.<.-.} / ] } =.} Z y 8 8 8 0 8 0 z / +.g.b.c.c.c.a.b.b.a.a.a.b.g.a.c.c.M.R.[.[.<XQ.Y.T.4XuXhXNXBXMXMXhXyX4X<X5X5X5X5X5X5X5X3XP.) 7 # @ @ $ @ X @ # q B } ;.) ) ( | <.2.2.>.S                                                                                                                                                                                                                                               ",
"                                                                                                                                                                                                                                                                                              >.P.U.W.Q.Q.T.U.M.B.M.c.@.<.1.g.g.a.g.f.<.| ) Z D } } D Z Z V V V z y z / [ 1.m.M.G.G.M.M.m.b.g.a.a.b.g.a.c.b.U.[.5X4X4X5X$X,X7XuXxXNXVXMXhXyX1XR.m.G.G.m.b.m.F.F.g.:.B # # $ $ - - $ $ $ @ * 7 7 # 4 4 8 8 8 w w q                                                                                                                                                                                                                                               ",
"                                                                                                                                                                                                                                                                                              -.F.m.G.U.U.U.M.M.M.M.c.@.+.+.<.<.<.a.<.| ) Z B B B Z V Z :.z.z.F.b.g.b.m.L.W.3X5X5X4X5X3X[.U.m.a.a.b.g.g.c.M.W.5XpXpXpXyX4X4XyXuXhXhXMXxXpXeXQ.1._ | | ) / ) } } D B w # # $ % $ $ $ $ $ @ @ @ + @ @ + # + + # # $                                                                                                                                                                                                                                               ",
"                                                                                                                                                                                                                                                                                              =.<.1.5.m.M.M.N.M.A.M.b.a.<.+.:.| +.1.<.} Z l r r w r 0 Z H. X5X5XeX5X5XeXeXpXMXMXVXMXMXpXeX|.G.b.g.g.g.b.b.G.[.yXMXMXVXMXuXyXuXuXuXyXuXaXeX[.m./ 8 8 8 8 8 7 8 7 0 w 7 # # ; ; ; $ $ $ $ @ @ # @ @ @ # # # + @ @ $                                                                                                                                                                                                                                               ",
"                                                                                                                                                                                                                                                                                            p ) -.+.1.1.c.N.N.U.U.U.M.a.1.<.:.| | <.<.] V y 0 w 7 0 8 z F.5XtXyXaXeXeX4X4XyXpXpXpXpXyX4X<XU.b.a.g.g.b.b.b.G.[.yXMXMXVXMXuXuXpXuXuX7XuXyX5X[.b.` t 8 8 8 8 7 7 7 e 7 w 7 # # % @ $ $ $ % . @ @ @ @ @ # # # @ # * ;                                                                                                                                                                                                                                               ",
"                                                                                                                                                                                                                                                                                            p D 4.3.1.1.b.b.M.Y.U.U.L.b.a.<.<.| | <.<.} V y 0 7 7 r 8 y g.|.5X4X4X5X<X$X$X$X1X1X5X<XQ.U.M.b.c.a.b.b.b.c.b.M.W.5XpXlXMXpXyXyXuXyX7X1X7XyX5X3XL.| z y y 0 r w w r r r r w 4 # # . @ @ # $ $ $ ; * $ ; ; q q q q q ;                                                                                                                                                                                                                                               ",
"                                                                                                                                                                                                                                                                                            e D 4.+.#.1.1.c.M.U.U.L.U.G.g.<.+.O.+.<.| ] z f w 0 9 q 7 y g.|.5X4X7X7X$XY.Y.U.U.T.T.U.M.c.1.@.1.c.c.b.b.c.b.M.T.4XaXpXhXiXuXyX7X0X2X1X4X7X4X[.G.| z y y y s r r p s y V / c c t 0 0 f m ; . # # # # # q r r r e p q                                                                                                                                                                                                                                               ",
"                                                                                                                                                                                                                                                                                            e D | ( o.o.#.c.M.M.M.M.G.G.g.+.O.O.| +.| / z f r 0 e e 0 l g.3X5X7X7X8X1XY.J.M.M.U.R.G.a.@.#.#.@.N.b.M.b.b.N.M.U.1XyXpXhXpXuX7X7X2X1X*X1X4X<XW.m.( z t 0 0 r w q 7 w y | c.t.y.y.y.Z.Z.p.l + @ @ + . # 7 7 0 w w r e                                                                                                                                                                                                                                               ",
"                                                                                                                                                                                                                                                                                            e D -._ ( o.+.1.b.b.N.c.M.G.g.O.| O.| | | / z r r 9 e e 0 z F.3X4X0X7XqX1XY.M.c.1.a.b.1.| ( [ o.@.N.M.M.M.M.M.M.U.<XuXpXhXhXuXuX7X1X1X1X1X4X<XW.m._ z y 8 0 r r q q 7 l c.'.;X;X;X;X;X;X(.c + @ # @ @ # w r r r r w q                                                                                                                                                                                                                                               ",
"                                                                                                                                                                                                                                                                                            i D <.O.O.O.#.1.b.b.c.c.M.G.g.O.| O.+.<.| ] z l r w 9 e 0 z F.5X4X0XqXuX7XY.c.o./ / ) / z ~ [ +.c.M.M.M.M.M.M.M.T.4XuXpXiXuX7X7X1X1X1X1X4X4X3XW.b.| y 0 8 r p w q q 4 z A.;XnXLXLXLXLXnXwX$.# @ $ @ @ * e r B V y 0 q                                                                                                                                                                                                                                               ",
"                                                                                                                                                                                                                                                                                            i D -.| O.O.O.1.b.M.b.c.b.m.1.| | <.<.2.<.} V l r r h r w V F.5XrXqXqXgX7XU.1.~ t 0 y 0 0 z [ a.b.M.L.L.A.A.A.A.T.4XpXpXuXrX7X2X2X1X2X5X5XeX3X].H.-.V y 8 w r w q 7 4 c D.bXLXLXLXLXLXLXbX0.7 @ * & * ; w B / ) V y w q                                                                                                                                                                                                                                             ",
"                                                                                                                                                                                                                                                                                            i S -.:.<.| [ O.a.b.b.c.c.b.<.O.O.O.+.<.:.} Z z l r m r 0 z F.5X7X8XwXfX2XM.O.l 8 7 w 7 8 y [ a.b.U.A.A.M.A.A.A.T.4XpXpXpXyXrX7X7X7X5X<X3X5X[.R.b._ y 8 7 7 7 7 # # 7 c D.bXnXLXLXLXLXnX;X$.# & > > > 7 r z / | / z y w                                                                                                                                                                                                                                             ",
"                                                                                                                                                                                                                                                                                            i A =.-.:.| / [ a.a.c.a.b.a.1.+.<.| O.<.:.} Z B l r p r 0 z G.4X7X6XwXuX1Xn.| y 7 * q * 7 0 ] a.M.U.A.M.M.A.A.A.Q.7XpXpXpXpXuXyXrX7X5X,X,X,X[.L.1.) t 8 4 # # # # # 0 c y.;X;XdXkXkX;X;XD.~ * & > > & * 7 c [ 1.1.| ) V                                                                                                                                                                                                                                             ",
"                                                                                                                                                                                                                                                                                              p S ) } ) V [ 1.a.1.a.b.a.1.1.<.| O.<.<.| Z V l r B r y V G.5X6X8X8XqX1Xb._ y q : q : 7 y | g.M.Y.A.M.M.A.A.U.$XyXVXVXVXMXMXxXxXhXyX4X5XeX3X[.H.O.` y 0 0 0 w r y c ~ e.D.D.@X@X@XD.t.o.c 7 q : : = 9 0 Z a.U.E.J.b.2.D                                                                                                                                                                                                                                           ",
"                                                                                                                                                                                                                                                                                              i p p B B V | <.g.a.a.a.a.1.1.1.<.<.<.:.| / z l r l l 0 V G.1X7X8XqXuX1XM.| l w i i q 7 r | b.A.!.U.M.A.A.A.Y.<XcXDXFXFXSXSXSXSXSXMXhXhXlXaX3XR.b.O.| V V V / } } | / ( ~ ^ o.^ ^ ~ ~ l w 7 e 9 q 9 0 c [ U.7XrXuXeX].2.p                                                                                                                                                                                                                                         ",
"                                                                                                                                                                                                                                                                                              ; q e w r z } <.g.c.c.a.1.a.1.1.<.<.<.<.| / V l h h h 0 V G.1X8X8X8XqX1Xn.| l w i i q * r | g.A.U.U.M.A.A.U.Y.<XcXFXFXFXFXDXSXDXSXBXMXMXMXpXeX,XR.m.g.<.a.f.g.z.g.2.| / c c c t t t l h r e r e 0 9 0 c +.Q.gXjXxXuX5XH.D                                                                                                                                                                                                                                         ",
"                                                                                                                                                                                                                                                                                                ; * * 7 l ) <.a.c.a.1.1.a.a.1.<.+.<.+.| / V B r l l 0 V M.5X8X6X8XwX<Xn.| s w i p q * r | g.M.U.A.N.M.A.A.Y.<XpXFXFXFXSXGXZXZXZXBXVXNXNXhXyX4X<XQ.Q.W.[.|. X3X].H.2.) y y z l 0 f j j h g r 0 0 7 0 z @.1XvXjXjXhXpX[.2.B                                                                                                                                                                                                                                       ",
"                                                                                                                                                                                                                                                                                                - ; * q r ) | a.a.a.1.@.1.a.1.<.+.<.<.| / z l r l l y V m.1X7X6X6X8X$Xn.| B w i p e 7 r } g.M.U.A.N.M.M.M.U.*XpXGXSXSXZXBXVXVXVXVXVXBXNXhXyX7X4X5X4X4X0XyXyXyX3XH.4.` y z Z l c x x x x h r 0 8 8 t ~ @.6XvXjXgXjXNXtXH.-.p                                                                                                                                                                                                                                     ",
"                                                                                                                                                                                                                                                                                                  < : q r V | <.1.1.c.c.a.a.a.1.1.1.1.O./ V l y l l y V m.1X7X6X6X8X,Xn.O.V 0 w r w 7 t | g.L.U.A.M.M.M.B.U.<XpXFXFXFXSXZXBXBXBXBXBXZXAXNXuXuX7X2X7X7XyXyXyXyX1Xb.| z t z / Z c c x x c l l y y 0 t ~ t.6XCXnXnXNXSXMX|.F.V                                                                                                                                                                                                                                     ",
"                                                                                                                                                                                                                                                                                                    ; q r B / O.+.1.c.c.a.a.a.a.a.b.a.+.( V l y l l 0 V G.5X7X6X8XqX1XM.+.z 8 w w 7 8 y | g.L.!.A.M.M.M.A.Y.<XpXFXFXFXDXZXZXZXZXAXZXZXGXVXhXuX7X1X7X7XyXuXuXuX5Xb.| ~ z / | ] / c c c f l z V V y z ~ &.6XCXnXnXCXDXBXyXR.) 8 7                                                                                                                                                                                                                                 ",
"                                                                                                                                                                                                                                                                                                    < : e l / | +.@.&.c.a.c.c.c.c.c.a.+.[ V z y y r 0 V G.4XrX7X8XqX1XM.#.~ 8 0 8 8 8 l | g.M.U.M.M.M.M.M.U.Q.yXVXBXBXBXVXVXVXBXAXCXZXZXNXgXrX9X1X7X8XuXuXhXvXuX!.e.~ c / | _ / / / z c l V V V V z ~ #.%XjXnXnXCXSXVXpX3Xg.) ) ,.                                                                                                                                                                                                                              ",
"                                                                                                                                                                                                                                                                                                    < ; e r ) O.+.@.@.@.a.c.a.a.a.a.a.+.[ V l y y y 0 Z P.tXaXyX7X7X1XG.1.` t t 0 8 8 l | d.m.A.M.M.N.N.N.N.Y.5XpXMXMXMXcXMXVXBXCXNXCXCXxXfX7X1X1X6X7XqXuXvXAXcXsX!.q.~ ( O._ ( ~ ~ z c z / / ` z z ~ o.Y.dXnXnXCXAXvXgXrX[.G.].}.f.                                                                                                                                                                                                                            ",
"                                                                                                                                                                                                                                                                                                      ; e B ) <.1.1.1.1.a.b.b.a.a.c.a.<.[ / z y y y 0 V H. X X[.W.U.G.M.5.#.( ( / z z / <.m.M.c.b.b.n.n.N.n.U.W.5X4X7XrXyXuXiXiXhXhXhXhXgXuX7X9X1X0XiXgXcXCXSXSXHX5Xc.~ [ +.+.O.#.( $.$.~ +.1.+.( / ~ o.Y.8XjXAXAXnXjXgX8X9X9X4XtXH.                                                                                                                                                                                                                            ",
"                                                                                                                                                                                                                                                                                                      : e B =.2.g.b.b.a.g.m.m.g.a.c.c.1.| / V l y y y V g.P.H.g.-.| +.b.M.M.m.N.b.1.+.@.a.b.c.N.N.N.N.c.c.c.b.M.J.Y.Q.$X$X1X4X7X7X8XrXuXuXrX7X6X7XgXNXNXCXDXDXDXVXyXU.@.@.c.b.N.c.t.t.c.t.M.G.m.1.O.~ o.Y.6XgXCXAXnXjXdXdX8XdXhXMX{.)                                                                                                                                                                                                                           ",
"                                                                                                                                                                                                                                                                                                        e m ) -.<.<.<.<.1.g.b.a.c.c.c.1.| / V z y l y V -.2.| / z t ~ b.U.E.E.R.U.G.M.b.m.b.N.t.N.c.c.c.n.n.c.n.n.M.J.U.Y.T.*X<X,X1X9X7X7X7X7X7XuXhXVXCXZXDXDXDXZXpXT.N.N.M.Y.U.T.A.A.M.N.U.Y.U.m.1.( #.B.=XfXnXnXkXkXkXkXdXkXjXMX].)                                                                                                                                                                                                                           ",
"                                                                                                                                                                                                                                                                                                        ; e m V V V / / [ <.1.a.a.e.a.+.[ / ` V y l l V / ) V y y 8 ~ b.R.T.T.T.U.U.G.M.M.c.t.@.@.@.@.@.5.c.5.5.n.M.J.U.Y.T.$X<X,X1X1X1X1X1X1X7XuXMXGXSXSXDXDXSXAXMX7X$X$X1X7X7X7X=X$XS.A.Y.T.U.M.a.o.^ v.#X6XkXdX8X8XkXkXdXdXdXuXG.V                                                                                                                                                                                                                           ",
"                                                                                                                                                                                                                                                                                                          : q e w 0 y z / O.@.@.@.e.@.#.[ ( / V z V V V V V l 0 8 8 z b.W.Q.T.$XT.Y.U.U.M.M.&.#.@.@.@.@.@.1.5.c.c.n.M.U.U.T.Q.,X$X$X1X1X,X,X1X2XuXNXSXDXSXDXSXSXAXNXuX7XuXhXhXgXgXqX6X#XS.S.Y.B.m.1.( ^ &.S.;XdX8X;X:XkXkXkXdXdXrXG.`                                                                                                                                                                                                                           ",
"                                                                                                                                                                                                                                                                                                            1 q 7 q 0 l / O.@.@.@.e.@.#.O.[ [ [ / V ) ) Z Z z 0 0 8 / F.[.[.$X$XT.T.Y.U.B.M.t.#.@.@.@.@.@.1.c.n.b.M.J.U.U.U.U.Y.T.$X,X1X1X1X1X7XuXMXZXSXSXSXSXSXZXCXhXfXhXCXNXvXjXbXwX=XT.B.B.N.c.@.( ^ v.#X6XjXkXkXkXkXkXkXkXjXxXE._                                                                                                                                                                                                                           ",
"                                                                                                                                                                                                                                                                                                              : ; 7 w l / O.@.@.t.t.@.@.#.+.O.| ( / } } ) Z Z y r w ) F.[.<X$X$XT.T.Y.U.U.N.v.t.5.5.@.@.@.1.c.c.G.J.R.U.U.U.U.U.T.E.$X1X5X1X1X2XrXuXhXNXCXSXDXDXSXAXNXhXCXAXAXCXvXCXcX6XT.V.v.@.+.o.~ ( v.#X8XnXjXkXkXkXkXkXjXAXAX,X4.                                                                                                                                                                                                                          ",
"                                                                                                                                                                                                                                                                                                                ; : e B ) +.@.1.c.t.e.@.#.+.+.+.O.( } } Z Z V y w w V g.W.<X1X1X$X$X$XT.Y.B.B.B.K.U.M.M.n.n.n.n.n.G.U.U.U.U.U.U.Y.T.$X1X,XQ.E.E.Y.E.$X1XuXCXSXSXZXZXNXhXCXAXCXvXvXVXgX*XV.&.o.o.| ( ~ ~ &.Y.9XjXjXdXdXkXkXkXjXjXNX>X_ y                                                                                                                                                                                                                         ",
"                                                                                                                                                                                                                                                                                                                1 : n Z ) O.1.a.c.c.c.@.@.@.@.<.[ [ } / Z B B l 0 7 l <.P.<X5XeX5X4X1XQ.U.U.Y.$X<X$XQ.T.U.M.G.M.G.G.U.U.U.U.Y.T.Y.T.$X$XQ.J.n.v.&.o.o.B.1XhXSXDXSXZXNXMXNXNXcXvXcXvXuXT.v.o.~ ~ / z z ~ o.n.,XuXuXuX8X8X8X8XfXfXhXE._ w                                                                                                                                                                                                                         ",
"                                                                                                                                                                                                                                                                                                                  1 p B D } O.+.1.@.@.@.@.@.+.+.O.O.| ) Z B B s r 7 0 / <.m.G.U.G.U.G.M.M.U.$X1X4X1X1X<X$XT.R.U.G.U.U.U.U.U.T.T.Y.T.$X$XE.K.n.N.&.o.o.n.$XuXSXDXGXZXNXMXMXMXNXVXVXVXgXT.v.o.~ ~ ` z y u ~ o.b.K.K.K.K.B.V.B.K.K.K.3.d w                                                                                                                                                                                                                         ",
"                                                                                                                                                                                                                                                                                                                  1 i m B Z / ( [ [ o.o.#.#.#.o.#.+.O.| Z l l s p 0 8 y z V / _ | | ( o.c.J.<XrXyX7X7X0X7X1X>XE.J.K.Y.Y.T.T.E.E.Y.T.T.T.T.K.M.n.v.@.#.n.$XuXSXDXSXBXBXMXMXMXBXGXZXZXcX*XN.o.~ W ` V y t u u ~ ` ` ` ~ W W W W W W u 8 4                                                                                                                                                                                                                         ",
"                                                                                                                                                                                                                                                                                                                  1 i m B V V z z ~ ~ [ O.#.#.#.@.+.O.| V y 0 r r 0 7 8 8 8 8 0 l t 8 z O.G.<XuXqX8XuXuXyX7X<XE.K.U.Y.Y.E.E.T.Y.Y.Y.Y.T.Y.U.J.J.J.n.5.B.$XqXZXFXBXBXVXMXMXVXZXFXDXZXcXQ.c.o.~ W d d u u 8 8 8 u 8 5 5 5 5 5 5 5 5 5 4 #                                                                                                                                                                                                                         ",
"                                                                                                                                                                                                                                                                                                                  ; q p B B V l y z ~ ( o.#.#.#.@.+.O.( z 0 8 w w 7 7 7 8 4 # 7 7 7 4 8 ( m.>XuX8X6X8XuXrX7X$XT.K.Y.Y.T.T.T.T.Y.T.Y.Y.Y.Y.U.U.Y.Y.B.N.K.T.7XVXZXBXVXMXhXMXVXSXJXDXCXiXT.&.' W W u u u u u 8 u u u u u u d w 5 5 5 4 # %                                                                                                                                                                                                                         ",
"                                                                                                                                                                                                                                                                                                                  > : i m B B y y y z ( +.@.#.@.@.#.O./ y 8 7 w w 7 w w 7 7 # * q # # 8 _ m.>XuX7X6X8XuXrX9X$X#XY.Y.E.E.T.T.T.Y.Y.Y.Y.Y.U.U.Y.E.Y.U.B.U.Y.2XNXVXVXNXMXpXMXVXSXJXDXNXqXY.&.' ^ W u u u u u u u d y d d d d a a q a q ; ;                                                                                                                                                                                                                         ",
"                                                                                                                                                                                                                                                                                                                  > : i m B B r y u z _ +.@.1.c.@.@.o./ y 8 8 0 w w r r e q q q q ; # 0 _ m.>XuX8X6X8XfX8X9X,X$XY.#X$X%XT.T.Y.Y.Y.Y.Y.Y.Y.Y.Y.T.Y.Y.U.U.Y.5XMXVXBXVXcXpXpXhXNXDXCXgX6XS.&.&.#.' ` ` ! W d u u u d d s d d a a a a a ; <                                                                                                                                                                                                                         ",
"                                                                                                                                                                                                                                                                                                                  > : p m A B r y y V _ +.1.c.c.c.@.o./ l 8 8 0 r r r r r e e i p e w y | m.,XuXqX8XqXfXuX7X1X%XY.%X$X$X$XT.Y.#XY.Y.Y.Y.Y.Y.Y.T.Y.Y.K.A.U.1XMXBXBXVXhXuX7X0XgXNXvXqX=XS.&.&.&.%.' ' ^ ! ! W W W d d a s d a a a a a <                                                                                                                                                                                                                           ",
"                                                                                                                                                                                                                                                                                                                  - > e p B B y y y l / O.<.1.@.1.O.[ / t 8 w 0 y l y r r r e 9 r e 7 y | m.<XuXuXwXqXuXqX7X1X#XY.T.#X#XT.T.T.$X#XY.Y.Y.Y.A.U.Y.Y.K.K.B.U.5XHXVXVXMXpXyX9X$X9X8X9X=X&X+X*.6.6.6.*.*.%.%.%.' ^ ` d w w a a a a a a a                                                                                                                                                                                                                             ",
"                                                                                                                                                                                                                                                                                                                  - > e p l B y y 0 y Z | <.<.<.+.[ ( ~ t 8 8 0 y l l t y 0 0 r r 0 7 t | m.<XuXuXqXqXuXqX7X=XT.Y.Y.T.#XT.T.T.$XY.Y.Y.Y.Y.A.U.U.Y.K.K.B.K.<XiXcXHXpXyX4X%XS.@X@X&X+XOX*.*.oX+X+XOXOXOX6.6.*.' ' d 5 4 a a a a a                                                                                                                                                                                                                                 ",
"                                                                                                                                                                                                                                                                                                                  - ; e p B V y y 0 y z ( | O.O.o.( ~ z t 8 r B B V z l y r w r r 0 7 y | m.,XuXuXqXqXfXqX6X=X#XY.Y.#X#XT.#X#X$X#XT.Y.Y.Y.S.Y.Y.K.K.K.K.Y.<XyXpXpXiX7X1X%XV.V.+XOXoXoXoXoXoX&X&XOXoXoXoXOX6.&.' ! 5 5 ; < a a                                                                                                                                                                                                                                   ",
"                                                                                                                                                                                                                                                                                                                  - ; i m B V l y y t z / [ [ [ [ ~ ( ~ y t B Z Z Z V l y 0 w r p r 0 l | M.<XuXuXqXuXgXuX6X=X#XY.T.$X$X#X#X$X$X#XT.#X#XT.Y.Y.Y.U.Y.Y.Y.Y.<XyXpXyXyX6X1X%XV.+X+X+XoXoXoXoXoX&XoXoXoXoXoXOXOX6.%.` u 5 ; < 2                                                                                                                                                                                                                                     ",
"                                                                                                                                                                                                                                                                                                                  - : r B B V B y y t z [ O.#.#.#.o.O.[ ~ l V Z ) / / z l 0 w r s r 0 l | M.1XuXuXqXqXgXqX6X=X$XY.#X$X$X#X#X$X$X%X#X%X$XT.Y.Y.U.Y.Y.Y.Y.Y.Q.4XyXuXuX2X$X@XV.+X+XOXoXoXoXoXOX&XoXoXoXoXoXOX+X6.&.` w ; ; <                                                                                                                                                                                                                                       ",
"                                                                                                                                                                                                                                                                                                                  ; : e p B V y y l z ( 1.c.N.N.N.N.b.a.[ z ` / / / / z y t 0 r r w 8 y | M.<XfXfXwXqXgXqX6X=X$X@X$X1X1X=X=X$X#X%X#XT.$XT.Y.U.A.Y.Y.K.B.B.T.eXpXMXMXuX1X@XV.V.+X+X+X&X&XOX&X&XOXoXoXoXoXOXOX6.3.` w ; < <                                                                                                                                                                                                                                       ",
"                                                                                                                                                                                                                                                                                                                  ; : r B V Z z z z / +.b.M.A.A.U.U.U.M.O./ / / / _ / z l t 0 0 r w 8 l O.M.1XgXfXwXqXgXqX6X=X=X$X6XqXqX6X1X$X@XY.Y.T.T.T.Y.U.Y.Y.S.S.B.B.R.5XyXMXlXyX,XB.&.6.6.6.+X+XOXOX+X+XOXOXoXoXOXOX6.5.3.d a ; <                                                                                                                                                                                                                                         ",
"                                                                                                                                                                                                                                                                                                                  - : p B ) ) V ` / [ 1.M.U.Y.Y.Y.U.U.M.+.~ / / _ | _ ` l t 8 0 r w 0 z O.G.1XgXfXqXfXgXfX6X9X=X9XqXgXgXqX6X$XS.B.B.B.Y.Y.U.Y.Y.Y.S.Y.B.n.J.Q.,X5XeX[.G.3.' ' ' %.6.6.*.*.*.6.*.%.*.*.*.6.5.' ` d q < <                                                                                                                                                                                                                                         ",
"                                                                                                                                                                                                                                                                                                                  > e B D =.-.| _ / o.a.J.Y.T.T.T.Y.U.M.+./ / ( _ | _ / z t 8 0 r r 0 z +.M.1XfXfXqXqXgXfX6X6X6XqXgXvXvXvXqX#XV.v.v.B.B.B.Y.T.Y.Y.S.S.B.B.n.n.G.].}.H.4.` d d W ` ' ' ' ' ' ' ' ' ' ' ' ' _ ` d a q <                                                                                                                                                                                                                                           ",
"                                                                                                                                                                                                                                                                                                                  - e B D | -.| | ( o.c.U.U.T.T.Y.Y.Y.M.#.~ ~ ( _ | _ ` z t 0 0 r r 0 z +.G.1XgXfXqXqXfXqX6X6X8XuXgXjXvXjX8X@XV.&.&.v.B.B.B.B.B.V.S.S.S.V.3.' _ 4.) F s w 8 5 8 u u u u u u u u u u d d d s s a a <                                                                                                                                                                                                                                             ",
"                                                                                                                                                                                                                                                                                                                  * q B D -.-.| | ( o.a.J.Y.Y.Y.Y.S.U.M.#.~ ~ ( _ | _ ` l t 0 0 r r 8 z +.G.1XfXfXqXqXfXqX6X8XqXgXhXhXhXjXqXT.v.&.&.5.v.n.n.B.V.V.S.S.S.v.' u 8 4 + + + + + + + + + + + + + 4 + % % # + + ; ; <                                                                                                                                                                                                                                                 ",
"                                                                                                                                                                                                                                                                                                                  * e B ) -.<.O.| [ O.c.J.Y.T.Y.Y.S.Y.M.@.~ / ( [ | _ ` l t 0 y r r 8 z O.M.1XuXuXqXqXqXqX6X6XuXgXgXgXhXvXqXT.v.&.&.v.n.n.n.V.V.V.S.@XY.V.' u 5 + . + + + + . . . . . . . . % @ @ @ % % $ - <                                                                                                                                                                                                                                                   ",
"                                                                                                                                                                                                                                                                                                                  : p F ) -.<.<.O.[ #.c.U.T.T.T.Y.Y.Y.M.@.~ ( [ | | | / z t 0 y r w 8 l +.M.1XuXuXqXqXuXqX6X6XuXgXhXhXhXvXuX#Xv.&.&.v.N.n.n.B.V.V.@X@X#XK.#.u 5 + + % % % % % % % % % % % % % % % $ % $ - ; i                                                                                                                                                                                                                                                   ",
"                                                                                                                                                                                                                                                                                                                  ; p B ) | -.| | [ #.N.U.T.T.T.T.T.Y.M.@.~ ( [ | | | / z t 0 y r w 8 z +.G.4XiXgXuXuXgXuXqXqXgXhXcXcXNXNXuX$XV.t.&.v.n.n.n.B.B.S.@X#X#XK.3.u 5 + % % + % % % % + % % % % % - % % % % - ; ;                                                                                                                                                                                                                                                     ",
"                                                                                                                                                                                                                                                                                                                  : e B Z / | ( [ ( O.N.U.T.T.T.$XT.T.A.@.( ( [ | O.| / z t 0 0 r 0 8 l +.L.4XiXhXuXuXgXiXuXuXhXcXNXVXVXVXuX$XN.t.&.&.N.n.v.B.S.@X@X@XY.B.O.u 5 + % + + + + + + + % + % + + % % + + + + # ;                                                                                                                                                                                                                                                     ",
"                                                                                                                                                                                                                                                                                                                1 q r B V / ( ( ( ( #.N.U.Q.$X$X$XT.E.A.@.( ( [ O.<.| / z t 0 0 r w 8 l +.G.5XiXiXuXuXuXuXuXuXhXhXNXVXVXNXuXT.N.t.&.&.c.c.v.B.Y.#X@X+XV.v.' u 5 + % % + + + + % + + + + + + + + + + + # % ;                                                                                                                                                                                                                                                     ",
"                                                                                                                                                                                                                                                                                                              1 ; q B } | 1.@.@.@.#.@.n.Y.T.$X$X$X#XT.A.@.[ ( O.+.<.O./ V y 0 r y y 0 t [ g.R.<X<X<X>X[.<X1X7XuXuXiXhXhXiX4XT.N.v.v.v.c.c.c.B.Y.%X@X+XV.5.' u 5 5 + % + % + + + + + + + % % + + + + + % + q                                                                                                                                                                                                                                                     ",
"                                                                                                                                                                                                                                                                                                        2 1 1 1 : e D 2.g.N.N.v.N.@.&.N.A.Y.#X#X$X#XT.M.1.[ [ +.+.1.O./ V l y y y y 0 t / <.b.G.G.G.G.n.J.E.,X4X7X7X0X0X7X*XY.B.V.v.v.v.c.c.n.B.@XS.V.6.&.^ u 5 5 4 + + + + + + + + + . + + + + + + + % + 4                                                                                                                                                                                                                                                     ",
"                                                                                                                                                                                                                                                                                                  < , 1 1 1 1 ; * r -.H.U.U.T.Y.Y.N.v.N.B.Y.T.#XT.T.U.N.@.( ( O.O.+.O./ V l y y y y y t / [ O.#.#.+.o.o.#.n.U.E.$X$X#X#XT.Y.Y.S.B.V.N.N.&.#.#.&.&.&.*.%.^ W 6 5 5 5 + + + + 4 5 5 4 + + + + + + + + + 5 4 q                                                                                                                                                                                                                                                     ",
"                                                                                                                                                                                                                                                                                                ; - - , 1 ; ; : 7 y 2.W.Q.$X$X$X$XY.A.B.B.A.Y.Y.Y.A.N.5.o.~ ~ [ [ O.[ / V y y y l y y y / / ~ ~ ~ ~ ~ c ~ @.n.B.B.V.V.y.N.V.B.S.S.V.B.v.@.o.~ ^ ^ ^ ^ Q Q W 6 6 5 5 4 4 4 5 6 6 6 6 5 4 + + 5 4 4 + 4 4 4 q                                                                                                                                                                                                                                                     ",
"                                                                                                                                                                                                                                                                                              2 - - - < < ; : ; 7 l g.[.*X#X=X-X*XT.Y.S.V.S.S.Y.Y.A.N.@.( ~ ~ ( [ [ ( / V y y y l l y l / / ~ ~ ~ ~ c t ~ @.N.N.B.N.t.t.t.y.V.S.D.V.B.B.&.^ ~ ^ Q Q Q Q Q E 6 6 6 5 5 8 8 u W Q ^ ^ W 6 5 5 5 5 5 5 5 5 5 q a                                                                                                                                                                                                                                                   ",
"                                                                                                                                                                                                                                                                                              2 - - - < i q q q 8 z g.Q.*X#X#X#X#X#XS.D.V.S.Y.Y.Y.U.n.@.o.~ ~ o.o.o.( ~ / z y y l l y l V / ~ ~ ~ ~ ~ c ~ @.N.M.A.V.y.t.t.V.V.@XD.D.S.B.v.^ ~ W W Q Q Q Q E E 6 6 5 5 u W ' &.6.6.6.5.` 6 5 5 5 5 5 5 5 5 q a                                                                                                                                                                                                                                                   ",
"                                                                                                                                                                                                                                                                                              < ; - ; 1 i ; q q 8 z b.$X$X#X@X@X#X@XS.D.V.D.@X@X#XY.N.5.o.~ ~ o.o.o.( ( ~ z y l y l y l V / ~ ~ / ] ~ c / +.c.M.A.V.y.t.y.V.V.S.S.D.D.A.v.^ ~ W W Q Q Q Q E E 6 6 5 6 u ^ &.6.OX+X+X6.' u 6 5 5 6 6 6 6 5 5 a                                                                                                                                                                                                                                                   ",
"                                                                                                                                                                                                                                                                                              < - - ; < i q ; 7 8 z b.*X=X#X#X@X#X#X@XD.y.V.@X@X#XS.V.&.o.^ ^ o.^ ( ~ ~ ~ z t y y y y l z Z Z ~ / / z z z [ @.N.M.N.t.t.t.V.V.S.V.V.V.B.v.o.^ ^ ^ Q Q Q Q E E 6 6 6 6 W ^ *.6.6.6.6.6.' u 6 6 6 6 6 6 6 6 5 a                                                                                                                                                                                                                                                   ",
"                                                                                                                                                                                                                                                                                            2 - - - ; ; q q q 7 8 ` b._.<X#X#X#X#X@X@XD.V.D.Y.Y.Y.Y.B.&.&.#.o.&.o.o.^ ~ ~ z t t y y y l z z Z / / / z t z ( +.c.N.N.t.t.t.y.V.V.V.V.V.N.&.o.^ ^ Q ^ Q Q Q E E 6 6 6 6 W ' *.*.*.*.6.6.' W 6 6 6 E E 6 6 6 5 a                                                                                                                                                                                                                                                   ",
"                                                                                                                                                                                                                                                                                            n ; - - - ; q q * 7 8 V b.|.1X*X$X-X#X#X#XS.S.S.T.T.T.Y.B.V.V.v.v.v.v.&.#.#.( ~ z t y l l z z z Z Z / / z t z / O.a.M.N.t.t.t.t.y.V.V.V.V.N.5.o.^ ^ Q 7.7.7.Q E E E 6 6 6 W ' *.6.6.*.6.%.Q W 6 6 E E E E 6 6 6 w                                                                                                                                                                                                                                                   ",
"                                                                                                                                                                                                                                                                                            n 1 > > ; ; i q q 7 0 Z g.].|.Q.$XT.T.T.T.T.A.Y.T.U.B.B.N.B.Y.T.Y.Y.B.N.v.5.#.~ z l l l l z z V V V / Z z t t V | 1.b.N.N.t.t.t.t.y.y.V.B.M.c.#.' ^ ^ 7.7.7.Q E E E 6 6 6 W ' &.6.*.*.*.%.Q E 6 E ! E E E E 6 6 w                                                                                                                                                                                                                                                   ",
"                                                                                                                                                                                                                                                                                            i : > - ; ; q ; * * 7 y | z.b.b.c.c.c.c.c.a.@.a.c.a.@.@.@.&.Y.$X$X$XY.S.B.N.@.( z z l y l z z V V V B B y 8 8 y V O.g.c.N.t.t.t.v.v.y.y.M.M.c.o.^ ^ Q Q 7.7.Q E E E 6 6 6 u ^ %.*.*.*.*.^ W E 6 E E E E E E 6 6 w                                                                                                                                                                                                                                                   ",
"                                                                                                                                                                                                                                                                                          n i : > & * ; : ; * # * w B D ) / / / / ] ] ] ~ / ] / ~ ~ ~ o.M.$X<X$X$XY.Y.M.c.[ ~ z t t t l V V z f r r 0 7 8 8 l ) <.a.N.t.&.t.v.v.t.t.N.M.c.' ~ W Q Q 7.Q Q E E E 6 6 6 6 ! ' %.*.%.%.^ W W 6 E E E E E E 6 6 w                                                                                                                                                                                                                                                   ",
"                                                                                                                                                                                                                                                                                    i i i q q : > > ; : : : ; ; q q r r 0 y l l l l l l r l B l t t t ~ b.E.$X$XY.S.B.B.N.#.~ z z t t y l l 0 0 7 7 7 + 4 8 0 V | <.a.t.@.t.v.v.t.t.N.M.c.o.^ ! Q Q 7.7.Q E E E E 6 6 u W ' %.*.*.*.%.^ ! W E E E E E E 6 6 w                                                                                                                                                                                                                                                   ",
"                                                                                                                                                                                                                                                                              i < ; ; ; ; ; * > > > > : : : ; ; q q q w q w w 7 0 0 9 9 9 9 h 9 0 0 t z +.M.M.N.v.v.v.N.N.@.o.[ / z y t f r 0 7 7 7 # # # # 8 y / | @.@.#.@.&.t.t.t.N.b.c.o.' ^ Q %.%.%.7.Q E E E E 6 W ! %.*.6.6.+XV.6.5.' Q E E E E E 6 6 w                                                                                                                                                                                                                                                   ",
"                                                                                                                                                                                                                                                                          1 < ; i i q q : 9 e 9 h g n n m m m m n p p p r r r r g g g e = e e e 0 w 0 y } <.1.@.@.#.#.@.c.@.@.#.[ / t 0 0 0 7 * * * # # # 4 7 y z / | [ o.#.@.@.@.e.a.a.1.o.' ^ ' %.%.%.7.Q E E E E 6 W ! %.*.6.OX+X&X%X+X*.Q E E E E E 6 6 w                                                                                                                                                                                                                                                   ",
"                                                                                                                                                                                                                                                                        - - ; i n M C C C F F K K P P K K K K K K K K K K K K G H H G j h h r e e 9 r h B Z B B y 0 z [ @.v.N.&.@.~ c t t 0 0 7 7 7 7 7 q 7 0 7 r l V z z / / / / ] [ | | ( ` ^ ' %.6.%.%.Q Q E E 6 E W ^ %.%.*.*.&X:X:X:XOX%.Q E E E E 6 5 a                                                                                                                                                                                                                                                   ",
"                                                                                                                                                                                                                                                                      2 - - ; : N P K K } K }  .;.T L  .;.;.;.8.u.u.u.u.u.u.u.u. . . .C h h r e p r 9 e r 9 e q 7 4 8 ~ o.v.V.v.@.o.~ z l y w 7 w w w w 0 0 0 0 0 r r r y l z V V V Z / ` ` ` ` ^ ' %.%.7.Q Q E E E E E ^ %.%.*.*.&X:X:X:X+X%.Q E E E 6 5 5 w                                                                                                                                                                                                                                                   ",
"                                                                                                                                                                                                                                                                      1 - - > : m S K K } K L  .;. . .u.i.i.i.u.u.i.i.u.u.u.i.i.i.s.u.L M h r e r r 9 9 e 9 q 7 7 # 8 z o.v.N.v.@.o.~ z z l r r y y r r r r r 0 7 0 w 0 0 0 y y y t t y u u u W W ! Q Q Q E E E E E E E Q Q 7.%.*.oX&X:X:XOX*.Q E 6 6 6 5 5 q                                                                                                                                                                                                                                                   ",
"                                                                                                                                                                                                                                                                    1 , - & & : n S K T } K K  .L L  .8.u.u.u.u.i.s.s.s.s.i.s.h.d.h.s.L M 9 9 e e e 9 9 9 9 9 e q * 8 z [ c.M.N.c.#.[ Z z l l l y l l r r r r 0 7 0 w 0 8 0 0 0 8 8 8 8 8 8 u u 6 6 E E E E E E E E E E Q Q 7.7.*.oX&X&X&XoX*.Q E 6 6 6 5 + i                                                                                                                                                                                                                                                   ",
"                                                                                                                                                                                                                                                                    1 : - @ & > m C K T K G G L H H  .8.u.s.u.9.s.s.s.w.s.s.s.d.s.l.h. .h 9 9 9 e e 9 e 9 : : 9 ; # 7 z ( b.U.M.M.a.| / z l y l l l y r r r r w 0 w r w 0 w w 0 8 8 8 8 8 u u u 6 6 E E E E E E E E E E Q Q 7.%.oXoX&X&X&X+X*.7.E 6 6 5 4 %                                                                                                                                                                                                                                                     ",
"                                                                                                                                                                                                                                                                    1 - & @ @ & e C K K K G C C G K  .u.i.s.9.9.0.9.9.0.0.9.w.w.s.l.h.L f 0 9 q e e e 9 : ; : : ; @ 7 y / b.W.W.L.b.| V l y t y l l y y r r r w w r r r r r r 0 0 0 r y y u u u u u u E E E E E E E E E E Q %.*.oX&X&X:X&X&XOX%.W 6 5 5 + %                                                                                                                                                                                                                                                     ",
"                                                                                                                                                                                                                                                                  i : & & @ & > h C K K K G C G H G { u.i.s.9.8.9.9.9.9.q.s.w.w.s.h.s.J g 0 9 ; 9 9 9 9 : ; : : > # 7 r / g.R.R.F.g.| V l y y y l l l y y r r 0 w r r 9 e e r e w w w 0 y y y y u u u W W E E E E W E 6 E ! ^ %.*.V.+X+X+XV.6.' u 5 5 5 # ;                                                                                                                                                                                                                                                     ",
"                                                                                                                                                                                                                                                                i : > & @ @ & > h C K K L G C Z G G L  .i.u.8.8.9.9.9.9.9.q.q.0.9.s.u.H k 0 9 ; 9 9 9 ; ; > > > - @ * w Z 2.H.F.g.:.Z l l l l l l z z l y y r 0 7 0 9 9 q q q q q q 7 w w w w y u u u d d u 6 u 6 u 6 6 u u W ^ ' &.&.6.&.5.&.` u 5 4 4 ;                                                                                                                                                                                                                                                       ",
"                                                                                                                                                                                                                                                            n n n e : > & * = 9 M C S K G G C G G Z H  .;. . . . . .{ { { 8.8.8.8.8. .C h g 9 9 9 e e = = > > > & * ; 0 B } :.>.} D B y l l z z z l z z l l r 0 7 7 * * * * * ; : ; q q q q q r r w w w u w w 5 w w w w w w u u u ` _ ' _ _ ` V 7 q q q                                                                                                                                                                                                                                                         ",
"                                                                                                                                                                                                                                                        : : 1 i N m m g 9 g h h M C C C C x x C C V V C G H H b H v H v H J J J v J H x g h h h h h g e e : : : : : ; * 7 r r r r 0 7 7 r l z z z c z z z l y 0 7 # # # & $ & & - - ; > ; ; : ; ; ; q 4 5 5 5 4 q ; ; ; < q w q w r y r w r r w q i                                                                                                                                                                                                                                                             ",
"                                                                                                                                                                                                                                                      , - ; i n m m m M M M C C C x C C x h j x V l h h l x h h x x x x x x x x x x x h h M m m m m g g e e e e : : 9 * * # # @ # # # 7 r l z z c z c z z z y 0 # # # @ $ @ @ - $ - ; ; ; ; ; < ; ; ; ; ; ; ; - < ,                                                                                                                                                                                                                                                                                             ",
"                                                                                                                                                                                                                                                    1 - - > : i m M M C C C C C C C C C x h x x V B h h l j x x x x x x x C C x x x C C C C A M M M m g g n n i i : e 9 * & # @ @ @ * q r z z Z c c z Z Z z l 0 # # @ $ @ @ o - -                                                                                                                                                                                                                                                                                                                               ",
"                                                                                                                                                                                                                                                    < - & > : e M B C C M x C C C x x x x x x x C j j x x x x x C G C x C C C C x x x C C C A M M M M M m h m n n n e 9 ; & @ @ $ * ; q m B Z / ~ ~ ~ ~ Z V l 7 # # @ $ $ $ - -                                                                                                                                                                                                                                                                                                                                 ",
"                                                                                                                                                                                                                                                    1 - - : e g M B B B h h j C h h h x x h h h x j j j x j j j j x x j j C M j j j j j M M m m M M h h g g m n n i e : ; * $ & & & ; : r B Z / / ~ ~ ~ Z z y 7 # # @ @ $ - - -                                                                                                                                                                                                                                                                                                                                 ",
"                                                                                                                                                                                                                                                    1 > > : i h h f h f f f h l h f h j x j h h h f h h j k k f f f j j h h M k k k k h h h m m g g g k 9 9 e g g : e e 9 ; & - $ @ & : e l Z / ] ~ ( ~ z z y 8 # @ @ @ $ - , ,                                                                                                                                                                                                                                                                                                                                 ",
"                                                                                                                                                                                                                                                    < - - : e h g g f f f f f l h f f x x j f f h f h h f k f f j j j j j j h h k k k k h g g h g g g 9 9 9 9 e e e e e q : ; & ; - * ; e B Z / [ [ [ / Z z y 7 # # @ @ $ - , ,                                                                                                                                                                                                                                                                                                                                 ",
"                                                                                                                                                                                                                                                  i 1 ; $ > 9 9 9 k g g k f f f f f x x x f f f x f f j x j x x x x x x x x x k k h h k k k k 9 9 9 9 9 9 9 e g g 9 g e q : ; ; * * * ; e h F D | | | ] / Z l 7 # @ $ @ $ - ,                                                                                                                                                                                                                                                                                                                                   ",
"                                                                                                                                                                                                                                                i i i ; * q 9 9 k g h j j x x v b b J J J v v H J H H H J H J J {  .{ J J J J H G G G x x x C x x j j h h g h h h k h h g q q 9 q 9 e 9 h h B B V / / / Z Z l 7 # @ $ @ $ - ,                                                                                                                                                                                                                                                                                                                                   ",
"                                                                                                                                                                                                                                          1 : 1 1 ; ; q 9 g h h h x C C H H  .8.8.9.s.s.s.p.p.p.s.s.u.u.s.u.u.s.h.h.h.s.s.s.h.u.u.u.u.u.u.u.u.u.8.8. . .G C C G G G G P C m m m M M M B B h h r 0 l z B V Z l 7 # @ $ @ $ - ,                                                                                                                                                                                                                                                                                                                                   ",
"                                                                                                                                                                                                                                        - - - & > > q n M C G C C H J J J  .u.h.l.k.C.I.C.C.C.C.I.k.k.k.k.k.k.k.I.I.I.I.I.I.I.k.l.k.k.k.k.k.k.k.k.k.x.i.;.L L  . . .L T K K S C C P K K D B r 7 7 0 r f l B r q @ @ & @ $ -                                                                                                                                                                                                                                                                                                                                     ",
"                                                                                                                                                                                                                                        - & & & > > 9 C K  .u. . . . . .8.9.h.I.C.I./././.I.I.^.I.C.C.C.C.C.C.C./././././.^.I.I.k.k.C.C.C.C.C.C.I.C.I.l.u. .{  . . . . . .L G C H L  . .K C 9 & * * 7 7 0 w 0 * & * & - - ,                                                                                                                                                                                                                                                                                                                                     ",
"                                                                                                                                                                                                                                      1 - & & & * * g K ;.i.s.s.u.8. .8.8.w.k././.^.^.^.^.^./.^.^.~.~.~.~.C.C.C.^.^.^.^.^.^.^.C.C.C.C.~.~.~./.^././.C.k.s.8. .8.8. . . . .{ H H H J  . .K C e & & & & & * ; * * * & & - - ,                                                                                                                                                                                                                                                                                                                                     ",
"                                                                                                                                                                                                                                      1 > & & & & & g K u.h.d.s.s.9...X.0.w.k.I.^.^.(.(.^.^.^.^.^.~.~.~.~.C.C.Z.~.^.^.^.(.(.^.C.C.C.C.~.^.~.~.^.^.^./.C.w.0...9.9....... .{ J J H J  .L K A i & * & & & & * * * & & @ & - 1                                                                                                                                                                                                                                                                                                                                     ",
"                                                                                                                                                                                                                                      1 > & & & * & 9 K ..s.s.9.q...{ { 0.q.j.C.C.~.^.^.^.~.~.~.~.~.~.~.~.C.Z.Z.C.~.^.^.(.(.^.C.C.Z.C.~.~.~.~.~.^.^./.Z.w.X.X.0...{ { {  .J J J v J J J K A e * > * & & & * > > & @ @ - -                                                                                                                                                                                                                                                                                                                                       ",
"                                                                                                                                                                                                                                      1 ; & & * * & g K u.s.w.q.q.X.X.X.0.w.j.C.C.~.'.(.^.~.C.~.C.~.^.^.^.C.Z.Z.C.^.(.(.(.(.^.C.C.C.~.'.'.~.~.~.^.^.^.C.s.X.X.q...] ] { { ] J { J  . .L K N i ; > > > & & > > > ; & @ - 2                                                                                                                                                                                                                                                                                                                                       ",
"                                                                                                                                                                                                                                      2 ; - - > * & g K u.s.s.q.q.0.0.0.w.d.Z.C.C.C.^.(.(.^.~.^.^.(.(.(.^.C.j.j.C.^.(.).).(.^.^.~.C.~.'.(.'.~.'.(.(.^.C.d.0.X.0...] ] { { ] J { {  . . .K N i ; : : : > > : : > ; & - > 1                                                                                                                                                                                                                                                                                                                                       ",
"                                                                                                                                                                                                                                      2 ; - & * * & g K u.s.w.q.0.0.0.q.e.j.C.C.C.C.C.^.~.C.C.C.C.^.^.^.^.C.j.j.C.I.(.).).).(.^.~.C.C.^.(.^.^.(.(.(.^.C.j.e.s.d.q...{ X.{ { J { {  .8. .K C i : : : : : : : : > & ; ; : 1 i                                                                                                                                                                                                                                                                                                                                     ",
"                                                                                                                                                                                                                                      1 - @ $ & * & 9 G  .9.q.0.0.0.q.w.e.j.Z.C.j.j.j.Z.j.j.l.l.j.C.C.C.C.j.w.w.Z.C./.).).).(.^.~.C.C.~.^.^.^.^.^.~.C.C.C.C.C.I.Z.d.w.9.X.$.v J {  .8. .K C e : = = = e e : ; * & > : 1 i 1 i                                                                                                                                                                                                                                                                                                                                   ",
"                                                                                                                                                                                                                                      1 - @ @ @ & & 0 G  .9.q.q.0.q.w.s.d.j.Z.C.j.j.w.w.q.q.9.s.s.l.j.k.k.d.q.w.j.C.^.).).).).^.^.C.C.C.^.^.~.^.~.C.Z.Z.C.^.(.(.^.C.Z.d.0.{ { { 8.8.8. .H C g 9 9 9 h h h 9 ; & & : q i 1 1 1 2                                                                                                                                                                                                                                                                                                                                 ",
"                                                                                                                                                                                                                                    n 1 > & & * * * g J 8.w.w.w.w.d.d.j.j.Z.C.C.j.d.w.0.X.{ { { 0.q.w.d.j.d.w.w.k.I.(.).).).).).^.C.Z.C.C.C.C.~.C.C.Z.Z.~.)..X`.`.).^.C.d.0.8.8.9.s.9.8.J x j h C C P P C h 9 ; ; : q i < < < <                                                                                                                                                                                                                                                                                                                                 ",
"                                                                                                                                                                                                                                    n i : : : 9 q 9 l  .u.s.j.r.d.j.Z.Z.Z.C.C.C.l.s.0.{ J v b v { X.0.s.l.d.w.d.C.^.).).).).).).^.C.j.Z.C.C.Z.Z.Z.Z.Z.C.(.`.sXsX`.`.).^.k.s.w.w.s.s.s.8.{ H H x L L ;.;.} C h e q 9 q q ; ; ; <                                                                                                                                                                                                                                                                                                                                 ",
"                                                                                                                                                                                                                                    n n n n g h 9 9 x  .s.l.j.j.d.k.Z.Z.Z.C.C.C.l.w.8.{ J v v v { 0.q.s.l.s.w.w.C.^.).`.).).).).^.C.j.j.Z.j.Z.Z.r.r.r.C.(.`..X`.`.`.).~.Z.s.w.s.s.s.s.9.{ { J J  . .u.u.;.K h r q q q ; ; - $ - ,                                                                                                                                                                                                                                                                                                                               ",
"                                                                                                                                                                                                                                    n m M M C M M h C  .q.s.d.w.l.l.k.k.l.l.l.l.s.w.9.8.{ ] { { X.0.s.d.j.s.q.w.C.^.).).`.).(.).^.Z.e.j.j.r.j.r.r.r.r.Z.(.`.`.`.`.`.(.C.j.w.q.w.s.s.s.9.8.8.8.8.8.8.8.u.;.} F r 7 : ; ; ; $ $ $ ,                                                                                                                                                                                                                                                                                                                               ",
"                                                                                                                                                                                                                                    n m M C C M j h G u.s.l.l.d.s.l.l.l.l.l.l.l.s.w.q.9.8.{ { ..0.q.s.d.j.d.w.d.I.(.).).`.).(.).^.Z.e.e.r.r.j.r.r.r.r.r.(.`.`.`.`.`.(.C.j.w.w.w.s.s.s.9.8.8.8.8.0.8.8.u.u. .K m 7 : ; ; - $ $ $ ,                                                                                                                                                                                                                                                                                                                               ",
"                                                                                                                                                                                                                                    n m N C C M h h G i.h.l.l.d.s.s.d.s.s.s.d.d.s.w.p.p.p.9.9.9.q.q.p.s.d.d.d.k./.).`..X`.).).`.(.Z.e.e.r.r.Z.j.r.r.r.Z.(.`.`.`.`.`.(.~.k.w.w.w.s.s.s.9.8.8.8.9.0.X.9.i.i.;.K M ; ; ; ; $ @ $ $                                                                                                                                                                                                                                                                                                                                 ",
"                                                                                                                                                                                                                                  m n m M M M h h h G i.h.l.l.s.s.s.9.8.8.0.w.s.w.q.p.s.s.u.9.q.q.q.q.s.d.d.d.k.^.)..X.X.X`.).`._.Z.e.e.d.j.j.j.r.r.r.Z.(.`.-X`.`.`.(.C.j.w.q.w.s.s.q.9.{ { 8.9.8.8.8.i.u. .D h * ; ; - $ @ $ $                                                                                                                                                                                                                                                                                                                                 ",
"                                                                                                                                                                                                                                  m m m m M h g g g C u.h.h.d.s.8. .{ J J { 8.9.9.9.q.s.s.q.9.q.q.q.q.w.d.d.d.Z.^..X.X.X.X.X.X.X(.Z.e.q.w.e.d.e.e.e.e.r.'.`.`.`.`.`.(.C.j.q.0.q.w.q.9.8.{ { 8.8.8.8.8.u. .L M 9 & * ; $ $ $ $ -                                                                                                                                                                                                                                                                                                                                 ",
"                                                                                                                                                                                                                              n n n m m M h h 9 9 k C ;.i.h.s.9.8. .J v v J { 9.9.0.q.s.s.q.q.s.q.q.q.s.d.d.d.j.(..X.X.XsXsX.X.X(.Z.d.e.e.e.N.e.e.e.e.Z.(.`.`.`.`.`.^.Z.r.q.0.q.w.0.8.{ { { { { 8.{ 8.8. .Z h 9 & * ; - $ o - -                                                                                                                                                                                                                                                                                                                                 ",
"                                                                                                                                                                                                                          2 i 1 : i m m M h g 9 9 k C u.h.h.h.s.8. .{ J { { 8.u.q.9.q.s.s.w.w.s.w.q.q.s.l.l.j.Z.^.)..X.XsXsX.X|.!.Z.d.d.e.d.m.d.e.e.e.Z.(.`.`.`.`.`.(.C.r.q.0.0.q.9.8.{ { { { J { {  . .J V h 9 & > > - - $ - ,                                                                                                                                                                                                                                                                                                                                 ",
"                                                                                                                                                                                                                        2 1 ; ; & e m C C j g 9 k k C u.h.x.h.s.u. . . .{ 8.9.s.p.q.s.s.s.w.w.s.s.s.s.d.k.j.j.C.^.)._._..X.X|._.!.Z.d.a.e.a.b.d.e.e.e.Z.C._.`.`.`.`.(.C.j.q.0.0.q.0.{ { { { { v J J  .{ H x g 9 & > > > - - - , 1                                                                                                                                                                                                                                                                                                                               ",
"                                                                                                                                                                                                                      , - - ; & & 9 m M M h k k k k G u.h.h.h.h.i.i.u.u.u.u.s.s.s.s.s.s.w.q.q.w.w.w.w.d.j.k.Z.j.Z.Z.Z.m.Z.L.L.m.a.a.@.@.@.e.a.e.@.e.e.e.C._.`.`.`.).(.^.C.j.d.w.s.q.8.8. . .{ J J { J H H C h 9 * > * - - - - , 1 1                                                                                                                                                                                                                                                                                                                             ",
"                                                                                                                                                                                                                      - @ @ & & & = m M h k k k f h G u.h.h.h.h.h.h.h.h.h.h.s.h.s.s.s.s.w.w.q.w.w.w.w.d.j.Z.j.j.e.q.X.[ $.o.o.[ O.o.O.o.O.#.#.o.o.@.@.e.C._.`.`.`.).(.(.^.C.Z.j.l.l.w.9.8.8.{ J J { J H G H x 9 * & & * > - - , , < 1 1                                                                                                                                                                                                                                                                                                                         ",
"                                                                                                                                                                                                                      - @ @ & & @ = h M h h h x x x J u.h.h.h.h.h.h.h.h.s.s.s.s.s.s.s.s.s.w.q.q.w.w.e.j.Z.C.Z.j.e.q.$.~ ~ ( ( ~ ` ~ o.o.o.o.o.( ( [ o.e.C._.`.`.).).(.(.^.^.~.C.C.k.l.s.u.8. .J J J J J L L C g * * & > : 1 : ; - - - - , <                                                                                                                                                                                                                                                                                                                     ",
"                                                                                                                                                                                                                      - - & * * & 9 h M j j C H J H  .i.h.l.j.l.h.h.l.h.h.s.i.s.s.s.s.d.d.s.w.w.d.d.j.Z.C.C.Z.Z.e.q.[ [ ( o.( ~ ` ^ ^ ` ^ ( ( ( ~ ( o.e.I.).`.`.).).(.(.).^.^.^.C.C.k.l.u.8. .J J { { J  . .G j 9 9 ; 9 m n i : - @ o & $ - ,                                                                                                                                                                                                                                                                                                                   ",
"                                                                                                                                                                                                                      - - & * & & 9 h j x x H J J J  .p.h.h.j.d.d.d.h.h.d.s.s.s.s.s.d.l.l.d.d.d.j.j.j.Z.C.C.C.Z.d.q.o.[ ( ( ( ~ ^ ^ ^ ^ ^ ^ ^ ^ ~ ~ [ e.I.).`.`.).).).).(.^.^.^.C.C.I.l.s.8.J J J L  .L  . .J V k 9 9 g m m i : & @ @ @ o $ ,                                                                                                                                                                                                                                                                                                                   ",
"                                                                                                                                                                                                                      ; - & * * & 9 h j x x b H J v { u.d.l.l.s.s.s.d.d.d.s.d.h.d.s.d.l.j.d.d.j.j.j.j.Z.Z.C.C.C.Z.a.+.o.( ( ( ` ^ ^ ^ ^ ^ ^ ^ ` ~ ~ $.e.I.).`.`.).(.(.(.^.^.~.~.C.C.k.l.s.{ H b J L L L L  .J x l h h M C M e > $ @ X @ $ - , 2                                                                                                                                                                                                                                                                                                                 ",
"                                                                                                                                                                                                                      ; $ & * > & 9 h C x b v H v b { u.d.l.l.d.w.w.s.s.s.s.l.l.d.d.d.d.d.d.r.j.Z.j.j.Z.Z.Z.C.C.Z.d.@.o.( ( ' ' ^ ^ ' ' ' ' ' ^ ~ ~ $.@.Z.(.).).(.(.^.^.^.~.C.C.k.k.k.l.s.{ H x G L L H J L L H V x V Z K C h : & @ @ - - - - 1                                                                                                                                                                                                                                                                                                                 ",
"                                                                                                                                                                                                                      ; $ $ * * & 9 h C H H J J J v { u.d.j.j.j.s.s.l.d.s.s.l.l.d.s.s.d.d.d.j.j.j.Z.Z.Z.Z.Z.Z.C.j.e.@.o.o.o.' ' ^ ^ ^ ^ ^ ' ^ ^ ^ ~ ^ o.Z._.).).).).).).^.^.~.~.C.C.C.l.s.8.H x H J L H J J L G H Z G K ;.K C g > & - ; > - - 1 n                                                                                                                                                                                                                                                                                                               ",
"                                                                                                                                                                                                                      : - & & & & 9 x H J { { { ] ] { u.d.l.l.l.j.j.l.d.s.s.d.l.s.s.s.s.j.w.w.k.C.Z.Z.Z.C.C.C.Z.r.e.q.X.#.@.@.' ' ^ ^ ^ ! ! ^ ^ ^ ^ o.#.N.(.|.).)./././././.~.C.C.C.C.k.s.8.J C G J  .J J J J H H H L  .;.;.K C 9 * > > > : ; 1 1                                                                                                                                                                                                                                                                                                               ",
"                                                                                                                                                                                                                      - - & & & & 9 C G { { { { { J { 9.s.d.l.l.j.j.d.w.q.9.p.p.p.u.9.w.w.q.w.j.C.C.C.C.C.!.C.C.Z.Z.N.c.c.N.N.1.#.^ ! ^ ! ^ ' ' &.#.@.@.N.I.!./.I.C.k.C.C././.C.k.k.k.l.9. .H x x H J H J { J H Z Z H J  . .G C 9 * > = > : ; > - >                                                                                                                                                                                                                                                                                                             ",
"                                                                                                                                                                                                                      - @ @ & & & 9 C J  .{ { { { $.{ 8.9.s.l.l.j.j.s.q.8.X.X.......8.0.0.0.0.l.C.C.~.(.(.'.'.'.'.'.C.C.!.!.A.n.#.' ! ! ! ' #.&.5.v.5.@.b.Z.Z.Z.l.s.w.d.l.C./.~.C.k.k.l.9.{ G f j b v v J { { H c x c Z J  .J C g * = : : : ; - @ @ -                                                                                                                                                                                                                                                                                                           ",
"                                                                                                                                                                                                                      - @ @ & & & 9 C L  .8.8.8.X.{ { 0.s.l.k.k.Z.j.s.q.0.{ { { { X.X.0.0.0.0.j.C.^.(.)._._.(.(.(.(.(.(._.*X!.M.5.' W W ^ ' 5.5.n.n.c.@.a.p.p.s.0.X.{ 9.s.k./.~.C.C.C.l.q. .G h x b H v J  . .J c c c Z J  . .G h = : : : : - & @ & -                                                                                                                                                                                                                                                                                                           ",
"                                                                                                                                                                                                                      - @ @ & & * g G  .u.u.9.0.0.X.8.s.l.C./.C.C.j.s.0.8.{ X.X.{ { { 0.8.0.q.j.^.^.).`._._._._._._._._.-X2XT.N.3.` W W ^ ' 5.n.K.J.n.@.O.[ ] { { v v { 9.l././.C.C.~.k.s. .C k x b H J {  .{ ] c c x v {  . .L M = : : : : > - & - -                                                                                                                                                                                                                                                                                                           ",
"                                                                                                                                                                                                                      - @ @ & & & g G  .u.q.q.q.0.0.w.l.C./././.C.k.s.0.X.{ { { X.{ X.8.0.0.w.k.^.(._._._._._._._._._._.-X-XT.N.3.` W W ! ' 5.5.n.n.1.o./ Z / { J b v J 8.k./././././.C.s. .C k C H J J  . ...{ v v v ]  .8. . .j = = > > : > > - - -                                                                                                                                                                                                                                                                                                           ",
"                                                                                                                                                                                                                      - @ @ & & & 9 C  .8.9.q.q.w.q.s.k./././././.k.s.8.{ { { { { { { X.0.0.s.C.(.(.)._._._._._._._.(.(._.*X!.M.#.W u u W W ` ' O.' ( ~ z c Z ] { J J J  .x.I././././.C.i.L C g j G J J {  ...{ $.{ { X.8.9.8.J j = > * > : ; ; > - - 1                                                                                                                                                                                                                                                                                                         ",
"                                                                                                                                                                                                                      - @ @ & & & 9 C  .8.9.q.0.w.w.s.k./././././.k.s.0.{ { 8.8.{ { { { 0.0.l./.).(.(.(._._._._._._.(.(.(._.!.M.#.` u u u u u W ` ` u t t t z ] .. . .J  .h.I.I.C././.k.u.H x g h C H J {  ...X.X.X.0.0.u.u.8.J h = * * > : ; ; ; > - 1                                                                                                                                                                                                                                                                                                         ",
"                                                                                                                                                                                                                      - @ @ & & & g C  .8.9.9.9.0.w.s.s.s.l.k.l.l.s.s.8.8.{ 8.9.8.8.8.8.9.w.l./.).)._._._._._._._._._.(._._.!.b.O.W u u u u u u u u 8 8 t z / ....{ J J  . .8.9.s.q.9.8.H x h h j C H H J  .X.0.0.q.s.s.s.s.8. .j = > & * : ; ; > - - 1                                                                                                                                                                                                                                                                                                         ",
"                                                                                                                                                                                                                      - @ @ & & & 9 C  .8.9.9.0.0.q.q.0.0.q.s.q.q.q.9.8.8.{ 8.u.8.8.8.{ 8.q.h./.).)._._._._._._.(.).(.(._._.U.N.O.W u u u u 8 8 u 8 8 8 t z / .... .{ J J J H J v v b x f k 9 g h C C x J { X.0.q.s.s.s.d.s.9. .C 9 > > > : ; ; > - - 1                                                                                                                                                                                                                                                                                                         ",
"                                                                                                                                                                                                                      - @ @ & & & 9 C L 8.9.9.0.w.s.9.8.{ { 8.{ { { 8. .{ { 8.8.8.{ { { {  .u.I.(.).(.(._._.(.(.(.(.(._.|.|.U.a._ d 8 u u u 8 8 8 8 8 0 l V } ..{ {  . .J H x x v b x f k k h M M C C x H { X.q.s.s.d.d.d.d.q. .x = > > > : > > > - - 1                                                                                                                                                                                                                                                                                                         ",
"                                                                                                                                                                                                                      - @ @ & & & 9 x L  .9.w.q.s.s.s.8.{ { J v b J { { { J { { { J J v b v  .l.^.^.(.(.(.(.(.(.(.(.(.(.|.|.L.1./ u 8 8 8 8 8 8 8 8 8 t z Z { { { { {  .{ H v v J v x f 9 9 g h C C x x v $.X.0.w.s.s.s.d.d.q. .h = > & & > - - - - - 1                                                                                                                                                                                                                                                                                                         ",
"                                                                                                                                                                                                                      - @ @ @ & & 9 x J 8.q.s.w.s.s.s.8.{ J J x x v J J H H J J v v v x x x J s.I.C.(.(.!.(.^.I.I.I.C.I.P.P.b.O.V y 8 8 8 0 8 8 8 8 0 t V ] ] { { { { { J J H J { J b h k 9 h M C G H x v $.X.q.s.w.w.s.d.d.q. .C = > & & ; & - - - - 1                                                                                                                                                                                                                                                                                                         ",
"                                                                                                                                                                                                                      - @ @ @ & & 9 x H 8.s.s.q.s.s.s.8.{ J H x x b v H v v H J b x x x f f v u.C.C.^.C.C.C.C.C.C.k.s.s.g.g.+./ y 8 8 8 8 0 0 8 8 0 0 l C { { { { { {  . .J {  .u. .J G h h M C C G H x H { X.q.w.e.d.d.l.l.s. .C 9 > & @ & @ & > - - 1                                                                                                                                                                                                                                                                                                         ",
"                                                                                                                                                                                                                      - @ @ @ & & 9 j H  .u.s.9.s.s.u. .J J H x x x x x x b H J x f f f f f C u.k.C.C.C.Z.Z.Z.Z.j.s.X.] ] | ( ~ y 0 8 8 7 8 0 8 8 0 y z Z { { { { { { {  .{  . .u. .J C h 9 h M C H G v v { X.q.w.e.d.d.l.d.p. .C 9 : * & * & & > - - 1                                                                                                                                                                                                                                                                                                         ",
"                                                                                                                                                                                                                      - @ @ @ & & 9 j J  .9.u.0.9.9. .J H x x j x j h f x b H J H x x x x f G i.l.Z.C.Z.Z.Z.Z.Z.s.0.v x l z z y y 0 0 8 7 8 0 8 8 0 l z H { { { { { {  . .J J J  . .G C g 9 m C C J J v v $.X.0.w.w.d.s.s.s.u. .C e e = > > > > - & ; 1                                                                                                                                                                                                                                                                                                         ",
"                                                                                                                                                                                                                      - @ @ @ @ & 9 M K  .9.9.0.8.8. .H C j h j j k k k x b H J H b x x x f G u.l.Z.Z.j.d.j.Z.k.s...x 0 0 r r r r 0 0 0 8 7 0 7 7 r l Z ] ] ] $.{ X.{  . .G G H K P G x h g h C G H J H ] ] { 0.w.s.e.d.s.s.9. .C k = 9 e e 9 > > - - 1                                                                                                                                                                                                                                                                                                         ",
"                                                                                                                                                                                                                      - @ @ @ @ & 9 M K  .9.9.0.8.8. .H G j h j j h k k x b J  .J v b b b x H u.j.Z.Z.Z.j.Z.C.Z.s...j 9 9 r m p h r r r 7 w r 0 0 f B Z ] { { { { { {  . .G M G P P M M g g h C H J J H ] ] { 0.w.s.d.d.d.s.9. .C h k h h h h e : > - 1                                                                                                                                                                                                                                                                                                         ",
"                                                                                                                                                                                                                      - @ @ @ @ & 9 M K  .9.9.0.8.8. .H C j h j j k k k x H J  .{ J v v v x H s.Z.Z.Z.Z.j.Z.C.Z.d.8.x 0 9 r m m B l l r w w r w 0 f V H {  ...{ X.X. . . .C h M M M M h g g M C v J J J { ] { 0.w.w.d.l.d.s.9.{ C h h M C C M m q > ; 1                                                                                                                                                                                                                                                                                                         ",
"                                                                                                                                                                                                                      - @ @ @ @ & 9 M H  .8.8.8.8.8.J x j h g h h g k k x b J  .{ { J v b x H s.j.Z.Z.j.d.j.Z.Z.h.9.x k 9 h M F Z B l r w w r 0 0 f z C { { { { { .. . .L j 9 e g g e e 9 g M C v J J J { { { 0.w.w.w.d.s.s...J x h h M C C C m e : > 1                                                                                                                                                                                                                                                                                                         ",
"                                                                                                                                                                                                                      - @ @ & & & 9 M G  .8.8.{  . .J x h g g g h g 9 k j b J  .{ { J v b x J s.j.j.j.j.d.d.k.j.d.9.H f h x V K K x f k 9 9 0 0 9 f l C J { { { { {  . .G k * * > > > = = 9 h C b H J J { { { 0.q.w.w.w.s.q...J x k h x C C C M e : > <                                                                                                                                                                                                                                                                                                         ",
"                                                                                                                                                                                                                      - @ @ & @ & 9 h G  .8.8.{ {  .J x h g g g g g 9 k j b J  . .{ J v v b J s.j.j.j.d.d.d.j.l.s.q.{ J J J } ;.;.Z h f 0 0 g 0 0 f x x J { { { { {  . .K k & & & & > > : 9 M C b H J H { { X.0.w.w.q.w.s.q...J b j j x C C C M g : & 1                                                                                                                                                                                                                                                                                                         ",
"                                                                                                                                                                                                                      - @ @ & @ & 9 h H  .8.8.{ {  .J x h h g g g 9 9 k j b { 8.8. .{ { J J  .s.k.j.j.j.d.d.l.l.d.d.p.u.u.u.i.h.i.L x h g g f f k h x v H { { { { {  . .K g * > : : & > : e M G H v H H ] { X.0.w.w.q.q.w.q...J b j f x C C C M g : & <                                                                                                                                                                                                                                                                                                         ",
"                                                                                                                                                                                                                      - @ @ @ @ & 9 h H  .8.8.{  . .J x h h g g g e 9 k h H  .u.8.8.{ { { {  .s.k.j.j.j.d.d.d.d.d.d.s.s.h.s.h.x.h. .C l f f h h k f x x H { { J ] { J L C g > > : - & & > e m C H J J H ] { X.0.w.q.0.0.q.q...J b f f x C C C h g : & <                                                                                                                                                                                                                                                                                                         ",
"                                                                                                                                                                                                                      - @ @ @ @ & 9 M G  .8.8.8.{  .H h g g 9 g 9 = 9 9 h C  .8.8.{ { X.{ { 8.s.h.d.d.j.l.s.s.s.s.s.s.q.9.p.s.h.i.L x j k f j h f k j x v J J J ] H v G C 9 & & > & & & & = m C H J J J { { { 0.q.w.w.q.q.0.X.J b f f x x C C M g > & ;                                                                                                                                                                                                                                                                                                         ",
"                                                                                                                                                                                                                      - @ @ @ @ & 9 M G J  . .{  . .H h g g 9 g 9 = = 9 h C  .u...{ X.0.8.{ 8.s.d.d.d.d.d.s.w.w.s.s.s.9.u.p.p.p.u.J x x h x x x k f x x v H H J J v G G C = & & > - - & & > g C v v J J { { { 0.0.e.r.w.w.0.X.{ b f f x x C C M g > & 1                                                                                                                                                                                                                                                                                                         ",
"                                                                                                                                                                                                                      - @ @ @ & & e M H J {  .{  . .H h g g 9 9 e = = 9 h H  .u.9.8.0.q.q.q.q.s.d.s.s.d.d.s.q.q.s.s.p.9.q.q.q.p. .H x x x v H x x x x v v J J J J H H G C e & & - - - & & > g C b v J J { { X.q.w.j.Z.j.l.w.8.{ b x x x C G P C g : & 1                                                                                                                                                                                                                                                                                                         ",
"                                                                                                                                                                                                                      - @ @ & & & e C K  .{ { {  .8.L x g 9 9 e e = = 9 h H  .s.9.9.q.s.s.p.s.s.s.s.s.s.s.w.q.q.s.s.p.9.p.s.s.p...J H H J { { J v v v H v v J J J J H K C e & & - - - & & > g C x v { { { { ..w.j.Z.C.C.k.d.9.{ H x x x G P P C n : - 1                                                                                                                                                                                                                                                                                                         ",
"                                                                                                                                                                                                                      - @ @ & & * 9 C K J { { J  . .L C h 9 9 9 e = = 9 h H  .u.u.q.w.s.s.q.q.s.s.w.w.s.s.s.s.s.d.s.p.p.p.s.s.p.8.{ J  . .8.8. .{ { J J v Z v J J J J K C : @ & - - & & & > g j x v J { { { X.w.j.C.C.C.C.j.q.{ H x x x C K P C n : - 1                                                                                                                                                                                                                                                                                                         ",
"                                                                                                                                                                                                                      - @ @ & & * 9 C K J J v b J  .L C h 9 9 = e = = 9 h G  .u.p.q.w.s.w.q.q.p.w.0.0.w.s.s.s.s.s.s.p.p.p.p.p.u.u. . .8.u.s.h.i.u. .{ { v x Z J J J J K C : X @ - - @ & @ * e h x b J J { { X.w.Z.C.~.C.I.k.s. .H x x x C G S M n : & <                                                                                                                                                                                                                                                                                                         ",
"                                                                                                                                                                                                                        $ @ & & * 9 C L  .J v x H L G j g 9 = = = = = 9 h H  .u.p.q.q.q.q.0.q.w.w.q.0.q.s.s.s.s.s.s.s.p.p.s.p.u.p.8.9.p.s.h.h.h.s.p.9...{ v H { { { J L C : X X - - & & @ * e h x v v { { { 0.w.Z.C.C.C.C.j.s.8.J b x C C G S M n > & ,                                                                                                                                                                                                                                                                                                         ",
"                                                                                                                                                                                                                        @ @ & & * 9 C L  . .J b v L G h 9 9 = = e = = k j G  .i.9.0.0.0...8.0.q.d.s.q.p.s.i.i.i.i.h.h.h.s.s.s.p.s.u.p.s.s.h.h.h.s.s.p.u. .J {  . . . .;.P = @ & - - & & & * g x b v J { { { 0.s.d.Z.C.Z.j.s.9...J H C G G G P M n > & ,                                                                                                                                                                                                                                                                                                         ",
"                                                                                                                                                                                                                        $ $ & & & e C K  . .J v v H C h 9 e : > = > = 9 j H ;.p.u.......{  .8.u.u.u. . .;. .L  .;.;.i.h.h.s.s.s.u.s.s.s.h.l.h.d.h.s.s.p. .J L J L L L P C = @ @ ; - & & & * k C v J { ] { 0.0.0.s.d.j.d.d.w.q.8.{ H x x x G C M g - - 1                                                                                                                                                                                                                                                                                                         ",
"                                                                                                                                                                                                                        $ $ & & & e C K  . .J H H G C g = = > > > & * = h G  .u...{ { { { {  .{ L J C C C M h h S K i.x.h.s.s.p.u.s.s.d.h.h.d.s.d.s.h.s. .H H G C j j M h > @ @ & & @ @ & * k G H { { ] { 0.0.0.q.w.s.w.q.q.0...J H x x x x M h R - 3 ,                                                                                                                                                                                                                                                                                                         ",
"                                                                                                                                                                                                                        @ @ & & & e C K  . .{ J H G h 9 * > > & & & & = h G  .u...{ { { J { J C V h k 9 g 9 * = g C u.x.l.h.s.w.s.s.s.h.j.l.d.d.h.h.k.h. .H C j h g g g 9 & @ & - & @ @ & = h H J { { { { X.0.0.0.q.q.0.0.0.....J H x x x b M h R & 3 ,                                                                                                                                                                                                                                                                                                         ",
"                                                                                                                                                                                                                        @ @ & & & e C H J { {  .J G x 9 * > > > & & * = h H  .u.9.X.{ .. . .J x g 9 * * = > & * 9 C u.x.I.l.d.s.s.s.d.l.j.l.d.d.j.l.I.h. .C h g g 9 = 9 = & @ & > & @ @ & = C L  .{ { { { X.0.0.0.q.q.0.X.X.....J H x x x G M m e & 3 ,                                                                                                                                                                                                                                                                                                         ",
"                                                                                                                                                                                                                        @ @ & & & e C H J J {  .{ H C 9 * * > > > & > = h G  .9.8.X.X.8. . .J x 9 = & & > & & & 9 C i.I.I.l.d.s.s.s.d.j.j.l.l.j.l.k.I.x.L j g 9 9 = * 9 = * & & : & & & & 9 C  . .8. .{ { 8.0.9.9.q.q.0...X... .J H x x x C M M n - - <                                                                                                                                                                                                                                                                                                         ",
"                                                                                                                                                                                                                        @ @ $ & & 9 C G H J {  .J G M 9 & & & & > & & = h C  .8.X.{ X... . .L x 9 : & & > & & * 9 C i.I.k.h.d.s.s.d.l.j.k.k.Z.Z.k.k.l.i.K h g g 9 9 = 9 e * & & : & & & & 9 C  . . . . .{ 8.0.0.0.9.9.8.X.{ { { G G x j j x M m n > $ ,                                                                                                                                                                                                                                                                                                         ",
"                                                                                                                                                                                                                        @ @ $ @ & 9 C G H H J { J G M 9 & & & & ; & & = g C  .8.{ { X.......L M e : * > : > & = g C i.I.x.d.d.s.h.k.j.j.j.Z.C.k.k.h.h.u.C h h h m e 9 9 g = & & > & & & & = C L  .{  . . .{ { {  .8.8.{ { { J J G G x f j j M m n ; $ ,                                                                                                                                                                                                                                                                                                         ",
"                                                                                                                                                                                                                        @ @ $ @ @ = C G H v v J J G M 9 & & & & - $ & > g C  .8.{ { ......;.L C q > & > > & & * h K f.I.x.h.d.d.h.k.k.d.d.j.k.l.h.s.8.L h 9 r h w e 0 9 g = & > > & & & * = C  .{ { { { { { { { { {  .{ J J { { G G x j j j M M i ; o -                                                                                                                                                                                                                                                                                                         ",
"                                                                                                                                                                                                                        @ $ & @ & 9 C G H H v v H G M 9 > * & & & $ & > g G  .u.8.{ 8.p.u.u.} C e : @ @ * @ @ * C ;.x.I.I.k.k.h.h.k.k.s.s.s.s.s.u. .{ x f 0 7 0 7 7 7 9 9 = & > : & & & * = C L { { { { J J J J J J { J J J J  .L G x x C C C M n ; $ ,                                                                                                                                                                                                                                                                                                         ",
"                                                                                                                                                                                                                        @ $ & @ & = M G H v b v H G C 9 > * & & & & & > h P ;.i. . .{ .. .{ H l r e ; ; 9 9 7 9 Z  .x.I.x.h.h.p.p.f.p.9...8.u.8. .J Z l l z l V z l l f 9 = & & : - & & * = C  . .{ { { { J J H v H H H G J L J K Z C C G G P N n ; o ,                                                                                                                                                                                                                                                                                                         ",
"                                                                                                                                                                                                                        @ $ & @ @ = M C v v b x v H C 9 > & @ & & & & = h S ;.;. .H G J Z C Z V Z Z F Z K D V Z K ;.f.x.h.i.;.} ] } } Z Z H G G H C C V | f.<.g.a.1.:.} Z 9 > & : - - & & = C  . .8. . .J J H C x x C C G G K G Z C G H G K K M n - o -                                                                                                                                                                                                                                                                                                         ",
"                                                                                                                                                                                                                        @ $ & @ @ : M C H b x x x H C 9 = & & & > > > : e m S K D C l C l l V ) } :.f.f.f.f.:. .} } ;.:.;.} D V z B z h f l l l z z Z ] m.[.Q.Q.Q.[.R.z.} h & $ ; - - & & = C ;. .8. . .{ J H x x x x C C G G G C x H L L  .K C n - X -                                                                                                                                                                                                                                                                                                         ",
"                                                                                                                                                                                                                        @ $ & $ @ : M C H v b x x H C g = * & > e e 9 9 e e m m m 9 0 9 0 0 z ;.g.L.].|.|.].P.k...H V B B B B h h l B h m M B m r l V <.|.pXpXiXpXcXaX Xk.V # $ - - - - & 9 G u.u.8.8. . .J H C x C C C C P K G C H L  .;.u.;.P n & X -                                                                                                                                                                                                                                                                                                         ",
"                                                                                                                                                                                                                        @ $ & @ @ : m C H H b x H G C h 9 = = = h n e 9 9 : q : ; * * 7 7 7 l 2.W.5XyXaXtXtXeX|.<.Z 0 0 7 w r e w h m p m m p p r y / b.yXFXDXSXSXDXBXaX].K & & - - - - > g H i.u.u.u. . .L G C x C C C M C P H H J  . .u.u.;.K m > X -                                                                                                                                                                                                                                                                                                         ",
"                                                                                                                                                                                                                        @ @ $ @ @ : m C G H v x H H C h g = = = g e 9 ; * * * * # * # q 7 7 z g._.2XaXyX0XyXtX Xf./ 0 7 q e e 9 9 e e 9 q i a q # 8 z 1.4XSXSXCXnXCXcXyX|.] @ @ - - - - > g K i.u.8.8. . .L G C j C C C j M C G H J {  .8.u.;.P m * X -                                                                                                                                                                                                                                                                                                         ",
"                                                                                                                                                                                                                        @ @ $ @ @ : h C G H H b x H C h g = = = e : * & @ $ # ; ; ; * q 7 7 B z._.5XyX0X5X0XyX3Xz.] t 7 7 e r 9 7 q q * ; q q # + 4 t O.<XNXvXgXdXgXwX4X|.] # $ - - o & > g G u.8. . . .L L G C h C C C h j C C H G J {  .u.;.S n & X -                                                                                                                                                                                                                                                                                                         ",
"                                                                                                                                                                                                                        @ @ @ @ @ > h C G H H v H H G C g e : : > > & @ @ $ $ # * # 7 w 7 7 V g.[.4XyX4X4XyXyXeXF.| l 8 8 r r r 7 7 w q q w w w 8 8 z o.T.gXbXgXdXgXuXyX|.} # @ $ $ $ & > g G u.u. . . . .L H x x x C x j x C G H J J J L  .K C n > @ -                                                                                                                                                                                                                                                                                                         ",
"                                                                                                                                                                                                                        @ @ @ @ @ > m C G H H b H H H C g 9 > & @ $ $ & $ @ $ # # # 7 7 7 8 V g.W.1XeX4X4X0X4X1XL.<./ t y y y w 0 y y y y B F Z V z ( @.U.7XqXgXjXvXhXpX3X-.* # - $ @ & > g K u.8. . . . .L H C x x C C C C S K G J G H G K P N n > X -                                                                                                                                                                                                                                                                                                         ",
"                                                                                                                                                                                                                        o @ @ @ @ = m C G G H b H H H C h 9 & @ X @ & & @ & : e e p r 0 0 0 ) H.|.4XuXyXuXuXyX4XQ.L.a.O.| | | ) / | | | | 4.2.2.1.#.1.c.B.$X7XuXfXgXuXyX|.} # $ $ $ @ @ > g K u.8. . .{ L L H C x x x x x C G L J G G x C G C M n > X -                                                                                                                                                                                                                                                                                                         ",
"                                                                                                                                                                                                                        X @ @ @ @ > m C G H H v v H H C h 9 * @ @ & & @ @ > m D >.f.:.) ) | z.|.aXhXcXhXhXcXhXiXyX4X<XW.W.W.R.L.L.W.W.W.W.[.<X3X5X,X$XY.B.B.K.$X$X1X<X[.H.Z # @ $ $ X @ & g P u.;. .{ J L H C x C C x x x x C G H H x x M C M m n & X $                                                                                                                                                                                                                                                                                                         ",
"                                                                                                                                                                                                                        @ @ @ @ @ > h C G H H H v b G G M g > & & & & @ @ : S f.H.}.F.<.2.g.].aXVXBXVXNXNXVXNXvXNXcXhXuXyXyXeX5X4X7XuXuX0XuXuXhXhXpX7X,XB.5.5.n.N.M.M.m.:.r @ @ $ X X X & g P  . . . .L J G G x x x x x x x x H G C x h h M M m e & X -                                                                                                                                                                                                                                                                                                         ",
"                                                                                                                                                                                                                        @ @ @ @ @ > h C G H J H H v H G C g * * @ & & @ @ 9 K z.}. XP.g.g.G.3XMXFXDXSXSXSXSXZXAXAXCXNXhXpXuXyX7X7X7XuXuXqXqXqXfXhXhX6X$Xn.o.' o.( ~ ( / z q @ @ @ X X o & g G L  . .L L J G H G x x x x x x C H G C C j M M M N i & o -                                                                                                                                                                                                                                                                                                         ",
"                                                                                                                                                                                                                        @ @ @ @ @ > h C G H H H H v H H C h = * @ & @ @ @ 9 K z.{. XW.b.G.R.eXGXFXFXFXDXJXDXDXSXAXAXCXvXhXhXuX8X8XuXfXqXqXqXdXdXvXjX6X%X&.W W W u t t 0 7 # @ o o X X o & g M L L L L K G G H H C G G G C G G G G C C M M M m m e & & ,                                                                                                                                                                                                                                                                                                         ",
"                                                                                                                                                                                                                        @ @ $ @ @ = m C G H J H H v H J G h = & & & @ @ @ q } z.P.[.P.g.m.U.5XBXFXFXDXFXFXDXDXDXSXSXAXCXvXvXhXfXfXfXfXfXdXdXdXdXgXfX1XT.1.~ ` ) / z y r 9 # @ o X X X X & = M P H G G G H H H H C H H H C G C G C M h h g g g e : & 3 -                                                                                                                                                                                                                                                                                                         ",
"                                                                                                                                                                                                                        @ @ @ @ @ > h C G H H b v H H H C h = & @ o & @ . * D f.H.P.F.a.b.G.<XMXFXFXGXGXFXFXFXFXDXDXSXZXCXCXNXvXxXxXhXgXdXdXdXdXgXqX$XU.1./ -.2.-.=.S m e * X X X O O X & > h C C C C C G C C C C G H C x x x C h g 9 9 e : = : > & - -                                                                                                                                                                                                                                                                                                         ",
"                                                                                                                                                                                                                        @ @ @ @ @ > h C G H H b J J H H G h = & @ o & @ . 7 D f.H.P.H.5.b.G.,XxXGXGXGXGXFXFXSXSXDXDXDXDXDXJXDXSXGXGXCXjXfXdXdXdXdXwX$XM.O.V D =.=.S m e ; @ X X X X . X & > h M C C C C C C x x x C C x x x x h 9 9 ; ; > * > > > - - -                                                                                                                                                                                                                                                                                                         ",
"                                                                                                                                                                                                                        X X @ @ @ = m C G H H v J J J L G h = & X o @ @ @ q ) f.H.P.G.b.n.G.,XlXGXGXGXGXGXBXBXZXSXFXFXJXPXPXPXPXUXUXJXAXjXdXfXfXgXqX$XM.| r B S A m q * @ X X X o X X X & : n M C C C C C C x j h x C h h h g g ; > & @ @ @ & & - - - ,                                                                                                                                                                                                                                                                                                         ",
"                                                                                                                                                                                                                        X X @ @ @ = m C G G H v J J J J G j 9 & X X @ @ @ q ) g.H.P.G.b.n.G.[.aXVXBXBXBXVXMXMXNXZXFXFXPXPXIXIXPXPXPXJXCXgXdXdXfXgXqXQ.b.Z q : e i ; & X X X X X o X X X & : n M C C C C C x h h k g h h h h g 9 ; * & @ @ @ & & - & - ,                                                                                                                                                                                                                                                                                                         ",
"                                                                                                                                                                                                                        X X @ @ @ = m C C b v v v H H J G j 9 & X X @ @ @ 7 ) 2.F.L.G.c.b.b.R.eXMXMXhXhXhXaXuXpXVXSXFXJXPXPXPXPXPXUXSXjX8X;X9X8XdX6XE.<.r . . o o X X . . O X X o X X X & : m M C C C C C C h g 9 g h h h h h 9 : * & & & & & & - & - <                                                                                                                                                                                                                                                                                                         ",
"                                                                                                                                                                                                                        X X @ @ @ = h C G H H J v v H H H C 9 & X X @ @ @ 7 ) 2.b.G.m.c.c.c.U.4XpXiXuXuXuX7X7XrXNXGXFXJXPXPXPXFXFXDXNX8X=X%X=X;XdX9XR.<.r . O O O . . O O X X X o X X X & = h M C C C C C C h g 9 9 g h M M h g : > & & & & & & - - - -                                                                                                                                                                                                                                                                                                         ",
"                                                                                                                                                                                                                        X X @ @ @ = h C G H J J v v H J H C 9 & X X & @ @ 7 / <.b.G.G.c.b.M.R.4XuXuXqXqXrX9X1X7XMXZXFXFXJXPXFXBXNXhXqX=X@X@X:X;X8X9XK.2.p . O O O O X X O X X X & @ @ @ & = h M C C C C C C M g 9 9 r m m m M n q > & & - - - - - - -                                                                                                                                                                                                                                                                                                           ",
"                                                                                                                                                                                                                        @ X @ @ @ > g C H L { J J J J J H C g * X X & @ @ 7 ) f.m.G.M.N.M.M.R.4XrX7X6X8X6X1X1X9XhXBXSXFXJXJXGXhX0X6X$X@X+X@X&X=X8X9XK.2.B @ O X X o o X X X & & & & @ & > e h C C C C C G C M g 9 9 9 h M m M n : > & & - > > > - - -                                                                                                                                                                                                                                                                                                           ",
"                                                                                                                                                                                                                        X X @ @ @ > g M P K J J J J J L G x g * @ X & & @ 0 ) f.m.M.M.N.N.M.R.5XyX7X1X9X7X1X,X1XfXNXZXZXJXJXZXfX6X=X#XS.V.+X@X%X9X$XK.2.r . X o o o X X @ @ & & & & @ & > = m M C x G G G C h k 9 9 9 g h h h g > - & & & & & & & 3 -                                                                                                                                                                                                                                                                                                           ",
"                                                                                                                                                                                                                        @ X @ @ @ = g M G H J J J J J L G j g * @ X & & @ 0 ) g.m.M.B.B.N.N.U.<X7X1X1X1X9X1X,X1XuXhXCXCXSXDXCXuX9X$X%XS.S.V.@X@X$X#XJ.<.r . X o $ X X X @ @ & & & @ @ & > e M C C x b G G C h k 9 9 9 g h g g e & & X X & & & & & - -                                                                                                                                                                                                                                                                                                           ",
"                                                                                                                                                                                                                        @ X @ @ & = g M C H H H H H J L G C g * & @ & & @ e } g.G.U.Y.Y.Y.K.Y.1X4X1X1X1X9X1X=X1XuXhXNXCXAXSXvX8X9X%X#XY.@XS.@X@X%X#XJ.<.r @ o - - @ @ @ & & & & & & & & = e M G G G G G G C h k 9 9 g g h g e e & & @ @ @ & & & - -                                                                                                                                                                                                                                                                                                             ",
"                                                                                                                                                                                                                        @ @ @ @ & = g M C G b x b v J L G C h = @ & & & # 0 -.m.U.T.$X$X$XT.Q.1X1X1X1X1X9X1X1X9XuXhXNXCXAXAXvXqX9X$X%X@X@X@X@X@X$X#XK.a.l @ $ - - & & & & > > > : > > > = g M C G H G G G C j g 9 9 g h h h g e & & @ & & & & > -                                                                                                                                                                                                                                                                                                               ",
"                                                                                                                                                                                                                        @ @ @ @ @ > g M C x x x x x H L H C h = & @ & & # w -.L.Q.1X2X1X1X$XQ.<X1X1X1X1X9X1X=X1XqXfXhXCXAXAXjXqX9X$X@X@X@X@X@X@X%X#XJ.g.B @ $ - - & & & > = 9 9 = = ; ; 9 h M C G G G G G C j g 9 9 g h m m g e & & & & & & & ; 1                                                                                                                                                                                                                                                                                                               ",
"                                                                                                                                                                                                                        @ @ @ @ & > g M C x x f x x H J G C h = & & * # # w <.R.1X7XqX8X6X*X$X*X1X1X1X1X1X=X=X=X8XfXjXCXCXvXgXuX8X$X@XS.S.V.V.+X#X#XG.g.l @ @ - - & * & * = 9 9 e = ; = 9 g x G G G C C G C j g 9 9 g h m h e = > & & & & @ & ;                                                                                                                                                                                                                                                                                                                 ",
"                                                                                                                                                                                                                        o o @ @ & > e h C b x x x x H J G x h = & & * # # r 2.W.4XqXfXqX6X=X*X*X=X1X1X=X=X=X$X=X6XuXjXNXvXjXgXfX8X$X@XS.V.V.V.@X@XY.J.1.y @ @ - - > > & * 9 g k 9 9 9 9 9 h x G G G G G K G C h 9 9 e g h h 9 : > & & & & @ - <                                                                                                                                                                                                                                                                                                                 ",
"                                                                                                                                                                                                                        @ o @ @ & * e h C G x x b b J J H x h 9 & & * # # 0 2.[.4XqXfXqX6X=X*X*X=X1X1X=X=X=X=X=X6XqXjXNXvXgXfXfX8X,X%X@XS.V.S.@X#XT.U.2.y @ @ - ; > > * = g h h h k 9 9 k h x H G G G G K K C h 9 9 9 9 h h 9 9 > & & * & @ - 1                                                                                                                                                                                                                                                                                                                 ",
"                                                                                                                                                                                                                        - @ X @ @ = e M K J H H v v J J H C h = & * * * # 0 2.[.4XuXuXqX8X9X=X*X*X1X=X=X=X=X=X=X8XuXjXvXjXgXfXfX8X1X#X@XS.V.Y.@X%X$XJ.g.B @ $ - > & > = = g M h h g 9 9 k h x G H H G G L K C h g 9 9 k g h g 9 ; @ & > $ @ - ;                                                                                                                                                                                                                                                                                                                 ",
"                                                                                                                                                                                                                        $ @ X @ & = 9 h G J H H v v J J G x h 9 & $ * & # 0 2.[.2XuXqX8X6X=X=X*X$X1X=X=X=X=X=X=X6XqXgXjXgXgXqXuX6X$XY.S.S.S.S.Y.#XY.G.1.y @ @ - - & & > = k h h h k 9 9 k l x G G G G G K G C j g 9 9 k g h g g > & & > & @ - 1                                                                                                                                                                                                                                                                                                                 ",
"                                                                                                                                                                                                                        $ @ X @ * = 9 h C L J J v b v J H x h 9 & & * # # 0 2.W.5X0X8X6X6X=X*X$X$X1X1X1X1X=X$X=X1X8XfXgXgXfXqX8X1X#XS.B.B.B.Y.Y.Y.U.M.<.r @ @ - & & & = = k h h k k k k f l x G J J H H H G C x g k 9 9 g g g g = & & > & @ - <                                                                                                                                                                                                                                                                                                                 ",
"                                                                                                                                                                                                                        @ X X @ * = 9 h G L J J v b v J J x h 9 & & & # # r 2.[.5XqXqX6X6X*X$X$X$X1X9X9X9X1X$X=X1X6XfXgXgXfXqX8X1XT.B.B.B.U.Y.Y.U.U.m.<.r @ o - - & & = = g h k k k k g h x C J J J J H J J G C h h k k h h h h = & & > & @ - 1                                                                                                                                                                                                                                                                                                                 ",
"                                                                                                                                                                                                                        @ X X @ > = 9 h K  .J J J b b J H C h 9 & & & # # r 2.W.5XuXqX8X9X$X$X$X$X1X9X9X9X1X=X=X9X8XqXuXfXfXqX7X1XE.B.B.B.U.Y.Y.U.U.m.:.r X o - - & & = = g h k k k g h j x H J J { J J J J J H C j h h C C C M 9 & & > & @ - 1                                                                                                                                                                                                                                                                                                                 ",
"                                                                                                                                                                                                                        @ X X @ > = e h K  .J v J v v v H H x 9 * & & # # r 2.R.<X7X7X6X1X$X$X$X$X1X9X9X6X1X=X1X6X8X8X8XqXqX8X8X1XY.B.n.N.B.Y.Y.J.G.g.:.r X X 3 - 3 & = = g h k h k h h x C H J J J J J J J L H C C x C C G C M e & & > & @ - <                                                                                                                                                                                                                                                                                                                 ",
"                                                                                                                                                                                                                        $ X X @ ; 9 9 h G J J b v v v v H H x k = & & @ @ 0 :.L.[.2X9X1X$X$X$X$X,X1X1X1X9X1X1X1X6X6X9X9X6X8X6X9X$XJ.N.v.c.M.M.M.n.b.<.} 9 . X o 3 X @ & = g h h h k h x C C G J J J J J J { J H H x C G K K G C e & & > & @ - <                                                                                                                                                                                                                                                                                                                 ",
"                                                                                                                                                                                                                        $ X X @ > 9 9 h C G H b b v b b v J H g = & & @ @ 0 -.G.T.1X<X$X$XT.$X$X1X1X1X1X9X1X1X1X9X9X1X=X1X6X9X1XE.M.c.@.@.c.N.c.c.1.O.) e . X X 3 X @ & = g h h j j j C C H G J J J J J J J J H J G G L  . .H C e * & > & @ - <                                                                                                                                                                                                                                                                                                                 ",
"                                                                                                                                                                                                                        $ X o & > e 9 h C H J v v J v v J J J h 9 * & @ @ 0 -.H.W.Q.T.Y.Y.Y.Q.*X1X1X1X1X1X1X1X1X7X1X1X1X1X1X1X$XR.m.1.1.@.5.N.c.a.<.-.D e . X X @ X @ & = h C C C C C C G H H H J J J J J J J J H H J L  . .L S e * * ; & $ - 1                                                                                                                                                                                                                                                                                                                 ",
"                                                                                                                                                                                                                        $ X X & : e 9 h C L J v v $.J J J { L h = * & @ @ w -.F.R.U.U.B.B.Y.$X1X1X1X1X1X1X1X1X2X7X1X1X$X$X1X$X$XU.b.c.c.5.n.M.N.a.<.| D q . o $ @ X @ > 9 h G G G G C C H H H J J J J J J J J J J J J L  . .L K e * * ; & $ - <                                                                                                                                                                                                                                                                                                                 ",
"                                                                                                                                                                                                                        $ o @ & : : e h K L J v v $.J { {  .L j 9 * @ @ @ 7 -.F.G.J.B.v.v.B.T.1X1X1X1X1X1X7X7X7X7X7X1X*X$X$X$X$XW.U.J.U.U.E.T.U.L.m.<.D q . . o X X @ > g j G G G G C C x C H H J H H H J J J J J J J  . . .L K e * * ; & $ - <                                                                                                                                                                                                                                                                                                                 ",
"                                                                                                                                                                                                                        $ @ @ & > : 9 h K L J v b v v J { { J h 9 * @ @ + 7 } g.n.M.n.v.v.B.Y.$X1X1X1X1X4X7X7X4X7X4X1X$X$X$X$XQ.[.[.,X5X4X4X4X5X<XW.g.} q . . o X X @ > e h C G C C C x x x b H H H H H H J J J J J J J  . .L S e * * * & $ - <                                                                                                                                                                                                                                                                                                                 ",
"                                                                                                                                                                                                                        $ @ @ & : : e h G  .J v b J J { {  .{ j 9 * @ @ . q ) g.m.n.v.&.v.v.K.$X1X1X1X7X7X4X1X1X1X1X[.E.U.U.W.Q.,X3X4XrXaXpXpXaXyX5XP.:.9 O . o X X @ > 9 j C x x x C x x x x H H H H H H J J { J J J  . . .L P e $ * * & $ - :                                                                                                                                                                                                                                                                                                                 ",
"                                                                                                                                                                                                                        $ @ @ & : e g h K  .{ v J { { {  . . .x q ; @ @ @ 7 ) g.m.n.v.&.&.v.B.Q.1X1X7X7X7X7X5X<X<XQ.R.M.M.J.R.E.>X5XrXuXhXhXNXNXVXlX Xz.m . . o @ X @ = g j C x h h h j x x x b H H H H H J J J J  . . .;.;.L K e $ * * & @ - 1                                                                                                                                                                                                                                                                                                                 ",
"                                                                                                                                                                                                                        $ X @ & = e g h G { { J { 8.{ {  . . .x : ; $ @ . q } z.G.J.B.v.v.v.n.U.$X$X1X2X5X<XW.R.U.L.G.b.m.G.G.J.Q.4XrXpXxXMXNXAXFXBXtXH.M . . o @ X @ : g j C x h h h j x C x C G G H H J J J J J  . . .;.;.L S e $ * * & @ @ 1                                                                                                                                                                                                                                                                                                                 ",
"                                                                                                                                                                                                                        @ X @ & > 9 9 h H J J J { 0.{ {  . .J h : & $ @ . q =.F.J.E.Y.K.B.c.5.n.B.J.Y.R.R.G.m.b.a.a.b.b.m.m.M.m.G.<XrXpXhXhXhXNXGXVXtXP.C . . o X X @ = g j C x x j j x C G H H G G G H J H J J J  . .;.u.u.L K e $ * * & @ @ <                                                                                                                                                                                                                                                                                                                 ",
"                                                                                                                                                                                                                        o o @ @ > = 9 h G J { v { { 8. .{ J C h > - @ @ . q -.H.[.1X1X$XE.M.n.5.5.c.b.b.b.1.+.o.O.O.<.a.m.G.m.1.n.,XrXhXxXxXhXNXSXBXaX].S . . o $ X @ : g C G x x x x C C H G C K K L J G H G L L L  . .u.;.K C e $ @ ; & @ - 1                                                                                                                                                                                                                                                                                                                 ",
"                                                                                                                                                                                                                        o o @ @ > = g j G  .{ J { { {  .J H x g : - @ @ @ w 2.{.5XyXrXrX2XQ.K.n.#.#.#.O.O.| ( ( -.<.g.F.L.R.G.c.M.1XgXNXZXCXCXSXJXFXmX XD @ X $ @ X @ 9 h G  .J H H H H H L G H G K L L H G H G G G J L ;. .K C q $ @ ; & @ - 1                                                                                                                                                                                                                                                                                                                 ",
"                                                                                                                                                                                                                        o X @ @ > = h C K  .{ J { { { J H H x 9 > - X @ @ r H.3XaXxXxXhXuX4X>Xn.+.( ~ / / / ` / -.<.F.P.P.R.G.b.G.5XhXCXDXSXSXKXPXFXMX X=.@ @ $ $ X & e M K  . .J J J L  . .J H H J L L L H H G x x C G K K C M q $ @ * & @ - :                                                                                                                                                                                                                                                                                                                 ",
"                                                                                                                                                                                                                        X X @ @ & = g C G J J v J v H H x x l 9 & @ X @ @ r H.eXlXxXhXuXuXyX5XG.1./ z z / Z ` ) -.<.F.H.H.H.G.b.G.5XhXCXSXSXAXKXJXDXlX{.) @ @ - $ X & e j L  . .J J J {  . .J J L L J J L L H x x x j C C C C m 9 $ $ * & @ - :                                                                                                                                                                                                                                                                                                                 ",
"                                                                                                                                                                                                                        @ @ @ @ & = g C G J J v b x x x x x h 9 & @ X @ @ l H.tXyXpXrX7XrXuXeXR.1./ z V / Z Z ) ) -.g.H.H.G.m.1.G.5XhXNXAXAXAXSXJXZXaXW.D @ % ; $ @ & 9 x J  .{ { J J J  . .{ J  .J J H J J H x h h h h h C h h : $ # * $ @ - ;                                                                                                                                                                                                                                                                                                                 ",
"                                                                                                                                                                                                                        @ @ @ @ & : h C G H J H v x x x x x h 9 & X . X @ l P.aXaXhXuXrXuXuXrXW.g.} z V ) Z Z Z ) -.g.H.H.m.b.1.G.4XhXVXSXAXAXAXKXCXyXW.) # $ ; - @ & k x { u. .{ { { {  . .{ { J { J H J J G x h h g g h h h r ; # # * $ @ - ;                                                                                                                                                                                                                                                                                                                 ",
"                                                                                                                                                                                                                        o @ @ & & : m C K H H v v x x x x x l 9 & X . X @ B P.aXpXhXuX8XuXuXeX[.H.-.Z V D D D D ) } 2.F.G.m.b.1.G.4XMXZXDXKXSXSXKXCXyXW.) + - ; - @ * g x { 9.8.{ { { {  . . .{ J  .J J J J G x h k g g g m m r ; @ * * @ @ - :                                                                                                                                                                                                                                                                                                                 ",
"                                                                                                                                                                                                                        o @ @ @ @ : m S K G H x v x x x x V h 9 & X . @ # B H.tXyXuX7X7X7XrXeX[.H.<./ V Z D D D ) ) <.g.g.b.b.1.G.4XNXSXKXKXSXSXDXCXyXR.) # - < ; @ ; g x { 8.8.{ { {  . . .{ J J L J J J L H x h h g 9 g h h r ; $ * * @ @ - ;                                                                                                                                                                                                                                                                                                                 ",
"                                                                                                                                                                                                                        o o @ @ @ : M C K H x x x x x x j C h * $ X . . @ s f.].].[.Q.E.$X1X5X3XR.2./ z l Z ) } =.-.-.<.1.1.1.1.n.4XMXZXJXDXAXSXKXCXyXW.) # - ; ; # ; r C L u.8.{ { { {  . .{ J J J J J L L G C g g g g h h g 9 > & @ & @ @ - :                                                                                                                                                                                                                                                                                                                 ",
"                                                                                                                                                                                                                        o o @ @ & : m C K H G x b H H C j M h = @ X . . + p >.H.H.G.G.M.K.E.>X[.].a./ Z z Z } } -.-.-.-.<.<.+.+.M.4XMXZXDXSXAXSXJXSXpX].} # # ; ; # q h C } ;...{ { { { 8. . .L J J J J J G C j h g g g h h g 9 > & @ & @ @ - :                                                                                                                                                                                                                                                                                                                 ",
"                                                                                                                                                                                                                        @ o @ @ & : m S K L L H J J  .G C M h : o X . X @ w ) 2.<.#.o.#.5.n.J.R.R.1.( ~ z V ) ) | | | | O.+.1.@.G.rXNXZXJXSXAXSXJXDXMX|.| # # q ; # q m F } u. .{ { { 8.8. . .{ J J J J J G C x h g 9 g h h g 9 * & @ & @ @ & ;                                                                                                                                                                                                                                                                                                                 ",
"                                                                                                                                                                                                                        @ o @ @ & = m S K  . .L  . .8. .G C h = o X . . @ w D 2.| ( ( o.o.#.5.F.G.1.[ / / / / / ) ) _ | O.1.1.@.B.7XNXSXJXSXAXDXJXDXMX3X-.* # q q * 9 M C  .u. .{ { { { 8. . .{  . .J L L G C C h g 9 g h h g e * & @ & @ @ & ;                                                                                                                                                                                                                                                                                                                 ",
"                                                                                                                                                                                                                        @ @ @ @ & = m S L ;.8. .8.8.8.;.L P M = 3 O O . @ q D 2.<.| [ o.o.o.1.n.G.c.@.o.| ( / / / ( ( ( o.+.1.#.M.9XxXZXKXSXAXSXKXSXmX X=.# # q ; * : h C  .u.8.{ { { {  . . .{  . .L H G C C h g 9 9 e m m e e * & @ & @ @ - 1                                                                                                                                                                                                                                                                                                                 ",
"                                                                                                                                                                                                                        @ @ @ @ @ > h C L u.8.8.8. . . . .L C e @ O O . @ e =.f.2.<.+.@.#.#.1.F.M.M.b.1.1.| ~ ~ ( ( ( ( o.+.@.#.n.1XhXCXKXDXAXSXSXZXpX|.=.# # q ; & ; g C  .u. .{ $.] { { { { {  . .L G C C M h g 9 9 e h h e e * & @ & @ @ - 1                                                                                                                                                                                                                                                                                                                 ",
"                                                                                                                                                                                                                        @ @ @ @ @ * g C L u.u.8.8. . . . .L C 9 @ O O . . q =.z.f.<.1.a.1.1.5.G.U.Y.J.G.G.b.+.+.+.+.+.#.1.c.5.@.N.=XuXNXDXSXCXAXZXVXaX[.=.* ; q ; & ; h F  .u. .{ ] v v ] { ] H L L G C C M M h 9 9 e g g g 9 9 * & @ & @ @ - 1                                                                                                                                                                                                                                                                                                                 ",
"                                                                                                                                                                                                                        @ @ @ @ @ > 9 C L u.u.8.8. . . .L G j 9 @ O O O X : Y f.f.f.g.g.a.1.b.R.>X<X,X>X,XW.G.L.G.G.M.b.b.M.M.c.v.$X8XhXSXSXNXCXZXVXaX[.=.7 ; i : & ; m C ;.i. .{ ] v v ] J Z x C C C x M h h g e 9 g h g e e e * & @ & @ @ -                                                                                                                                                                                                                                                                                                                   ",
"                                                                                                                                                                                                                        $ @ @ @ @ > 9 C K L  . .{  . .H G G j 9 & X O O X > A ,.2.f.<.<.<.<.m.W.<X1X1X5X1X,XQ.W.W.W.R.U.U.U.M.v.N.Y.6XgXvXNXhXhXNXpXyX].} q # ; : & ; 9 C L  . .{ { J H ] H Z x x x h h h h h r 9 9 e n m h 9 9 ; & @ & @ @ -                                                                                                                                                                                                                                                                                                                   ",
"                                                                                                                                                                                                                        $ @ @ @ @ > e M C G H v H J H b C C h 9 & X O O . @ i S } | | ] | O.b.W.<X,X,X1X1X1X<X3X5X5X<XQ.E.U.M.v.v.B.$X6XqXqXqX0XuX7X3XF.Z 4 @ # @ @ @ * g C L L { v Z v H H Z x x j h g g g g 9 9 9 e i m m g 9 * & @ & @ @ -                                                                                                                                                                                                                                                                                                                   ",
"                                                                                                                                                                                                                        $ X @ @ @ > e m M C x x x b b x x x h e & X O O . @ : p V ) Z Z / ( 1.W.<X$X>X>X<X<X1X5X4X4X5X>XQ.E.B.N.v.B.%X$X1X1X1X1X7X<XW.g.V 7 # # @ & & * 9 h C G { H v H J H Z x x h g 9 r g g 9 9 9 e 9 g h g 9 ; & @ & @ @ -                                                                                                                                                                                                                                                                                                                   ",
"                                                                                                                                                                                                                        $ X X @ @ > q h M C x f x x x x x C M e & o X O . @ ; e B Z V z / ( 1.].5X1X1X1X5X5X5X1X5X5X<X$XE.E.U.B.B.Y.#X%X%X$X$X$X1XQ.R.g./ 8 7 * q e 9 9 9 g C J { { {  . . .H x x j g 9 r h h g 9 9 e 9 g h g e ; & & & & @ -                                                                                                                                                                                                                                                                                                                   ",
"                                                                                                                                                                                                                        @ X X X @ > e m M C C x x b G x C C C g & o X . . @ * e p V Z V ( | 2.].3X5X4X7X7X4X1X,X<X<X$XY.Y.E.Y.K.U.Y.T.Y.T.E.$X$XT.Y.U.b.} l r r m A M 9 0 g x J  . . .u.u. .L G C C h g g h h g g 9 9 g g h g 9 ; & & & & @ -                                                                                                                                                                                                                                                                                                                   ",
"                                                                                                                                                                                                                        @ X X X & > q m M C C x x H H C C C M g - 3 X O . X * e m Z / / ( ( 3.H.W.>X2X7X7X4X1X$X$X$XT.U.K.Y.Y.K.K.U.Y.Y.Y.T.T.Y.U.U.U.m.:.Z Z S D ,.Y h 0 9 f C  . . .u.u.8. .L L K C x h h h r 9 9 9 g g g g 9 * & & & & @ -                                                                                                                                                                                                                                                                                                                   ",
"                                                                                                                                                                                                                        $ X X X $ > q e m C C x x H H x C C M g : & X O . X ; e B ) } } _ / _ 1.U.Q.5X5X4X4X1X,X$XT.Y.K.K.Y.K.B.B.U.Y.U.Y.E.T.Y.B.M.G.F.<.-.} D =.f.;.M 0 0 0 z  . . .8.8. .;.;.;.;.;.K C M h g 9 9 9 h h h k 9 * & @ & @ @ &                                                                                                                                                                                                                                                                                                                   ",
"                                                                                                                                                                                                                        @ X X X $ > : e m C G C G G G x x C M g : & X X X @ : m Z } | | | _ | 1.n.U.W.>X[.Q.Q.Y.T.Y.Y.U.Y.E.Y.B.N.U.U.U.Y.E.Y.Y.B.M.G.m.g.<.-.) =.>.=.h 9 0 0 V  . . . . . .8.u.u.i.u. .K C M h g g h h M M h g * & & & & @ & 1                                                                                                                                                                                                                                                                                                                 ",
"                                                                                                                                                                                                                        @ X X X & ; : g M C C C C K S C M C M g = : & & @ & e m K :.:.-.| | o.+.5.c.c.n.J.M.n.M.B.A.Y.T.Q.$XT.U.K.U.U.U.U.T.W.T.G.G.G.m.1.| / z V ) Z f 0 9 9 G ;.u.u.8.8.u.u.u.i.i.i.;. .K G C h j C C G P C h = & & * @ @ ; 1                                                                                                                                                                                                                                                                                                                 ",
"                                                                                                                                                                                                                        @ X X X & * : g M C C C C C C C h h h g R : : > & * 9 M K :.:.-.| [ o.+.#.@.#.5.5.5.5.5.N.B.Y.T.Q.Q.Q.T.E.E.E.U.U.U.U.U.M.M.G.m.1.O.( / ( | } V h 9 9 C ;.;.u.8.u.u.u.8.u.i.i.8. .L G C h j x C K K C x 9 & & * @ @ &                                                                                                                                                                                                                                                                                                                   ",
"                                                                                                                                                                                                                        @ X X X & > : g M C C j C C C M h g k g g g g g = 9 9 B D } | } ( ( o.#.o.o.o.O.3.#.#.#.v.N.U.T.Q.Q.Q.[.$X$XW.U.U.U.U.G.M.M.M.m.b.1.O.O.<.m.g.=.Z g 9 M T ;.u.u.i.i.i.u. .8.u.u.;. .K C h h C G K L K C 9 & & & @ @ *                                                                                                                                                                                                                                                                                                                   ",
"                                                                                                                                                                                                                        @ X X @ $ > : g M C C h C M M M h 9 9 k k h h h g 9 r l Z ] / / ( ( o.o.o.o.o.O.3.#.#.@.c.N.Y.T.T.T.Q.[.>X$XQ.U.U.U.G.M.M.M.M.M.b.a.1.a.m.R.P.f.K h 9 h K L  . .u.u.u.8. . . .;.;.;.K C h h C G L ;.K C 9 & & & @ @ -                                                                                                                                                                                                                                                                                                                   ",
"                                                                                                                                                                                                                        @ X X @ @ > q g C C C j j j M h g 9 9 g h h M M h g h B ) } | ( [ o.o.#.+.#.O.3.5.5.5.5.n.B.Y.T.T.Y.T.Q.Q.Q.T.U.U.U.M.M.M.M.M.M.m.b.m.m.L.[.R.f.} g ; 9 C C G P L L ;. . . .;. .;.;.K C h M C S T ;.K C e > & * @ @ -                                                                                                                                                                                                                                                                                                                   ",
"                                                                                                                                                                                                                        @ X X @ @ > e m C C C x x x M h g k k g h h M M h h l V } | | | o.o.o.+.3.3.3.3.5.5.5.n.B.K.E.$XT.Y.Y.U.E.E.U.U.U.U.J.M.M.M.M.M.G.M.G.G.R.|.W.g.} h ; e m h h j C G K L  . . . .K K K C M M C C K K S C e * & * & $ -                                                                                                                                                                                                                                                                                                                   ",
"                                                                                                                                                                                                                        @ X X @ @ * = h M C x x x C M h g g g g h h M M h g l B ) -.-.| _ _ _ | O.4._ 3.1.3.5.5.n.B.E.$XE.U.K.R.U.U.U.J.M.J.J.M.M.b.b.b.M.M.G.G.U.[.R.f.} r & : e = = 9 k M P K L L L L K K C C h h h m M C m h 9 * & * $ @ -                                                                                                                                                                                                                                                                                                                   ",
"                                                                                                                                                                                                                        @ X X @ @ * = g M C x j x C M g k h h k g g h h g r h B D =.-.) _ ) / ) _ _ ` _ _ ' ' #.5.n.E.$XE.K.J.J.U.U.U.M.M.J.J.M.M.N.c.b.M.G.G.M.J.W.L.<.D e @ & > & @ * = g M G K J K G C C M h 9 9 9 e e e 9 : : & & * @ @ -                                                                                                                                                                                                                                                                                                                   ",
"                                                                                                                                                                                                                        X X @ @ @ > g h M C x x x x M h h h h h g h M h h h h h F Z Z V V s s y y y d W ` ` W ` #.5.K.>XE.J.J.K.U.U.U.J.J.U.U.J.M.n.b.n.M.G.G.M.U.Q.R.<.D e @ & * & & & * 9 m C G G K K K C M h 9 9 9 9 ; ; ; ; * & & & & @ -                                                                                                                                                                                                                                                                                                                   ",
"                                                                                                                                                                                                                        @ X @ @ @ > g h M C x x C C C h h h h h h M M M M h h h h m r r w 7 4 4 4 8 8 8 u 8 6 u ^ #.K.>XE.J.J.R.Y.Y.U.U.U.U.U.U.M.M.n.M.G.U.U.U.Y.<XW.f.) e @ @ & & & & * 9 h C G H L L K C C h 9 9 9 ; ; * > ; > & & & & $ -                                                                                                                                                                                                                                                                                                                   ",
"                                                                                                                                                                                                                        @ X @ @ @ > e h M C x j C C x j h h k h M M C C M h g e e e 9 * # # # + + 4 4 5 5 5 5 6 ! #.J.E.K.n.n.E.E.T.U.U.U.U.U.U.G.G.M.M.U.U.U.U.T.1XW.g.) e @ @ > & & & * = h C H J L L K G M h 9 9 : = * & * > * & & - - @ -                                                                                                                                                                                                                                                                                                                   ",
"                                                                                                                                                                                                                        @ @ @ @ @ > e m M x x j C C C j h h k g h M C M h g 9 9 9 e q * # # # # 4 4 4 5 5 5 5 6 W ' 5.K.n.5.n.E.Q.T.U.U.M.J.J.J.J.G.M.M.J.U.U.U.#X1XW.f.D e @ $ > & & & * 9 m G L J L G G C M h 9 9 : ; * & > > & & $ & @ @ -                                                                                                                                                                                                                                                                                                                   ",
"                                                                                                                                                                                                                        @ o @ @ @ > e h j x x j x x C x h h h h h M M M h g g g 9 9 q * @ # # ; 7 5 5 5 5 5 5 6 ! ' 5.J.5.#.5.E.Q.T.Y.U.M.J.J.U.J.J.M.M.B.U.U.Y.$X2XW.<.D 9 @ & - & & & * e M K  . .L G G C M h 9 9 : : > > > : - & $ & @ @ -                                                                                                                                                                                                                                                                                                                   ",
"                                                                                                                                                                                                                        @ @ @ @ @ > e h j x x j x C C C j j j j l x C h h g h h h g 9 * # # # ; # 4 4 4 5 5 5 6 ` #.5.K.5.#.5.E.<X$XQ.U.U.J.J.J.J.J.J.U.U.Y.T.T.=X2XQ.g.D e @ - > & > * = g G T  .8. .J G K C h 9 9 e : : > : : > & & & $ @ -                                                                                                                                                                                                                                                                                                                   ",
"                                                                                                                                                                                                                        @ o @ @ @ > e h j C x x x x C C C C C x x V V x l h h h C M e q * # # # # 4 4 q w 5 6 6 ` 3.5.K.5.' 5.E.[.$XQ.U.U.U.J.J.G.J.K.U.Y.Y.T.T.=X7X|.g.) e & - ; > > > = h P ;.8.8. .L L K P M e e e : : : : : > - - - $ @ -                                                                                                                                                                                                                                                                                                                   ",
"                                                                                                                                                                                                                        @ $ @ @ @ > e g j C x x j x C x C x C C C V V x l f k h j h 9 q * @ @ % 4 7 7 w w u 8 6 ` ' 5.5.#.` 3.G.R.E.E.U.U.U.U.U.G.G.U.Y.Y.Y.T.T.*X4X|.g.} r * ; : : : = 9 h K u.8.8. . . . .K M 9 e : : q : : : > - & - @ @ -                                                                                                                                                                                                                                                                                                                   ",
"                                                                                                                                                                                                                        o o o @ @ > e g h j x j x x C C x x x C H H J v x f f k h C h ; @ @ @ # # w u d d u 6 6 ` ' 5.5._ d ` 2.H.G.R.R.U.U.U.J.M.M.Y.E.E.Y.E.T.*X4X|.F.} r & ; : : : > 9 h K  . . ... . . .G C h 9 : : : : : : & & & & @ o -                                                                                                                                                                                                                                                                                                                   ",
"                                                                                                                                                                                                                        o o o o @ > e g M j x j x x C C x x v H }  . .J v x x h C C h ; & @ $ @ 4 0 s d ` W u W ^ ' 3.3.` u d 4.1.5.b.m.n.G.G.G.n.M.K.E.E.E.E.T.1XeX3XF.-.r # & : > = = e h K u.u.9.8.9.8. .G C g 9 : q : : : : & & & - - o -                                                                                                                                                                                                                                                                                                                   ",
"                                                                                                                                                                                                                        $ o o o $ > e h M x x x x x C C x C J { ;.u.u. .J H C x C S M = & @ $ @ 4 y F ` _ ` W ! ' ' 3.' W u u d ( o.3.1.1.c.b.N.5.b.G.E.Q.Q.$XQ.1XtX3XL.<.y # # ; > = 9 9 j K i.u.u.9.9.u. .H C g 9 9 9 : : e e & & & - - o -                                                                                                                                                                                                                                                                                                                   ",
"                                                                                                                                                                                                                        - o o @ @ > e h M x x j x x C C x H {  .u.u.i.u. .J H C C C h = & @ @ @ 4 y F _ _ _ ` ^ ' #.3.O.` d u ` _ O.+.O.o.+.1.1.1.5.n.U.E.E.Q.$X1X0X5XW.g.z 8 7 e 9 9 9 k j L i.i.p.u.9. . .J C g 9 e 9 > = e e & & & - - $ -                                                                                                                                                                                                                                                                                                                   ",
"                                                                                                                                                                                                                        - o @ @ @ > e h h x x j x x C C H L  . . .u.i.u. .J H x C C h ; & @ @ @ # r F ) _ ` ! ` ' #.3.5.3.4.4.2.<.2.1.O.| | o.O.o.+.5.n.J.K.E.Q.<X7X5XQ.F./ 0 y B r 0 9 9 j L u.u.u.9...{ { H x h h h 9 > = e e & & @ - - $ -                                                                                                                                                                                                                                                                                                                   ",
"                                                                                                                                                                                                                        - & @ @ @ > e h j x j j x x C C G  . .{  .u.u.u. .J G x C C g ; & @ @ @ # w s Z _ ` ` ` ` #.5.n.b.b.H.H.H.H.F.1.| ( ( ( ( ' #.5.5.n.J.E.$X1X<XW.U.+./ ) -.) V f g j G  . .8...{ { { H x M M M h = = e e & & @ - - $ -                                                                                                                                                                                                                                                                                                                   ",
"                                                                                                                                                                                                                        - - @ @ @ > e h j x j f x x C C J  . . . .;.u. .L H C x C M g ; > @ @ @ # w s Z _ _ _ ' ' 3.n.G.R.R.P.P.].].}.z.| / / ` ( ' 3.1.3.5.n.J.U.T.T.Y.U.c.1.b.L.z.f.} V h C G L  . .{ { { J G C C C M g g h g > & @ - - $ -                                                                                                                                                                                                                                                                                                                   ",
"                                                                                                                                                                                                                        - & @ @ @ > e h j x x f x x C C J ;.;. .;.u.u. .L H C x C M e 9 > & @ @ # 7 r Z -.| O.O.3.5.J.W.[.[.[.[. X X{.H.-./ ` z _ ' O.O.O.O.5.n.n.B.B.B.Y.M.M.W. X X].f.K h h x G {  . .{ 8. .H G P P C M M M m : & @ - - $ -                                                                                                                                                                                                                                                                                                                   ",
"                                                                                                                                                                                                                        ; & @ @ & = e h j x j f x x G G H L  . . . . .L G x x x h g e e : & @ * * q w V ) | O.+.3.n.G.].[.[.W.].].{.].g.| / y z _ _ 3.O.O.' 3.5.5.&.V.B.K.K.U.U.W.W.].z.K g g h C  . .J {  . .H C C C C C C C M : & @ @ @ @ $ <                                                                                                                                                                                                                                                                                                                 ",
"                                                                                                                                                                                                                        ; & & & & > e h j j f f x x C C H J  .{  . . .G x j h h h g 9 g : & @ & & * 7 l ) ) _ O.1.n.J.W.].W.P.P.P.].P.g.| V y z ` _ O.O.' ( O.1.&.&.5.B.U.Y.K.J.M.G.L.z.D g 9 g x  .L J { {  .H x x C C C C C M e * @ @ @ o - <                                                                                                                                                                                                                                                                                                                 ",
"                                                                                                                                                                                                                        ; - & & @ > e h j x x f x x x x x G {  . . .L G x j h j h g g g e * @ & & * q r Z ) / ( +.5.G.W.W.R.P.L.P.P.P.1._ z y V _ _ 3.O.' ( o.3.@.#.&.n.Y.T.T.J.n.M.G.g.) g 9 g x } L J  . . .H x x M C j C C C e > @ @ @ X @ -                                                                                                                                                                                                                                                                                                                 ",
"                                                                                                                                                                                                                      : - & & & & = g h x G b x C G b x H J {  . . .J C x j j C h h g m e > & > = : 9 p Z Z V ` | 1.G.R.W.W.R.R.W.W.P.<._ ` y ` _ 4.3.3.' ' O.3.#.' @.n.Y.$X,XE.U.L.L.g.] h h g C }  . . . . .H x x M C h j C M g : & & @ X @ -                                                                                                                                                                                                                                                                                                                 ",
"                                                                                                                                                                                                                      - & & * * & = g h C H H H H G H C H J J {  .J H x x h j C h h g g e : > > : 9 9 h B B y y ( 1.m.G.R.W.R.R.W.W.P.<./ ~ d ` _ _ O.O.' O.O.+.o.' #.n.K.,X1X<XT.R.R.F.=.F h 9 M K L  . .J J v x x x j h h j M g e = > * @ @ - -                                                                                                                                                                                                                                                                                                               ",
"                                                                                                                                                                                                                      - & & * > & = g h G H J J L J G C C H H H H H x x h f h h h g e e : : = : : : ; e B y y y / O.1.m.G.R.R.R.W.W.G.O.~ z u ` _ _ ' _ O.O.o.o.' ' #.5.J.>X1X1X1X5X3XP.2.F p ; h P K L { H v x x x C j h h j j k g e e : > & & -                                                                                                                                                                                                                                                                                                               ",
"                                                                                                                                                                                                                      - & & > > & = k j H L L J J J H G x C v x x x x x j h h h h g e = = = : = : : ; e p y y z ( | 1.1.m.U.R.R.R.U.M.O.~ ~ d ` _ _ _ _ ' ' ' ' _ _ 3.5.J.>X1X1X4XyXtX Xz.S e & g S K  . .H b x C x C j g h j j k h m m m e > - -                                                                                                                                                                                                                                                                                                               ",
"                                                                                                                                                                                                                    - & & & > = & = h G L  . .{ J J H H C H H x x b C x x h h h h 9 e = = = = : : : : e m B V Z <.1.g.b.G.R.W.R.R.R.G.O./ ~ ` ` ` ` _ _ ( ( ( ( _ _ 3.m.K.,X2X1X5XeXtX Xf.S e : p S K ;. .H H b G C C j h h j j h h M C M n : & -                                                                                                                                                                                                                                                                                                               ",
"                                                                                                                                                                                                                    - - & > : > * 9 M G  . .{ H { J J J H C x C b G C C V j M M h g e e 9 = = e e : q e m B D =.2.z.b.b.G.R.R.R.L.L.b.3.( ( ( ( ( ( ( ( ` ` ` ( o.' 1.G.W.[.1X1X<X5XyX Xf.Z p : m S T ;. .J b b x C M M M h h j j j G P M M : & -                                                                                                                                                                                                                                                                                                               ",
"                                                                                                                                                                                                                    - & & > : > * = M G K  .{ H J J H H H H G G x Z C C V x M M g g 9 e = ; = = : : 9 q q e B D 2.z.z.m.G.G.H.G.H.L.H.1.1.1.1.1.O.o.O.o.( ` ( ' o.o.1.G.R.[.<X<X>X3XeX{.2.B 9 * e m K  . .J G b C C M M M h h h k k M G M n : & -                                                                                                                                                                                                                                                                                                               ",
"                                                                                                                                                                                                                    - & & : : > & = M G L  .J J H J H v G H G G x x C V V C M h g 9 9 9 = ; > = = e q : * ; r B :.f.z.F.F.F.b.b.b.F.G.b.b.m.G.m.1.1.1.1.o.( ' 3.1.3.5.n.J.[.,X,XQ.<X5X].-.r : @ : n C K L H G x j j M M M h h j j h h M M h : & -                                                                                                                                                                                                                                                                                                               ",
"                                                                                                                                                                                                                    - & & : : * & 9 C G L J J J v J J v C G K G x x V V C V M h h g g 9 e = = e g g e : * * q r Z -.2.g.b.g.b.5.1.m.G.G.G.U.R.G.m.m.m.b.1.1.1.b.n.5.c.n.G.Q.,X,X[.<X3XP.=.r q $ : q m C C x j h h h M M M M j j j k k h h g : & -                                                                                                                                                                                                                                                                                                               ",
"                                                                                                                                                                                                                    - & & : : > & 9 C H L J J J J J J v G H K G C C C C C C C j h h h h g 9 g g m m h q * # # # w B | <.1.2.1.1.1.m.G.G.L.R.R.L.G.G.G.G.G.G.G.G.G.b.n.n.n.R.[.>X,X<X3XP.=.r q # & > > = 9 9 9 9 g h M M M M C j h g g g = : : & -                                                                                                                                                                                                                                                                                                               ",
"                                                                                                                                                                                                                  : - & & : : * & 9 C K L J J J J J J H H H G G G H C C C C C j h h h h h g h h M M h e ; @ @ # 7 r ) 2.g.g.1.1.1.m.L.G.G.U.U.L.G.G.U.U.R.R.R.R.G.n.n.n.G.R.W.[.,X3X3XP.) r ; $ - - & & & * = = 9 h M M M M C j h e = = > : : & -                                                                                                                                                                                                                                                                                                               ",
"                                                                                                                                                                                                                  1 - & & : : * & 9 M G L J J v v v J J H K K K K K K C C C x x j h M M M h m m h j M 9 * @ @ # q r -.f.F.b.b.1.a.m.G.M.M.M.M.M.M.L.U.U.U.U.J.U.G.b.m.G.G.J.R.R.[.[.[.H.D w ; @ - - & X @ & & = e h M M M M j M h e > * & & : & - 1                                                                                                                                                                                                                                                                                                             ",
"                                                                                                                                                                                                                  1 - & & > : > & 9 M G L J H v b v H J K K K K K K K C C x x x C x C C C M m m h j M 9 & @ $ # q r -.z.H.F.g.1.a.M.L.M.b.b.M.M.G.U.U.U.G.G.G.G.G.n.n.J.J.G.G.U.Q.[.[.H.D w ; @ - - 3 X X X & & e h M M h M h h h = > & & & : - - 1                                                                                                                                                                                                                                                                                                             ",
"                                                                                                                                                                                                                  1 - & & : : > & 9 C G L J J H H H H J K K P P P K P S C C x C x C M M M M m m j h h e > & $ # q B -.g.F.b.g.a.b.M.M.M.M.M.N.L.A.U.W.R.U.M.M.G.M.M.G.J.J.G.J.R.W.[.3XH.) w ; @ $ - $ o o X & > e m C C M h M M g e > & & > > > - 1                                                                                                                                                                                                                                                                                                             ",
"                                                                                                                                                                                                                  : - - & : : > & 9 C G L J J H v H G H K P C C N C C C K G C C C C C M M m n n h g g e : ; * * 9 m =.f.z.g.g.a.b.m.M.M.L.M.M.U.U.U.R.R.J.M.M.G.G.M.G.J.U.U.U.E.[.<X3XP.=.r ; @ $ - - o o X & : g m C C j j C M g e > & & > ; > - 2                                                                                                                                                                                                                                                                                                             ",
"                                                                                                                                                                                                                  1 - & & : : > & 9 M G G H J H v b C C M n e q : e n m C C C C C C C h g e : = 9 9 9 q : > * * 9 m } :.f.g.g.g.b.b.b.G.U.U.L.U.U.U.U.U.M.b.m.M.n.b.n.G.U.E.Q.>X<X3X3XP.=.r ; @ @ - - $ $ @ & : g m C C C C C M e : & & & > > ; - 2                                                                                                                                                                                                                                                                                                             ",
"                                                                                                                                                                                                                  1 - & & > : > & 9 M C G H H H H x j 9 > & @ X X & > e M C C x x C h 9 > & @ * ; * > : : ; > * * g Z } 2.g.g.g.1.a.b.M.R.U.L.L.L.A.M.M.b.c.n.m.n.5.c.M.R.[.<X4X5X5X5XP.=.r * @ @ - - @ @ @ & : g h h j x C C M 9 > & & & - - - - 1                                                                                                                                                                                                                                                                                                             ",
"                                                                                                                                                                                                                  1 - & & > : > & 9 M C G H H H H C h ; @ X . . O X & q A P C C C C h 9 & @ X & & # * : : : > > * 9 V } 2.g.F.b.a.a.b.G.R.U.M.M.G.M.b.b.b.b.m.G.n.b.b.J.[.5X4XrXyXyXeXW.-.r * @ & > - @ @ $ ; q g h j j C C C M e : & & & - - - - <                                                                                                                                                                                                                                                                                                             ",
"                                                                                                                                                                                                                  1 - & & > : = & 9 M G G H H H G C h & X . . . O X @ q C K P G G G h 9 * @ @ * * * * : : : : > 9 h C } 2.g.F.F.b.b.m.G.R.G.c.c.c.c.b.b.b.b.G.G.G.M.J.[.5XyXyXpXyXaXaX|.:.l 9 & > : ; - - - : e g h C x C C C M e : * & & - - - - 1                                                                                                                                                                                                                                                                                                             ",
"                                                                                                                                                                                                                  1 - & & : : = & 9 M G K J H H G C h * X . . . O O @ : A K S C C C h 9 * @ @ - ; * ; ; : : > > 9 h V ] :.g.z.g.b.b.m.G.U.m.a.a.a.b.m.G.n.m.G.G.G.G.E.5XyXpXpXpXiXpXpX3Xp.z e & ; q q ; ; ; : 9 g j G b x C C M e : & @ & - - - - <                                                                                                                                                                                                                                                                                                             ",
"                                                                                                                                                                                                                  1 - & & : : ; & 9 M P K H H H H K M ; X . . O O . X : C K G C C C h 9 > & @ & ; ; ; ; > > > > g h x C } 2.2.2.1.g.b.G.G.b.1.1.b.M.G.U.G.M.G.G.G.U.[.eXpXpXyXyXyXpXpX3Xf.B 0 & * 9 q : : ; ; = g M G G x x x M e : & @ @ & - - -                                                                                                                                                                                                                                                                                                               ",
"                                                                                                                                                                                                                  1 > & * : 9 : & e M P P K H G P P M > @ X X . X . X ; M S C C x h h 9 = & & & * * * * * * & ; h B C B D =.;.;.:.g.b.F.L.b.<.1.m.G.W.W.R.M.M.M.G.U.3XaXxXhXuXuXuXpXpX3Xg.V w * q q q 9 q : ; ; 9 C K K C C x M e > @ @ & - @ @ $                                                                                                                                                                                                                                                                                                               ",
"                                                                                                                                                                                                                  1 > & * : 9 ; > e M C P P G M M M g > & & - & & @ @ 9 M S G C C x h g : & & & & * * ; ; ; ; 9 h B B h B D D D } a.g.F.P.g.<.1.G.R.[.[.T.U.M.M.U.W.5XpXMXxXhXhXhXxXMXeXz.D s w e r e e 9 q : : 9 C K K K G C C e > @ @ & - - $ $                                                                                                                                                                                                                                                                                                               ",
"                                                                                                                                                                                                                  1 > & * : 9 : > e m M C M m g e e : > ; : 1 1 : : ; e h C C S C M h 9 : * & & & & & > : : 9 e m C B r h B B B / 2.g.H.P.g.<.1.G.W.<X<XQ.U.U.U.W.W.3XaXMXMXhXhXhXMXmXeXz.) B r p p p p e e 9 9 e m C P K K G C 9 * @ @ $ - - - -                                                                                                                                                                                                                                                                                                               ",
"                                                                                                                                                                                                                  1 ; - & : q : : q i n e e = * & & & & > e n n n n e 9 9 h M m h 9 9 : > & & & & @ & & ; : q e B C m e e r r r z | g.F.P.g.O.1.F.R.[.[.W.U.Y.U.W.W.[.eXpXpXuXpXiXpXpX3Xg.D B p m m m n p e q : ; 9 g h M C C M > & @ @ $ $ - - -                                                                                                                                                                                                                                                                                                               ",
"                                                                                                                                                                                                                  1 ; - & : q q : : > > - @ X . . . X @ ; n N N M M m g 9 : : 9 : * & & & @ @ @ & $ $ & & > q i n m e ; q 9 9 0 l } f.z.z.2.| <.m.L.W.[.T.U.T.T.T.U.T.1X7X7X7X7X7X0XtX[.2.D B p m A N m m i q : * * > : e g h 9 * $ @ @ @ @ - -                                                                                                                                                                                                                                                                                                                 ",
"                                                                                                                                                                                                                  1 ; - - : i q q : ; $ @ . . . . . . @ : n N C M C M g ; * & $ $ @ @ @ @ @ @ & - & $ & & > : i i n q * ; q q 9 h ] >.g.z.2.} | g.G.W.Q.W.W.Q.*XQ.!.T.*X1X<X$X*X*X<X<XP.<.D F m A A A m m n e : & & & & * ; ; : & @ @ @ @ @ - ;                                                                                                                                                                                                                                                                                                                 ",
"                                                                                                                                                                                                                  1 - - - : e q e : - $ $ X . X . . . & q n N C M C N n > @ @ @ X X @ @ @ @ @ & & $ @ & & & > : : q : * : : : 9 h K :.f.z.f.} | a.F.R.Q.Q.Q.>X<XQ.T.T.Q.$XT.T.E.Y.U.T.G.:.) F p B B m i i i 1 > - & & @ @ @ @ $ @ @ X @ @ - ;                                                                                                                                                                                                                                                                                                                   ",
"                                                                                                                                                                                                                  1 - - - ; q q : > & $ $ X X o . . . & q m C C M M M n > & @ X X X @ @ X X X @ @ @ @ & & $ & - * > * * : : : 9 e D ;.f.x.2.} | <.m.P.[.[.Q.>X<X<XQ.T.$X$XY.Y.Y.Y.U.R.F.<.) Z m B m p 9 q q ; > - - - & @ X @ @ @ @ X @ @ - <                                                                                                                                                                                                                                                                                                                   ",
"                                                                                                                                                                                                                  1 - - & > i : : > @ @ @ $ o . . . X > e m C M M M m e > $ @ X $ $ $ $ @ @ X @ @ X X X @ @ @ @ & & @ @ $ * > ; e h S >.z.:.V ] | g.L.W.W.T.W.Q.<X*X<X1X1X>X$XT.Q.Q.Q.L.f.} F h p m e q q ; * ; & - - $ @ @ @ @ $ @ X X X -                                                                                                                                                                                                                                                                                                                     ",
"                                                                                                                                                                                                                    , - @ > i q q > & @ @ @ X X . . X > e h C j h h m e 9 ; $ $ $ - $ $ @ @ @ @ @ @ @ @ @ @ @ @ @ @ @ @ @ & ; * ; e C ;.f.,.Z / | f.L.W.W.R.Q.<X<X<X1X1X1X,X$X$X<X<X|.W.g.-.D B l l r 9 q : * * $ $ $ $ $ @ $ @ @ @ X X @ -                                                                                                                                                                                                                                                                                                                     ",
"                                                                                                                                                                                                                    , - - - i i e : & @ @ @ X X . . @ : e h C j h M M m e : > - ; ; - $ $ & * & $ $ @ @ @ @ @ @ @ @ @ @ @ $ $ $ * 9 m T >.=.V Z | f.P.].W.W.[.<X<X<X<X1X1X1X<X1X1X1X3X[.F.f.-.Z Z Z V B r e q * $ $ - $ $ @ $ - @ @ X X @ -                                                                                                                                                                                                                                                                                                                     ",
"                                                                                                                                                                                                                      , - 1 i 1 e : & @ X X X X . . @ : h M C l M m A m p q : ; > > ; > > : : : ; - & & & & @ @ @ $ $ $ $ $ $ @ # ; p D =.=.Z Z | a.P.].Q.Q.[.<X<X<X<X<X1X1X1X1X<X<X1X|.P.m.2.| | | -.=.D A p ; $ & - - $ $ $ $ $ $ X X @ -                                                                                                                                                                                                                                                                                                                     ",
"                                                                                                                                                                                                                          1 n 1 : > & X X X X X . . @ : p M B m m B A B m i e i q q q i i i q : : ; ; ; ; ; ; * - - - $ $ $ $ @ @ # q B D D Z / | <.F.W.[.|.3X5X4X3X<X<X<X<X,X<X*X*X<X|.R.F.g.<.<.:.f.g.2.=.A q @ @ @ @ o o $ - $ @ X X o -                                                                                                                                                                                                                                                                                                                     ",
"                                                                                                                                                                                                                              1 ; > @ X X X X X . . @ : p m B m m B B B m m m m n n m n N p i q : : ; ; ; ; ; : ; ; ; - $ - $ $ @ @ * e B Z ) ] | <.m.P.W.<X5X5X4X1X<X<X<X<X,X$XQ.$X<XQ.U.b.g.<.<.<.F.P.z.f.I e . X @ X X o o - @ X X X o ,                                                                                                                                                                                                                                                                                                                     ",
"                                                                                                                                                                                                                                ; ; $ X X X X X X . @ i n A A B A A B m h h m m m n m m A N p e : : : : ; ; ; ; ; ; ; ; ; ; ; ; # % # w s Z =.;.:.f.m.L.P.W.[.<X[.W.W.[.,X<X<X*XQ.*X<X_.U.b.g.1.g.g.P.].P.z.=.r . X X X X o o - @ X X X o ,                                                                                                                                                                                                                                                                                                                     ",
"                                                                                                                                                                                                                                < - $ @ X X X X X X - i N A U S S S A m m h m m m m m m A A m p q : : : ; ; q q i i q ; ; ; ; ; ; - # w s ) >.f.f.g.m.m.b.m.G.R.G.G.G.R.[.<X<X<XQ.<X5X<XU.F.m.g.m.m.R.[.}.z.=.e @ @ @ @ X o o $ o X X X o ,                                                                                                                                                                                                                                                                                                                     ",
"                                                                                                                                                                                                                                1 > @ @ X X . . . % ; i m A S A A A A m m p p m p m A A A S A p i q ; : q q q q q q q q i q i q ; - q w y ] f.a.m.b.b.b.1.<.1.b.g.a.b.L.W.[.<X<X*X1X5X<XW.H.F.g.b.G.P.{.}.z.Y i . . X X X X o o o o X X o -                                                                                                                                                                                                                                                                                                                     ",
"                                                                                                                                                                                                                                : - @ X X X . . . . - i m m B B A B m p p p m m m m m m A S A m i q ; q q q q q q q q q q q q q ; ; ; w l } f.a.a.a.a.1.O.( | <.<.:.a.G.R.Q.*X_.[.1X5X3XR.F.g.1.a.N.G.P.H.>.S ; . . . . . X o @ o X X X o -                                                                                                                                                                                                                                                                                                                     ",
"                                                                                                                                                                                                                                1 - @ X X @ @ X @ @ # q p m m m m m p p e p m N m N m m A S A m i q q q q q q q e q q q q q q q ; ; * e l } f.g.a.a.1.+.( / / | | | 1.G.W.Q.Q.Q.Q.<X5X<XP.b.2.<.1.c.G.P.H.>.A * . . . . . X X @ o X X . X -                                                                                                                                                                                                                                                                                                                     ",
"                                                                                                                                                                                                                                1 - @ X @ @ @ @ @ @ ; q i p m r p p e e e p m N N N m m A U A m p i q i i i e e i e q q q q q q ; ; ; e B -.g.z.g.g.f.<.| ( | | :.:.g.P.[.[.Q.T.T.Q.<X[.L.g.<.+.@.c.m.P.H.-.B 7 + . @ X . X X @ o X X X X -                                                                                                                                                                                                                                                                                                                     ",
"                                                                                                                                                                                                                                1 > @ @ $ $ @ @ $ $ ; e i p h r e e e e e p p m m N A A S U A m p i i i p i i i i i i i i e q q i ; q e B =.f.z.f.2.<.-.| | <.<.2.<.g.P.[.[.Q.W.T.Q.Q.W.G.b.a.a.c.b.G.P.F.-.Z w + # ; ; $ @ @ X o o X X X -                                                                                                                                                                                                                                                                                                                     ",
"                                                                                                                                                                                                                                i ; @ @ $ $ $ @ $ @ * e i p h r e i p p p p p p p m A A A S A m p i i p p p i i i i i i i i e q q q q q r A =.=.=.=.) ) } :.p.f.2.-.<.H.W.W.Q.W.T.T.Q.Q.W.R.R.W.[.[.|. XR.g.-.Z y F D S n i & X X X X X o o                                                                                                                                                                                                                                                                                                                     ",
"                                                                                                                                                                                                                                i ; - @ - - $ $ $ $ ; e p m m h p p p p r r r p p m B m B A A m m p p m m n i e q q q e e e q q q q q : * q p p B s p B ) :.f.p.<.| -.F.R.W.W.W.T.Q.<X1X5X4XeXtXyXyXyXyX3XU.m.<.4.f.z.f.,.N > . X X X X o o                                                                                                                                                                                                                                                                                                                     ",
"                                                                                                                                                                                                                                1 ; - @ - ; ; $ $ @ q p m m B m m m m p r r r p p m B m m B B m m p n N N m i e q q q q e e q 9 q q q ; # # ; ; q q 7 r D <.f.f.<.) | b.R.W.Q.W.Q.*X1X4XyXyXaXaXlXpXaXaX5XR.M.c.1.F.H.z.>.S : . X X X X o o                                                                                                                                                                                                                                                                                                                     ",
"                                                                                                                                                                                                                                i ; - - ; ; ; ; # * q i m m m m m B m m p p p p p p m m m m m m m m m N A N n e e q q : q q q q q q : * @ $ $ $ % + # w D f.f.f.<.| -.F.R.W.[.[.T.<X4XyXpXpXpXyXaXpXaXyX4XQ.M.c.1.b.H.z.,.B * . X X o o o o -                                                                                                                                                                                                                                                                                                                   ",
"                                                                                                                                                                                                                                i < - - ; ; ; ; # * q p m m m m m m m m p r r p p p p m m m m m m m m A A A m p i e q q q q 9 q q q : * $ $ % @ . . @ q S 2.2.<.-.) -.F.W.[.[.[.Q.<X4XyXpXpXpXyXaXaXaXyX1XT.n.5.@.b.H.z.=.B # . X X o $ $ o -                                                                                                                                                                                                                                                                                                                   ",
"                                                                                                                                                                                                                                i ; $ $ ; ; ; ; # * q p m m B B m m m m p p p p r r p m m p p p m m N A U S A m p i q q q q q * q q ; # $ $ @ X . . @ # A :.;.:.} ) | F.].[.[.[.>X1X4XyXyXaXyXyXyXyXyXyX1XY.v.@.#.a.F.f.} r # . X X @ @ @ @ $ - - -                                                                                                                                                                                                                                                                                                             ",
"                                                                                                                                                                                                                                1 ; $ $ - > ; * # * q p m m m B m m m m p p p p r r r p p p r p m m A S S S A m p p e q q e q q q q q ; ; * @ X . . . - A =.=.-.} / | F.W.[.[.[.,X1X4XyXyXyXyX0XyXtXyXyX1XU.v.@.#.1.b.1.} y 7 . @ @ X X X X $ $ - - - -                                                                                                                                                                                                                                                                                                         ",
"                                                                                                                                                                                                                                1 ; $ $ ; ; ; * * * q p m m B B m m m m p p p m r r r p p r e r m m A S U U S A A m m p p p p i w e e e q : $ X . . @ ; A =.:.>.-./ | F.W.[.>X<X<X5X7XrXyXyXyX0XyXyXyXyX5XY.N.c.@.b.m.g.} l 8 + @ X X X X @ - - - - $ -                                                                                                                                                                                                                                                                                                         ",
"                                                                                                                                                                                                                                i ; - $ ; : ; * * ; e p m m B B m m m m p p p m p p p m p r r r m N A S U U U U A A A m N A m m B A m n p : ; @ X . @ ; A ,.>.2.| / | F.[.[.<X3X1X2X7XrXyXyXyX0XyXyXyXyX4XT.M.N.c.m.F.g.O./ t 8 # @ @ @ @ & - - - - $ - -                                                                                                                                                                                                                                                                                                       ",
"                                                                                                                                                                                                                                i < - $ ; ; * * * * q p B B p p m m m h r r h m m m m m m m m m A A A S U U U U S S A A A A A N A A A m n i ; @ X . . # p I ) =./ z | F.[.[.>X<X,X1X4X7XyXyXyX0XyXyXyX0X4X*XU.G.m.G.L.F.F.g.<.} D A n : & > > - - - - - -                                                                                                                                                                                                                                                                                                       ",
"                                                                                                                                                                                                                                1 < $ @ & ; * @ * * q r p m p p m m m r r r r m m m m B B M M B A A A S U U U S U U S A S U S S A A A m n i ; & X . . @ a A B B V t / F.[.[.Q.[.Q.<X5X4XyXyXyX4X0X0X0X7X4X1XQ.U.G.L.R.W.].{.].P.}.x.=.m q : : 1 1 - - - -                                                                                                                                                                                                                                                                                                       ",
"                                                                                                                                                                                                                                2 ; - @ & ; & & * * 9 p m m p p p p m m p r p m m B A A A B B A S A A S S S S S S S Z A A S A A B A A A m i ; - @ . . @ ; i a e r y ) H.[.[.,XQ.W.Q.<X5X4XeX4X4X4X0X0X4X4X5X<XQ.T.T.Q._.Q.<X2X5X X].2.A i i 1 i 1 : - - -                                                                                                                                                                                                                                                                                                       ",
"                                                                                                                                                                                                                                2 - - @ & - & @ * * q i m p r r r p p p r r m m A A S S S A A A S A B A Z Z S S S S Z A A S A A A A A B m p i : $ @ @ @ $ $ % + # 8 F H.[.[.>XW.R.R.Q.|.5X4X4X5X4X0X0X0X4X4X4X<X*X*X<X<X1X1X7X0XtX Xg.B p i i n i i : - - ,                                                                                                                                                                                                                                                                                                     ",
"                                                                                                                                                                                                                                1 - @ @ & - & $ $ * q e e e e e e e r r r r m B A S S S S S A S S A A S S S S S S S Z A A A A A A Z A m p e ; : $ $ @ @ @ . . . + w ) H.[.[.[.W.U.R.R.W.[.<X1X1X4X4X4X4X4X0X4X4X1X1X4X2X1X7XuXuXaX5Xz.B i i a i i i : - - ,                                                                                                                                                                                                                                                                                                     ",
"                                                                                                                                                                                                                                2 - @ @ @ & & @ @ * : e e e e e e e e e e p m A A A S S A A S S S A A S D S S S S S A B B A A B A A B p q q ; ; $ $ % @ @ @ @ @ # r ) H.].W.[.R.U.U.U.W.[.<X<X<X1X1X5X5X4X4X4X5X1X1X4X1X$X1X8XuX4X|.2.8 q a i i i ; : > - ,                                                                                                                                                                                                                                                                                                     ",
"                                                                                                                                                                                                                                2 - @ @ & - & @ @ $ : q e e e e e e e e e p B S S A A A A A S S S S S S U U S S S S A B m A A B B B A p e q ; * ; ; ; $ $ @ @ % ; p } H.].W.[.U.G.G.G.R.].[.[.[.<X<X3X<X1X4X5X1X<X1X1X<X$X1X7XuX5X[.-.8 7 p p i q q q ; ; ,                                                                                                                                                                                                                                                                                                     ",
"                                                                                                                                                                                                                                2 - @ @ @ - $ @ @ $ * q e e 9 9 e e e e e p B S S S A A A S S S A A m A A A A A S S A A A S S A Z Z S B p e q q i i i ; ; ; ; ; i A >.P.].].[.U.M.M.G.R.[.[.[.[.>X<X<X<X1X4X4X1X1X5X4X4X1X1XuXpXeX<X<.t 8 w w q q q q : ; <                                                                                                                                                                                                                                                                                                     ",
"                                                                                                                                                                                                                                2 - @ @ @ - @ @ @ $ * q e e q e q e e e e r m A S A A A A A B B m p p p m m m N A S S S S U U S D D U S m m p p n n p i i i i q N S >.H.].].[.L.G.F.G.P.[.[.[.[.[.<X<X|.<X5X1X1X1X1X7X4X1X7XrXuX7X<Xb./ z y y s B B p e ; ; ,                                                                                                                                                                                                                                                                                                   ",
"                                                                                                                                                                                                                                2 - @ @ @ $ @ @ @ $ * q q e q e q e e q e e m A B B B B B B p r p e e e p p p p A S D U Y Y Y U Y Y U S m m m m N N N n i i ; ; i A ) f.H.P.W.L.m.m.F.P.].[.[.[.[.|.|.[.,X1X<X<X$X<X1X1X$X1X9X9X7X7XQ.M.g.g.2.g.2.-.D p q - - , 1                                                                                                                                                                                                                                                                                               ",
"                                                                                                                                                                                                                                2 - @ X @ @ @ @ @ @ * q e e e 9 q q e e q e p m B B B B s r w r w w q q q q q p B S Y =.,.,.Y Y Y Y Y S B m m m A A A N i i ; ; i e A =.2.G.R.L.m.m.F.H.R.[.[.[.[.[.[.W.[.[.$X,X$X$X1X$X%X#X$X1X7X7XyXyX5X3X3X3X XH.2.F * $ - < < 1 i                                                                                                                                                                                                                                                                                           ",
"                                                                                                                                                                                                                                < - $ X @ @ @ @ $ @ * q e e e 9 9 q e e q e p m B m s s p r w w w w q q q q w r A D Y ,.,.,.Y Y T =.Y S A m m m A A N N i i ; ; ; ; r V -.H.P.G.F.m.H.P.].{.[.[.[.[.[.[.[.[.$X1X1X7X7X1X1X$X$X$X7XqXiXpXiXaXaXaX5XP.g.V * & - ; ; < 1 1 <                                                                                                                                                                                                                                                                                       ",
"                                                                                                                                                                                                                                2 - @ X @ @ @ @ $ $ * q e q 9 9 q q e e e i m m m p r s s 0 0 r w r w w w w w r S D T =.=.=.=.=.=.=.Y D C B m m m m N n i ; ; ; - $ q y ) z.P.P.H.H.H.P.].[.[.[.[. X[.[.W.[.1X7XuXiXuXuX8X1X$X$X9X8XuXhXgXiXiXpXeXR.<.B # @ & > ; ; ; ; , <                                                                                                                                                                                                                                                                                     ",
"                                                                                                                                                                                                                                2 - @ X @ @ @ X $ $ * q q 9 q 9 e q q q e i p m m p r s y y r y r p r w r w w p Z I =.=.=.=.=.=.=.=.Y D C m m m m m m n : ; > > - $ * w V f.}.P.F.F.F.H.].{.[.].[.[.[.W.Q.Q.1XuXvXvXhXhXhX8X1X$X9X8XfXgXgXiXuXiXrXU.-.y # @ ; ; ; > ; - - $                                                                                                                                                                                                                                                                                     ",
"                                                                                                                                                                                                                                2 - @ X @ @ @ X $ $ * q q q q q q q : : q i p m p p y s s y y s p s r r r r w r Z Y =.=.=.=.=.=.;.;.Y S B M B B B m m i : > > ; $ $ # 7 V 2.P.H.z.g.g.H.R.].[.W.[.[.W.R.R.T.1XuXNXvXjXvXjXfX1X#X=X6XqXgXgXqXuXiXyXU.-.y # # > : > > > ; $ $ ,                                                                                                                                                                                                                                                                                   ",
"                                                                                                                                                                                                                                2 - o X @ @ @ X $ $ ; q q q q q q q : : q e p m p p y s s y y y s s r r s r w p Z K =.=.=.=.;.;.;.,.Y S B B B B A B m n : > > ; - $ # 7 B 2.P.H.g.g.g.H.R.].[.W.].].R.U.U.T.1XuXCXNXNXCXCXgX9X%X$X9X8XfXuXqXuXgXyXR.4.y # # - - > > ; ; - $ <                                                                                                                                                                                                                                                                                   ",
"                                                                                                                                                                                                                                  - X X @ @ @ @ @ $ ; q q q q q q q q q q e p m s s s s s s y s s s y y y r r B D } =.=.=.=.=.,.,.,.=.D F C C F S S A n q > ; ; - $ ; q B 2.P.H.g.g.F.P.W.{.[.[.].].R.U.U.T.1XhXAXAXAXAXAXvX6X$X1X6XuXhXgXfXgXhXuXQ.2.s + $ - - * * > ; ; - <                                                                                                                                                                                                                                                                                   ",
"                                                                                                                                                                                                                                  o X X @ $ @ @ @ $ ; q i q q q q q q q q e p B B B B B V s s s y s y r y y y B D =.=.=.=.=.;.,.,.,.,.Y C F F F S S A m i : > ; - $ - q B f.P.H.g.b.F.P.].[.[.[.{.W.R.G.U.T.4XhXSXZXAXSXSXvX6X$X,X9XuXhXhXgXhXNXpX[.f.V 4 # - ; $ & : : ; - <                                                                                                                                                                                                                                                                                   ",
"                                                                                                                                                                                                                                  , o X @ @ @ @ $ $ * : ; ; : * > > > > ; : e m p B B B s B B s s y y y y y y y D } =.=.,.,.,.=.=.=.=.D D D K D K S S S i : : > ; $ - q y 2.P.H.F.m.F.L.].{.].].].R.G.b.M.U.<XyXVXVXNXNXCXhX5XT.[.<X7XiXuXuXuXpXeX].z.V # # ; q * 7 q q ; - ,                                                                                                                                                                                                                                                                                   ",
"                                                                                                                                                                                                                                    - - $ $ $ % @ $ $ * ; ; ; & @ @ & @ @ * q e p p B s s s s B s y y y y y y y D } =.:.:.:.,.=.=.=.=.D K Y T T T K Y S n : > ; ; $ # # r 2.].P.G.G.G.G.R.].].P.H.G.m.g.b.G.[.eXhXhXhXhXcXuX<XR.W.Q.5XyX7X7X7X4X5XR.z.Z # # 7 w 7 7 w e ; - 2                                                                                                                                                                                                                                                                                   ",
"                                                                                                                                                                                                                                      , - $ @ @ $ $ $ $ & & $ @ @ @ @ @ @ @ q e e p r r r r s s d V V V B s y y Z ) =.;.,.,.;.=.=.=.=.=.Y T =.=.;.T Y D n : > * - $ % # p z. X X[.W.R.R.R.R.P.F.F.g.1.<.1.b.U.[.1X1X1X1X4X<XU.m.m.G.E.$X$X#X$XQ.W.L.z.) 7 7 w r r r r e q ; <                                                                                                                                                                                                                                                                                   ",
"                                                                                                                                                                                                                                      1 ; $ @ X $ $ @ @ @ @ @ @ X @ @ @ @ @ q e q q q 7 7 w r s s s V V V V B B Z D } } =.=.=.K D =.=.=.T =.=.=.;.T Y Y n 9 : ; ; $ # # s H.tXtXaX5X[.W.W.P.m.1.<.<.-.| -.1.n.M.J.B.B.B.U.M.1.O.+.+.c.M.B.V.B.B.U.F.g.} 0 w y l y y r r q ;                                                                                                                                                                                                                                                                                     ",
"                                                                                                                                                                                                                                        < $ @ X @ @ X X X X @ @ X @ @ @ @ $ * q q q * # # 7 w s s s y V V B B B Z D D D K K K K D =.=.=.T =.=.=.T T Y K m q : : > & # * B }.lXlXlXyX5X[.W.L.g.+.<.<.-.| -.<.5.n.n.n.n.n.n.c.O.( ( _ 1.n.N.v.v.N.J.M.m.| y y l B l y y r e ;                                                                                                                                                                                                                                                                                     ",
"                                                                                                                                                                                                                                          $ X . . . X X X X @ @ @ @ @ @ @ * : 9 w q 7 * 4 7 r s V s y V B B B B B Z F F F D D D D K =.=.T T =.=.T T T K n q : > > & # * B }.lXMXMXpX5X<XQ.U.b.<.<.<.-.| <.g.m.G.J.K.B.J.J.m.1.| | | a.J.B.V.B.A.U.L.F.| t y l l y y y r e ;                                                                                                                                                                                                                                                                                     ",
"                                                                                                                                                                                                                                            $ $ $ @ @ @ @ @ @ @ @ $ & & * * q e e q q 7 7 7 r s V B B B B B B B B B B B C F F F D K =.=.Y Y Y Y T T T S n 9 : > ; & * * V }.lXMXMXpX4X1X_.!.m.1.<.2.<.-.<.b.G.J.K.U.K.R.W.G.1.-.-.-.b.R.Y.B.S.T.Y.U.G.| t t l l y y y y w ;                                                                                                                                                                                                                                                                                     ",
"                                                                                                                                                                                                                                                    ; $ @ @ @ @ @ $ & & $ * q q e q 7 7 7 7 w s B B B B B B B B B B B B C C C F D =.=.=.Y K K K T Y Y S n q : : ; - * * V P.lXMXMXaX4X<XQ.U.b.a.<.2.<.| <.b.G.U.U.U.K.U.W.G.2.| _ | 1.U.U.B.S.Y.Y.U.M.[ t t z z y y y y w ;                                                                                                                                                                                                                                                                                     ",
"                                                                                                                                                                                                                                                        ; @ @ @ @ @ $ $ * ; q e q w q * q 7 r B B B B B B B B S Z Z B B C S S D K =.=.=.=.=.T =.;.;.Y K m q : : ; > : 7 Z ].lXlXMXuX5X*XQ.U.b.a.a.f.<.| <.g.m.U.U.Y.U.U.R.G.<.| _ _ 1.G.U.B.S.Y.Y.U.M.| u t V z y y y s r ;                                                                                                                                                                                                                                                                                     ",
"                                                                                                                                                                                                                                                        ; @ X @ @ @ @ $ $ ; q e q w q * q 7 r B B B B B B B B A Z Z Z B F S D D D =.=.=.=.T Y Y T T Y S n : : q > > ; q Z ].lXMXNXiX4X<X|.!.m.g.g.g.2.:.<.g.m.A.U.U.U.Y.R.G.<._ ) ) <.G.K.B.K.Y.Y.J.b.[ t t V z y y y y w ;                                                                                                                                                                                                                                                                                     ",
"                                                                                                                                                                                                                                                        < $ X @ @ @ @ $ $ ; : q q q q * q q e m B B B B B B B B S D D D D K K D D D =.=.Y K Y Y T T T S n q : q ; > * 7 Z ].MXNXVXhX0X5X<XW.G.z.g.z.f.<.f.g.m.A.U.U.A.U.R.G.<.) Z ) <.G.K.B.B.S.K.M.b.[ t t B l y y y r q ; <                                                                                                                                                                                                                                                                                   ",
"                                                                                                                                                                                                                                                        < $ X @ @ @ @ @ $ ; : q q q q * q q e m B B B B B B B B D I Y Y Y T Y K D D K K K K Y T T T Y S n q : q : ; q 7 Z P.pXMXcXiX4X5X<XW.L.z.z.z.f.:.<.a.m.M.U.U.U.Y.R.G.3.) V Z <.G.K.B.B.U.K.M.b.( 8 0 B B y y s p q ; <                                                                                                                                                                                                                                                                                   ",
"                                                                                                                                                                                                                                                        1 - @ @ $ $ @ @ $ ; : : q q q * q q e m B B B B B B B B Y Y =.=.=.=.=.T K K =.K K K K Y K K Y S n q : i i q q 7 V G.eXyXyX7X1X<X_.W.F.g.f.f.:.} | <.g.M.U.U.Y.Y.Q.G.3./ Z / <.G.K.B.S.Y.U.G.b./ 0 0 B B s s r r q ; <                                                                                                                                                                                                                                                                                   ",
"                                                                                                                                                                                                                                                        < - @ @ $ @ @ @ $ ; : : q q : ; q q e m B B B B B p m B Y T =.=.=.;.;.=.=.=.=.K K D D K K K K S n q : i q q w 7 z g.[.<X,X$XT.W.W.L.g.:.-.=.D B Z | a.G.E.Y.Y.E.Q.G.3.` Z Z <.G.J.B.S.Y.U.G.g./ 8 w p p s r r e ; - <                                                                                                                                                                                                                                                                                   ",
"                                                                                                                                                                                                                                                        < - @ @ @ @ @ @ $ $ ; ; q q ; ; q q e p B B m m m m m B D Y =.=.=.=.=.=.=.=.=.D D S S S P K S A n q : q q q w 8 y 1.U.U.Y.U.M.M.m.p.| Z B B r 7 y / <.F.R.U.Y.E.Q.H._ V y V | m.N.B.B.B.J.M.2.Z 4 4 r w r w 7 q ; $ ,                                                                                                                                                                                                                                                                                   ",
"                                                                                                                                                                                                                                                        1 - X @ @ @ @ @ @ $ ; ; q q q ; q q e p m p m m p r m B D K Y Y Y T =.=.=.=.=.D S F F F S S S A n : : q i q w 8 t O.G.M.M.N.N.a.+.| z 0 w q # # 7 V <.m.R.Y.U.Y.R.F._ V y y | n.N.n.B.B.M.m.<.B # # q q q ; ; ; $ $                                                                                                                                                                                                                                                                                     ",
"                                                                                                                                                                                                                                                          o X @ @ @ @ @ @ @ ; ; q q q : : q i p N m N m m m B A D =.=.K =.=.} =.=.=.=.D Z B S S S K D A n 9 : q q 9 w 7 y <.R.R.U.U.M.c.a.| z r e q q # w ) <.G.U.Y.Y.Y.E.G._ y y l | b.n.n.B.K.M.b.<.B # @ ; ; ; ; < - - -                                                                                                                                                                                                                                                                                     ",
"                                                                                                                                                                                                                                                          o @ @ o o @ @ @ $ ; : q q q ; : q i p N m m m p m m B Z Y K K =.=.} =.} } =.D S B A S S S S A g 9 q q q 9 e 0 l <.R.R.T.Y.A.M.a.| V r e i q * p ) 2.G.E.T.S.Y.E.G.O.z y l | m.M.N.B.K.J.m.2.B # @ ;         -                                                                                                                                                                                                                                                                                         ",
"                                                                                                                                                                                                                                                          o @ @ o o @ @ @ $ ; : q q q * ; q i p m p p p p p m m Z D D D =.=.=.=.} } D Z C B B C S S S m i 9 q e : : q 7 y <.R.R.T.Y.A.b.a.| Z w e q q * p ) 2.G.E.Y.A.Y.E.M._ y y z | M.M.M.K.U.U.m.2.B # $                                                                                                                                                                                                                                                                                                     ",
"                                                                                                                                                                                                                                                          $ @ @ o o @ X @ @ ; : q q ; * ; q e p m p p p p p m m Z D D D D K D K D D D Z B M B C A S S m e 9 q e : : : 7 y <.R.R.U.A.M.a.a.:.Z r q : : # e D <.M.U.Y.B.U.U.m._ y t t | G.M.B.U.U.B.b.<.V # $                                                                                                                                                                                                                                                                                                     ",
"                                                                                                                                                                                                                                                          - @ @ o o @ X @ @ ; : q q q ; ; q e p m p p p p p m m Z D S S D D D D D D Z F B B B C S S S m e 9 9 e : : ; 7 y <.R.E.T.U.N.a.f.:.Z p e q q # w D -.m.U.U.A.U.U.m._ y t t | G.M.B.B.B.B.b.<.B # &                                                                                                                                                                                                                                                                                                     ",
"                                                                                                                                                                                                                                                          - @ @ o o @ X @ @ ; : q q = ; ; q e p N p p p m p m m S I D S D D Z D Z D Z F C B B C S S S m p 9 9 : : : : 7 y 1.Q.Q.$XU.M.c.f.:.D m p i q # w D -.m.U.A.B.A.U.m._ y t l | G.M.N.V.V.N.c.<.l # &                                                                                                                                                                                                                                                                                                     ",
"                                                                                                                                                                                                                                                          - @ @ o o X X @ @ ; : q q q q q q e p n n p p p p m B S Y I D D D D D D D D F C B B C S S A M e 9 9 q : > ; 7 z 1.Q.E.$XY.M.c.<.-.S p i q q # w Z :.F.U.A.B.U.U.b./ y t y | F.M.N.V.V.B.N.<.B & -                                                                                                                                                                                                                                                                                                     ",
"                                                                                                                                                                                                                                                          - $ @ o o X X @ @ ; : q q 9 q q e e p n n p p p p m m S Y I I =.Y D D D K D S C B B C A A m h e q ; : > * * 8 y 1.Y.Y.Y.A.N.a.<.} B q : ; * @ q F 4.F.W.Y.Y.Y.R.b./ t 0 y | F.G.M.B.B.M.b.<.B & -                                                                                                                                                                                                                                                                                                     ",
"                                                                                                                                                                                                                                                          - $ @ X o o o X @ ; : q q e 9 e e e p n n n m m p p m S D Y Y Y Y I D K K D S S A B B A B m e 9 9 9 e 9 ; 7 t / c.B.Y.S.B.N.a.O.Z r q * > $ @ * B >.F.W.Y.U.U.L.g.) y 0 r } z.G.M.M.M.M.g.:.B *                                                                                                                                                                                                                                                                                                       ",
"                                                                                                                                                                                                                                                          , $ o X o $ o X @ ; q e r h h r 9 e p n n n m m m p m A S S S S D S Z S S S S B B B m B M M m h h m C S B B ) <.b.J.U.Y.A.M.a.O.Z r * * > $ @ # s =.g.G.M.M.M.b.<.Z 0 w r ) f.z.g.b.m.g.f.=.m &                                                                                                                                                                                                                                                                                                       ",
"                                                                                                                                                                                                                                                          , $ o X o - o @ $ : e m m B B B p p p n p m m m m m m B A B B B C S C C S S B B B B m m m m M M B S Y =.-.>.2.b.G.U.U.U.M.b.1.| V w # * > * @ # r D | 1.@.@.1.1.| V r w r Z >.2.<.2.2.<.-.D p -                                                                                                                                                                                                                                                                                                       ",
"                                                                                                                                                                                                                                                          , $ o o 3 - o @ $ q p m B B B B B p m p p m m m m m m B A B B B B C B B A C B B C B B m m m M B S Y ,.,.:.>.2.g.g.g.a.c.1.+.} Z y 7 # * > * @ # w s Z ( ( [ [ | / V r e e m S S Z D D S S m i                                                                                                                                                                                                                                                                                                         ",
"                                                                                                                                                                                                                                                          - @ o o o $ o @ - i m m B B B B B B m p p p m m m m m B A C B C S S C C A S B B C C B B M m M B S T ,.>.:.:.>.-.=.) ) / / z l y w 7 # @ & @ @ # q w y z c ~ ~ ~ z y r q ; q i i q e i i i <                                                                                                                                                                                                                                                                                                           ",
"                                                                                                                                                                                                                                                          - $ o o o o o @ - i m A F F F B B B B m m m m m m m m B A S C S S S C A S S C B B B B B m m m m B D T =.} ) } D F V V B y w 0 w w q ; & & @ @ # q w y z z c c z z y r w ; : 1 ; ; ;                                                                                                                                                                                                                                                                                                                   ",
"                                                                                                                                                                                                                                                          - $ o o o o o @ ; i N S F Z Z B B A B m m m m m m m A B A S S S S S S S S S A C A C B M M m m m m M C l r r r p r e e e e 9 0 e i i i > - @ % ; w p V V z z z V Z B m i ; ; i                                                                                                                                                                                                                                                                                                                         ",
"                                                                                                                                                                                                                                                          , $ o o o o o @ ; i A A S Z Z Z F B B B m m m B B B B A A S S S S S S S S D S S S S F B B B B m r r h h 0 9 e e q ; ; ; * * q e p i i > ; @ % ; a s V ` z z z V V B p i ; <                                                                                                                                                                                                                                                                                                                           ",
"                                                                                                                                                                                                                                                          , o o o o & o @ - 1 n A A S D D Z B B B M M M m A A A S S A A A C S S D S D Y =.=.=.K D Z Z Z B B B m m e e i i : : ; i q : q q e q q ; - @ @ # e p y V z z z Z V s e ; ; <                                                                                                                                                                                                                                                                                                                           ",
"                                                                                                                                                                                                                                                          , o o o o & o @ - ; i m N A S S A B B B m M m B A A A A A A A A C C S D D I =.=.>.,.;.K D D Z S B A A m m i i q : ; ; q ; ; : q q 9 : ; $ @ @ # e p y V z l z V B r e ; ; <                                                                                                                                                                                                                                                                                                                           ",
"                                                                                                                                                                                                                                                          , o o o o $ $ @ @ > : q q i p p p r m M M M M m m m m A A S S C C C C S U Y ,.>.>.>.>.=.} D D S A A S A m n p e ; * * ; ; ; ; q q q : ; ; $ $ ; e p y z z y z z B r r ; - ;                                                                                                                                                                                                                                                                                                                           ",
"                                                                                                                                                                                                                                                          , o o o o $ $ @ @ - ; * # * q q q 0 r m m m M m m m m A A S S S S S S S U =.,.>.f.f.>.=.} D D S Z S I U S m m e ; # # ; ; ; q q i i q ; ; # $ * e p y l l y z z B y r ; - ;                                                                                                                                                                                                                                                                                                                           ",
"                                                                                                                                                                                                                                                          , o o o o $ $ @ @ - > * * * * * * e p B B B B B B m m A A S S S S S S Z D =.,.>.>.>.:.=.} K D S S D I Y S A m r q * * q ; ; q i i q : ; # @ @ # q r y l z z z z l y r ; ; <                                                                                                                                                                                                                                                                                                                           ",
"                                                                                                                                                                                                                                                          , o o o o $ $ @ @ - ; ; * * : * # e m S S S S A B m m B A A S S S S S Z D Y =.:.:.;.=.=.} K D Z S D I I D S C m e q q i e i i i i : $ # # @ @ # q r s V z V V V l r e ; ; 1                                                                                                                                                                                                                                                                                                                           ",
"                                                                                                                                                                                                                                                          , o o X o @ @ @ $ - > : * * : * & w m S S D S S B B m A A C S S S F F Z D =.=.-.:.-.=.=.} } D D D ) =.D D D S B r e e p p i i i i ; @ # # $ @ $ : e r r y l l l r e 9 ; ;                                                                                                                                                                                                                                                                                                                             ",
"                                                                                                                                                                                                                                                            o o X X @ @ @ @ - > : ; ; q * & e m S D Y D D S S S S S S S S S F F Z D } =.-.-.:.-.=.} ) ) ) ) =.=.=.K I D S h e p m p i i i i > $ @ $ $ @ $ ; : q q 7 w w w 7 * * ; ;                                                                                                                                                                                                                                                                                                                             ",
"                                                                                                                                                                                                                                                            $ o X o $ $ @ @ - > ; : > ; * * q M S D D D D D S S D D S S S S F F A S D =.=.,.,.=.} } =.=.=.=.=.=.Y Y Y D S B m p m n n i i q ; $ $ $ $ @ - ; - $ # * 7 * # @ $ & ; 1                                                                                                                                                                                                                                                                                                                             ",
"                                                                                                                                                                                                                                                            o o X o @ @ X @ - > ; : ; * * * q M S D D D S S S D D D S S S S F C B S D D =.=.=.=.D K =.=.Y } =.=.Y Y Y D D B m m m m i i q : * @ @ @ @ @ $ - - $ $ # # # $ @ @ @ - ;                                                                                                                                                                                                                                                                                                                             ",
"                                                                                                                                                                                                                                                            - o X X X X X @ - ; > > * ; * & ; M S S S F S S D D D D D S F F F C B A Z D =.=.=.=.I Y =.=.I I Y =.=.=.=.=.D C M m M m p e q ; $ @ $ & $ @ o - - $ @ $ $ $ @ @ @ @ - ;                                                                                                                                                                                                                                                                                                                             ",
"                                                                                                                                                                                                                                                            - o X X X X X $ - ; ; > * * > & ; m S S F F S S S S S D D S F S F C B S Z D I =.=.=.D Y =.=.=.=.=.=.=.=.=.=.K S B B m M r e q ; * $ # * & @ $ - - - # ; ; ; ; $ - - ; ;                                                                                                                                                                                                                                                                                                                             ",
"                                                                                                                                                                                                                                                              $ X X @ $ @ $ - ; > > * * > & : m S Z Z Z S B B B S Z S Z Z Z Z B A S S S D U Y U D U Y Y Y =.=.=.,.=.=.=.T D F F S B h r e e q * ; : : ; - ; ; - : ; ; : ; ; - - - :                                                                                                                                                                                                                                                                                                                             ",
"                                                                                                                                                                                                                                                                        - - ; ; ; ; * * * & : m A F Z Z S B B B S Z S S F Z Z B B S S B A A A A B A D Y Y Y =.=.;.=.=.=.=.K D D K D S B B m m p p p i i i i i ; : ; ; : ; ; ; - - -                                                                                                                                                                                                                                                                                                                             ",
"                                                                                                                                                                                                                                                                            ; - - - & & & @ * p C F Z Z S A B B S Z S A B F F B C A A m m m p e e m A S Y Y Y =.=.Y Y Y T Y Y T =.T Y K U U U S Z S S A A A N p q q q q q ; ; $ - -                                                                                                                                                                                                                                                                                                                             ",
"                                                                                                                                                                                                                                                                            < - $ - $ $ @ @ * r C B F S S A A S S S S A B B B C A S A m p e e 9 9 e m S U Y Y =.Y Y K Y Y T =.;.=.=.Y Y Y Y I U D D S D U U A p q q q q e q ; $ - -                                                                                                                                                                                                                                                                                                                             ",
"                                                                                                                                                                                                                                                                            < - - @ & - $ @ ; i A A S S S S S S U S S S S S S S A A A m r e e e 9 e m A S D D K D D D Y K =.=.;.=.=.Y Y T T Y Y D D D D D U S m q 9 q q q : : - - -                                                                                                                                                                                                                                                                                                                             ",
"                                                                                                                                                                                                                                                                            < - - @ @ & $ @ * i m B A A A A N A S S S S S S S C A A N n e e e e e p m S D D D D D S D K K T =.=.=.T Y Y T T Y K D Z Z D D D S p q 9 : ; q : : ; - -                                                                                                                                                                                                                                                                                                                             ",
"                                                                                                                                                                                                                                                                            , - @ @ @ @ @ @ ; e p p m m p p p p N A A S S S B B N N m p e e r r r m B S D D D D D D D D D =.=.=.=.=.=.=.=.=.I D D Z D D D D A r q : ; ; : : : - - -                                                                                                                                                                                                                                                                                                                             ",
"                                                                                                                                                                                                                                                                            ; - @ X @ @ @ @ * : e w e e e e e e p m A S S A B m m m n i e r p p r m A S D Y Y Y I D I I K Y =.=.=.=.=.=.=.=.Y D D Z D D D S A r : * # ; : : ; > - - ,                                                                                                                                                                                                                                                                                                                           ",
"                                                                                                                                                                                                                                                                            , - @ @ @ $ @ @ $ * q * * * ; ; ; ; q i m A A A M m m m p e e r p m r m B D Y Y Y T Y Y Y =.=.=.=.=.=.=.=.=.=.=.Y D D D D D D D A r q ; * ; q q q ; - - ,                                                                                                                                                                                                                                                                                                                           ",
"                                                                                                                                                                                                                                                                              - @ @ $ @ @ @ @ $ * # # * * * * * : e m A A B m m p m p e e p m m r m B D Y Y =.=.=.=.=.=.=.=.,.,.:.,.=.=.=.=.=.D D D I I D D A r q : : : q q q : - - - 1 2                                                                                                                                                                                                                                                                                                                       ",
"                                                                                                                                                                                                                                                                              - $ @ X o @ @ @ $ * # # * * ; ; ; : i m A B m m m r m p e e r p p r m A D Y Y =.=.=.=.K =.=.=.:.:.>.,.=.=.=.=.Y D D D D I D S A p q q q q q q q : ; - - - - - -                                                                                                                                                                                                                                                                                                                   ",
"                                                                                                                                                                                                                                                                              - $ X X X @ @ $ - ; * ; ; : : : : : i m N B m m m r m m r e p p p m m S D Y Y =.=.=.I D K =.=.:.>.>.:.=.=.=.=.Y D D D I D D S A p e e e e 9 q q ; - @ o o o o o -                                                                                                                                                                                                                                                                                                                 ",
"                                                                                                                                                                                                                                                                                o X . X X X $ ; ; ; ; ; ; : ; ; q i n N m m m m p m p r r p h h r M Z I =.=.=.=.=.=.=.D } ,.>.i.f.>.:.,.=.=.Y D D D I D D S B m e r r e e e e q ; @ @ - @ X $ - <                                                                                                                                                                                                                                                                                                               ",
"                                                                                                                                                                                                                                                                                3 o X X @ X @ - ; ; : ; : : : : q i N N A B m m m m m p r r h r m B S I =.=.=.,.=.=.=.D =.>.f.f.f.f.f.>.>.=.=.D D D D D D S B m r m m p e e e e > @ - - @ @ - - 2                                                                                                                                                                                                                                                                                                               ",
"                                                                                                                                                                                                                                                                                  o o o o o $ - ; ; ; ; < ; ; : ; i n N A m m m m m m p r r h r m B Z I =.=.=.=.=.=.=.=.-.>.z.z.z.z.f.f.>.-.=.D I I D D D S S B p m m m p r r e ; $ & ; - @ - ; 2                                                                                                                                                                                                                                                                                                               ",
"                                                                                                                                                                                                                                                                                      $ o o $ $ - - ; ; ; - - ; > : i N N m m m m m m m r m m m m B A D =.=.=.=.=.=.=.=.>.2.f.z.f.f.f.f.>.=.} D I I D S D D S B m m m m p p r e * $ & ; - - - - ,                                                                                                                                                                                                                                                                                                               ",
"                                                                                                                                                                                                                                                                                        - o o $ $ $ - - - @ $ - - : i N A m m p m m m m r m m m m B B Z =.=.=.,.=.=.=.>.>.f.f.f.f.f.f.2.>.=.=.D I Y K D S S Z B r p p p p m p p ; @ & ; - - - - ,                                                                                                                                                                                                                                                                                                               ",
"                                                                                                                                                                                                                                                                                            - - - $ @ - $ @ @ $ - : i N A N m m m M m m h m m m B B B Z D =.=.=.=.=.-.>.f.z.z.z.z.z.f.>.>.=.=.D Y Y Y D D D Z B p B B m B B m p : & - > ; - - - ,                                                                                                                                                                                                                                                                                                               ",
"                                                                                                                                                                                                                                                                                              - - $ $ $ $ @ @ @ & ; i N A A m m m B m m m m B B B B B Z D D =.=.=.=.=.>.f.f.f.z.f.f.>.>.>.=.=.D Y Y Y D S S Z B m m p p B B m p : & & > - & - - ,                                                                                                                                                                                                                                                                                                               ",
"                                                                                                                                                                                                                                                                                              , - $ @ @ @ X X X $ ; i N A A m m m M m m m M B B B B B F Z Z D =.=.) ) =.:.>.>.f.>.>.:.=.=.=.=.D =.Y Y K D D Z B B m s s B B p 9 : & & ; & @ - - ,                                                                                                                                                                                                                                                                                                               ",
"                                                                                                                                                                                                                                                                                              , - o X X X X X X $ > i m B B B m p B B p m B B B B B F B C A S D Z Z Z D =.=.=.,.=.=.D D =.=.D D D Y K K D D F B l y y y y l r r : @ @ - @ $ $ $ -                                                                                                                                                                                                                                                                                                               ",
"                                                                                                                                                                                                                                                                                                - o X X o X X @ $ > i m B B B B B B B B B F D D D D Z Z C C A S Z F Z D D K =.=.=.=.D K =.=.K D D Y K K K S F C l l y y B l l r : @ @ - $ $ $ $ -                                                                                                                                                                                                                                                                                                               ",
"                                                                                                                                                                                                                                                                                                , o X o o o o @ @ > i m B B B B B B B B B D } =.} } D Z C C A S Z B F Z D D D D D D D K =.=.Y D I I I K K S S C B B B B B B h r : $ @ - @ @ $ $ -                                                                                                                                                                                                                                                                                                               ",
"                                                                                                                                                                                                                                                                                                , o X o o o @ @ @ > i m B M l l B B B B D K =.=.=.=.Y Z A B A A S B F Z Z Z Z D D D D D =.=.K D D D Y D S S S A B B B B B B h e : $ @ - @ @ $ $ -                                                                                                                                                                                                                                                                                                               ",
"                                                                                                                                                                                                                                                                                                - o X X o o @ @ @ * i m m M l h h l B B D K } } =.=.K D B B A A S F F S D S S D D D D D K K K K D D D D S S S B p B B B M M h e > $ $ $ @ @ $ $ -                                                                                                                                                                                                                                                                                                               ",
"                                                                                                                                                                                                                                                                                                , o X X o o X X @ * i m m M l h h r B Z K } } } =.=.K Z B m m A A C F S D F S D D D D D D K K K D D D D S S S m p p m m m h m i > $ $ - $ @ $ @ -                                                                                                                                                                                                                                                                                                               ",
"                                                                                                                                                                                                                                                                                                < $ X X @ @ X X @ * i m B M l l l l B Z K } } } ,.=.=.Z B m m m B C A S S S S S D D D D D K D D I I K D K K S A p p p p p m m i : $ & ; $ $ $ $ -                                                                                                                                                                                                                                                                                                               ",
"                                                                                                                                                                                                                                                                                                < $ X @ $ @ @ X @ ; i m B B B B B l B Z } } } =.:.,.=.D B m m m M B B S S C C S S S S D D D D D I I Y K Y K S A m m p r r h m n : * & > - $ - $ -                                                                                                                                                                                                                                                                                                               ",
"                                                                                                                                                                                                                                                                                                < $ X X X X @ @ @ * i m A B B B B B Z K =.=.=.=.=.=.=.Z B B m C C M B S S S S D Y Y Y D D D S A S I Y D S D S B r p s w w 9 h h : $ $ * & & & @ -                                                                                                                                                                                                                                                                                                               ",
"                                                                                                                                                                                                                                                                                                < $ X X X X X @ @ * i B S S F Z F Z D K =.=.:.:.=.=.=.Z B B m M C M B S S S D Y =.=.Y K D D S A Z D D D S Z A B r y y 0 0 0 r r q $ $ * * & $ @ -                                                                                                                                                                                                                                                                                                               ",
"                                                                                                                                                                                                                                                                                                < $ X X X X @ @ @ * i m S S B Z A A Z Z D =.=.=.I I D S S C A S S B B S D D K T ,.,.=.Y K D S B S S D S Z Z Z V V V V z z z l l q # # * * & $ $ -                                                                                                                                                                                                                                                                                                               ",
"                                                                                                                                                                                                                                                                                                < $ X X @ X @ @ $ * i m B B l l B B B B B S D D S S D S D D K Y D S S D D D Y T ,.,.=.Y Y D S B A S S B B Z Z / ) _ _ _ _ ( / V 7 # # * * $ $ $ -                                                                                                                                                                                                                                                                                                               ",
"                                                                                                                                                                                                                                                                                                < - @ $ $ @ @ @ # : p m B p r r p p p p p B A A B A Z S D D K T Y D S S S D D Y =.=.=.=.=.D A B B A B B B V ) ) O.O.O.#.3.+.( / e * @ * * $ $ $ -                                                                                                                                                                                                                                                                                                               ",
"                                                                                                                                                                                                                                                                                                1 - - - - $ @ @ ; : p m B r w w r p p p p r p s B B Z S D D K K D S Z Z Z S D I I =.=.=.=.D B m B B B B l V ) _ O.#.#.5.5.@.o.( w * @ * * $ $ $ -                                                                                                                                                                                                                                                                                                               ",
"                                                                                                                                                                                                                                                                                                i ; ; ; ; $ @ @ ; : p m B r 0 w w p p p r r p p m B S Z S S S K S S Z S S S D D D Y =.=.=.D B m B B B B B V ) ' 3.#.&.&.5.5.#.( 0 # @ * ; $ $ $ -                                                                                                                                                                                                                                                                                                               ",
"                                                                                                                                                                                                                                                                                                a 1 < < < - @ @ : q p B B p w w p p p p p p p p p B S D D D K K D D S S S D D D D I =.=.Y D A m B B B B V V / ' #.#.#.&.&.5.#.o.0 # # * ; $ $ $ -                                                                                                                                                                                                                                                                                                               ",
"                                                                                                                                                                                                                                                                                                i 1 1 1 < ; ; ; q i m A B M r w p p p p p p p p p N A U D D D D K D S D S S S D Y Y Y Y Y K S B B B B B V V ) ' ' #.' #.&.&.@.o.y # # * * ; - @ -                                                                                                                                                                                                                                                                                                               ",
"                                                                                                                                                                                                                                                                                                1 < ; ; ; - $ $ ; e m A C M r r 9 e e e i i i i i p N A S D Y K K D S D D S S D K Y Y Y Y D S M M M B B B V / _ #.#.' #.&.&.@.| 0 + # * * ; ; @ -                                                                                                                                                                                                                                                                                                               ",
"                                                                                                                                                                                                                                                                                              1 < - $ - $ $ $ $ ; e m A S B h h e e q q q i i i i i p A S Y Y K D D D D D S S D D K Y K K D S m M h m B B V ` ( ' #.' #.&.@.#._ 0 # # * * * ; @ -                                                                                                                                                                                                                                                                                                               ",
"                                                                                                                                                                                                                                                                                              1 ; - @ $ - $ ; # q i A S S B B M m n i q q q i i q q p N D Y K K D D D Y Y D S D D D K K K D S m M h m B B Z ` ( o.' ' #.&.@.3.| 0 # # # # ; $ @ -                                                                                                                                                                                                                                                                                                               ",
"                                                                                                                                                                                                                                                                                              - - $ @ $ - - ; ; q m A S S B B B m m p e e q q q q q p A U Y Y K Y Y Y Y Y D D D S D D D K D S B M m B B F F ) _ ' ' ' #.5.5.1.| r + # * # ; $ @ -                                                                                                                                                                                                                                                                                                               ",
"                                                                                                                                                                                                                                                                                            , - - $ @ $ $ $ * ; i n A S A B B B A m n p i q q q ; q p A D T T Y Y K Y Y Y D D D S D D D Y D S B m m B B F F ) _ ' ' ' @.5.1.1.| y # # * # ; $ @ -                                                                                                                                                                                                                                                                                                               ",
"                                                                                                                                                                                                                                                                                          1 - - $ @ $ - $ $ $ ; i n A A B B B B A m m m i e e q * e p S Y Y Y K Y K K Y K D S D S D D D D S A M p s B B V V ) _ O.#.#.1.5.1.1.| r @ # * # ; $ @ -                                                                                                                                                                                                                                                                                                               ",
"                                                                                                                                                                                                                                                                                        1 < - - @ $ - - ; $ $ ; i p A A B M B C A A m m p i e e q e m S D Y K D Y D D K D S S S S D D D D S C m r r p B B V ) _ 3.3.#.1.5.1.1._ r @ @ # $ ; - @ -                                                                                                                                                                                                                                                                                                               ",
"                                                                                                                                                                                                                                                                                      2 < - $ - $ ; ; ; ; - $ ; i p A A A B B B A A B m m m m m p m A S D Y K Y Y K K Y D D S D D D D D D S B r r r p B B B Z ) O.' O.+.1.1.-.) 7 @ @ # ; - $ $ -                                                                                                                                                                                                                                                                                                               ",
"                                                                                                                                                                                                                                                                                    1 < ; - - - - ; ; ; ; ; $ ; i m A A A B B B A A A A A A A A B A S D Y Y K Y Y K K K D D D Y Y K D K D S B r r r p B B B V ) _ _ _ O.3.-._ F w % @ ; - - $ $ -                                                                                                                                                                                                                                                                                                               ",
"                                                                                                                                                                                                                                                                                  , - - - & @ @ & ; ; ; ; ; $ ; i n A A A m m m m C A C C S S S S D D D D D D D D D D D S S S D D D D S S S m e w w e r p s s B V z ` ` / ) V s q % % ; - - $ o $                                                                                                                                                                                                                                                                                                               ",
"                                                                                                                                                                                                                                                                                  - $ @ @ @ @ @ * ; ; ; ; ; $ * i p m A m m m m M m A C C S S D D D D D Z Z Z F S S S S A B C S S S S S B B r e 7 7 q q e r r 0 0 t y y y y s r # @ @ ; - - o o o                                                                                                                                                                                                                                                                                                               ",
"                                                                                                                                                                                                                                                                                  - @ @ @ @ @ $ ; ; ; ; ; ; $ ; e i m m m m h h m B C C C S D K D D D Z Z B B B B B B S C B B S S S S B B M h e w w q q e r w w 8 0 y y y y r p ; @ @ $ $ @ o X o                                                                                                                                                                                                                                                                                                               ",
"                                                                                                                                                                                                                                                                                2 < $ @ @ @ $ - ; : ; ; ; ; ; : i i n m m m m m M B S S S S D D D D Z Z B B B B m m M B B B B S S S A B m m h e r e e e p p p r r y y y y s m m ; $ $ @ @ @ o X 3                                                                                                                                                                                                                                                                                                               ",
"                                                                                                                                                                                                                                                                                2 < - @ @ @ $ - : ; ; ; ; ; ; ; i i p n m m h h m B C S S D D D S S Z Z B B B B m m m B B B B S S S S B B M h r e r p i p n m r r l y y y s p p q $ @ @ @ @ $ o -                                                                                                                                                                                                                                                                                                               ",
"                                                                                                                                                                                                                                                                                1 < - @ . X @ & : : ; ; ; ; ; : i i p p p e p h m M B C S D D S D D D Z Z B B B B B B C B B S F D D S S C B B h p m m m n m m m m B l r s p p p ; - $ $ @ $ - -                                                                                                                                                                                                                                                                                                                 ",
"                                                                                                                                                                                                                                                                                < < - @ @ @ @ ; q : : q q q q q p p p p p p p p g h M C F S D D Z D ) D D Z Z D D F B F V B B Z D D Z Z S B s r r h m m p p p p m m m p r p p i ; - - - ;                                                                                                                                                                                                                                                                                                                       ",
"                                                                                                                                                                                                                                                                              < ; < $ @ $ $ ; i p i p p n p n n A A A N m m m p h m B F D D K D D K } } ) D } =.-.=.} =.D Z B B B B B l s r w w w w 9 9 e e e q q e e q q q q : < < <                                                                                                                                                                                                                                                                                                                           ",
"                                                                                                                                                                                                                                                                              - - - $ @ $ - ; p N N N A A A A S U U S S A A A m m m C F D K Y Y =.=.=.=.=.=.-.>.2.>.>.>.=.D B l r r w w w w w q 7 7 q 7 q q q * * * * # @ # # ; ; <                                                                                                                                                                                                                                                                                                                             ",
"                                                                                                                                                                                                                                                                            - $ $ - $ @ $ - < N A A A A A S U U U D D S S S S B m B C F D K K =.D D } =.=.=.:.>.2.2.>.2.-.D B r r w 0 7 e 7 w q 7 q * * * * * # @ @ $ @ . @ $ * ; <                                                                                                                                                                                                                                                                                                                             ",
"                                                                                                                                                                                                                                                                            - o $ - $ @ $ - 1 N S A A A A S S D S S S Z S Z Z B B B C F D D D Y D D ) } =.=.-.>.>.2.2.2.:.) B r w 7 7 7 q q q * 7 q 7 * * ; * $ @ @ @ X . . @ @ - <                                                                                                                                                                                                                                                                                                                             ",
"                                                                                                                                                                                                                                                                            $ o $ - $ $ $ - 1 N U A A A A A S D S S Z Z Z S S A C C C F D D D D D D ) } =.=.=.:.2.2.f.2.:.) V y 0 0 7 7 q w q * q q 7 * * ; ; $ @ @ X X X . @ $ - <                                                                                                                                                                                                                                                                                                                             ",
"                                                                                                                                                                                                                                                                            $ o $ - $ @ @ - ; N S A B A C C A Z S Z S A B F B B C C F F Z D D D D D ) } } =.-.>.2.f.g.2.-./ V y y 0 w 7 e e q * 7 7 q 7 * ; * $ @ @ X @ $ @ $ $ - ,                                                                                                                                                                                                                                                                                                                             ",
"                                                                                                                                                                                                                                                                            - o $ - $ @ @ @ ; i A A A A C B B B A A A B B B B B B B C F Z Z D D } ) ) } } =.-.>.2.2.2.<.| V y y y 8 8 7 w e q * 7 7 w q q ; ; - $ X X @ $ $ @ @ $ -                                                                                                                                                                                                                                                                                                                             ",
"                                                                                                                                                                                                                                                                          , - o $ $ @ X X @ - i m M M M m m B B A A B B B F B B B A C C B Z D D ) D D D ) =.>.2.2.2.<.| / z u u u 0 8 7 q q q * 7 7 q q q ; * $ @ X o o $ $ o X o -                                                                                                                                                                                                                                                                                                                             ",
"                                                                                                                                                                                                                                                                          , - o @ $ @ X @ @ - i m m m m m m B B B A B B F Z Z B A S F C B F Z D D D D D ) =.>.2.2.2.4.) V u u u u 8 8 8 7 q q 4 7 7 q * q ; # @ X X X o o $ o X o -                                                                                                                                                                                                                                                                                                                             ",
"                                                                                                                                                                                                                                                                          < - $ - ; ; & & - : i m p m m m m B B S S Z Z D D D Z Z Z Z F F Z D D D D D D ) -.2.f.f.2.4.) d u u u u u 8 8 7 7 7 4 7 7 q * ; ; - @ X X X $ $ $ $ $ $                                                                                                                                                                                                                                                                                                                               ",
"                                                                                                                                                                                                                                                                          ; - - ; 1 : ; ; > q p m p p p m M B S D D D D D =.K D D D D Z Z Z D D ) D D D } -.2.f.f.f.4.` d u u d d u u 8 8 7 q 7 7 7 q q ; ; - $ @ X $ $ $ $ $ $ -                                                                                                                                                                                                                                                                                                                               ",
"                                                                                                                                                                                                                                                                          < ; ; < i i q q : q p m p p r m m S D K Y K D K Y Y Y Y I D D Z Z D D D D D ) =.-.2.2.2.2.4.` d u u W W d u u 8 8 4 7 7 w q ; ; ; $ $ @ @ @ $ $ $ $ $ -                                                                                                                                                                                                                                                                                                                               ",
"                                                                                                                                                                                                                                                                          1 < : 1 i i i i q q p p r e e p m S U Y Y K D D Y Y Y Y I D Z Z Z Z D Z Z Z ) } -.2.2.2.2.4.` u u u W W W d u 8 8 4 4 7 q q ; ; - $ @ @ @ @ @ $ @ @ @ -                                                                                                                                                                                                                                                                                                                               ",
"                                                                                                                                                                                                                                                                        i 1 1 1 i i i i e 9 q i i i e r m m S U Y Y Y D D Y Y Y Y I D Z Z Z Z D Z Z Z D =.:.2.2.2.2.4.` d d W ! ! ` W u u 8 4 4 q w q ; ; - $ @ @ X @ @ @ @ $ @ <                                                                                                                                                                                                                                                                                                                               ",
"                                                                                                                                                                                                                                                              , 1 1 i i < ; ; q : q 9 9 q : ; q e e p m m A S Y Y Y Y Y Y Y Y Y Y Y D D Z Z Z D D Z Z ) =.>.2.f.2.2.4.` W W ! ` ` ` ` d u 8 8 4 q q q ; ; ; - @ @ X @ @ @ @ @ $ 1                                                                                                                                                                                                                                                                                                                               ",
"                                                                                                                                                                                                                                                            , ; ; ; < ; ; : e p e e e e w q w e p h h m B S D D D Y Y Y Y Y Y D U U D S S S D D Z Z Z D } :.f.f.f.2.4.` d d W ` ` ` ` d u 8 8 8 q q q ; ; ; ; @ X o @ @ X X $ -                                                                                                                                                                                                                                                                                                                                 ",
"                                                                                                                                                                                                                                                          2 ; - - - ; ; * : e m m m B B B r p B m m m m B S D D D Y Y Y K Y K D S S S A S S S S Z F B Z D =.>.f.2.-.) d u u d d ` ` ` d u 8 8 4 q q q ; ; ; $ @ X @ @ @ X X $ -                                                                                                                                                                                                                                                                                                                                 ",
"                                                                                                                                                                                                                                                          < - - @ $ & $ * : p B S S Z Z B B B B m m m m B S S D D K Y D D D D S A A A A C C S S Z B B B Z } :.2.,.} Z u u u u u u u d u w 8 4 4 7 w q ; ; ; $ @ X @ @ @ X X @ -                                                                                                                                                                                                                                                                                                                                 ",
"                                                                                                                                                                                                                                                          , - - @ - & & * : p A S S Z Z A B B B M M m M B C S S S D D S S S S C A A A A C S S S F B B B Z D =.:.=.D B u u u u u u u u w w w w w w w w q ; ; - @ X @ @ @ X X $ -                                                                                                                                                                                                                                                                                                                                 ",
"                                                                                                                                                                                                                                                          < - - - - ; - * : p A A S Z S A B A B B m M B B C C C S S S S C C B B A A A A C S S S F B B B F D ) } D V y w 8 5 5 5 8 8 5 w w w w w r r e q q ; - @ X @ o o o o o -                                                                                                                                                                                                                                                                                                                                 ",
"                                                                                                                                                                                                                                                          , - - - - > - * ; p B S S S A A A A B B B B B B B B B B C B B B B B m m m m m B B C S B B B B B F D ) D A r w 7 7 7 8 4 4 4 4 7 7 w w r r e w q ; & @ X X $ o o o o -                                                                                                                                                                                                                                                                                                                                 ",
"                                                                                                                                                                                                                                                          < - - - - > - * ; p B A S A B B B A B B B B B B B B m M B B M m B B m m m m m m B B B B F B B B B Z D S S p w q 7 7 w w 7 4 4 q w r p r w r e q : & @ X @ o o o X o $                                                                                                                                                                                                                                                                                                                                 ",
"                                                                                                                                                                                                                                                          , - $ - - > - * ; p A S S A B B A A B M M B B B B m M m M M m m M B m m m m m M B m B B B B B l B Z D S A p w q 7 q w w 7 q q q w p p r r p e i : - @ X X o o X X o $                                                                                                                                                                                                                                                                                                                                 ",
"                                                                                                                                                                                                                                                          , - - - - > - * : p A S S S A A S A A B B B B B B B B B B B m m m m B m m B A B B B B B B B B B B S Y D S m e q 7 q q 7 7 7 q w e p m p r r r i q ; @ X @ o o X X o                                                                                                                                                                                                                                                                                                                                   ",
"                                                                                                                                                                                                                                                          , - - - - > - $ ; p B S S Z S A S A A B B B B B B B B B B m B m m B B m m m m B B B B B B B B M m S D U S m i q q q q q q q w e p p p p r r p i q > @ X X o o o o -                                                                                                                                                                                                                                                                                                                                   ",
"                                                                                                                                                                                                                                                          , - - - ; ; & $ * e m S S Z Z Z S A B B B B B C B B B B B B B B B B B m m m m m B B C B B B B M M B S U A m p q * ; q q q q 9 e e r p r r i i i q > $ X X o o - -                                                                                                                                                                                                                                                                                                                                     ",
"                                                                                                                                                                                                                                                          , - - - - ; & @ * e m A S Z Z Z A B B B B C C C B B B B B B B B B B B m m m m B C S S B B B B M M B S S A p e q q q q e q q e e r r r r r i i i : ; @ X X o - ,                                                                                                                                                                                                                                                                                                                                       ",
"                                                                                                                                                                                                                                                          , - - $ - ; - * > e m B A S Z S B B B B A A S S C B B B B B B B B m m B B M B A S U Y A A A m m m A S A A m i w q e e e e e e r r r r r p p p i : - $ X X o ,                                                                                                                                                                                                                                                                                                                                         ",
"                                                                                                                                                                                                                                                          , - - - - ; - * ; e p m B B A B B B A B A S S S C B C B B B C B B B m B B B S U Y Y Y Y S A m m m A A S A m p e e p p p r e r r p r r r p i i i ; - $ X X o                                                                                                                                                                                                                                                                                                                                           ",
"                                                                                                                                                                                                                                                          , - - - - ; - * > w r p p m B B p B B C S S S S C A A A A C C B B B B B B B S Y ,.,.,.=.U A m m m B A A A p p r r r p p r w w w w e w q e e i ; ; $ X X o ,                                                                                                                                                                                                                                                                                                                                           ",
"                                                                                                                                                                                                                                                          , - - - - ; - * * q e e r r r r p p B C S S S S A A A A A C C C B B B M B A D =.,.,.,.,.Y S m m m m A m m p p r w e r p r e e e e q # * : q ; ; $ X X X o o                                                                                                                                                                                                                                                                                                                                           ",
"                                                                                                                                                                                                                                                          , - - - & ; * # ; q w e r r r p p r B C F S S F F F F F C C C C C B B C m B I =.,.,.>.,.=.Z B m m m A m m p p r e e r p r r e 9 q * # ; ; ; - $ $ $ X X o o                                                                                                                                                                                                                                                                                                                                           ",
"                                                                                                                                                                                                                                                          , - - - & * * # * 7 r w r r p s p p B B C F F F F C C C F F F C F C C C m A I -.-.-.-.-.=.S A B m m N m p i i r e e e p p p e : * * $ $ ; $ $ $ $ $ X X o o                                                                                                                                                                                                                                                                                                                                           ",
"                                                                                                                                                                                                                                                          , - - $ - ; * # * w r r p s B s p r B S F D D D S F C C C F F F F F F S B S I =.=.=.=.=.=.D S A m m m m p e i r e e e p r p e : * @ @ $ $ @ @ @ $ $ X X o -                                                                                                                                                                                                                                                                                                                                           ",
"                                                                                                                                                                                                                                                          - - - $ - ; $ # * e p p B A B B r p A K K Y Y K K S S S C F C F F F C C B S I =.=.=.=.=.K S S A m m m n p i p r e e e e e e q : # @ @ % $ @ @ @ @ @ X X o -                                                                                                                                                                                                                                                                                                                                           ",
"                                                                                                                                                                                                                                                          - - - $ - * @ # * e m B S F B B r B Z =.=.=.=.=.=.D D D D Z Z F F B B C B F D =.,.=.=.=.D S C B m m m m p e p r r e e e e e q : $ @ @ @ @ @ @ @ @ X X O o -                                                                                                                                                                                                                                                                                                                                           ",
"                                                                                                                                                                                                                                                          - - - $ - * # # * e m B A Z B B B B =.>.>.>.>.>.=.=.=.=.Y D D Z Z Z Z B F Z D =.,.,.=.=.D F B m m m m n p e e r e e e e e i q : $ @ @ $ $ @ @ @ @ X X O o o                                                                                                                                                                                                                                                                                                                                           ",
"                                                                                                                                                                                                                                                          - $ - $ - ; * # * e m B B B B F B D =.>.>.>.>.>.>.>.>.:.=.=.} D D D Z D Z D K =.,.,.=.K D S C M h m m n p i i i e e e e e i i : @ @ @ @ $ @ @ @ @ X X . o ,                                                                                                                                                                                                                                                                                                                                           ",
"                                                                                                                                                                                                                                                          - $ - $ $ ; * # * e M B B B B B B D =.>.>.>.>.>.>.>.>.>.:.=.=.D D D Z D D D K =.,.=.=.K D S S m m m m m p e i i i r p q e i i : $ @ @ @ @ @ @ @ $ X X . o                                                                                                                                                                                                                                                                                                                                             ",
"                                                                                                                                                                                                                                                          - $ $ $ - & @ @ * r B A Z B B B B D =.>.:.:.-.:.:.>.>.:.-.=.=.} D D Z D D =.=.T ;.;.K K S S A A m m m n n m n p e e e e e q : ; & @ X @ @ @ @ @ X X X o -                                                                                                                                                                                                                                                                                                                                             ",
"                                                                                                                                                                                                                                                          - $ $ $ - & @ @ * r B B Z B l l B D =.>.:.:.:.:.:.:.:.:.:.=.=.} } D D D K =.=.T ;.;.=.K S S A m m r m i i i i i i p p e e i q > & @ X @ @ @ @ @ @ $ $ -                                                                                                                                                                                                                                                                                                                                               ",
"                                                                                                                                                                                                                                                          , $ $ - - & @ @ * e m B C B h B B D =.>.:.:.-.:.:.=.=.:.:.=.=.=.=.} } } =.,.;.=.;.,.;.U S A m m e e 9 q : : q e p p p e i i q > & @ X X @ @ @ $ $ - -                                                                                                                                                                                                                                                                                                                                                 ",
"                                                                                                                                                                                                                                                          , $ $ @ - & @ @ * 9 p m m r w r B D ;.>.:.-.-.-.:.=.=.:.-.=.=.=.=.=.=.=.=.,.;.;.>.,.,.Y S m p 9 ; * q ; * * : e p n n i p i q ; - @ X X @ @ @ @ $ -                                                                                                                                                                                                                                                                                                                                                   ",
"                                                                                                                                                                                                                                                          - $ @ @ @ $ @ @ & q e e e 7 7 q r A =.>.:.,.=.,.,.,.,.:.=.=.} } =.=.=.,.,.,.>.,.f.f.,.Y S n q * * # * # @ @ * q i p p i p i i ; - @ X @ @ @ X X $ -                                                                                                                                                                                                                                                                                                                                                   ",
"                                                                                                                                                                                                                                                          - $ @ @ @ @ @ @ @ ; 9 * 7 # # 7 e B Y ,.;.=.=.,.,.=.=.=.=.} } } =.=.,.>.:.,.,.,.,.,.Y U N i q * * # * # @ @ * q i p p i p i i ; & @ X @ @ o X X @ ;                                                                                                                                                                                                                                                                                                                                                   ",
"                                                                                                                                                                                                                                                          - o @ @ @ @ @ @ & q e e e q q e e m U =.=.=.,.:.=.=.K K K } =.=.;.:.>.i.:.;.D m A A N n i q q q q q q : : ; : e p p m i n n i : ; @ X @ @ @ X X @ ;                                                                                                                                                                                                                                                                                                                                                   ",
"                                                                                                                                                                                                                                                          - @ @ @ @ $ @ @ * 9 e p p r r r e p S =.=.;.,.,.;.K D D D } =.=.;.>.f.f.:.K h * * : ; : : : i p p p m i e e e i p m m p n n i : > @ X @ @ @ X X $ ;                                                                                                                                                                                                                                                                                                                                                   ",
"                                                                                                                                                                                                                                                          - @ $ @ @ $ @ @ * q r m m B B B p B Z K K K K D A m p B B ) :.2.>.2.f.i.;.Z r & # ; * ; : q i m B A B m m r p p r p h m h m e : > $ X @ @ @ X @ $ ,                                                                                                                                                                                                                                                                                                                                                   ",
"                                                                                                                                                                                                                                                          - @ $ @ @ $ @ @ & 9 r B C Z F F B F D K D B m n i : * r B =.2.z.f.f.f.i.} V 0 @ @ ; ; # * q r B A F A A B m m m p r h h h h r q : $ X @ @ @ X $ $ ,                                                                                                                                                                                                                                                                                                                                                   ",
"                                                                                                                                                                                                                                                          - @ $ @ @ $ @ @ & 9 m B S Z Z B B Z D D B 9 q : ; # # 7 r ) :.f.2.f.f.i.} C 9 # # ; ; * * q p A Z D S Z S A B B p r r h h M h e : $ X X @ @ X $ $ ,                                                                                                                                                                                                                                                                                                                                                   ",
"                                                                                                                                                                                                                                                          - $ $ @ $ $ $ @ * e m B B B B B B B F A r * & ; $ # # # w V } :.<.f.z.p.} B e * ; : ; * > 9 h B Z D Z S S A A B B B l h h m h r q $ X X @ @ X o $ ,                                                                                                                                                                                                                                                                                                                                                   ",
"                                                                                                                                                                                                                                                          - $ $ $ & $ $ $ > e m B B B B B B B B m q @ @ @ @ @ @ # 7 l / } -.2.f.i.] B e * : i ; ; ; 9 h B Z Z F B F Z A A B B B l h h h e q # X o @ @ X $ $ ,                                                                                                                                                                                                                                                                                                                                                   ",
"                                                                                                                                                                                                                                                          , $ @ @ $ * $ & * 9 p B C B B B B B m e # . . @ @ % @ # 4 8 0 l V } ;. .Z l 7 * ; q : > ; 9 9 B Z Z Z S D S Z A B B B B B h h e q # @ @ @ @ X o $ ,                                                                                                                                                                                                                                                                                                                                                   ",
"                                                                                                                                                                                                                                                          - $ @ @ & * * & * q e e M B M B F B r q @ . . @ @ $ - * 7 8 8 0 l V ] H B h 7 * : q ; ; ; = 9 B D D D K K D A B B B B B B h h e q # @ @ @ @ X o $ ,                                                                                                                                                                                                                                                                                                                                                   ",
"                                                                                                                                                                                                                                                          , $ @ @ & ; ; * > q e 9 e m M S D B r ; @ . . $ $ % - e r y l z z V V Z B r w 7 q q q : ; 9 g C D D D K K S B p p B B B B M h e q # @ @ @ @ X $ $ ,                                                                                                                                                                                                                                                                                                                                                   ",
"                                                                                                                                                                                                                                                          , $ - & * * : : : q q * q e h C K D p q $ . . $ $ $ ; p F Z Z / / Z Z z l r w q e q ; q 9 9 h F K } K Y K S m r r p B Z B m m p e ; @ @ @ @ X $ $ ,                                                                                                                                                                                                                                                                                                                                                   ",
"                                                                                                                                                                                                                                                          , $ - ; * ; : : : ; : # # * q p S C e : $ . X $ @ $ ; A D =.| | | } ] V l 0 w 7 q q ; * * 9 9 C K =.=.D F m e 7 q w p A C B m n i ; @ @ $ $ @ $ $ ,                                                                                                                                                                                                                                                                                                                                                   ",
"                                                                                                                                                                                                                                                          , $ - ; ; ; ; ; ; : ; @ @ @ # q m m 9 $ % X . X X @ * A =.:.2.1.<.+.:./ l 8 7 7 * : ; * & ; 9 B K =.=.F h 9 ; # # * e m A A A n e ; @ @ $ @ @ $ $ ,                                                                                                                                                                                                                                                                                                                                                   ",
"                                                                                                                                                                                                                                                          - @ @ - # $ * ; ; ; ; @ . . @ * e e * @ @ . . X . . & B =.<.a.g.g.a.1.| l 8 7 7 # ; ; * * ; 9 M D D D m 9 * * # # # q p m m m p q $ X X $ @ X $ $ ,                                                                                                                                                                                                                                                                                                                                                   ",
"                                                                                                                                                                                                                                                          - X @ - $ $ $ $ ; ; ; $ @ . @ # * q # @ @ X X X X @ # B } <.a.g.g.a.g.:.l 8 7 4 # # # * * q 9 m S A B e ; & ; : * ; ; q e e q : ; $ . X $ X X $ $ ,                                                                                                                                                                                                                                                                                                                                                   ",
"                                                                                                                                                                                                                                                          - @ @ ; # # ; ; ; ; ; $ @ . @ @ # * # @ @ @ @ @ @ @ q Z | <.a.b.b.g.g.-.l 8 7 4 # * # * * q 9 m m p e : * * : i ; ; ; ; ; * # * * % . X $ X X $ -                                                                                                                                                                                                                                                                                                                                                     ",
"                                                                                                                                                                                                                                                            $ - ; ; ; 1     i ; $ @ @ @ @ @ * * q q : * & & q l } <.a.a.b.c.b.g.-.z 8 7 7 q q q * * q e p p w * > * > : i i ; ; # @ @ @ $ $ @ X @ $ $ $ $                                                                                                                                                                                                                                                                                                                                                       ",
"                                                                                                                                                                                                                                                                              < $ @ @ @ . @ * q p m p 9 : : h D 2.g.g.a.c.c.c.a.-.V y 8 w r r e * ; q 9 e e q # * > : q i i ; ; @ @ @ X @ $ $ @ $ $ $                                                                                                                                                                                                                                                                                                                                                           ",
"                                                                                                                                                                                                                                                                              ; @ @ @ @ @ @ ; e m B S p q r B | g.G.b.c.N.n.n.b.<.) z l s B l r e q q 9 9 : * * & * : q i q ; ; $ @ X @ - - -                                                                                                                                                                                                                                                                                                                                                                   ",
"                                                                                                                                                                                                                                                                              - @ X @ % @ # q p S S S m e r D <.F.R.G.M.N.M.M.m.2.| V V V V V l r w e e 9 ; * * $ & * : q : : * & @ @ - - <                                                                                                                                                                                                                                                                                                                                                                     ",
"                                                                                                                                                                                                                                                                              - @ . @ # # # ; p B B A p 7 r V -.F.R.G.M.M.M.G.b.2.) V V V Z V B l r r e q * & & @ $ & * : : * * & @ X $ , 2                                                                                                                                                                                                                                                                                                                                                                     ",
"                                                                                                                                                                                                                                                                              $ X . @ * # # # w p r B r q 0 B | b.L.M.M.M.M.M.b.<./ l z V V V l l r p e ; @ @ & @ @ @ & * * * # @ @ X @ -                                                                                                                                                                                                                                                                                                                                                                       ",
"                                                                                                                                                                                                                                                                            ; - @ @ # ; ; # 7 r s l B w 7 w V | g.G.G.M.J.J.G.b.-.` y l z z l y l h p e * @ @ $ $ $ $ & & & & $ @ X X @ -                                                                                                                                                                                                                                                                                                                                                                       ",
"                                                                                                                                                                                                                                                                            ; & @ @ # q q * w m B B B w 7 y Z <.F.L.G.M.U.U.U.m.<.` y y z z y y B B m r ; @ @ $ $ $ $ & & & & @ @ X X X -                                                                                                                                                                                                                                                                                                                                                                       ",
"                                                                                                                                                                                                                                                                              & $ $ * w w # w B Z V V y 0 l ) <.m.R.G.M.U.U.G.m.<.` t y z z V z B B p e * @ @ $ @ @ @ $ $ $ $ $ @ X X X -                                                                                                                                                                                                                                                                                                                                                                       ",
"                                                                                                                                                                                                                                                                              $ $ @ # q 7 # 7 s Z / ) z l V } <.G.R.M.M.G.L.G.b.<.` t z ` / / Z V B r e & @ @ @ @ @ @ @ $ - - - - $ o o                                                                                                                                                                                                                                                                                                                                                                         ",
"                                                                                                                                                                                                                                                                              - $ @ # q q # 7 B / | -./ V V -.a.L.U.U.M.M.G.M.b.O./ z z ` / / ) Z B r q # @ X X @ @ @ @ @ - ; - ; - $                                                                                                                                                                                                                                                                                                                                                                           ",
"                                                                                                                                                                                                                                                                              & ; * * e w * w Z O.a.g.<.} } <.g.U.R.U.U.U.U.G.m.<.| ` / _ | | | / V r q # X X X X @ @ @ $ ; ; <                                                                                                                                                                                                                                                                                                                                                                                 ",
"                                                                                                                                                                                                                                                                              & ; ; q r w 7 0 ) a.M.G.b.<.<.a.m.R.T.Y.U.Y.R.U.m.1.| ( | O.O.| | ) Z y w # X X X X @ @ @ - ; 1 i                                                                                                                                                                                                                                                                                                                                                                                 ",
"                                                                                                                                                                                                                                                                              & # * w r w # 0 | a.M.G.m.a.a.b.M.U.Y.Y.A.Y.T.U.b.1.| ( | O.O.| | | ) B w @ X X @ @ @ @ @ - ; < 1                                                                                                                                                                                                                                                                                                                                                                                 ",
"                                                                                                                                                                                                                                                                            ; & # * e p w # 0 | N.N.M.b.a.a.M.U.U.Y.Y.A.Y.U.M.a.3._ ( | O.o.( ( -.) B w @ X X @ @ @ @ & - > ; ; ;                                                                                                                                                                                                                                                                                                                                                                               ",
"                                                                                                                                                                                                                                                                            ; $ # * w p w 7 y <.M.U.U.M.c.N.G.U.T.T.Y.S.Y.U.M.1.O._ ( O.+.O.| | -.) V r # X X @ @ @ @ - > ; ; < ;                                                                                                                                                                                                                                                                                                                                                                               ",
"                                                                                                                                                                                                                                                                            ; $ ; ; e m r 7 V g.U.T.T.A.M.M.U.T.Q.$X#XY.U.U.N.@.O.( ( 3.1.+.o.O.3.| Z r # X X @ @ @ @ - ; ; > > ; <                                                                                                                                                                                                                                                                                                                                                                             ",
"                                                                                                                                                                                                                                                                            ; $ ; * e h r 0 D F.T.$X$XY.M.B.U.T.$X$X#XY.Y.A.N.@.| / ( 3.1.1.+.+.<.| D p * X X @ @ @ @ > ; ; - - - ;                                                                                                                                                                                                                                                                                                                                                                             ",
"                                                                                                                                                                                                                                                                            ; @ ; q w r y 0 V F.Q.$XT.S.A.A.S.T.T.T.#XY.Y.Y.B.@.o.( ( O.3.#.+.O.<.| V r * . X X $ @ - ; ; ; ; - @ -                                                                                                                                                                                                                                                                                                                                                                             ",
"                                                                                                                                                                                                                                                                            > @ * q w l y 0 V g.Q.Q.T.Y.A.A.T.T.T.T.T.Y.T.T.B.&.#.( ( +.1.3.+.+.1.:.Z r * . X X @ $ - ; ; ; - $ @ @ -                                                                                                                                                                                                                                                                                                                                                                           ",
"                                                                                                                                                                                                                                                                            > @ * q r B l 0 V g.T.Q.T.Y.A.S.T.*X$XT.#XT.$X$XY.c.@.( ( +.3.1.1.<.a.<.Z r * X X o @ $ ; ; ; > & @ @ @ -                                                                                                                                                                                                                                                                                                                                                                           ",
"                                                                                                                                                                                                                                                                            ; @ : e p B B 0 V g.U.T.T.Y.S.T.*X*X*X$X$X$X$X,XT.n.1.o.o.+.1.1.1.1.g.<.) h * X $ o @ & ; ; ; > & @ @ @ -                                                                                                                                                                                                                                                                                                                                                                           ",
"                                                                                                                                                                                                                                                                            ; @ ; 9 r B y 8 B f.U.T.T.T.Y.T.*X1X*X$XQ.$X$X$XY.M.c.o.( +.3.1.b.g.g.<./ l ; X @ $ $ $ & ; > ; & @ @ @ -                                                                                                                                                                                                                                                                                                                                                                           ",
"                                                                                                                                                                                                                                                                            - @ # q r p r 8 y <.M.Y.T.T.T.$X*X*X*X$X$X$X$XT.Y.M.b.o.( o.+.1.b.b.g.<./ l ; @ @ $ $ $ & & - - & @ @ @ $                                                                                                                                                                                                                                                                                                                                                                           ",
"                                                                                                                                                                                                                                                                            $ @ # 7 w p r 7 y <.M.T.*X*X$X<X1X<X$X$X$X*X$XE.Y.U.m.+.( | +.1.b.b.1.<./ l * @ $ $ $ $ $ $ & & & @ @ @ -                                                                                                                                                                                                                                                                                                                                                                           ",
"                                                                                                                                                                                                                                                                          < $ @ # q w B s 7 l 2.U.*X5X5X2X4X4X2X$X$X*X<X$XE.E.E.G.1.o.o.+.1.1.g.<.<./ l 7 + @ $ $ $ $ $ & & $ @ - - - ;                                                                                                                                                                                                                                                                                                                                                                         ",
"                                                                                                                                                                                                                                                                          ; $ @ * w B B l 8 l g.T.<X0X0X4X4X7X5X$XQ.*X<XQ.T.T.U.G.1.o.| O.1.1.<.+.| / z 7 # @ @ @ @ * : > & $ $ - - - ; <         < ;                                                                                                                                                                                                                                                                                                                                                           ",
"                                                                                                                                                                                                                                                                        ; ; # # w w B V y 8 l g.W.1X0X0X4X0X0X4XQ.T.T.Q.Q.Q.T.U.M.1.| _ _ O.O.| | ] / V w 7 * * * ; : q 1 ; - & ; - - - - - - - ; - - - -                                                                                                                                                                                                                                                                                                                                                       ",
"                                                                                                                                                                                                                                                                      ; ; ; 7 7 r y B V l 8 B z.[.1X7X7X4X0XyX4XQ.U.Y.T.Q.Q.T.M.b.+._ ( ( ( ( / / / ) ) l 7 w : q 9 e i i : ; & - - - @ - - @ @ - $ @ @ $ ;                                                                                                                                                                                                                                                                                                                                                     ",
"                                                                                                                                                                                                                                                                      : q e p B V B Z Z V y D H.<X2XyX0X7XyXuXyX*XU.U.U.T.Q.U.M.b.+._ ( / ( ( / ~ / | | Z l p p p i p n i : - $ - @ @ @ - - & @ ; - - $ $ ;                                                                                                                                                                                                                                                                                                                                                     ",
"                                                                                                                                                                                                                                                                    i q i B D } ) Z ) / Z z } P.4X0XuXuXyXpXpXyX<XU.U.U.U.!.U.M.a.+._ ( / ( ( / / ] | :.) B A A m m p p i : - & @ @ @ @ & - & & ; ; ; # $ ; 1                                                                                                                                                                                                                                                                                                                                                   ",
"                                                                                                                                                                                                                                                                  1 : e m Z } -.) / / / V z } P.4X0XuXyXyXpXpXyX<XU.M.M.M.A.M.N.1.o.( ( ` ( ( / / / | -./ B F A B m e q : * $ @ @ @ @ @ & & & $ * ; ; $ $ - <                                                                                                                                                                                                                                                                                                                                                   ",
"                                                                                                                                                                                                                                                                  : : e B Z ) } / Z / Z z z } P.4X0XuXyXyXyXpXyX>XU.M.N.N.M.M.N.1.o.( ( _ | +.O.[ [ | | Z B B A B r 9 q * $ @ @ - @ @ @ @ & & & * ; * $ $ $ <                                                                                                                                                                                                                                                                                                                                                   ",
"                                                                                                                                                                                                                                                                1 : : e B D ) / / / / / V z | W.4XyXiXyXyXyXpXyX<XU.M.c.N.M.M.N.a.+.o.O.1.g.b.g.<.| | | Z B B F B p e q ; $ @ @ - $ @ @ $ & * * ; ; ; * $ $ ;                                                                                                                                                                                                                                                                                                                                                   ",
"                                                                                                                                                                                                                                                              1 < : q e B B z z z / ~ ~ / / :.].0XyXpXaXaXpXpXaX<XR.M.b.M.G.G.m.b.1.1.b.L.R.R.R.G.b.<.} Z V Z D B m e e q ; @ @ @ @ @ @ @ & > > ; ; ; ; $ ; <                                                                                                                                                                                                                                                                                                                                                   ",
"                                                                                                                                                                                                                                                              1 ; : q e s B z z z / / [ | / <.W.5XyXaXaXpXpXpXyX<XW.G.M.G.G.G.M.b.a.c.L.W.<X<X<XR.G.a.| / V V D B l h m p q * # # # # # * : : : ; ; ; ; ; ; <                                                                                                                                                                                                                                                                                                                                                   ",
"                                                                                                                                                                                                                                                          1 2 - ; ; ; e B V z z z ~ / [ | / | L.W.<X5X4XyXaXyX5X[.R.G.M.G.G.M.b.c.b.M.W.1X4X5X1X5XW.m.+./ z l V V l l B B r q q 7 7 7 w p p e : q q ; ; ; : ; <                                                                                                                                                                                                                                                                                                                                                 ",
"                                                                                                                                                                                                                                                        < , - $ $ # # e B Z V z z ~ / [ [ ] | g.L.U.W.|.5XeX5X5XW.R.J.J.U.U.G.n.b.b.U.|.4X4X5X5XeX<XG.<./ z z z Z z B Z Z B r r 0 y B Z D F h q 7 q ; ; ; ; q ; ; < ; ; ; - < < , , < ; < < ; ;                                                                                                                                                                                                                                                                                                                 ",
"                                                                                                                                                                                                                                                      , - - $ $ @ @ # e B Z V / ~ ( [ [ | [ | <.a.a.a.m.U.W.[.Q.W.W.T.T.W.T.Y.M.G.G.T.1X4X4X4X4XrX<XU.a.| / / } / / / | -.D V V z V } -.;.} l 7 # # # * * ; ; ; : : ; ; & & $ - $ - $ - $ $ $ $ - - ;                                                                                                                                                                                                                                                                                                           ",
"                                                                                                                                                                                                                                                      , - $ $ @ @ @ # w B ) _ [ [ [ O.O.| [ [ | | ( / [ +.a.G.U.W.[.[.Q.*X*X$XY.U.R.Q.4X4X4X4X4XrX1XR.M.1.+.+.<.+.+.+.f.2.| / / / [ <.f.f.;.z 7 # # # # * * ; ; * * ; $ @ @ @ @ @ @ @ @ $ $ $ $ & $ - <                                                                                                                                                                                                                                                                                                         ",
"                                                                                                                                                                                                                                                      , - - - @ @ @ # w D -.<.g.1.@.@.+.+.+.| | | / / / | <.m.R.[.<X<X*X,X<X*XT.W.T.[.1X7X7X4X4X4X1XQ.R.G.m.F.G.M.M.m.F.m.<.| / ( | <.a.<.| z 7 # # # # * * ; ; * * * * $ $ & & & $ * * ; * * * * * ; ;                                                                                                                                                                                                                                                                                                         ",
"                                                                                                                                                                                                                                                      < - - - $ @ @ # w ) 2.F.L.M.N.b.b.a.a.<.| | ) / / / | b.R.<X<X<X<X*X<X<X$XQ.Q.Q.<X4X1X1X1X1X<X<X[.[.[.|.3X<XQ.Q.W.P.g.| ( ~ o.+.<.+.] l 7 # # # # * q ; ; ; ; ; * ; ; ; > ; ; : : : : : : : ; ; ; i                                                                                                                                                                                                                                                                                                       ",
"                                                                                                                                                                                                                                                      < ; ; - @ @ @ @ w ) 2.m.U.U.M.M.U.G.b.a.<.| ) / z / O.m.R.[.<X<XQ.$X<X$X*XQ.Q.$X<X1X4X1X1X1X<X<X<X<X1X5X4X5X<X3X3X[.M.1.#.( o.#.1.+.} l 8 7 ; # ; ; q : ; : : ; ; ; ; ; ; : q q 9 e e e e r q ; : q i i i                                                                                                                                                                                                                                                                                                 ",
"                                                                                                                                                                                                                                                      1 ; ; ; $ @ @ @ 8 ) 2.m.U.U.A.U.T.W.R.F.1.| } ) Z / | F.P.[.3X<XT.Q.Q.Q.$XT.Q.Q.<X1X4X4X4X1X<X<X<X1X4X4X5X4X1X4X4X5XL.1.#.o.o.+.1.<.| z 8 7 ; * q q q e q : : : : ; q i q 9 9 9 e r h m M h e q q q ; ; ; ; ; ;                                                                                                                                                                                                                                                                                           ",
"                                                                                                                                                                                                                                                      1 ; ; ; # $ @ # 8 ) <.b.G.A.Y.T.Q.[.Q.L.<.) ) / V V | g.L.[.<X>XQ.Q.Q.Q.Q.>X[.>X<X1X4X4X5X<X<X<X1X5X4X4X4X4X2X7XrX5XW.b.#.o.o.#.+.<.( y 8 7 7 * * q q q q 7 q q q q q e e q 7 q w r h B B l r 9 q q ; ; ; ; ; * - ;                                                                                                                                                                                                                                                                                       ",
"                                                                                                                                                                                                                                                      < ; ; ; # $ @ # 8 / <.a.M.K.Y.T.T.T.Q.L.+./ Z V V z / <.m.W.[.>XQ.<X<X<X<X<X<X<X1X1X4X4X5X<X<X1X5X4X4X4X4X7X4X4X4X5XR.n.@.o.o.#.O.O./ t 8 4 # # 7 7 7 7 # # * * * # * * * * * 7 7 w r r r r 0 0 q q ; ; ; : ; * $ - <                                                                                                                                                                                                                                                                                     ",
"                                                                                                                                                                                                                                                      ; - ; ; # $ @ # 8 / O.1.N.A.Y.Y.Y.U.W.L.<./ Z V z z / | a.L.W.[.[.<X<X<X[.[.[.[.<X1X1X5X1X<X<X<X5X4X7X7X4X7X4X4X4X1XU.n.@.#.#.#.O.O./ l 8 4 4 7 7 7 7 7 7 4 7 7 7 * 7 7 7 7 7 7 0 r y y 0 0 r 0 7 q q q q q ; # @ $ -                                                                                                                                                                                                                                                                                     ",
"                                                                                                                                                                                                                                                      ; ; ; ; - $ @ # w ) +.c.N.U.Y.Y.A.U.U.M.+./ Z V V V / | <.F.R.W.W.[.[.W.T.W.W.T.W.W.Q.W.W.T.Q.$X<X1X4X2X2X2X2X7X4X1XR.N.@.#.#.#.#.+.[ z t 0 0 0 0 8 8 8 8 8 8 0 8 8 0 0 r 0 0 0 0 l l l l r r 0 7 7 q q q q ; # % $ ;                                                                                                                                                                                                                                                                                     ",
"                                                                                                                                                                                                                                                      - ; ; ; ; * @ # 0 ) <.5.v.B.S.S.B.M.A.b.o.| / V / / / | O.b.G.G.G.U.R.L.G.G.G.U.U.U.R.U.U.U.U.T.$X1X1X1X1X1X6X7X4X1XT.M.N.t.t.t.a.a.<.} V Z V V z y l V z B V Z V V Z ) ) D B l 0 l z z Z z l r 7 7 q q q : * # # $ ;                                                                                                                                                                                                                                                                                     ",
"                                                                                                                                                                                                                                                      - - ; ; ; * @ # w ) +.@.&.N.V.B.N.M.B.M.1.| / V / / / | | <.g.g.a.g.b.b.b.a.c.b.G.U.U.U.U.G.U.T.*X1X2X4X4X6X7X7X4X<XT.A.M.M.M.M.M.m.g.<.] _ / / / / / | -.2.g.g.g.g.g.F.F.2.-.Z l l z Z / V V r 7 # ; ; q * * @ @ $ -                                                                                                                                                                                                                                                                                     ",
"                                                                                                                                                                                                                                                      - $ ; ; ; ; # # w ) | #.@.t.t.v.N.M.M.M.a.O./ z / } | } } -.O.| | O.<.O.| O.O.+.c.L.U.U.U.A.U.Y.Q.1X7X7X4X4X4X1X1X1XT.Y.Q.<X<X<XQ.W.G.a.O.-.<.3.O.O.<.b.R.[.3X3X3X X XeXeXW.z.| z z ~ ~ / / V l 7 @ $ < ; - & @ @ $ -                                                                                                                                                                                                                                                                                     ",
"                                                                                                                                                                                                                                                      - ; ; ; ; ; # # w ) -.+.+.@.@.v.N.M.A.M.c.<.} / / | | | | | | | } | | | | | | <.b.U.W.W.!.U.Y.T.*X2X0X0X7X7X7X4X2X1XQ.T.*X1X1X<X[.T.G.a.O.+.+.+.O.+.1.m.W.5XeXeXeXeXsXyXsXW.g.[ c z / / / / V l 9 # $ , $ @ @ @ @ - ;                                                                                                                                                                                                                                                                                     ",
"                                                                                                                                                                                                                                                      ; ; ; ; ; # @ # w ) -.O.#.@.@.v.B.A.Y.Y.M.g.O.( | | | | | | | | | | | | | | | <.F.W.[.[.[.R.T.[.1X7XuXuXyXyX0X7X6X1X$X#X*X6X5X<X_.!.M.a.o.O.+.o.[ o.+.b.W.5X4X4X4X<X5X0X5XW.b.| c ~ ( [ [ ( V l 7 # $ $ @ @ @ @ - - <                                                                                                                                                                                                                                                                                     ",
"                                                                                                                                                                                                                                                      ; - ; ; ; # @ # w ) -.O.#.@.@.v.B.Y.U.Y.M.b.<.| | O.O.| | | | | | | | | | O.-.2.H.].[.[.[.Q.Q.<X5XyXuXaXuX0XwX0X6X1X#X#X=X1X2X<XQ.U.M.@.o.o.o.( ( ( O.c.R.3X5X4X5X<X<X4X5X!.a.[ ~ ~ [ ( ( / V l e # @ $ X @ @ @ - ;                                                                                                                                                                                                                                                                                       ",
"                                                                                                                                                                                                                                                      ; - ; ; * # @ # w ) | O.O.#.#.t.B.U.U.A.M.g.<.( | | | | | | | | | | | | ( | | <.F.W.[.[.W.R.T.*X1X7XuXuX0X0XwX0X6X1X#X#X*X1X1X*XQ.Y.M.@.o.o.o.( ( ( #.N.R.5X5X5X1X*X<X4X5XU.c.o.~ ~ [ ( / ~ z l 0 # @ @ X @ @ @ - -                                                                                                                                                                                                                                                                                       ",
"                                                                                                                                                                                                                                                      ; - - * # ; @ @ w ) | O.#.o.#.v.A.Y.U.B.M.g.O.( | | | | | | | | | | | | ( | | 1.F.W.[.[.Q.!.Q.*X5X0XuXuX0XwXwXwXwX6X#X@X-X1X1X*X$XY.N.@.o.[ | ( ( o.#.b.R.1X4X1X<X*X<X7X5XU.c.o.~ ~ [ ( ~ ~ z l 0 @ @ @ @ - @ @ $ -                                                                                                                                                                                                                                                                                       ",
"                                                                                                                                                                                                                                                      ; - ; & & ; # @ w D -.O.+.#.@.M.T.Q.E.U.G.g.<.| | -.| | | -.-.| | | -.-.| | O.@.m.W._.|._.T._.-XsXwXiXiXwXwXiXiXwX6X-X#X-X6X6X1X*XT.M.@.o.( _ ( ( ( O.c.U.<X4X1X1X1X2XyX4XT.c.o.~ ~ [ ( / z z l 0 # @ $ @ - o o o -                                                                                                                                                                                                                                                                                       ",
"                                                                                                                                                                                                                                                      , - ; - & ; $ @ w D -.<.<.1.a.G.[.<XW.R.L.g.<.| -.-.-.| | | | | } | -.-.| | O.1.m.W._.|.|.T._.2X0XiXcXHXiXiXpXgXiXqX=X*X=X7X7X2X<XT.M.1.( | o._ ( _ o.1.G.[.1X1X1X2X7XuXyX!.N.o.~ ~ [ ( / Z l r 0 & @ $ o @ o X o -                                                                                                                                                                                                                                                                                       ",
"                                                                                                                                                                                                                                                      < ; - - - ; @ @ q Z -.:.:.O.<.m.R.W.L.G.m.g.-.) } -.-.| ) | } | } | } | | | | +.g.G.W.W.W.L.L.!.<X4XyXyXyXyXyXyXyX4X*X$XQ.1X<X,XW.R.m.+.( _ _ _ _ / ( 1.m.W.[.<X<X1X4X4X5XL.a.( c ~ ( ( / V l 0 9 ; * $ $ $ o o o -                                                                                                                                                                                                                                                                                       ",
"                                                                                                                                                                                                                                                      - - - - - & @ @ q A =.-.-.| -.1.F.F.g.2.2.<.=.) ) } ) ) ) ) ) ) ) ) ) } } ) ) -.2.z.H.H.F.b.m.F.P.[. X3X3X5X5X5X5X<XR.R.R.[.W.W.R.G.g.| / ) ) ) / ` / | <.H.R.[.[.<X3X5X<XF.1./ z z / ) Z l 0 0 9 q ; $ $ $ o o o -                                                                                                                                                                                                                                                                                       ",
"                                                                                                                                                                                                                                                      - - - - - - @ $ q m A F V V Z / ) ) ) / ) D B B B V B B B V B B B B B B B V A V D } -.-.-.) ) | -.2.f.z.z.F.b.F.b.g.<.1.1.1.2.2.<.-._ F y B y y y y u V / | <.1.g.g.g.b.g.| / y 0 y l l y 0 7 7 ; : : - $ - 3 o -                                                                                                                                                                                                                                                                                         ",
"                                                                                                                                                                                                                                                      - o $ - - & $ $ * ; q w q 7 7 8 8 8 8 8 8 w q 7 q 7 7 7 q 7 7 7 7 7 7 7 7 7 7 7 7 w w w w w 7 7 w w p s s y y y y y t t u y u y 0 0 0 8 4 8 8 4 4 4 4 8 8 8 8 0 0 0 t y y 0 8 4 4 7 7 7 7 7 * & > : > - - - -                                                                                                                                                                                                                                                                                             ",
"                                                                                                                                                                                                                                                      - $ o $ o - - - * $ # # # # # # # # # # # # # # # + # + # # # # # # # # # % % % # % # # # # + + + + + + + # # + 4 4 4 4 4 4 4 + + 4 4 4 + + # + + + + + + + + + + + + 4 + + # # # # # # # # @ @ & ;                                                                                                                                                                                                                                                                                                       ",
"                                                                                                                                                                                                                                                        - - - - ; < < ; ; ; ; * * * ; ; # # # # * * # * # * # * ; * # * # * # # # ; ; * * ; q q 7 * # # + % + # # # # 7 7 7 7 7 8 # 4 # 4 7 4 4 # # + + # 4 4 # # # 4 4 # # # 4 * * # # # # % # # @ @ & ;                                                                                                                                                                                                                                                                                                       ",
"                                                                                                                                                                                                                                                                      1 < ; ; ; ; ; q ; q ; ; ; : ; ; : q : ; : ; ; ; ; ; ; ; ; * ; q 9 9 9 9 e e 9 e q * * q q ; q q w w w w w w w w w 7 q q 7 q q q q q w w q q q w w w w w q q : ; ; - $ # * * @ @ &                                                                                                                                                                                                                                                                                                         ",
"                                                                                                                                                                                                                                                                        < ; ; ; ; ; ; ; ; ; ; ; : : ; ; : ; ; ; ; ; : : ; ; ; : * * ; q 9 9 9 9 9 9 9 ; * & * q ; : q q q w w w e e w w q q * * q q q q q w w q q q q q w q q w q : : ; ; ; $ * $ @ @ -                                                                                                                                                                                                                                                                                                         ",
"                                                                                                                                                                                                                                                                        < ; < < ; ; ; ; ; ; ; q q q q q ; ; ; ; ; ; ; ; ; ; ; * * * * 7 q e e e w q q q * * * 7 7 q q q q e e e e e e q q q q q q q q q q q q q q q e e e q q q q : ; ; ; * - - & @ @ -                                                                                                                                                                                                                                                                                                         ",
"                                                                                                                                                                                                                                                                        ; - $ - - - ; ; ; ; ; ; * * * * * # # # # # # # # # # # # * # * ; ; q q ; * # * # # # & # * * * ; * ; * ; ; ; * * * # * # * # * * * * * * ; 7 ; * * * * * * # @ @ @ @ & @ X o -                                                                                                                                                                                                                                                                                                         ",
"                                                                                                                                                                                                                                                                        - o @ @ $ @ $ $ $ $ $ $ $ $ $ $ $ $ $ $ $ $ $ $ $ $ @ $ $ $ # $ # * ; * # $ # @ $ @ $ @ # @ $ @ # @ # @ # @ # @ # @ # @ # @ # @ # $ # * # * # * # $ # @ $ $ @ @ @ @ @ @ @ X o -                                                                                                                                                                                                                                                                                                         ",
"                                                                                                                                                                                                                                                                          - $ $ $ $ $ $ $ $ $ & $ $ $ $ $ & $ & - & - & # & # & ; - ; & ; & ; & $ $ $ $ $ $ $ $ $ $ # & $ $ $ $ $ $ $ $ $ $ $ @ $ $ $ @ $ & $ & * & # & * & $ & $ $ $ @ @ @ $ @ - o o                                                                                                                                                                                                                                                                                                           ",
"                                                                                                                                                                                                                                                                                              ; ; - ; - ; - ; ; < ; ; ; ; ; ; ; ; ; ; ;                                                                                                                                                                                                                                                                                                                                                                                                                         ",
"                                                                                                                                                                                                                                                                                                                                                                                                                                                                                                                                                                                                                                                                                                                                                                ",
"                                                                                                                                                                                                                                                                                                                                                                                                                                                                                                                                                                                                                                                                                                                                                                ",
"                                                                                                                                                                                                                                                                                                                                                                                                                                                                                                                                                                                                                                                                                                                                                                ",
"                                                                                                                                                                                                                                                                                                                                                                                                                                                                                                                                                                                                                                                                                                                                                                ",
"                                                                                                                                                                                                                                                                                                                                                                                                                                                                                                                                                                                                                                                                                                                                                                ",
"                                                                                                                                                                                                                                                                                                                                                                                                                                                                                                                                                                                                                                                                                                                                                                ",
"                                                                                                                                                                                                                                                                                                                                                                                                                                                                                                                                                                                                                                                                                                                                                                ",
"                                                                                                                                                                                                                                                                                                                                                                                                                                                                                                                                                                                                                                                                                                                                                                ",
"                                                                                                                                                                                                                                                                                                                                                                                                                                                                                                                                                                                                                                                                                                                                                                ",
"                                                                                                                                                                                                                                                                                                                                                                                                                                                                                                                                                                                                                                                                                                                                                                ",
"                                                                                                                                                                                                                                                                                                                                                                                                                                                                                                                                                                                                                                                                                                                                                                ",
"                                                                                                                                                                                                                                                                                                                                                                                                                                                                                                                                                                                                                                                                                                                                                                ",
"                                                                                                                                                                                                                                                                                                                                                                                                                                                                                                                                                                                                                                                                                                                                                                ",
"                                                                                                                                                                                                                                                                                                                                                                                                                                                                                                                                                                                                                                                                                                                                                                ",
"                                                                                                                                                                                                                                                                                                                                                                                                                                                                                                                                                                                                                                                                                                                                                                ",
"                                                                                                                                                                                                                                                                                                                                                                                                                                                                                                                                                                                                                                                                                                                                                                ",
"                                                                                                                                                                                                                                                                                                                                                                                                                                                                                                                                                                                                                                                                                                                                                                ",
"                                                                                                                                                                                                                                                                                                                                                                                                                                                                                                                                                                                                                                                                                                                                                                ",
"                                                                                                                                                                                                                                                                                                                                                                                                                                                                                                                                                                                                                                                                                                                                                                ",
"                                                                                                                                                                                                                                                                                                                                                                                                                                                                                                                                                                                                                                                                                                                                                                ",
"                                                                                                                                                                                                                                                                                                                                                                                                                                                                                                                                                                                                                                                                                                                                                                ",
"                                                                                                                                                                                                                                                                                                                                                                                                                                                                                                                                                                                                                                                                                                                                                                ",
"                                                                                                                                                                                                                                                                                                                                                                                                                                                                                                                                                                                                                                                                                                                                                                ",
"                                                                                                                                                                                                                                                                                                                                                                                                                                                                                                                                                                                                                                                                                                                                                                ",
"                                                                                                                                                                                                                                                                                                                                                                                                                                                                                                                                                                                                                                                                                                                                                                ",
"                                                                                                                                                                                                                                                                                                                                                                                                                                                                                                                                                                                                                                                                                                                                                                ",
"                                                                                                                                                                                                                                                                                                                                                                                                                                                                                                                                                                                                                                                                                                                                                                ",
"                                                                                                                                                                                                                                                                                                                                                                                                                                                                                                                                                                                                                                                                                                                                                                ",
"                                                                                                                                                                                                                                                                                                                                                                                                                                                                                                                                                                                                                                                                                                                                                                ",
"                                                                                                                                                                                                                                                                                                                                                                                                                                                                                                                                                                                                                                                                                                                                                                ",
"                                                                                                                                                                                                                                                                                                                                                                                                                                                                                                                                                                                                                                                                                                                                                                ",
"                                                                                                                                                                                                                                                                                                                                                                                                                                                                                                                                                                                                                                                                                                                                                                "
};
