/* XPM */
static char *_764c9d4ffc94fd5a4eade91044c5e7d[] = {
/* columns rows colors chars-per-pixel */
"64 64 12 1 ",
"  c #16110C",
". c #1E1811",
"X c #261F17",
"o c #2C251C",
"O c #52483A",
"+ c #4B4033",
"@ c #574E40",
"# c #0C0906",
"$ c #43382C",
"% c #3A3026",
"& c #332A20",
"* c #5C5345",
/* pixels */
" &oo%%%$+$o%$$$o%+$oo%XXXX&&%%&oX&....Xoo$%&$$$$$%&%&.o%o  ..   ",
".o&o&%%$+$&$+++&%+$&%$&XXo%&$+%&ooX..X$%&+$&++O$+$%%%Xo&. ..    ",
".o&$$%&$++$O@O+%%++%%$%ooo%&++$%X%$oX%$+$$%%OOOO++$$$Xo&o .  .  ",
" X&+$&%$OO$@@O+%$OO$%$+&oo$&++$%o$+%o$+++O%%OO@OO++$+&o%&.XX....",
" o&&%$$OOO+OOO@$$@O$$+$oX&+$+O+%&+O%&$OOOOO$OOOOOOO++%%$oo..... ",
".%$&$+O@@@+O@@@$+O+OOO+&&$O+OOO+%OO$%+O@@@O$O@@@OOOOO$%+&$X.... ",
".%$$$OO*@OO@*@*++$+@@OO$&$O@*@@+$*O$$+OO@@@++@@@O@OO+$$+&%.oXX..",
".%$O++O@@@@**@*+$O+@*@@+%+@***@O+@@+%+@@@**++O@@@*O+O+%$$& ..X..",
"X$%+O@****@***@+O*@O@@*O$O@****O+**O$+@*@*@$O+O@*@OOO$%%$X.X.&oX",
"o$+++$$+@*@****++@@+O**O$O@***@O+@*O+@@@@@O%++++OOOOO$%$oo...XX.",
"X+++&X&$OOO$+@*$o+*$&$@$$O&+****+**O$*$$$+$$$$$$$$$$$%%%o%&X.Xo.",
"X+OOO%O+++$&$@*@&%$%&O@o%O&%$**@O**@$@o&$O++OO++O+$++++&o$%XXXX.",
"&++O@%+$&o$o%@*@%O%&o++Xo+%O%***O**O$@&$%$$%%%%$$%%o%o%oo+$o&%..",
"oO+@*%++%%$%O**Oo%%$$@$oX$&$%**@O**O+@%+&oo&%&%%O+$o%oXoo+$X&&..",
"X$+O*%+O$$$o%O*OX&O$&$$+%$o%@**OOO@*O@$O&oX&O%$%%$%o%o&oX$%&&%X.",
"o$+@*++@O@O$@@**$@*@O@O+$OO**@@@@*@@@*%+%%$+@OOO+O+$%%$oX+$&%$&.",
"o++@*@O@@*@O@*@*@**O@@@O$*@****@@***@@%$%$O@@+%o%+OO++$&&O+$$%%o",
"&++O*@**O@$$**$O%O++*O+$%@@****@@***O@$O+++*$oX.Xo$OO++$%OO%$$$o",
"o++@*@O@@*+%$+%+&++$*+o%+**@@@*@@**@@*$O+O@OXXoXXXXOO$O+&O+%+++&",
"oOO@@@*O@*@&o&&%&%+$*+X$+******@O*****%+OO@+ .&$& .+@OO$%O+%+O+%",
"oOO*@****@@o%&%%$%%&$$$%$@**********@@%+O+@+ Xo%&X +@OO$&@@$++O$",
"&OO******@*$OO++@+$%+OO+$@***@***@**@@%+OO@& ..&.. %@O+$&@@$++O$",
"&@@@*@@**@*@**@O@*****@OO@***********@%$+O@% &%o&&.$O+$$%*@%+OO+",
"&O@@@%+*+@+O@O@O*O*+O*@++O@+%@*******@%++O@Oo.X.X X+$+++%*@$OO@+",
"&@@@Oo%@X$X$&&+&O$$%+**%+O$&+@****@@@@%++++%. ##  .%%$%$%*@+OOO$",
"o@O*$&&O&oo%$+%o%%%++@*$++$%$@**@@@@O@%++%X..  . #...&&+%*@+OO+$",
"&OO@&oo$%+$%$+%&&o&+o+*+$%%@+$**@@*@@@%$&oX..     . .oo$%@@O@+O+",
"oOOO&O$&%*$$$%+%+&%ooO*Oo&+&&+*@@@***@%&.X..# .    . . &%*@O@++$",
"&O@O$OO$+@O+@O@OO$O$%**@$+*$$@******@O%o ..&%&%&&%&%.  o$@@+O+O$",
"&OOO@@@OO@@O@O@@*O@O+@*@O@@OO*@@@O*@@O%o  .$$&%%%+%%   &%OO++++$",
"oOO$O@@OO@OO@O@**O@OO@**+@@@@**+$%+O@@%.  .XoX.XooXX   o&O@$$+O$",
"oO$%$@@O+@O@@@OO@+@@O@@@+@*@@@*+$$+@+$o. &&oo&%%o&&&&X X&OO$$O+$",
"o$$%%OO@+O@@@@+@O+@OO@@@O@*@@*OOo%$OO+X #X&%%$%&%+$%&X# oOO$&++%",
"o+&.&++O+@@+O@+@@@@@OO@O+*@@@@$$o.+@OOX # .XX...XXXX..# XO$&o%+%",
"o+%.X$OO$OOO+@OO@@O@OO@@@@@@O@+..XO*@+X.  ..XXXoXXoX.   oO$ooo+$",
"X+$. +O+$++++@@O+++++O@+OO@@OO+&.&OO@O&. .Xoo&&&&&&&&XoX%%$XX&$%",
"X++&o$++$$$+++O++O+$+O@$+O@O++++%$OO++$&&&&%$++++++++$$$+&$.#o&%",
".&%oX&&&&&&%%o%%&&%%&%%&%$%&%%%%oo&&&o&&oooo%$%&%%&&%&o&%XX. .oo",
".ooXXoXooXooooooooooooooooXooooo..XXo&&oXooo%%&%%&o&&ooooo.   XX",
" ooXXX%oXXoooo&&oooooooooooooXoXXoo%XoooXooo%&&%&&&&&o&ooo.###X.",
" XX...$&XX&o&%%%%&&%&&%%&%&%&oo&&&&+..XoXXXXXooXooXXooXXX.. # ..",
" ooXX.&X.X&%%%&&&&%%%%&&%%&&&&&ooXX&.oooX&&oo%&o&&oooooooXX.# oX",
".oo...o...XXXXooooooooooooXXXXoXX..o.Xooo&&ooooXoXXXoXXooXX. .X.",
" Xo.. .  ## .XoooX&o&oooooXooXX... . .oooXoXoXXXXXXXoXXX.XX.....",
"#XX  o&   # .XXXXXoXXXXXXXXXX.X.   &o.XXXXX.X### ###  #...X.  ..",
" XX..+%# .XXooXooXooooooXXX.X ....#%+XXXX&o.X  #     ##XXXX...X.",
" XX.   # ...XXXXX...XXX...X..   ..    ooXooXX          XXXo...X.",
"#...   ###       ##       #########.  XXXooXX      #   X.XX.....",
"#..  ..#  ..XXXXX.X...XooXXXX  .. #.. .X.XX.. #        .. ..  . ",
" ..  X.oXo%%$$$$$%&X.o&$$$$%o..X&%o.X.XXXXX.X #      ##...X.....",
"#.   X.XXXoo&&oooooX.oXo&o&oX.X.XoX.X....XX.X     #  # . .. ....",
"#    ###### #       #      #####  ### . ... . #      ##  ..   . ",
"#  ##################################       .##   #  ##         ",
"#      ############################.  ....       . ..     .  .  ",
"#  ## .############################.        ######## ###   ##   ",
"#####  ############################ ###### .X ##################",
"### #  ####### ######   ########### ##  ..o&&..$o               ",
"#   .      .    .   .... ..    ...  ....ooo&o.X%..&o...X&&X. .. ",
" .. ......  ##   .XXXXooXoX  # ..XXXX..   .X.....oXX.o&&%$$o .. ",
" XX.. .. . ####  .XXXX&o&&oXX.X&&oXX.  #### XooXXXXXXo%$$%X ..X.",
"#..XXX.XX. .  . .Xoooo&&&&oo%&&XooXXXo. .  ..XXXo&oXoXXoo.... ..",
" .XXo&&X.XXXX%XXoXXXo&$&&%oo%o&%&%ooXX&&oo.XoooooXoX.XXX.XX.....",
"#...XXXooooo%%oo&o%oo%%&&%%%%%&&oX&%%%%&&%&o%%ooo&oooo&oX..XXXX.",
"#...  .XXX.XoX XXX..XXXXooXXoXX...XXoXoo.XooXoX..XX.oX. X. .XXX "
};
