/* XPM */
static char *_63cffb786034beca83ea772f2bae854pV4H4K9wl1Lf3Jzd[] = {
/* columns rows colors chars-per-pixel */
"64 67 75 1 ",
"  c #201F1F",
". c #1D1D1D",
"X c #131014",
"o c #2B201C",
"O c #2D231E",
"+ c #2D2621",
"@ c #232120",
"# c #473021",
"$ c #452C1E",
"% c #181416",
"& c #31241E",
"* c #3D2B1F",
"= c #0E0D12",
"- c #3A302A",
"; c #35261F",
": c #372921",
"> c #322922",
", c #282420",
"< c #423026",
"1 c #1A1719",
"2 c #322018",
"3 c #3D2D25",
"4 c #41342B",
"5 c #362C26",
"6 c #472818",
"7 c #44372E",
"8 c #36241B",
"9 c #241A19",
"0 c #211816",
"q c #4F311F",
"w c #241F1D",
"e c #2A1D18",
"r c #1C1A1B",
"t c #3B352F",
"y c #3E281C",
"u c #3F2E1F",
"i c #4D3526",
"p c #3F2416",
"a c #5D361F",
"s c #413E38",
"d c #4B3B2F",
"f c #65371C",
"g c #4C2B1A",
"h c #463328",
"j c #553421",
"k c #3E3A34",
"l c #703B1D",
"z c #514236",
"x c #5B311A",
"c c #7A3D1B",
"v c #483F35",
"b c #5A4738",
"n c #563A28",
"m c #532D18",
"M c #5E3C27",
"N c #663C23",
"B c #68503A",
"V c #6C462B",
"C c #794526",
"Z c #88421B",
"A c #74573C",
"S c #85603C",
"D c #E24D06",
"F c #B63F09",
"G c #C94007",
"H c #98481C",
"J c #F66608",
"K c #9E3A0C",
"L c #9A6733",
"P c #F2B52F",
"I c #AE804A",
"U c #FDF190",
"Y c #C85E10",
"T c #FCD738",
"R c #FC9E17",
/* pixels */
"5tt8ppy*$$hkssshgdvzvzzzzzbbbbbbbbMMNfMbbzzzzvvvigg#77#66ppp2-t-",
"><-88y-kk7q#dvvqjzzzMMbbbVVCVVVVVVVVVllbbNMNMdzdv7vss7#<<6yy2-45",
"&&>;-4tkk4h#hddjnnnMNNVNVVCZZCCCCCCCCCCVVlNNMnnddddsk7444<<-5>;;",
"88:o9oO99oe92oee8ee682662pgpppypg6pmpppmpy62288e2e99e99o999295;p",
"663oeO1=X9;&eXXX288p0%egpmp9e9002xxp000pax2%%0y$2X==%&;9===0e-$6",
"66<w-O==%%:<0X1X0qje0e02lx2e82eepclpe826lf20e9qM8XXX%331X==1&3g6",
"$6hO9;eX12;op019$#$g2O8xgamy**ypcxglg8mc6mf2&xx;$8%9899&0X%&9-#g",
"4<79=%oo;&rrop&#y:26x$fq8ymgy*acfuuqlflg:;gxxx2o9$yyO%r9OoO%X-4<",
"77v0==X77%.rw;jiOu&oacauuu$xqymx6$$ufHl*u*8fl2O&w:Mh.%X1>49=X34k",
"47v0==o:&ew@+#ga*u8yfll###acxZFYYFKxcflxuuam6m&+:i*#*1.&3wO%Xhhu",
"p4keX9&1%2;o#$02mqyx#*fl#fZxZGGFGFFKmhjcaff;&6myq*@w$8;39%1&9476",
"6qdo5;Xr1r$n*O09yNf$uu#lZHf$KDDDDGFFmi#aZc$*:;qf$,,@,dz,%%X12iv7",
"mmi&-;% 1.#n8OO+$lC$uuuaHZq$KDJJJDGGgiqcccju*$faj&@@3h75r11o2ji7",
"$ido%2:@w$;O$*+#laqfj<jcacl$FJJRPJDF6#fc#qcjqlq:#jO:iw.<;r<&%qg4",
"4kM0=X2*<*,,Og#a$#;gcNca#qlmKJRTTPDF6cl##ujcCa:>>#niw...3i3r%j77",
"p7n0==Xid,+,,*Nq&u88lHf#i#qmKDPUUTDF6cl###jZHa::>uMiw.. 4b5.%nd$",
"6#n0=X&;&*++*j$a$*86llZaiicfFJRUUPDGgjccijcajcq>$j:*iw.h3,<O%nd6",
"6mae%eow12*3j$>uxq$x#ulZfcZxFDJPPYDGmjjclcau*#fjx;,,hh<<@.r29Mvg",
"#mN23;X11r$b*+>:*Cf8u<#lHZaycDFLLKGKpiifHZ#u*>jC#,+,+Mz,..X18nd6",
"46a2O;1rreyi#+>5jCN$u#hfHcqyVZfNVxxf$#aZlcf*:qaga$++ih3h@r1&eqd3",
"khae=08Oo6&,qq:#aq#lj#acjafpVLIIIISVygcf##faqa*+$auq<@@3yw80Xjv4",
"-<a0=X9##&+,+qMn8u;gZllq##q2jBALLSCM8mx#uu*lZ#>>>uM#    3io1Xnd#",
"k4M0=X0#i++++*Nio*8&lZxu##ue8MMBANM$egm$u*qcla:>>j$#+. @3#3.%aip",
"khf0=%8+:$>+uq:q6y&gajcquuxm228yyp22p$mf$qliufj:q$@O$ow3>,<:0Mqp",
"46xe08e .2#hq;++$Mjj*uacqfcq*p6*66ypmgumllq*5*fN$,@wO$q;@@@:yMdy",
"4mfe3;r@.r#b&@++oaM:*uufZZj##*6g6yy*xc#*aq*:>+ga*@@w@<qO   9ynvt",
"4ml8o:O@.o*3#>+>$majuuulZcq<uuxxmuu#jannniihh<#<i<-54<35>>+r0nv4",
"-gfe=9u+&8ww3i:iq:;fa*al#jc#ufj$ff#jaVLSSAAAABBBABBBBBzzzzzv9ndy",
"-6f9=%@<<r@,+<Nq+>O:NfNu::jfNfuuqclfqSVLB:MSA<uASd<ASb>zB4o75dzg",
"k$f0=Xw<<9@@,#Mn++woqlj>:::NZ#uu*MHa*SVCu;in#&*nn:3dd5+47+ot-dzq",
"k<j0=%&wOy,r&*+uyw12q*Nq>:jaaNu5#lqaqSihi*<hz77757547-7t-7+t-7v6",
"ski2920w;yq#$>++y$$$+,:N#aa::alqf#>*#AiASbBAAzAzzbvvAzBkbBz7-dv$",
"sdne<&X@,,iV5@@@,jV:,,,*CC:>>:aCq>>>>BhBSASAB4Adb5O+b7B-zvb7tvvh",
"7$N8ey9 @3$*#O w*##h+,+iMN#>>*qNa:>++b<BA7AAz3B4z4t+b7b5bzbt-vd3",
"k7Me=9<>-<w.&iOo;r1qi>nj+*Mu:ayOqM+$#b-vz:dz->bz-z-Ok-bbzBt--sv7",
"kvb9=Xo#i1. .;n*.. @#Vn+,,:nN$oO,#Nj:b4>O++++-d>o34+O5d-+--t-kvk",
"k7z9=X+hi9...*ni,. @<Mi,@@>jNy2O,#Cj;z737BdOdAB:4SB57AB55Bz-5ts<",
"svv0=03@Oi>.:<,*n+.<3w#h@,#;&a62ua:#$7v-zz5>dd55db4-zb->7->-wtv#",
"sddee;1.roh7d, @-Mi* . $##& @:xmj>,,:O-ttt------tkkttttt---w%tvq",
"k#i0y2=.11#M5   +bnw...wnq  @@gfy@@@+&r1111 r1111+,r111.+r%X%t76",
"4gjeX20r1O<;i+ ,d4;<,. ;O$u  &x6j:@+n#%%%%e>2111w+@:1Xr:+3OX%<m6",
"<6j0=XeOO&@ &$><3 r:#O&,.@#$&mge;j&$h&2%%ee1e8reo1%;:98, r5Oehq6",
"t*#%==1<<  rrOz<..r1;i&   @y$6p2wOgy..888or11:d3%%X=>d9X%X%733gy",
"kt4%=X+5*>.%r:3yw.19>:i+  O8O2p2eo8o..waao..whd8r110:-Or1ro3o:g$",
"kkheXw:@w3>w35.o*w9y, ;i++*,@o222o. wwy::y@.;:.O-@@<+@--.+4%X4g6",
"k7do:+1.115h5@ .O<*o...>i#+  op2o   w8:@.oo&&...+4-+  @-4:1=Xthy",
"s7i2;O%11r-h-@  ,77@...+73,  opp:@@@@+   rOh+.  +z4    5n;%=Xtk4",
"ssie%O+1r&>O75 ,<>+3, +-@+<@.222#3@,><,..OO>4w ,3>5<, ;3O:O=Xtsk",
"kk$%=Xo;8O  @-5<+.r&<5t,..&*,o22,:>->:3 +:w.O;+3+ @;<>yrr >w9tss",
"k76%==%$<   .,d3r.r.3b5  ..$3w22@@h-@.,4t   .+d>    -do.1%%45tss",
"s7$%=X>>:-@.,<+:+.r+4-d+ .>5>yoo,:&5> 53:@  +h*<@  +3&>.XX>+okdk",
"sh$eXoO.1:5,<+.@4>o<+ 5<@+5@ ::;3O. O:- o;@,7-@:*@,<@re:1o>%X-7s",
"7g$o5O=1%X:7>  @+h#o.r.Oh4,@@@t7+...wO   +3<>@@ &33,  1&3wrX%3#s",
"s$62&+%X=%-4-@  +44+...;h7+@@+775@..+w.  ,3h,   ><#, @ ;-+%=X3#7",
"7g60=9oX%+w.-3@Oyw.5+.+;@+<+,<+@+: ww8@ ,3+54@.O7,8y,@&+@Oe=X36<",
"7q$1==0+5o.@@:hhwr1rh<:@ @;i4+.  +3>@O;,-+ .>5+-,..;45&@ 1e9956<",
"4$31XX1<<%r@ ,i-..r1-n:@@ ,hh,...+35,@&$3   .&i>.  @-t@@rX%2o3*h",
"6g<%=1:O&;. ,:0:- rO-+i-@@3++-o.w>,,O,3;8@  +;3h,  Oo,5 %Xo90-k<",
"6g<9X&or.&8e801.4t5h,@+d5-;..,<;O @@@&O w;w,4, 5< oO roorooXX-7#",
"h$-9;oX=XX8h0%r%1<io @.rh-r1.1:i+rrrwo1r1w;<+@ .&:o rX=0&9=X%-##",
"7*-eO8X==1;5+X=X **2%%Xo;39=Xw>wO0XX&9=X=1y$rr..o:+.1XX9&w==%-46",
"yyt9X0e=%>0X,oX0:1X22=9eX12%9:0X12%%o9X=%or9e%%o91rw%X99X00=X5*p",
"p640==%O;9XX%o5&%XXXe:eXX%0:3eXXX%Oo%9o0o%XX0eOo%XX0OoeXX%ee9>pp",
"&&>oeoo&&oO&&&5;O&OoO:&O+;;33&OOOO&&&;33:oooo;:&&&&O+:&&OOO&o+88",
"5-5;#773y#id7<hdddvsssvvvvssvsssssssszdvvsssssss74kkkssv777<:5tt",
"-4*2p#g66ggmg$###hkksskh64kkktkkkst74#g6#k77kkk#$3--4##$$$<*&&3:",
"5>>oopppp8:y3tttttttttt-:-ttttttkt-*ppp:yy*$t-5yp85:*ypppp3+wO&&"
};
