/* XPM */
static char *_bbeb190e9834fb3f7810cb2acdf8d2b43YIFBu7gsd2Zb42[] = {
/* columns rows colors chars-per-pixel */
"64 66 21 1 ",
"  c #6D6357",
". c #64594E",
"X c #6F6558",
"o c #685D52",
"O c #6B6155",
"+ c #61554B",
"@ c #453E36",
"# c #5D4F46",
"$ c #72685B",
"% c #3D3730",
"& c #390807",
"* c #5A4840",
"= c #42100E",
"- c #594139",
"; c #4B2723",
": c #461C19",
"> c #51312C",
", c #2C0709",
"< c #553933",
"1 c #332F2A",
"2 c #766D5F",
/* pixels */
"2$oooo$2222222222222X@%@@@@@@@@%.2222222222 *,,,,,,,,,,,,%222222",
"Oo+###+.+.o..oOOO.OoX*%@%@%1%@@%...ooXX.Oo  o@%%11%%@%11.oo ...+",
" XO.+#+oooO.+.+oO.o..%1%@%%%%@%@.+.oOX .X    .@%%@@%%11@XXO.++++",
"OOOoo#.  +++.#+ O.Ooo.%%@@@%%%%@ooOo OOoXXXXXXO%1%%@o.11oXOo.+++",
"o.+oo+OX.. o+#O O+ooO$*%@@@%@%%@ +oOOOXXXXXXXOO#@.oXO @%o OX$.++",
"O..o.O  ..o OOOX +.o 2$%@@%%1%%#2.o XXXXXXXXX o.Xo.... oo XXX.++",
" oOo.OoO..O XoOX o O $2%@%%%1%1@$+.oXXOoooO XO+.O.......Oo   O..",
"O+ ooooOOOXXX  XXOXX $$%%%@%11%*++.#..+o..o  .+.o.....oooOo  +..",
"O--oO#<oOOOXXXXXX XX  $@1@@%%@OO*.X .O XXXX .+..o..o....oX XXo.+",
"X*:<OO*OO#<XXXXX OXXX  #1%%%%+$$X   X. XXXX.# X+......++ XOO$O..",
"X.*>+X  +*<X OO  O XX OO+@%@oXXXoXXXXOXXXX...OX..o.#..+oXXOOXXO.",
"Xooo+o.#+.oXO<;#  XXXXo $X@     O$XXXXXXXXOoo. .OO..++ooXXXX  O.",
" O.*+O+:;oXo*:&>  X XX X$X*O    XXXXXXXXXXX ooO.oo..++#.o$XOOooO",
"O.o.-.o;=<.<<<><    .+OO$$.X O XXXXXoXXXXXX OOO.....o##++ XOOX  ",
"@#O o+.#==>:=>o#Xo.*;>oOX.XXX$XXXXXX XXXXXXXo.#....$o#+.oXXo XXX",
"11#X.;;<&====:#o#;-.+o OXoXXXXXXXXXXXXXXX.#Xo>:#+.X$o..o$$$XXXXX",
"%%*O.;=&,&===><>#.OX  XX..   O XXXXXXXXXX-:+O;&#>>XXOoo .X XXXXX",
"@%*+-*:&,&&&;#># XXXXXX #+ X$  XXX$$XXXXX-&*$>:+:: X o.X O O XXX",
"@@%+#o*==&,&:;&>o  XXX +o+ $XoOXX$OOXXXX +=*X;>o:<  Oo.22XOXXXXX",
"@@1.X -==&,,&&&&+ X<>o++O oXX  XO.OXX    o:>o:<O:*o<*oO22$ $XXXX",
"@%@O.*.<=&&&=>=<.OX-&<o.o$o XX   o OoOX  O>;O>-+;.#&<  22$XXXXXX",
"@%#X oX*=&:==->..<+.:;o..OO$X  X o+->+.   +-.*.-> <:+  X2$$XXXXX",
"@%O X O-&,>-&>#+O-+ #;+.OO OXO XX.-=;*:#  #:::><++=<XX $$$$ XXXX",
"@%   O#*:,**;>##oX +.*+O oOO XXXX+;&*+=>O -&&&&=-<:-$XXXX2OoXXXX",
"@%OO #<O;&-*<o-o + ;-OO +;o o#o  <=>OO;;o #:=:&&=;**$XXX o XXXX$",
"11OoO>*.:;#-;O<> X >:o o<:o -=# .:;OX >#+.>;>>;&&:.oXXXXX XX  O*",
"11@oO-O+:<++*O*:-XX-:+X.-*OO#-.O*>+X X#o>;==<#;&&;O   O XXXXXO#1",
"1%1*X X+:<+X  O-;. o:<X +OO o..#>.o+o   >&&&:-:&&-    .oXXX$.@1%",
"1@@%%# +;<+$+O O+o X>>XXo#oX+##*#O+#o   *=&&&=&&=#X  .o X O$%1%@",
"%@@@1@O.*#oX-o OO.o -:+ o#---.++.#<o #. o:=&&&&&> XXo::+ooo+%@@@",
"@@@@%% +-O X* Xo o>#.=>Oo;&&=-O+#<*O*<oX.<>=;;==#XXX -==:>#1%@@@",
"@@@@%1*oo*+ XX .oX+oO;=>*==--*+>>-oo*o..O.*>--*>+XX Oo>&&:.1%@@@",
"%@@@%%#  <#XXX ++#.+o#=:;==<#->=:-  o<;+O$*-.-.+o +o.*:&&:-#@@@@",
"@@@%@%@$o<*$.>-+.#.>*.:=====::&&=#.-><*+.$** .O*+ #+.#=&=:#*1@@@",
"@@@@@@o$.#o .;=:-O .<>:&=&===&&&<-:=-o+oXX##X  -#Xo+++<<+-X#1@%%",
"%@@@@O$o#-+OOo*>>-o+;==&&====&,:;=;-.+-O X+.OOX*+Xo++.*>#@+#%%%@",
"%@@1++oo.#. O+Oo;<.>==&=&&==&,,=;>#..*oo+X    X-#$ ++.<;#$. .@1%",
"%%%1.#oX$*+X .OO#o-==&,,&,==&,>><++#..O  XXXXXX+oXO+++*+#2oo2$@%",
"%@%1o+oOXo X#*OXX*;=&&,=,,&&&:<=&<**.X    X XXX X$ .+#+.#O$*O2.%",
"11@#.#.oOXXo;;Oo+>;::=::&,,,&==&&=:<-+O    XoO$o- O.+o+#+.$+.2.%",
"#.O.+.#+. XXOOO.+>=:#:&,,,,,,&==:+<&&=<O  X+;-$-=+Xo+##++.$X.#@%",
"XX..++O.+OOXXX  o<==>;&,&,,,,:=-.o.;==-OXXX*&<X>;O-#.#+++X$$2%%@",
"OO...#.OoX$$XXo+O.#;=&,,&=&,:*:;*o#...O  X -=*#=<+=-.++++X$$2@%@",
" Oo...o.X$X$X#>*o+ +;&,,=<:&;;=&:+#.oOXX X >:o-=+-:+.++.o$$$2%%@",
"X o...OoX$XO*;<.-* o>&,,;;=&&==>-+oooo+O   <: <;.:;O+++.$$$$ %%@",
"OOO....+ $.+#++-#oO*:&&&&==;=>>--*ooo.;<O O*>X--#:-o>>+o$$$2*1%@",
"OO Oo.++X ##..*-oo*:<>&&=*;>;>***;#.oO;:oXO<:*oO-;o#=;+.X$$2#1%@",
"XXXOo++O$X o+oooo-:;+;&&>O-<-;**o<:<OX>:oX ;&=;<<*o>:*++o$$$*%@@",
"$$O++++o$$$.#.OO+::*->=,-X-#-;*- .>>o #;oX+>==&=:*<:>.+++O$ %@@@",
"$$ *#+#.$$ <.$o##***>+;:oX-O+-*- .ooXO.<*.<>>;&&=:;--.++OX$+1@@@",
"+o -#.## X--$Oo*+O.<>.;;OO-oOo**XOOX$ .-:;:;--:=&=<o#.++.OO@%@@@",
";>.>.o+#o-:<*#O O *=- <;OO*.OO*> $O O .#==&=<<:=&:.XO.+++o$%%%@@",
"<;#<O++o*:<;<X$OX.#<+o<;oo-.o#**XXO$o ++;&&=:;=&=>X$X+++.o2*1%@@",
"o *>.+*#;<>* XO+ o..OO<;X#:+oo.+OoX$$ ++*=&===&&>-X$X.++..O#1%@@",
">.-;+.*:;-#O$OO o.oo$ <<$#&<o o.oo$$$ +++>::=&&=+  X$o++++OO%@@%",
";-::#<:&=#$X$Xo#<.ooOO<*$#:oX ##.+X O ..+<-#-:&;o$OoX.#+++oo1@-@",
"#;==:&&=-  XX#;*.o.OOX<>Xo+$XX+#o.X   ..#<+.O><<X $o+#+++.o#1%@@",
";&&&&&&=-.+->:- .++oX ;; OXXX.O oO$OOO+++-+OX*+-$oo  ++++.+%1@@@",
"=&,,&&&==>;=;#+-+ooOXo=;....o+O$XX$XXo+++#*o$2.*$X++X+##+#11@@@@",
"&&,,,,&&&=&:+ $XX2$ $o<-.....o2XOX$XOO++++*oO2-+$$O###.+#+1%@@@@",
"&&&&,&,,&=;*o . O$$X$$o+....Oo+%@X$XX ++...o $#O .#+o $ #@%@%%@@",
";&&,&&&,=<oXXO..oOO$$$O...o.@1%%%*22$ ..OOo $OX$$XooX$$ #1%@@@@@",
":==&&&&&=*$o<<#+ Oo$$$Oo.o#11@@@@%@o$X$$XO.*+XX$$$XX$$ o#%@@@@*@",
"=;;==&&,:;.*;*o.o.+oX$oOO#1%@-@@-@%%@##*%@%1%%%+$$$$oo..#@@@@*-@",
">*>&&&&;*<-+ X$ o.+o$o.o@%%@@@-@@@%%1111%@@%@%%@+.+O+#oo*%@****@",
"#*;,,&=-*:&=#O O..+ *111%@@-@*@@@@@@@@@@%@@@@@@%%*@+#+#@%%*****@"
};
