/* XPM */
static char *_8275c55fa2e4d12a2f7a0dc05b9a5a5[] = {
/* columns rows colors chars-per-pixel */
"64 64 101 2 ",
"   c #050403",
".  c #0B0604",
"X  c #0C0906",
"o  c #0E0C09",
"O  c #120603",
"+  c #130A06",
"@  c #1A0B06",
"#  c #120E0A",
"$  c #1A0E09",
"%  c #15120D",
"&  c #1A130D",
"*  c #161511",
"=  c #1B1611",
"-  c #1D1A14",
";  c #1E1D19",
":  c #220F09",
">  c #23150E",
",  c #221711",
"<  c #291710",
"1  c #221C15",
"2  c #2B1E15",
"3  c #221E19",
"4  c #291F18",
"5  c #341F17",
"6  c #232017",
"7  c #272017",
"8  c #242019",
"9  c #272018",
"0  c #25221B",
"q  c #2B221A",
"w  c #2B231B",
"e  c #2B241B",
"r  c #2F251B",
"t  c #28231C",
"y  c #2B251C",
"u  c #2B251E",
"i  c #2F271D",
"p  c #27281E",
"a  c #2B291F",
"s  c #2F281F",
"d  c #32251C",
"f  c #30271D",
"g  c #3A261D",
"h  c #31291F",
"j  c #332A1F",
"k  c #3A281F",
"l  c #262420",
"z  c #2A2620",
"x  c #2D2720",
"c  c #2D2922",
"v  c #2F2A22",
"b  c #302920",
"n  c #312B23",
"m  c #332C23",
"M  c #342C21",
"N  c #342C23",
"B  c #352D23",
"V  c #372E23",
"C  c #362F24",
"Z  c #3A2E23",
"A  c #382F25",
"S  c #322E28",
"D  c #363026",
"F  c #383026",
"G  c #3A3126",
"H  c #3B3227",
"J  c #3C3328",
"K  c #3D3429",
"L  c #3E3528",
"P  c #402C22",
"I  c #423226",
"U  c #41372A",
"Y  c #41362B",
"T  c #48372C",
"R  c #43392C",
"E  c #433A2E",
"W  c #493B2E",
"Q  c #463D31",
"!  c #493E32",
"~  c #4C4235",
"^  c #4F4538",
"/  c #514435",
"(  c #514639",
")  c #544A3C",
"_  c #5A4D3D",
"`  c #5A4F40",
"'  c #5C5243",
"]  c #615444",
"[  c #6F5F4C",
"{  c #6F6454",
"}  c #736553",
"|  c #756C5D",
" . c #7D7260",
".. c #85735E",
"X. c #837867",
"o. c #8A7B66",
"O. c #847C6E",
"+. c #868178",
"@. c #948977",
"#. c #979183",
"$. c #ADA9A0",
/* pixels */
"o = & & 7 & % 1 1 & 1 w 1 w i 9 y s w y i w i 9 w C 1 y b i B h B B b b h i b y h b s b h b b i 1 & w w & = h i h 1 = w & & & % ",
"X & % & 1 = % 1 1 = 9 w w h B i i s 1 y i i h w w G 9 b G A G G R U b b B b A i m b y h b B B B w = i r & = B h B 1 1 = # % & % ",
". # # = 1 1 = 1 9 1 w y 9 e y i i B i b b i i w i C 3 b G K J B G G b s b b B b i h i b b G B C w = r w = = h i i 7 w = 1 # % # ",
". % & = 1 1 = w e 9 1 = = 1 1 3 3 9 9 9 9 3 1 - 1 9 3 3 1 1 1 1 3 9 1 1 9 9 3 1 = - - 9 3 9 1 1 = = 1 1 1 * - * & 1 h w h 1 & & ",
". % & 1 i 9 = 1 i w = y c t y b c c c b b b b b i i i i h i i r i b f w b c h i 9 w i c y i i i y x c b C 9 3 9 y * e h B = % % ",
". % & & w 9 1 i B i 1 b % % % % % % % & * % % % & & & & & = & & & 1 1 & & % = & % % % % % % * % # o # % # # % % b * 1 s i & 1 1 ",
"o & & % = = 1 i y w = y % 9 i B b b b b m w C c i B b r 1 1 9 1 1 1 w f B B B G G B w G C G G B 1 # = 1 * % w * y = = w & 1 1 1 ",
"o > & & w w = y G b = 9 * G K ! ! Q R U R C ~ ~ R J G 1 B G ~ U T h 1 h R ! U W / ! G ~ ! ~ ! R w 1 B h 9 1 C = 9 * 1 B 7 B 1 2 ",
"o % & i w B 1 C R G - x - R U C Q ~ Q K ! U ^ ^ R R r w [ { @.| X.] U 1 R ~ W ! ~ Q K ~ R ~ ~ C 1 1 1 r C 9 G = y * y R m C w = ",
"o & w B b B w K R J - y 1 R R K ! ~ ~ Q ~ ! ! ~ R ~ e A ..O.$.+.#. .] 1 W / W ~ R ! B ! K K b = 1 1 1 i y i K 1 y * c R B G i i ",
"o , 1 h G J i J R C - y - R ~ U ( ) / / ~ / R ! ! / B h ] } @.| o.} ! w / ~ ! R ~ ~ R ~ ! ~ K 2 2 1 D U G y J 3 y = i U i K B i ",
"o & % 1 w w - i b 1 1 x 1 ~ ( R ( ) ~ ~ ~ ~ R R R ~ T r w h U B R B 1 B ~ ~ R W ) ^ R ( ( ^ ^ f 2 r Q R R J G * 9 % s ~ K K G b ",
"= b b b C b c x c 9 b - 1 ( ( ~ ) ( ~ ~ ! ! ~ / R ~ / I B h B h I B G ~ ~ ~ U ~ ^ ~ ! ) ) ( ( G 1 U ^ Q R K Q - y * b Q K K C w ",
"X % % % * * = = * % * % b ( ) ^ ^ ^ J C b b m C C B B B I G I I U K h B h h b C C C D D K ~ ( K r ^ ) ! K C ! y c 1 D ~ J G C B ",
". # # 1 = 1 1 9 1 * 9 G R ( ) ) ! R y z c z t t t i b b B b f w B B i w w y y y 9 y y y i ~ Q w 1 K ^ ) Q K ~ y x 1 C Q b C R G ",
"o & = J C C i K R C K ( ~ ~ ~ ^ / R t z - * * * % % * * * * * * * * & % % * * % % * ; t y ~ B & 1 J ~ ) ) ~ ^ 3 9 = G ~ J R Q K ",
"# 2 & 9 C b i R ~ ~ ~ R ~ ! ( ) ) Q y c o     . o . . o o o o o o o o o o o X X X . % t 3 ~ R 1 R ( ~ ^ ( ~ ^ 9 t * J ) ! Q R G ",
"# 2 & * i J C ~ ~ ( ^ ! ~ Q ( ` ) R t c % o . # & & % * - - ; 3 * = % % - = & % # # * z i ! B 1 ~ ' ` ) ~ ^ ( t c 1 K ( R ~ ! K ",
"# & = C J R K ^ ~ ~ ^ ) ) ~ ~ ) ` ~ t y % # # * - = - t 3 t t z 1 9 & * 9 3 = = & * * y y ~ J J ~ ' ` ) ) ) ) x y = K ) ~ R R R ",
"  # y b B A B R R U J R R U G R ! ~ y c % # % 1 t - 3 t t x y i 1 t & = t - & & * * * y i ^ K U ^ ' ' ' _ ` ) y t - K ) ~ Q R R ",
"% 9 K h 4 2 5 g g g g g g g g d G Q z b * % & - t 3 t z 9 c c B 3 1 $ = 1 1 & = - = ; z y ~ R J ) ' ] ' _ ) ) c y 1 C ~ ~ ~ R U ",
"- b R b 1 g g W I I I Z I W U 2 G ~ 9 c * * * 3 t ; 9 c c C c y t , , 1 - 9 = & 3 = - z y ^ Q ! ( ] ] ' ` ) ) c 3 * G ( ) R R K ",
"* C ! C w k g I Z g g g I I I f J Q t c * * - 0 t - 3 B c x c 9 t 3 2 1 = ; 1 3 3 = 3 c t ( Q R ) ' ' ' ' ' ) 9 9 * i ^ ~ R ^ Q ",
"* C K C w g g Z Z g k k P k g k G Q 9 c * * - 0 z 3 - %   .   . . X   + * 3 1 1 t = - z y ) Q J ~ ' ' ' ' ) K 1 - * 3 K ^ Q ( ! ",
"* K R C G K R ! ~ R ! ! ! R Q W G Q t c = ; 3 t z t y =   .   o   o   & 9 t 3 1 l ; - z i ) U m ~ _ ' ' ' Q y c c z z y ~ ^ ) ~ ",
"1 Q K G K C G J J C J R J J K ! C R t c * = t t l y z =   # . +   #   - y y 3 9 l - - z i ~ ~ b R ( ' ' _ J t t 3 ; t 3 ~ ( ( ~ ",
"1 R R C G ! ( _ ' _ ) ) _ _ / W G R 9 c * ; t t l t 3 = o & # % o & . = t y y 3 9 = - c y ~ ~ C A ~ ' ` _ J t t C x ; 3 Q ( ) ~ ",
"3 R J b R / ( ' ^ ' _ ! ` ] _ ! G Q t l * = t 3 3 9 3 * o # # % + # . & 3 z z 3 3 = = z y ~ ~ w f I ) ` ` K 3 ; w 1 = 3 Q ( ( ^ ",
"1 R J B R / _ _ K _ ( Q ~ ) _ ~ G ! t z * - 3 ; y 9 - %   o   .   #   % t l 0 - 3 = = l y ! R 2 f I ) _ ) C - - 1 = = - R ( _ ^ ",
"9 Q R G J W ) ^ 9 J U c J ] _ ) J Q t c * = 3 = y 9 9 *   #   + . &   # 3 y t ; t ; ; z i R R f g T ! ^ ~ b ; - - - = 1 Q / ^ Q ",
"3 ~ K C G / ~ i - c R 1 y Q _ ~ G ! t c * = ; % 0 0 ; %   + . +   o   % - 0 t 3 9 = ; z x R I > : Z R ~ ~ G 3 9 - * - - G ~ ! R ",
"3 Q R U U W G W C U U G ! R / ^ K ~ 9 z * = 0 = 3 - * 3 3 1 w > , & , = & 3 y 9 ; * 3 z y K f > $ 2 Q ) ' K - - - - = = R K R R ",
"9 ~ Q U G W W ~ G w 1 A ) / / / J R 9 c * * - - t t * % % % # + # + + o * t t 3 3 * = z t ! f : : f ! ~ ^ R 1 o o X % y ! R K U ",
"3 ~ Q D B W ~ ! ! y 1 G W I / W K R t c * * - ; t c 3 * * * # + # O # # 3 t 3 t 3 * = y 9 G i + $ I ( ( ) Q C & = % 1 b R R R G ",
"9 U R J B I W R K U U f G I T U J ~ 9 z % * 0 3 3 t 9 - t t - & 1 $ 1 1 3 t 3 t 3 % * y y K 2 : > g U ) ~ K R t 3 % i K R B G A ",
"1 R K C w B G K R R I B Z I G f G Q 9 y % = 3 3 0 t ; - t z 3 = 9 & 3 = 1 t 3 t 3 * = y 9 K f 2 2 I ! ~ ) ( ) y 1 & B K B R R K ",
"3 R K Q h i i i C B b b A B B i R R 3 z * = * = 9 - - 3 t z 3 = 9 & 3 1 , 1 3 0 9 * * t t K g k f A ~ ^ ) ^ ~ y y * c K B R K K ",
"- J C B B A J R ) ~ Q ~ ^ U Q K Q B 3 c * * - & 3 3 3 0 l y 3 = t & 1 3 = = 3 3 t * * z t K Z k f J ~ ~ ( ) ~ y t * m G G K R R ",
"* b G b f B w f R K U K ~ K G U K m 9 c * * t b 9 3 - t t y t ; t = 1 1 & $ 4 4 3 * = c 3 h g B B G R Q Q R R 1 t * s B B G K G ",
"% s c 9 , 1 1 1 m c c a D c y c m y - z % % t i - - ; 3 ; 3 ; 3 9 1 - $ O + , 1 * % - z - 9 w e w m c a c a y - y * ; a s y c y ",
"% y 1 6 , & = 1 9 y y y c y 0 y y 9 * 3 % % 3 1 3 t y S S c c c b w w & , = & 1 % % = t 3 0 9 9 3 9 y c c c 0 * y * = 0 0 s s 0 ",
"% 9 1 1 1 + & 1 1 y y y y y 9 y y ; * 9 % o % & y t t c x c c x x 1 1 1 1 > $ & # # * 9 ; 0 1 3 1 0 y y c p 9 % 9 % = y 0 e 0 0 ",
"# 6 1 & $ @ @ $ 1 9 9 ; y 9 = 9 y ; * t % % # o X o o o o o o o o o o .     o + o % * 9 * 1 1 = 1 a a 1 9 9 = % y % % 1 6 - 7 6 ",
"% 9 6 * + @ @ 1 y y y y a y y c c 9 - 9 # % * & # % * * * * * = % % #   + o & & % % * ; ; a a 7 1 c c c c y 9 * 9 % = 9 9 9 9 9 ",
"% 9 ; * + . + 7 a 1 1 1 9 p y a y 1 * l * % o o % 3 - 9 t l l 0 1 , - + & # # + % * * 3 = p a 9 = y y a a p 0 % 9 % = 6 6 - - 6 ",
"o ; ; * & + % = 9 1 = 1 1 9 1 0 9 1 * t * * % # = 9 3 t 0 t l t t = $ + & & * # = * * ; * 9 y 1 > 0 9 ; 9 9 ; % t % * - ; 6 ; = ",
"# ; ; & 1 $ & * 1 1 % $ 1 3 1 9 e 1 * 3 # * = * - 3 3 y t 3 0 0 3 , $ + & & - * ; % * 3 * 6 9 = = 9 9 = 1 6 = % ; % = 6 - & ; - ",
"% 9 9 ; = # = 1 9 & $ $ 1 9 y y 9 1 * 3 # * * = ; ; 3 t 3 3 0 9 3 - 1 $ = * - - ; * * 3 = 9 y 9 1 y y 0 y 6 ; % 3 % = ; 6 ; ; 6 ",
"o ; = ; ; & = ; 7 & & $ > 9 9 9 1 = * 3 % * * * ; 9 ; 9 ; 3 3 0 3 - 3 $ = * - - - % % ; % 1 y 9 1 0 9 ; ; = ; % 1 % % & = ; ; - ",
"o = = = 1 & = = 6 & O + = 1 1 1 1 * * 3 o % * * ; ; = 3 ; ; ; ; ; - ; & - % - - ; % % ; * ; 9 1 1 1 = % & = * % 3 # % % = = ; ; ",
"o = = % - & = = 6 & + + & 1 & 1 6 = * ; o % % * ; 3 = ; ; ; ; ; ; 3 1 * - * - - * # % - % ; ; & % % o X + % o o = # # % % % ; = ",
"o - = = 6 & - ; ; = & & & = = 1 1 = % - o # % - = ; = ; ; - ; ; - ; - & = * - = % % % - % ; 6 = = * # # % % # # 1 % % % & = & = ",
"X * & & - & = - = = = & & & & = & % # = X o # * = = * ; ; - - ; ; - = & * % * * # o o = % - 6 = # % # % % & # o - # % % % & % & ",
"X % % % % % % % % % % % & & # % # + o * X o % % = = * = ; = = = ; = * # & # # % + o o & # * = % . # # + # % + o = # o + % % % % ",
"X % % # % % % # % % + % % % + # % + # * X o # # * * * = = * = = * * % # % + + # o X o % o % % o . # & $ % # o   * # % % + # % % ",
"o % % % % % % % % % % % % % % % & # o * X o o % % % % % = * * % % % % o o + O +   . o % % = % % o # % @ @ + + . * o # % % % % % ",
"X % % o % # % # # o # % # # # # # o o % .     o o o X o o # # # # + . . . o . o     X # o # # # # # o . o o o o = # X # o o # o ",
"  X o o # o o % 3 o 1 B & % # # # o X o o # # o o . . + + # # % # # % # # # o # o o o o o % = = G 1 o * X # # X % #   X o o o o ",
"X # % % & % % & 1 & & 1 = 1 1 % & & & = = 1 & & & + . + & , 1 i w i i w w 1 1 w 1 = 1 = = = & = 1 # 1 = & & & # # o # # # & 1 & ",
"o & & % 1 & & % # @ # % % # + + $ & , 1 1 1 1 & % & > 1 = 1 1 w 9 w f w r f f i w w h w w 9 1 & & % # & > $ & $ & = w 1 1 w = 1 ",
"o * = = & # # @ # + O . . O + + & & & & 1 1 y i r w r b 9 9 1 1 1 & 1 & > < 2 1 9 w 1 1 1 1 , > > & $ @ O O O + # $ & 1 1 * & 1 ",
"# * = 1 1 1 1 1 & $ & $ & > , 1 1 1 2 1 w r b A G G b h h h w & $ $ + O @ > < , 2 2 2 w w f w f 2 2 , > $ + $ > 2 2 > & = = = = ",
"# 1 = & 1 r h 2 2 f h 1 w h f 1 w i B K K G b B b B B G B w 1 w f f > @ , > < w B h r h G h f f h f w r w 1 f h 2 1 w 1 & 1 w w ",
"o % $ # % & = 1 r b 1 7 h h f 1 w i r w i i h 3 i G i w w h h B r i f & w w w B r w b B b b B h w i b r i w 1 h b 1 % 1 1 1 1 = "
};
