/* XPM */
static char *_686298071d84c4fe1a0060b96f34a46zmI5ti1BSSCdNx3A[] = {
/* columns rows colors chars-per-pixel */
"421 592 256 2 ",
"   c None",
".  c #050401",
"X  c #0B0501",
"o  c #0D0A03",
"O  c #0D0C09",
"+  c #070705",
"@  c #130501",
"#  c #130C03",
"$  c #1B0C03",
"%  c #130D09",
"&  c #1B0804",
"*  c #151104",
"=  c #1B1305",
"-  c #1D1A05",
";  c #15110A",
":  c #1C140A",
">  c #1E190A",
",  c #171807",
"<  c #18130F",
"1  c #230C02",
"2  c #290702",
"3  c #340C02",
"4  c #380803",
"5  c #231304",
"6  c #2B1403",
"7  c #231B05",
"8  c #2B1A05",
"9  c #22160A",
"0  c #241B0C",
"q  c #2B1C0C",
"w  c #2B1509",
"e  c #331C04",
"r  c #331D0B",
"t  c #391705",
"y  c #251C11",
"u  c #2A1E12",
"i  c #241813",
"p  c #341E11",
"a  c #25220B",
"s  c #2B230C",
"d  c #2E290C",
"f  c #292305",
"g  c #34220C",
"h  c #3B240C",
"j  c #332C0C",
"k  c #392608",
"l  c #39330C",
"z  c #2C2313",
"x  c #2D2A12",
"c  c #292315",
"v  c #332414",
"b  c #3A2513",
"n  c #332B14",
"m  c #3B2A15",
"M  c #332619",
"N  c #352A1A",
"B  c #3C2C1B",
"V  c #392619",
"C  c #363113",
"Z  c #3B3413",
"A  c #3E3915",
"S  c #3C331B",
"D  c #3B371A",
"F  c #3D3321",
"G  c #3C2E20",
"H  c #1F200F",
"J  c #450902",
"K  c #570903",
"L  c #471806",
"P  c #561605",
"I  c #4B1D12",
"U  c #671606",
"Y  c #700F05",
"T  c #432B0D",
"R  c #472709",
"E  c #552809",
"W  c #48340D",
"Q  c #56360C",
"!  c #432D13",
"~  c #412E1B",
"^  c #492A13",
"/  c #562A15",
"(  c #443314",
")  c #4C3314",
"_  c #433C14",
"`  c #43321D",
"'  c #4B341B",
"]  c #433C1B",
"[  c #4C3B1C",
"{  c #4B3C14",
"}  c #533514",
"|  c #543A15",
" . c #543B1B",
".. c #5B3D1B",
"X. c #583817",
"o. c #663A18",
"O. c #6E300F",
"+. c #443422",
"@. c #493622",
"#. c #4C3A24",
"$. c #4D3C2A",
"%. c #453A24",
"&. c #533D24",
"*. c #523E2A",
"=. c #5A3C22",
"-. c #463325",
";. c #693B24",
":. c #4A4316",
">. c #46411C",
",. c #4B441B",
"<. c #4E491C",
"1. c #474215",
"2. c #5C421C",
"3. c #534C1D",
"4. c #56461A",
"5. c #59521D",
"6. c #4D420B",
"7. c #63431C",
"8. c #69471A",
"9. c #76481B",
"0. c #70531A",
"q. c #4B4422",
"w. c #4C4625",
"e. c #554225",
"r. c #5C4324",
"t. c #534C23",
"y. c #55422B",
"u. c #5B442C",
"i. c #5A4B28",
"p. c #565124",
"a. c #5B5424",
"s. c #5B552A",
"d. c #5D5829",
"f. c #5A4732",
"g. c #5B5433",
"h. c #634523",
"j. c #644A24",
"k. c #6B4B24",
"l. c #634A2C",
"z. c #6B4D2B",
"x. c #664528",
"c. c #754C25",
"v. c #635B25",
"b. c #635C2B",
"n. c #685529",
"m. c #73532C",
"M. c #785629",
"N. c #634B32",
"B. c #684D33",
"V. c #685834",
"C. c #7C5C34",
"Z. c #765936",
"A. c #754E31",
"S. c #66612C",
"D. c #6B642D",
"F. c #6C6629",
"G. c #74692C",
"H. c #6B6532",
"J. c #6E6933",
"K. c #6A6437",
"L. c #736C34",
"P. c #746C3A",
"I. c #786737",
"U. c #7B7435",
"Y. c #7B743B",
"T. c #787438",
"R. c #79722E",
"E. c #7C6208",
"W. c #715B44",
"Q. c #796545",
"!. c #7B7643",
"~. c #72674A",
"^. c #893515",
"/. c #861B08",
"(. c #8D4F18",
"). c #86592A",
"_. c #845C33",
"`. c #8F5228",
"'. c #87622C",
"]. c #886538",
"[. c #936C3B",
"{. c #966937",
"}. c #84793A",
"|. c #99733C",
" X c #95672B",
".X c #A97034",
"XX c #A36020",
"oX c #886A44",
"OX c #946D42",
"+X c #877945",
"@X c #9B7443",
"#X c #987649",
"$X c #997B54",
"%X c #897354",
"&X c #A37C4C",
"*X c #A57946",
"=X c #A47D53",
"-X c #B37849",
";X c #90755A",
":X c #C37A3E",
">X c #8B833B",
",X c #AF8A2D",
"<X c #DCA122",
"1X c #8B8445",
"2X c #97894F",
"3X c #A9824C",
"4X c #A58254",
"5X c #AB8454",
"6X c #AD8A5B",
"7X c #A98758",
"8X c #B38C5B",
"9X c #B68A56",
"0X c #B9935B",
"qX c #B5894D",
"wX c #B58D62",
"eX c #B59264",
"rX c #BB9463",
"tX c #BD9A6C",
"yX c #BA9767",
"uX c #B0936B",
"iX c #BCA274",
"pX c #9C8764",
"aX c #C59859",
"sX c #C88D54",
"dX c #C39C6B",
"fX c #C49966",
"gX c #C59E72",
"hX c #D29969",
"jX c #C8A36B",
"kX c #C5A374",
"lX c #CBA573",
"zX c #CCAB7C",
"xX c #CAA778",
"cX c #D3AB78",
"vX c #D8B47A",
"bX c #D2AA6E",
"nX c #E3B57B",
"mX c #CDA35B",
"MX c #EFC931",
"NX c #CBAC82",
"BX c #D3AE82",
"VX c #D4B284",
"CX c #DAB788",
"ZX c #DBBC93",
"AX c #CDB285",
"SX c #E3BB88",
"DX c #E3BD93",
"FX c #DDBFA0",
"GX c #DDC294",
"HX c #E7C699",
"JX c #EAC790",
"KX c #EACCA3",
"LX c #F3D5AA",
"PX c #F1D5AD",
"IX c #F6DFB6",
"UX c #EDD8B9",
/* pixels */
"                                                                                                                                                                                                                                                                                                                                                                                                                                                                                                                                                                                                                                                                                                                                                                                                                                                                          ",
"                                                                                                                                                                                                                                                                                                                                                                                                                                                                                                                                                                                                                                                                                                                                                                                                                                                                          ",
"                                                                                                                                                                                                                                                                                                                                                                                                                                                                                                                                                                                                                                                                                                                                                                                                                                                                          ",
"                                                                                                                                                                                                                                                                                                                                                                                                                                                                                                                                                                                                                                                                                                                                                                                                                                                                          ",
"                                                                                                                                                                                                                                                                                                                                                                                                                                                                                                                                                                                                                                                                                                                                                                                                                                                                          ",
"                                                                                                                                                                                                                                                                                                                                                                                                                                                                                                                                                                                                                                                                                                                                                                                                                                                                          ",
"                                                                                                                                                                                                                                                                                                                                                                                                                                                                                                                                                                                                                                                                                                                                                                                                                                                                          ",
"                                                                                                                                                                                                                                                                                                                                                                                                                                                                                                                                                                                                                                                                                                                                                                                                                                                                          ",
"                                                                                                                                                                                                                                                                                                                                                                                                                                                                                                                                                                                                                                                                                                                                                                                                                                                                          ",
"                                                                                                                                                                                                                                                                                                                                                                                                                                                                                                                                                                                                                                                                                                                                                                                                                                                                          ",
"                                                                                                                                                                                                                                                                                                                                                                                                                                                                                                                                                                                                                                                                                                                                                                                                                                                                          ",
"                                                                                                                                                                                                                                                                                                                                                                                                                                                                                                                                                                                                                                                                                                                                                                                                                                                                          ",
"                                                                                                                                                                                                                                                                                                                                                                                                                                                                                                                                                                                                                                                                                                                                                                                                                                                                          ",
"                                                                                                                                                                                                                                                                                                                                                                                      $.W.W.W.W.W.W.W.W.Q.Q.Q.Q.Q.Q.Q.Q.Q.Q.Q.Q.Q.Q.W.W.W.W.W.W.W.V.B.N.N.N.N.N.N.f.f.f.f.f.f.f.f.f.f.y.$.        @.@.@.$.w.                                                                                                                                                                                                                                                                                                                                                              ",
"                                                                                                                                                                                                                                                                                                                                                                                      W.%XpXpX;X$X$XpXpXpXpXpXpXpXpXpXpXpXpXpXpXpXpXpXpXpXpXpX$X$X#XoXoXoXoXoXoXoXoXoXoXoXQ.Q.Q.Q.Q.Q.W.Z.B.B.l.l.B.B.B.W.W.g.$.                                                                                                                                                                                                                                                                                                                                                          ",
"                                                                                                                                                                                                                                                                                                                                                                                    $.~.uXiXNXiXiXiXiXiXgXkXkXkXkXkXkXkXNXkXNXkXkXkXiXiXiXtXtXtXuXuX7X$X$X$X$X$X$X$X$X$X$X$X$X$X$X$X$X$X#XoXoXI.oXoXoXoX%X%X~.W.                                                                                                                                                                                                                                                                                                                                                          ",
"                                                                                                                                                                                                                                                                                                                                                                                    f.%XuXZXVXxXzXzXBXBXBXBXBXVXVXVXBXVXVXVXBXBXAXVXVXBXBXAXAXBXzXtXwX6X6X6X6X6X6X6X6X6X6X6X7X7X6X6X6X6X7X$X#XoX%X#X#X#X$X$X%XW.*.                                                                                                                                                                                                                                                                                                                                                        ",
"                                                                                                                                                                                                                                                                                                                                                                                    *.~.uXNXzXdXkXkXkXxXxXxXxXzXzXzXzXBXzXzXzXxXzXzXzXxXxXxXxXxXkXuX6X7X7X7X7X7X7X7X7X7X7X4X4X4X4X7X4X=X$X#XoXoXoXoXoXOX#X#XoXZ.$.                                                                                                                                                                                                                                                                                                                                                        ",
"                                                                                                                                                                                                                                                                                                                                                                                    $.Q.pXkXkXyXtXtXtXkXkXkXkXkXxXxXxXxXzXzXxXxXxXxXxXxXkXxXkXkXtXeX7X4X4X4X4X4X4X4X4X4X4X=X=X=X$X=X$X$X$XoX].].oXoXoX].OX+XoXZ.*.                                                                                                                                                                                                                                                                                                                                                        ",
"                                                                                                                                                                                                                                                                                                                                                                                      Q.pXkXgXtXtXtXtXkXkXkXkXxXxXkXxXxXxXxXxXxXxXxXxXxXxXxXxXkXtXeX7X4X4X4X4X4X4X4X4X4X=X=X=X=X$X=X$X$X$XoX]._.oXoXoXoXOXOXoXV.&.                                                                                                                                                                                                                                                                                                                                                        ",
"                                                                                                                                                                                                                                                                                                                                                                                    u.oXpXiXgXtXtXtXtXkXkXkXkXxXzXxXxXxXxXzXzXxXxXxXxXxXxXxXxXxXgXeX7X4X7X7X7X7X4X4X4X4X4X=X=X=X$X=X=X$X$XoX]._.oXoXoXoX#XOX].Z.&.                                                                                                                                                                                                                                                                                                                                                        ",
"                                                                                                                                                                                                                                                                                                                                                                                    Z.%X6XtXyXyXyXtXtXgXkXkXkXkXxXxXxXxXxXxXxXkXxXxXxXxXxXxXxXxXgXeX7X4X7X7X7X7X4X4X4X4X=X=X=X=X=X=X$X$X#XoX]._.].].oXoXOXOX].Z.l.                                                                                                                                                                                                                                                                                                                                                        ",
"                                                                                                                                                                                                                                                                                                                                                                    W.%X;X;X%XoXQ.oX$X$X6XyXeXeXyXyXyXtXtXtXdXgXkXkXkXkXxXxXxXkXxXxXxXxXxXxXxXkXtXeX7X4X7X4X7X7X4X4X4X4X=X=X=X=X=X=X$X$X$XOX[.].].].].].].].].I.Z.l.u.y.y.y.y.#.`                                                                                                                                                                                                                                                                                                                                         ",
"                                                                                                                                                                                                                                                                                                                                                                  f.%XpXuXuXuX6X=X=X7X7X6XeXeXeXeXeXyXyXtXyXtXdXgXgXkXkXzXzXzXxXxXxXxXxXxXxXxXkXtX8X7X4X4X4X7X7X4X4X4X4X4X=X=X=X=X$X$X$X=X$XOXOX].].].].].].].].C.Z.Z.Z.V.Z.Z.N.u.&.~                                                                                                                                                                                                                                                                                                                                     ",
"                                                                                                                                                                                                                                                                                                                                                                  V.%X$X7X6X6X6X5X5X5X6X6X8X8X8XyXyXyXyXrXrXrXrXtXgXxXzXVXCXCXCXVXBXxXkXkXxXxXkXtXwX7X4X7X7X7X7X7X4X4X4X=X=X=X=X$X$X$X=X4X7X7X=X#XoX].].].].].].C.C.C.Z.Z.C.Z.Z.B.r.#.~                                                                                                                                                                                                                                                                                                                                   ",
"                                                                                                                                                                                                                                                                                                                                                                u.I.$X$X$X4X5X5X5X9X9X8X8X0XeXyXyXyXyXtXtXyXrXrXyXgXxXVXCXZXGXZXCXVXzXkXkXxXxXkXtXwX7X4X7X4X4X4X4X4X4X4X=X=X4X4X=X$X=X4X4X7X6X7X$XOX].I.I.].].I.C.].].I.I.I.I.C.Z.x.r.[ m                                                                                                                                                                                                                                                                                                                                 ",
"                                                                                                                                                                                                                                                                                                                                                            W.%X$X4X4X4X#X*X3X3X3X5X9X8X0X0XyXtXtXtXtXkXdXtXyXrXyXkXBXCXZXHXKXKXZXCXBXkXkXkXkXdXyX8X4X4X4X4X4X4X4X4X4X4X=X=X4X4X4X$X$X=X4X7X6X6X4X#X].C.C.C._.C.C.].].C.C.C.C.Z.m.z.k.r.e.#.S                                                                                                                                                                                                                                                                                                                             ",
"                                                                                                                                                                                                                                                                                                                                                        f.;XuXiXxXtXeX7X@X*X*X*X*X5X8X0X0XrXyXjXkXkXkXkXkXdXfXfXtXxXCXZXHXKXKXKXZXCXzXkXgXkXkXdXrX8X4X&X4X4X4X4X4X4X4X4X=X=X=X=X4X$X$X$X4X7X6X6X4X#X].C.C.C.C.C.C.C._.C.M.M.C.M.m.c.m.m.V.V.u.+.                                                                                                                                                                                                                                                                                                                          ",
"                                                                                                                                                                                                                                                                                                                                                        ~.iXNXNXBXkXyX6X#X*X3X3X3X9XrXyXtXdXjXlXkXxXkXkXlXjXdXdXtXxXCXHXHXKXKXKXZXCXNXkXgXkXkXdXrX6X&X&X=X=X=X5X4X4X=X=X4X4X4X4X4X=X4X4X7X6XeXwX4X#X].C.C._._._.'.].]._.C._._._.C.C._._.].oXZ.u.                                                                                                                                                                                                                                                                                                                          ",
"                                                                                                                                                                                                                                                                                                                                                        pXAXCXAXzXkXyX8X3X&X3X3X5X8XfXgXkXkXlXzXxXxXkXkXlXjXdXdXdXzXCXGXHXKXKXKXZXZXBXkXgXkXgXtXeX7X&X#X&X=X=X=X=X=X=X=X4X4X4X4X4X4X4X6X6XeXuXeX4X#X]._._.].].].].].[.].].[.[.]._.].].OXOXOXoXZ.#.                                                                                                                                                                                                                                                                                                                        ",
"                                                                                                                                                                                                                                                                                                                                                      u.pXVXVXxXlXkXtX0X9X3X3X5X5XwXdXkXkXlXxXzXxXkXkXkXlXlXjXjXlXBXCXGXHXHXKXKXZXCXBXkXgXdXdXyXeX7X&X&X=X=X=X=X=X=X=X=X=X=X4X4X4X4X4X7X6X6XwX6X#XOX]._.].].].].].].[.[.@X@X@XOX[.].].[.OX#XoXI.*.                                                                                                                                                                                                                                                                                                                        ",
"                                                                                                                                                                                                                                                                                                                                                      u.$XxXcXjXdXgXrX8X8X5X5X6X8XrXtXkXkXlXxXzXlXkXkXkXlXcXcXxXBXVXZXHXHXHXHXGXZXCXzXkXgXdXtXrXeX6X4X&X5X5X5X5X4X4X4X4X=X=X=X$X=X=X4X4X4X4X4X$XOX[.]._.].].].'.].[.#X#X&X4X=X#X[.].].[.[.OX].Z.e.                                                                                                                                                                                                                                                                                                                        ",
"                                                                                                                                                                                                                                                                                                                                                      *.;XNXlXjXdXdXtXrX8X6X6X8X8XeXtXkXlXjXlXcXlXlXxXzXVXVXVXCXZXZXDXHXHXHXHXHXZXZXAXkXtXtXtXrX0X8X6X5X5X5X8XwX6X6X4X#X&X4X&X4X=X#X#X#XOXOXOXoX].]._._.].[.].].].|.@X4X7X6X7X#X[.[.].].[.oXoXZ.e.m                                                                                                                                                                                                                                                                                                                       ",
"                                                                                                                                                                                                                                                                                                                                                      *.;XzXzXlXlXjXdXyXeX0X0XeXrXrXdXjXjXjXlXlXlXxXzXCXZXZXHXHXKXKXKXKXKXKXKXKXHXHXVXxXgXgXtXrXrXrX0XrXrXdXgXgXdXtX6X&X&X&X&X4X4XOX]._.C.M.C.C._._._._.{.OX[.{.[.@X&X5X7X6X6X3X@X[.[.].oXoXoXC.l.' b g                                                                                                                                                                                                                                                                                                                   ",
"                                                                                                                                                                                                                                                                                                                                                    ~ u.#XgXlXlXxXlXjXdXyXrXyXyXyXtXdXjXjXjXjXlXlXzXVXGXHXKXKXLXLXLXPXPXLXLXLXLXKXHXCXxXgXdXdXrXrXrXrXyXgXgXxXxXlXkXwX&X#X&X4X7X4XOX_.c.8.8.k.c.M._._._.[.@X@X@X@X3X5X6X7X6X6X4X@X[.].].oXoXoXC.B.e.' ` ~ B V v v                                                                                                                                                                                                                                                                                                         ",
"                                                                                                                                                                                                                                                                                                                                                b ~ e.Z.$XtXjXlXlXlXkXdXdXdXfXtXyXyXtXdXdXdXdXjXkXzXVXHXKXKXKXKXLXLXKXKXKXKXPXLXKXHXCXxXdXtXfXrXrXrXrXrXdXdXgXgXkXdX6X#X#X&X&X5X=X[.M.c.8.8.c.m.M.C.M.C.].OX@X#X&X5X5X7X4X4X6X3X@X[.].].].].C.Z.z.r.=.=.*.&.#.@.B                                                                                                                                                                                                                                                                                                         ",
"                                                                                                                                                                                                                                                                                                                                      8 V ! ! ) &.l.Z.oX4XyXfXjXlXlXlXxXxXxXjXdXdXtXtXtXtXtXtXtXkXzXCXHXKXKXKXKXKXKXKXKXKXKXKXKXKXHXCXxXtXtXyXrXrXrXrXrXrXyXdXgXgXdX9X@X#X&X&X3X$X].M.c.h.k.c.m.C.C.M.M.].OX@X&X3X5X7X7X4X4X7X3X#X[.]._._._.C.m.m.k.h.x.l.l.l.y.@.v                                                                                                                                                                                                                                                                                                       ",
"                                                                                                                                                                                                                                                                                                                                  = 0 @.V.C.C.oXoX$X$X7X6X8X0XfXlXxXzXzXzXzXcXcXkXjXjXdXtXrXrXyXkXzXZXKXLXKXKXKXKXKXKXKXKXKXKXKXKXHXCXxXdXtXyXrXrXrXrXrXrXrXdXdXgXdX8X@X#X&X&X4X$X].M.c.h.h.c.c.c.C.C._.[.#X&X&X4X7X7X4X4X4X7X&XOX[._._._.C.C.m.z.x.h.h.x.l.l.y.#.M                                                                                                                                                                                                                                                                                                       ",
"                                                                                                                                                                                                                                                                                                                                = $ g V.pXuXuXgXgXkXkXtXeX6X0XdXkXzXVXVXVXVXVXVXzXzXzXlXgXyXyXtXxXAXZXKXKXKXKXKXKXKXKXKXKXHXKXHXHXHXCXlXdXfXfXrX0XrXrXrXrXrXtXdXgXdX8X&X#X&X=X4X$X].M.c.k.k.k.k.m.C.].].#X=X4X4X4X7X4X4X4X4X7X#XOX]._.M.C.C.M.m.k.h.h.h.h.h.r.&.` x                                                                                                                                                                                                                                                                                                       ",
"                                                                                                                                                                                                                                                                                                                                ; $ b Q.iXzXlXcXcXVXzXdX6X4X7XrXkXzXVXVXVXCXCXCXVXVXzXzXkXtXtXiXzXVXZXHXHXHXHXHXHXHXHXHXHXHXHXHXDXDXCXlXfXfXfXrXrXrXrXrXrXrXrXtXdXdXwX&X$X&X#X#X#X].M.m.k.k.z.k.M.].[.OX$X4X4X4X4X5X4X4X4X4X4X$XoX].C.m.C.C.m.z.z.j.h.h.h.x.h.&.` s                                                                                                                                                                                                                                                                                                       ",
"                                                                                                                                                                                                                                                                                                                              ; ; $ h Q.iXzXcXcXcXbXjXrX4X#X#X6XyXxXVXVXVXCXCXCXCXCXCXVXzXxXzXzXzXzXVXCXCXCXCXCXCXCXCXCXCXVXVXVXVXVXxXdXfXfXrXrX0X0XrXrXwXeXyXtXdXdX6X#X#X#XOXOX]._.M.m.m.m.m.m._.].OX$X4X6X7X&X&X&X=X4X4X4X$X#X].Z.m.m.m.m.m.z.k.x.h.r.r.h.h.&.` q                                                                                                                                                                                                                                                                                                       ",
"                                                                                                                                                                                                                                                                                                                              ; ; = v Q.iXzXcXcXcXlXjXeX4XOX$X7XyXxXzXVXVXCXCXCXCXCXDXZXZXZXZXCXVXzXVXCXVXCXCXVXVXVXVXVXVXVXBXzXBXBXxXtXyXyXrXrXrXrXrXwXeXeXyXtXtXtX7XOX[.[.].].].M.m.M.C.C.].].OX$X=X4X7XwX6X=X&X#X$X=X$X$X$XoXC.Z.z.z.z.m.z.z.x.x.x.h.r.h.h.&.` q                                                                                                                                                                                                                                                                                                       ",
"                                                                                                                                                                                                                                                                                                                              % ; $ v Q.iXzXcXcXcXbXjXeX4XOX$X6XtXkXcXzXzXCXCXCXCXDXHXKXLXPXPXKXJXCXVXvXBXVXCXCXCXCXCXCXCXCXVXVXzXBXxXdXtXyXrXrXrXrXrXeXwXeXyXtXyXeX#X]._._.C.C.C.M.M.C.].oX#X$X6X6X6X6XwXeX8X4X&X#X$X#X$X$X#XoXZ.m.j.l.l.z.l.l.B.l.l.r.r.h.r.&.` s                                                                                                                                                                                                                                                                                                       ",
"                                                                                                                                                                                                                                                                                                                              % ; $ v Q.tXzXcXcXcXbXjXeX4X#X#X6XyXkXzXcXzXVXCXCXVXZXKXPXIXIXIXIXHXSXVXVXCXCXDXDXDXZXDXDXDXDXCXCXCXCXBXlXgXtXrXyXrXrXtXtXtXtXiXgXtXyX#XC.M.M.m.m.M.M.M.].oX#X4X6XyXtXuXeXeXeXwX4X=X#X$X$X$X#XoXoXZ.z.j.j.l.l.l.l.B.l.l.r.r.h.x.&.` s                                                                                                                                                                                                                                                                                                       ",
"                                                                                                                                                                                                                                                                                                                              % ; $ g Q.tXxXxXbXbXlXdXeX&XOX#X7XeXdXcXcXcXvXVXVXVXZXKXPXIXIXIXIXHXSXVXCXCXDXHXHXHXHXKXHXHXHXHXHXHXHXCXBXlXkXdXdXgXlXzXBXBXAXCXAXBXiX$XM.m.m.m.C.M.M.M.].[.#X7XeXtXtXyXeXeXeX6X4X$X#X#X#X#XoX].C.m.j.h.j.x.x.z.z.z.x.x.x.r.h.x.&.` s                                                                                                                                                                                                                                                                                                       ",
"                                                                                                                                                                                                                                                                                                                              % ; $ g Q.uXxXlXbXbXjXtX8X&X|.#X4X8XtXlXbXcXcXcXzXAXZXKXPXIXIXIXIXKXSXCXCXDXHXKXLXLXLXLXLXPXLXLXLXLXLXHXCXBXxXkXkXlXVXCXDXDXHXHXHXZXAX7XC.m.m.Z.C.C.M.C.].OX$X5XeXeXuXeXwXwX6X7X=X$XOXOXOXoX].Z.m.j.h.h.j.j.j.j.z.z.z.x.x.r.h.x.&.` g                                                                                                                                                                                                                                                                                                       ",
"                                                                                                                                                                                                                                                                                                                              % = $ g Q.uXxXlXbXbXjXfX0X4X@X&X5XrXjXbXbXcXcXcXzXBXZXKXPXIXIXIXIXKXZXCXCXHXHXLXPXIXPXPXPXIXPXPXPXIXLXKXZXVXxXxXlXzXCXHXHXHXKXKXKXHXCXuX].C.C.C.].].]._.].OX=X6XeXeXeXwXwX6X6X4X$X#XOXOX#XoX].Z.k.7.7.j.k.k.h.k.m.z.z.x.x.r.h.h.&.` v                                                                                                                                                                                                                                                                                                       ",
"                                                                                                                                                                                                                                                                                                                              % $ $ g Z.uXxXxXbXbXjXfXrX5X&X3X8XdXlXcXcXcXcXcXcXBXCXKXPXIXIXIXIXKXCXVXCXZXHXLXPXIXIXPXIXIXIXIXIXIXIXKXGXVXxXxXxXBXZXHXKXKXKXPXPXKXZXuXoXC.C.].].].].].OX#X4X9XwXwXeXwX6X6X6X4X$XOXOXOX#XoX].m.k.7.j.k.k.k.j.k.m.m.z.x.x.r.h.h.&.` s                                                                                                                                                                                                                                                                                                       ",
"                                                                                                                                                                                                                                                                                                                              % $ $ g Z.uXxXbXbXjXjXdXyX5X#X3X8XfXlXcXbXlXcXcXcXlXBXZXKXIXIXIXIXHXCXVXCXHXHXLXLXPXPXLXPXPXPXIXPXIXIXLXHXCXBXzXNXVXDXKXKXKXPXPXPXLXHXtXOX].].].[.OXOXOXOX$X4X8XeXeXeX6X4X4X$X$X$X#X#XoX%XoXC.m.x.h.h.k.z.k.j.z.m.z.z.z.h.=.h.r. .` s                                                                                                                                                                                                                                                                                                       ",
"                                                                                                                                                                                                                                                                                                                              * % $ g Z.uXkXlXbXlXfXfXrX3X@X3X6XrXjXlXlXlXcXcXcXkXzXZXKXIXIXIXIXHXCXCXZXHXHXLXLXPXLXLXLXIXIXIXIXIXIXLXHXDXVXBXVXCXDXKXKXKXPXPXPXKXZXtX#X[.[.[.oXOXOXOXOX$X5XwXeXeXeX7X$X$X#X#X#X#XoXoXoXoXC.m.k.h.h.k.z.k.h.k.m.z.m.z.h.r.h.r. .( s                                                                                                                                                                                                                                                                                                       ",
"                                                                                                                                                                                                                                                                                                                            ; * * $ g Z.uXkXjXjXjXfXdXrX5X@X@X3X9XrXdXdXdXlXcXlXjXxXCXHXLXIXIXPXHXCXCXDXJXHXHXKXKXKXLXPXLXLXLXLXLXLXLXHXDXCXVXCXZXHXKXKXKXKXPXPXKXGXgX=X#X#X#X#X@X@X#X$X4X6XeXtXtXeX7X#XOXOXoX#X#X#X#X#XoX].Z.z.x.h.j.z.j.h.k.z.m.m.z.h.2.h.r.&.` s                                                                                                                                                                                                                                                                                                       ",
"                                                                                                                                                                                                                                                                                                                            ; ; * $ g Z.uXkXlXbXjXfXjXdX6X#XOX@X&X6X0XrXfXjXlXlXjXzXCXHXKXPXPXKXHXCXVXCXCXZXJXJXHXHXHXHXHXHXKXHXHXHXHXHXDXCXCXCXZXHXKXKXKXKXKXKXKXHXxX6X7X4X4X7X7X7X5X5XwXyXgXkXkXyX7X#XOXoXoX#X#X#X#X#X%XoXZ.m.j.h.z.z.k.j.z.z.m.m.z.h.2.r.r. .` s                                                                                                                                                                                                                                                                                                       ",
"                                                                                                                                                                                                                                                                                                                            ; % % $ g Z.eXkXlXbXjXfXjXdX7XOX].].[.&X6X8X0XdXlXlXjXzXVXZXHXHXHXHXCXVXvXVXVXVXCXVXVXVXCXCXCXZXZXZXZXGXZXCXZXCXZXDXZXHXHXHXHXHXHXHXHXZXxXeXwX6X6XwXwXwXwXeXtXkXkXkXkXtX7X#XOX[.oXOX#X#X$X$X#XoXC.Z.j.j.j.z.j.x.x.z.Z.Z.A.h.=.r.r. .( s                                                                                                                                                                                                                                                                                                       ",
"                                                                                                                                                                                                                                                                                                                            ; ; % # q Z.eXjXlXbXjXjXdXrX=X]._._.].@X3X5X8XfXgXdXdXlXzXVXCXCXCXVXzXcXcXzXzXcXzXzXBXAXAXVXVXVXVXVXVXVXAXVXVXVXCXCXZXZXZXZXZXZXZXZXZXCXxXuXeXwXwXeXeXeXeXtXgXlXkXkXgXuX4XOX[.].].oXoX#X#X#X%XoXI.Z.j.j.j.j.h.h.x.z.Z.Z.A.h...r.r. .! q                                                                                                                                                                                                                                                                                                       ",
"                                                                                                                                                                                                                                                                                                                            ; ; % # 8 V.6XtXjXbXjXfXyX8X#X]._._.[.#X=X5X9XrXfXfXfXdXlXzXzXzXzXzXcXlXlXlXlXlXzXxXzXzXzXBXBXBXBXAXNXAXBXBXVXVXVXVXVXVXCXCXCXCXVXVXCXVXxXuXeXeXwXeXeXeXyXgXxXxXlXgXgXeX$XOXoX].].].oXoXoXoXoXoXC.Z.z.j.j.j.h.h.x.z.m.A.V.r...r.e.[ ! q                                                                                                                                                                                                                                                                                                       ",
"                                                                                                                                                                                                                                                                                                                            ; ; % # q V.6XyXjXbXjXjXyXwX#X]._._.[.@X5X5X6XrXrXrXfXdXlXcXzXzXcXcXcXlXlXlXlXlXzXxXxXzXzXBXBXBXBXBXBXAXBXBXVXVXVXVXVXVXCXCXCXVXVXAXVXVXkXyXuXeXwXeXrXrXtXkXzXzXxXkXgXeX$XoXoXoX].].oXoXoXoXoXoXC.Z.z.j.j.j.h.h.x.z.m.V.V.r. .=.=.' ! q                                                                                                                                                                                                                                                                                                       ",
"                                                                                                                                                                                                                                                                                                                            ; # % $ g V.7XrXjXjXjXjXyX8X#X].].].#X3X5X5X5X8XrXrXfXdXlXbXcXcXcXlXlXlXlXcXzXcXzXzXzXzXzXVXVXVXVXVXAXVXVXVXVXVXVXVXCXCXCXCXCXCXVXAXVXVXzXtXyXeXeXeXrXyXtXxXCXCXzXzXkXwX$XoX[.[.].].oXoXoXoXoXoX].C.Z.z.j.j.j.j.B.V.V.Z.V.u. .&.=.' B q                                                                                                                                                                                                                                                                                                       ",
"                                                                                                                                                                                                                                                                                                                            ; # # # q N.$X6X0X0X0X0X0X7X#X].].OX#X4X5X5X6X8XrXrXfXdXbXbXcXcXcXlXlXlXxXcXcXcXzXcXzXzXzXzXBXBXBXBXAXAXVXVXVXVXVXVXVXVXVXVXVXVXAXVXVXVXxXtXeXwXwXeXrXyXtXkXzXzXxXkXtXwX$XOXOXOXoX].].].oX].C.C.Z.m.z.j.j.x.h.r.l.l.B.B.B.e. .&.&.' B q                                                                                                                                                                                                                                                                                                       ",
"                                                                                                                                                                                                                                                                                                                            ; # # # q f.+X#X3X3X3X3X4X&XOX].].oX@X&X5X6X9X0XrXrXfXjXcXcXlXlXlXlXlXlXlXzXzXzXzXzXzXzXzXzXzXzXBXBXBXBXAXVXVXVXVXAXVXAXVXBXBXBXBXBXAXBXkXeX6X6X6XeXrXrXrXtXkXkXdXtXeX7X#XOXOXOXOX].].C.Z.m.m.m.m.z.j.j.j.j.r.2.r.r.l.l.l.=. .&.&.' m 8                                                                                                                                                                                                                                                                                                       ",
"                                                                                                                                                                                                                                                                                                                            ; # # $ 8 i.oX#X|.|.|.@X#X#XOX].[.OX@X3X5X6X9X8XrXrXyXdXlXlXlXjXlXlXlXkXlXlXcXcXxXzXzXzXzXzXzXzXBXBXBXBXBXAXBXBXBXBXBXBXBXBXNXzXzXBXBXNXkXeX6X7X6XwXeXwX8XwXrXeXeX8X6X4X$X#X#X$X#XoX].Z.z.k.j.j.z.z.j.j.x.x.r. . . .&.e.e.&.' &.&.' m q                                                                                                                                                                                                                                                                                                       ",
"                                                                                                                                                                                                                                                                                                                            ; # # * q f.oXoX[.[.|.@X#X#X#XOX#X&X5X9X8X6X6X8X0XeXrXyXdXjXdXdXdXkXkXkXkXlXxXxXxXxXzXzXzXBXBXBXBXBXBXBXBXBXBXBXBXBXBXBXBXBXzXzXzXBXBXzXgXeX6X6X7X7X5X5X4X5X7X7X7X7X7X7X&X#X=X4X$X#X].m.j.h.h.h.j.j.j.j.l.x.r. .' ) ' ' ' ' '  .&.' m 8                                                                                                                                                                                                                                                                                                       ",
"                                                                                                                                                                                                                                                                                                                            ; o # * q u.oXoX[.[.[.@X#X$X#X#X&X5X8X8X8X6X6X6X8X8X8XeXrXrXyXeXrXtXtXtXdXkXxXxXxXlXxXxXxXzXzXzXzXzXzXzXzXzXzXzXNXNXNXNXNXzXzXzXzXzXzXxXtXeX8X6X4X4X=X=X$X&X&X&X&X&X5X4X4X&X4X7X4X$X].m.2.2.2.h.x.j.j.j.l.j.=. .) ( ! ! ! ! ) '  .' m 8                                                                                                                                                                                                                                                                                                       ",
"                                                                                                                                                                                                                                                                                                                            % o # # 8 e.Q.oX[.[.@X#X$X$X#X#X3X8X0X0X0X8X6X8X8X8X8X6X6X7X4X4X7X6X6X6X8XyXyXyXyXtXdXgXgXgXtXtXtXtXgXgXgXtXgXgXgXgXgXgXgXgXgXgXdXgXgXtXeX6X7X4X4X4X=X&X&X&X&X&X#X#X&X3X3X&X4X7X4X$XoXk.....2.h.h.j.z.j.j.r...) ) ! ! ! ! ( )  . .( m 8                                                                                                                                                                                                                                                                                                       ",
"                                                                                                                                                                                                                                                                                                                            % o o # 5 &.I.].].[.&X&X&X#X@X@X3X8XyXyXrXrX0X8X8X8X8X7X4X$X#X#X#X#X#X&X4X7X6X6X6XwXeXeXeXeXeXeXeXeXyXyXeXeXeXeXuXuXuXuXeXuXrXrXeXeXeXeX6X4X=X=X=X4X5X=X4X4X4X&X#X#X3X4X4X4X4X7X4X$XoXk.Q ....2.h.j.k.j.h.2. .) ) ! ! ! ( ' ' ' ' ! m w                                                                                                                                                                                                                                                                                                       ",
"                                                                                                                                                                                                                                                                                                                            % o @ # 5 &.I.].].{.@X#X&X#X#X#X7XtXjXkXkXkXdXkXkXxXkXyX4X#X#XOX#X#X#X@X&X6X6X6X6X6X8X6X6X6X8X6X8X6X6XwX6X6X6XwXwXwXwXwXwXwX8X8X8X8X6X6X7X4X=X&X&X=X4X=X&X&X4X4X4X4X7X7X7X4X7X6X7X4XOXk...2.2.h.z.z.Z.z.r...|  .) ) ) ) ) ' ' ' ' ! b w                                                                                                                                                                                                                                                                                                       ",
"                                                                                                                                                                                                                                                                                                                            # o @ @ 6 &.I.].].{.|.@X@X#X#X&X8XlXVXCXCXVXVXVXCXCXVXxX6X#X#X@X#X#X3X&X3X6X8X9X8X8X6X6X6X6X6X6X6X7X7X7X7X7X7X6X6X6X6X6X6X6X6X7X5X5X5X=X=X=X&X&X&X&X&X$X&X4X7X7X7X6X6X6X6X7X8XwX8X7X#Xm.7.7.7.j.m.m.Z.m.j.2. . .' ) ' ) ' ' ' ' ' ( V w                                                                                                                                                                                                                                                                                                       ",
"                                                                                                                                                                                                                                                                                                                            # X X @ 5 &.I.].].'.].].[.OXOX#XeXzXCXZXZXZXCXJXJXHXHXVXeX4X$X$X4X7X6X4X4X6X6X6X6X6X6X6X7X7X6X6X6X7X4X7X7X7X7X6X7X7X5X6X6X7X7X7X4X4X=X&X$X&X&X#X#X&X$X=X4X7X6X6X6X6X6X6X6X6X8XeXwX6X#Xm.7.8.k.m.C.Z.Z.m.j...| } ' )  .) ' ' ' ' ' ( b w                                                                                                                                                                                                                                                                                                       ",
"                                                                                                                                                                                                                                                                                                                            O X X @ 5 [ Z.C.M.M.c.M.M.].].OX6XzXZXJXJXJXJXHXHXKXKXCXtX7X7X6XuXtXeX6X7X7X7X7X7X7X6X6X7X6X6X6X6X6X6X6X6X7X6X6X6X6X6X6X6X5X7X7X4X4X=X&X$X$X#X#X#X$X=X4X7X6X6X6X6X6X6X6X6X6X8XeX8X6XOXc.8.k.m.C.].C.Z.z.r. .} ) '  . .) ) ( ) ' ' ! v w                                                                                                                                                                                                                                                                                                       ",
"                                                                                                                                                                                                                                                                                                                              X X X = ' V.Z.m.k.8.k.m.C._.[.6XzXHXHXHXHXHXHXKXLXKXHXxXtXyXtXxXAXkXeX6X7X4X4X7X7X6X6X6X6X6X6X6X6X6X6X6X6X6X6XwX6X6X6X6X6X7X7X7X7X4X&X$X$X#X#X$X4X7XwXeXyXyXyXyXyXtXyXuXeXyXyXeX6X#XM.k.m.C.].oXI.m.j.2.| ) ) '  .' ( ( ( ( ) ( ! v 9                                                                                                                                                                                                                                                                                                       ",
"                                                                                                                                                                                                                                                                                                                              X . X = ` B.m.m.c.m.m.C.C.].OXeXCXHXHXHXHXHXHXKXKXLXHXCXBXBXVXZXHXVXdX8X7X4X7X6X6X8X8X8X8X8X8X6X6X7X7X6X6X6XeXeXwX8X8X8X8X6X6X6X6X7X=X=X=X$X#X4XeXtXkXxXxXxXkXxXxXzXxXxXkXkXkXyXeX4X].C.].OX$X#XoXm.h... . . .'  .' ( ! ! ! ( ( m p 9                                                                                                                                                                                                                                                                                                       ",
"                                                                                                                                                                                                                                                                                                                              + + X * B l.z.m.m.C.C.C.C.].#XtXCXHXKXKXKXKXKXLXLXLXKXHXZXZXGXKXLXZXxXeX6X7X6XwXwXeXeXwXwXwX8X8X6X7X7X6X6X8X8X0X0X0X0X0X8X8X6X6X6X7X4X4X4X&X#X7XtXzXVXCXCXCXVXVXCXZXCXVXAXBXzXkXyX7X[.].#X$X4X$XoXj.r.| |  . .'  .' ` ( ( ! ! ! v u :                                                                                                                                                                                                                                                                                                       ",
"                                                                                                                                                                                                                                                                                                                              . + + # V e.x.z.z.C.C.Z.C._.#XtXCXHXKXKXKXKXKXLXLXLXKXHXHXHXHXKXKXDXxXeX6X7X6XwXwX8X8X8X8XwX8X6X6X7X7X6X6X6X8X0X8X8X8X8X8X6X6X6X6X7X4X4X4X#X#X4XyXzXCXDXHXDXDXHXHXHXJXZXVXVXAXkXyX7XOX].#X$X$XOXC.2. .) }  . .' ' ' ( ! ! m ! h g q %                                                                                                                                                                                                                                                                                                       ",
"                                                                                                                                                                                                                                                                                                                              . . . # b e.j.k.k.C._.Z.m.].$XyXCXHXHXKXKXKXLXLXLXLXKXHXZXHXHXKXKXZXBXyX6X6X6XwXwXwXwXwXwXwX8X6X6X6X6X6X6X6X8X8X8X8X0X8X8X6X7X7X4X7X7X7X7X$XOX=XrXzXZXHXHXKXHXHXHXHXHXHXZXCXCXNXyX7X#X[.#X#X#X[.c.X.W W )  . . .) ( ! ! ! h h h q 9 %                                                                                                                                                                                                                                                                                                       ",
"                                                                                                                                                                                                                                                                                                                              . . + # b e.l.k.M.].].].].#X6XxXGXHXHXKXKXKXKXLXLXKXKXHXHXHXHXKXKXHXVXkXuXeXuXyXyXyXyXyXyXeXeXeX8X0X0X8X8X0XeXrXrXeXrXrXrXrXeXeXyXeXeXeXeX8X7XeXxXCXHXHXHXHXHXHXKXHXHXKXHXHXHXCXxXeX4X|.2X3X#X[.m.| W W }  ..... .) ! ! ! ! h h q :                                                                                                                                                                                                                                                                                                         ",
"                                                                                                                                                                                                                                                                                                                                . + # V i.m.M.'.[.OXOX#X7XtXzXJXHXHXHXHXHXHXKXKXKXKXKXHXKXKXKXKXHXZXAXkXkXiXkXkXxXkXdXtXtXyXrXyXrXyXrXrXyXtXdXtXtXtXgXkXkXkXkXkXkXgXkXkXkXkXzXCXDXHXHXHXHXHXHXHXHXHXKXKXPXKXZXNXtX6X3X5X4X#X[.M.X.Q } | ..2.=. .' ( ! ! ! m h r 9                                                                                                                                                                                                                                                                                                         ",
"                                                                                                                                                                                                                                                                                                                                + + # V i.m.C.].[.@X#X7XtXVXGXHXLXKXKXKXKXKXLXPXLXLXKXKXKXKXKXKXHXHXZXVXVXVXVXVXCXzXkXgXtXtXyXyXtXtXtXyXtXdXdXdXtXdXkXxXzXVXVXVXzXBXVXVXCXCXDXHXHXKXKXHXHXHXHXHXHXHXHXGXFXGXZXNXiXeX5X6X6X3X@X].8.7.7.h.7.2.r... .) ^ ! ! ! h 8 :                                                                                                                                                                                                                                                                                                         ",
"                                                                                                                                                                                                                                                                                                                                  . # m j.m.M.'.].|.3XeXBXHXLXLXIXIXIXIXIXIXIXIXIXLXKXHXHXHXKXKXKXKXHXHXHXHXHXHXHXCXzXkXgXtXyXyXtXtXtXtXtXdXdXtXyXtXxXVXCXJXJXJXDXDXJXHXHXHXHXKXKXKXKXKXKXKXKXKXHXZXNXiXiXNXiXiXyXrX8X0X0X6X5X@X].C.C.m.z.j.h.r.&.' ! ! ! m h 8 9                                                                                                                                                                                                                                                                                                         ",
"                                                                                                                                                                                                                                                                                                                  o o o           . $ m r.m.M.'.{.@X7XyXzXCXHXKXKXLXPXLXPXPXIXPXLXLXKXKXKXKXKXKXKXKXKXKXLXLXKXKXKXDXBXlXgXtXtXtXtXdXdXtXtXkXdXtXrXtXxXVXJXHXHXHXHXHXHXHXKXHXKXKXKXKXKXLXKXLXLXKXHXAXuX$X$X$X$XpX6XyXyXyX0X8X5X&XOXoX].].m.k.h.r. .) ! ^ m b h q w                                                                                                                                                                                                                                                                                                         ",
"                                                                                                                                                                                                                                                                                                            > y y y c y > =         $ m r.m._.].@X3X6XwX6X6XuXyXiXNXAXAXAXZXGXZXVXCXZXHXKXKXKXKXKXKXLXLXLXLXLXKXKXDXBXkXgXtXtXtXdXgXkXgXdXkXgXtXyXtXxXVXHXHXHXHXHXHXHXHXHXHXHXKXLXKXKXKXHXKXKXHXAXuXoX=.=.x.B.C.OX6XrX0X8X6X5X&X#XOXOX].C.k.h.=. .' ^ ^ m m b g 9 :                                                                                                                                                                                                                                                                                                       ",
"                                                                                                                                                                                                                                                                                                          N %.y.%.$.y.%.F x         $ B u.Z.].|.&X4X7X$XoXZ.C.Q.%X2XpXpXpXuXuXuXuXuXxXCXHXKXLXKXLXLXLXLXLXLXLXKXKXDXzXkXgXtXtXtXdXkXkXgXgXgXgXtXeXtXkXVXHXHXHXHXHXDXHXHXHXJXHXHXHXZXZXZXAXAXAXNXuX%X&.e 6 e !  .Z.#X6X6X5X5X=X@X@XOXOXoXC.z.j.r. .' ) ! m m m b v p z                                                                                                                                                                                                                                                                                                     ",
"                                                                                                                                                                                                                                                                                                        g.~.pXpXpXpXpXpXQ.f.S       $ ~ l.Z.'.[.#X4X$XoXl.` ` +.q.q.i.i.f.g.g.g.f.Q.uXNXZXHXZXZXKXPXPXPXLXLXLXKXKXGXNXkXgXtXyXtXtXtXgXgXdXdXdXrXeXyXkXVXJXHXHXHXHXHXHXHXHXHXJXHXGXuX;X%X~.~.Q.Q.V.*.b 1 $ w p g ' z.].].[.@X#X@X[.[.[.].C.m.x.=. .' ! ! ! m T ! b #.N.Z.Z.I.Z.Z.].].oX%XQ.y.                                                                                                                                                                                                                                                                              ",
"                                                                                                                                                                                                                                                                                                        %XiXHXKXKXKXHXGXiXoXy.      = ~ l.Z.C.].@X#XoXV.( = # # # = = * * ; ; = = [ %XuXiXNXkXiXZXPXIXLXLXLXLXLXKXZXzXgXgXtXyXtXtXtXtXtXfXdXfXrXwXeXgXVXJXHXHXHXHXHXHXHXHXJXJXJXzXoX$.G u y s 8 g q $ # $ & = $ 8 ! ..7.m._.[.[.].].].].C.Z.x...' ` ! ! ! ! T ! ' B.%XpXuXiXtXtXkXlXcXCXiX%Xy.                                                                                                                                                                                                                                                                            ",
"                                                                                                                                                                                                                                                                                                      w.pXNXKXLXKXHXHXGXiXoXy.      5 ` B.Z.'.].@X#X].z.m $ X X @ # # # @ # # @ X v V.%X;X;X$X$XiXHXPXLXLXKXKXHXHXCXlXtXtXtXtXtXtXtXtXyXyXdXdXrXwXeXiXAXZXHXHXGXZXCXCXZXZXCXCXCXiXZ.v 9 % & $ $ $ $ # $ $ 9 5 $ 5 e k R ..M.[.OX[.].].].C.Z.z...' ) ! ! ` ! h h ! l.$XuXkXzXzXxXcXcXCXJXNX$Xf.                                                                                                                                                                                                                                                                            ",
"                                                                                                                                                                                                                                                                                                      $.;XxXHXKXHXJXZXCXuXoXy.      5 ` V.Z.].].[.].C.l.m = # % # % < & & ; ; $ $ u $.f.f.*.u.B.2XAXKXHXHXHXGXGXGXVXkXtXtXdXdXkXtXiXtXtXtXgXgXyXwXuXiXNXAXCXAXNXNXzXzXzXzXxXiXiXpXg.u % @ X X X # # # $ $ 1 5 $ $ 6 6 e R k.].OX#X[.].].].Z.z.r.' ) ! ' ` ! b h ^ x.#XuXxXVXvXcXvXcXnXJXxX$XN.                                                                                                                                                                                                                                                                            ",
"                                                                                                                                                                                                                                                                                                      #.;XkXHXKXDXCXVXvXeXI.#.      5 ' V.Z.I.'.].I.z. .g $ # % : 9 : ; $ = = = $ 9 v N v g g ! Z.pXuXuXiXuXuXuXuXuX4X4X6XeXeXeXeXuXuX6XwXeXeX7X$X$X$XpXpXpXpXpX$X$X$X;X;X%X%X%X~.%.0 # . . X X X o # # & $ $ $ $ $ $ 5 k 2.].[.OX[.oX].].C.z.r. .) ! ! ~ ! h h R x.+XeXzXCXCXvXbXbXvXSXlX#Xl.                                                                                                                                                                                                                                                                            ",
"                                                                                                                                                                                                                                                                                                      @.%XtXZXJXSXCXVXvX6XI.#.      7 ' z.Z.I.G.M.k...! 8 # # # & % % $ # $ $ # # # : : = : 5 q m u.N.N.V.n.n.V.V.V.z.Z.oX#X#X#X$X$X$X#X#X=X$XoXI.V.f.u.u.u.e.w.#.@.+.+.~ m V m M 9 # X . X o o O # # @ & & 1 & $ # = 5 e 2.].[.[.[.OXoX].m.k... .) ! ! ! b h g k x.$XiXVXCXCXvXbXbXvXnXkX#Xl.                                                                                                                                                                                                                                                                            ",
"                                                                                                                                                                                                                                                                                                      +.oXtXJXJXJXDXCXvX6XZ.'         ' V.Z.C.M.0.7.W k 5 # # % $ $ $ # # = = * # O # X o # # = w r s v g g v b m ~ ~ &.B.Z.C.C.oXoXoX].].oXoXC.B.[ h q f f 8 7 $ $ $ # # X X o # o X O O o + + O O @ @ @ & & $ $ # = 5 e  .C.].].[.OXOX].m.h...) ) ! ! ~ m b r h l.$XiXAXCXVXcXbXbXbXvXtXoXu.                                                                                                                                                                                                                                                                            ",
"                                                                                                                                                                                                                                                                                                      #.%XtXJXJXDXSXSXCXuXI.#.        ' V.C.I.C.M.8.W k w # % # = : : $ # # # # < % < % # ; * * % : $ 9 9 = 9 9 9 w q b *.B.z.x.z.m.m.z.m.Z.Z.B.&.V 5 $ = = # # @ @ X O o + + X o X . X o X + X O O # # & 1 1 & $ # = 8 k e.I.].[.[.OX[.C.m.j...} ) ! ` ` ~ b g h u.%XuXNXCXVXzXbXbXbXvXyXoXu.                                                                                                                                                                                                                                                                            ",
"                                                                                                                                                                                                                                                                                                      %.%XiXJXJXHXCXCXCX6XI.%.        #.V.Z.I.C.m.k.W e w ; % % * : < % # # = % < < < < ; ; ; % & @ @ # # # # X X @ $ 8 ~ ' X...=.r.h.7.h.z.B.u.@.q @ X . . X . . . + + + . + + + o X @ % @ . o O # # @ & 1 1 $ $ # = 8 k &.C.oX[.[.OX[.C.k.j.2. .T ! ' ~ B V r v *.~.pXuXiXkXkXdXbXbXbXtXoXu.                                                                                                                                                                                                                                                                            ",
"                                                                                                                                                                                                                                                                                                      %.oXeXvXCXxXdXdXtX%XN.G         ` B.Z.C.M.c.h.T 8 1 # % O o ; % % # # # # @ % % # # # # % @ o # # % # # X . @ & w ~ &.....x.x.x.h.x.A.B.u.#.r @ X o . o . + + + . + . + + X X X X @ @ @ & # # # @ $ & & & & # $ = 6 T x.m.C.'.].].m.8.k.k.h. .) ' ~ V p q w V $.g.V.Q.%X$X8XfXfXbXyXoXf.                                                                                                                                                                                                                                                                            ",
"                                                                                                                                                                                                                                                                                                      %.Q.7XkXlXrX5X4X$XI.#.          ~ l.m.C.M.m.7.R 6 $ @ @ X X # % # # = 8 = & & $ & 5 5 $ X # X # % % O # X X # # q ' r.h.h.x.z.z.z.c.Z.Z.B.*.v @ X O O % o X + + + + + + X X & & & & 1 1 1 6 5 $ $ & & & < $ @ $ 1 6 k } 2.k.M.].C.c.8.k.m.k... .' B v q 9 $ 9 q q g m u.C.$X0XfXlXyXoXf.                                                                                                                                                                                                                                                                            ",
"                                                                                                                                                                                                                                                                                                      +.Q.7XjXjXrX=X$XoXn.(           B l.Z.].].I.m.T 8 1 # # X + # % : f W 5.6.6.Q Q Q 6.Q k $ # # # % # O + X X # = h i.Z.C.C.oXoXoX_.].OXoXQ.B.B @ X o O % O X X + + + + + @ $ k Q Q Q Q Q Q | W e $ $ % & & $ $ 1 6 6 k W Q 8.m.C.C.c.c.M.C.Z.z.=.' m q w 9 : : 9 : $ 6 ' V.OX9XfXlXeXoXf.                                                                                                                                                                                                                                                                            ",
"                                                                                                                                                                                                                                                                                                      +.Q.7XgXbXfX5X#X].2.k           B l.C.oXOXOX].2.k q 5 $ o o * = q W G.,X,X,X,X,X X,X X7.e $ # # % # o o X X # 5 ( Z.#X$X$X=X=X=X$X=X6XpX$XoX#.$ X X . O O O + + + + + X $ e 9. XXXXX,X,X.X Xc.W 6 $ % % # # 1 6 e k R W Q 7.k.C.]._._.].oXoXC.l.' b q 5 & < ; : : = 5 ` z.OX8XaXjX8XoXf.                                                                                                                                                                                                                                                                            ",
"                                                                                                                                                                                                                                                                                                      ` Q.4XgXcXfX8X@X]...e           V u.Z.oX#X#XoXm. .m 8 $ X X # ; 8 W }.mXMX<X<X<X<X<X,X0.t 1 @ @ # # # o X X # 6 ' oX4X7X7X6X6X6X7X6XuXuXpX;X*.& X X X @ @ @ X . X + + @ 1 R (.,X<X<X<X<X<X,X).R 6 $ ; % # $ 8 k W ..7.2.8.8.m.].].].].[.oXoXQ.B.' b w $ $ : : : : = q ' m.OXqX0XjX6XoXl.                                                                                                                                                                                                                                                                            ",
"                                                                                                                                                                                                                                                                                                      ( C.&XfXbXhXwX&X]...8           v e.Z.oX#X#X#XI.l.#.v = @ X % < 9 W  XMXMXMXMXMXMX<X,X(.L 1 @ @ # & # # @ @ $ 8 &.oX6X9X9X8XwX8X5X8XyXtXuX$Xy.$ @ # # % % @ X X o X X @ 1 E XX<X<X<X<X<X<X.X(.R 1 # ; % # 5 h X.m.].].C.I.C.].OXOXOX[.[.].].oXB.[ b 5 $ $ ; : i 0 7 g &.m.[.qX0XaX8XoXl.                                                                                                                                                                                                                                                                            ",
"                                                                                                                                                                                                                                                                                                      ( C.&XfXbXbXfX&X].2.8           v e.Z.OX&X3X&X[.Z.i.! 8 $ # % < 5 R  XMXMXMXMXMXMXMX<X(.L 2 @ @ & % & @ X @ $ 8 =.%XeXrXwXwXrXwX8XwXtXtXuX$Xu.6 $ $ # # @ @ @ X o o X $ 6 E XXMXMXMXMXMX<X.X(.E 6 $ ; % # w ^ h.].*X@X[.].].[.#X$XOX[.[.].].oXZ.&.b 5 # # % : y 0 0 b e.C.|.3XqXaX8X].x.                                                                                                                                                                                                                                                                            ",
"                                                                                                                                                                                                                                                                                                      ! Z.=XfXbXjX0X*X].2.e           V =.C.=X6X9X5X@X].m.' b 9 % % < 5 W  XMXMXMXMXMXMXMX<X(.P 3 & @ & $ % @ X @ $ r e.$XtXfXfXfXfXrXrXrXgXkXiXpXV.6 $ $ # # @ @ X X o o + # 6 E XXMXMX<X<X<X<X,XXXE 3 $ : ; # 6 } c.{..X|.{.[.[.#X&X3X@X[.].].].oXZ.&.v 9 # # : : 9 0 q m e.I.|.3XqXaX8X].j.                                                                                                                                                                                                                                                                            ",
"                                                                                                                                                                                                                                                                                                      B Z.$XfXbXjXqX*X]...e           M u.Q.6XrXaX0X3X[.m...! p i > i 5 W  X<XMXMXMXMX<X<X<X(.P 3 1 & & & % # # # w h l.pXgXdXfXdXfXtXrXtXxXNXkXuXZ.e 6 5 $ $ @ @ @ o O O + # 1 E  X<X<X<X<X<X<X,XXXQ t 5 9 : $ e } 9. X.X{.{.{.@X3X3X3X#X|.].].].oXZ.&.b 9 $ % 9 &     0 m e.C.|.3XqXaX8X].h.                                                                                                                                                                                                                                                                            ",
"                                                                                                                                                                                                                                                                                                      B Z.$XfXjXaX3X|.C. .8           v e.oXwXfXfX0X*X'.8.E R e 5 : : 5 k E.,X,X<X<X<X<X,XXX(.P 3 1 & 1 & & @ @ @ 5 g x.$XdXfXrXrXwXwXwXyXgXNXkXuXC.R e 8 6 w 5 & & # % % # # 1 t 9..X.X,X<X<X,XXX(.E 3 1 : % & 6 R o.).|.|.[.|.@X#X3X3X@X|.].].].].V.[ v 5 # % : %     : g e.C.[.3XqX0X6X].r.                                                                                                                                                                                                                                                                            ",
"                                                                                                                                                                                                                                                                                                      B V.#X0XfXqX|.].m.} e           g e.oXeXjXjX0X@X).o.R R e 6 5 5 5 f 6.E.(.XXXXXXXXXX(.O.L 3 2 1 1 & & & & @ 6 t x.$XtXrXrXwXwXwXwXwXgXxXgXuXC.W T T h h g 6 1 $ $ % % # & t Q (.(.(.XXXXXX(.9.E t 1 9 9 1 6 R Q M.OX@X@X@X#X#X#X#X@X[.{.].].].z.[ g = # % > <       q ..C.[.*XqX0X7XI.e.                                                                                                                                                                                                                                                                            ",
"                                                                                                                                                                                                                                                                                                      V B.oX&XqX.X{._.m.X.r           v i.+XkXvXcXlX9X|.).8.8.8.| h q w e W 6.8.8.9.9.9.9.O.E L 3 2 3 w w w w 6 6 e / A.6XgXgXgXgXgXgXgXxXVXCXNXtXoXh.2.r.r...) T e w $ & % % & 6 R Q Q O.O.9.9.o.Q R e e p e e k } h.].7X6X8XwX6X6X4X3X@X|.{.].].].m.[ v 5 # % > :       8 4.I.[.*X3X0X4XI.e.                                                                                                                                                                                                                                                                            ",
"                                                                                                                                                                                                                                                                                                      p u.C.{.|. X`.).c.=.b           V n.2XVXJXJXCXjX8X&X{.|.|.I.r.b p 8 e T R R R E R L L L t t w r p p b h r t ^ ;.oXtXCXCXCXZXZXZXCXZXHXHXZXkX=XC.C.I.C.Z.m...} h w & & $ $ 1 6 t t t L L L R R R L T T T T | m.oX7XgXzXBXBXzXiXeX4X@X[.{.{.].].m. .m 8 % % < <     = g r.I.|.*X3X0X4XZ.&.                                                                                                                                                                                                                                                                            ",
"                                                                                                                                                                                                                                                                                                      p &.A._. X`.(.).c.=.b           m V.7XGXLXKXHXCXzXdX0XaXjX4XZ.@.! e e e e t t t t t t t t p t t ^ ' =.=...X.x._.$XgXSXDXDXHXHXKXDXHXKXKXZXxX7X].].[.].].C.0...T 8 1 $ & 1 1 6 1 3 3 t 3 t R Q Q ..7.k.k.m.C.$XuXxXCXZXDXZXGXAXyX4X@X{.{.].'.].m. .m 8 # # ; % % : 8 T j.].{.|.*X6X$XZ.[                                                                                                                                                                                                                                                                             ",
"                                                                                                                                                                                                                                                                                                      u &.B._._.`.(.M.c.=.!           m V.pXGXLXLXLXHXHXJXnXJXJXlXoX=.~ r r ! b p p t t t t t t t t I ' ;.Z.]._._.OX@X6XzXSXDXDXHXHXHXDXDXKXHXCXgX=X]._.'.'.).0.0.Q R 6 & $ & 5 6 6 6 r t t t R 7.c._.].[.#X&X7XuXAXHXKXPXKXKXHXHXCXtX4X[.'._.).).'.m.| h 8 # o # # # 5 e ^ j._.'.{.|.3X#Xn.'                                                                                                                                                                                                                                                                             ",
"                                                                                                                                                                                                                                                                                                      u *.B._.].).9.c.m.h.!           m V.pXGXLXLXLXLXLXLXLXLXLXcXOXx.^ r r b b p p b t t t t p t 3 L =.c.oX=X#X#X&X=XrXBXSXDXDXHXHXKXHXHXHXDXCXxX=X_.)._.).).0.8.7.^ 6 1 $ $ 5 8 6 6 r ! h R W 8.M.[.|.&X8XyXkXVXKXIXIXIXPXPXPXPXZXiX4X[._.)._._.C.c.| k 8 $ $ $ $ $ 8 ^ ..c._.).).{.&XoXl.!                                                                                                                                                                                                                                                                             ",
"                                                                                                                                                                                                                                                                                                        *.V.C.]._.M.M.m.h.) h         B V.uXKXIXLXLXKXHXHXJXJXJXfX_.} R e e h h r r t t t t t t t 3 t / ;._.#X@XOX*X=XfXcXSXSXDXHXKXKXHXHXKXHXDXxX5X_._.'.'.'.M.c.k.' r w 5 6 8 e e e r T k R R 7.c.).'.[.&X5X8XkXGXPXIXIXIXPXPXPXHXxXwX#X]._.'._.C.k.| h g 0 q z v g ! r.z.C._.).).'.OXoXu.m 5                                                                                                                                                                                                                                                                           ",
"                                                                                                                                                                                                                                                                                                        $.N.A.C.c.c.c.c.h.' b         B V.uXHXPXLXKXHXHXJXJXGXCXwXC.Q R e k R R k k R R R R R R L t L E o._.OXOXOX*X=XrXlXCXSXSXHXKXKXHXKXKXHXZXzX7X_.).].].]._.m.x.' b r w 8 g h h k T ^ R R E 7.c.M.).].@X&X4XiXZXPXPXIXUXUXIXIXKXNXeX#X].].]._.M.k.| ( h v B ` ' [ u.A.C._._._.M.M.oXZ.=.V                                                                                                                                                                                                                                                                             ",
"                                                                                                                                                                                                                                                                                                        M ~ ' ..h.k.z.k.7. .T         m V.pXGXLXHXHXHXHXHXJXGXCXtXOXc.7.2.7.j.8.2.2.7.7.o.| ......Q X.k.A.].@X@X{.@X*XwXlXCXSXDXHXKXKXHXHXKXHXCXxX=X).M._.'.'.C.z.e.' ! b r r ^ ^ ^ ^ } 7.7.8.c._.].{.[.=X6XwXuXiXZXKXKXKXPXUXIXPXHXNXeX#X]._._.C.k.7.| W h V @.e.l.l.Z.C.]._.C.c.7.2.x.y.~ q                                                                                                                                                                                                                                                                             ",
"                                                                                                                                                                                                                                                                                                          w 8 h ) ..h.h... .T         ! B.pXCXHXJXJXJXJXHXJXGXZXzX7X#X[.].].].].].'.'.'.C.M.M.C.M.c.c._.].OX@XOX{.[.*X8XxXSXDXDXHXKXHXHXHXHXDXCXgX#Xc.c.M.C._.C.x.=. .} ^ R ^  .=.=.7.k.M._._.[.&X5X7X6XtXkXiXiXNXZXGXZXFXPXIXPXKXZXkX6XOX_.C.C.c.7.| W T ! ( e.V.Z.Z.C.]._.C.A.h.W T ! V q =                                                                                                                                                                                                                                                                             ",
"                                                                                                                                                                                                                                                                                                            $ 6 m  .r.h.r.X.T T       ^ x.oXtXzXlXbXvXJXJXHXHXHXZXzXkXyX7X7X4X&X@X@X@X@X@X[.[.OXOX[.[.OX#X#X*XOX[.OX*X8XgXCXSXSXDXHXDXSXSXJXSXCXgX#Xc.c.M.M.C.Z.z.x.z.Z.m.z.Z.Q.oXoX].OX#X&X=X9XyXkXxXzXCXZXZXNXNXAXAXzXNXZXZXZXzXtX7X#X].m.m.m.k...} W W T ) u.m.Z.C.Z._.C.Z.m...k 8 q 9 9                                                                                                                                                                                                                                                                               ",
"                                                                                                                                                                                                                                                                                                              5 g ' e.r.x. .}  .' m T  .h._.=X5X5X0XjXvXJXKXLXLXLXKXHXCXxXkXyX0X9X9X9X9X5X3X3X5X7X5X5X5X5X5X&X#X@X@X*X8XgXCXCXCXSXSXSXCXCXSXSXVXgX#Xc.c.m.m.Z.Z.C.].#X7X7X7XwXuXuXuXeXyXtXfXdXlXVXJXHXHXPXPXKXZXzXkXtX8X8XyXtXeX4X#X]._.m.k.k.k.7.| } W W ) ) r.k.c.c.m.C.C.Z.B.` 5 #                                                                                                                                                                                                                                                                                     ",
"                                                                                                                                                                                                                                                                                                              $ u ` =.u.r. .} .. .)  .h.x.C.@X|.|.*X0XbXJXKXLXLXLXLXLXHXVXcXjXrX0X9X0X0X9X6X9X8X8X9X5X5X5X&X*XOX[.[.*X8XlXCXCXCXSXSXSXBXCXSXSXvXgX#Xc.k.k.x.z.z.C.].5XjXjXdXkXkXxXxXlXlXjXjXlXcXCXJXHXKXIXIXPXGXVXxXyX8X9X0X0X4X[.].C.c.c.8.7.7...| | } |  . .j.k.c.c.m.C.].Z.B.( =                                                                                                                                                                                                                                                                                       ",
"                                                                                                                                                                                                                                                                                                                z S y.l.x.2...7.h.h.h.k.m.).'.{.{.*XqXfXVXHXHXHXKXLXLXGXVXlXyXrX8X0X0X8X9X6X8X8X8X6X5X=X*X[.{.{.{.{.|.9XbXSXSXCXSXDXSXSXSXSXSXBXgX@X9.o.o.X.' ..m.].8XbXcXdXdXlXkXkXjXjXjXfXfXdXzXvXZXHXKXKXKXHXCXCXvXbXdXfX0X5XOX_.M.c.c.c.8.7.....| ..h.7.7.k.m.m.m.M.I.].C.V.' 5                                                                                                                                                                                                                                                                                       ",
"                                                                                                                                                                                                                                                                                                                c S *.u.e.2.2.h.j.x.z.m.m.C._.{. X|.3X0XvXHXHXHXKXPXLXGXBXjXrX0X0X0X0X0X8X8XwXwXwXwX7X*XOX_.).).'.{.@X9XcXSXSXCXSXDXSXSXSXSXSXvXfXOX8.X.X.) R ) x._.6XcXcXjXgXdXjXjXdXfXfXfXfXfXkXzXCXDXHXHXHXZXCXCXCXcXjXdX8X&X].C.c.9.9.9.9.7...X. .=.h.j.j.k.m.m.m.m.C.I.Z.V.' 6                                                                                                                                                                                                                                                                                       ",
"                                                                                                                                                                                                                                                                                                                y x B @.' ) ) ..e.r.x.z.m.M._.'.{.|.3X0XvXHXLXLXPXIXIXHXVXlXfXrXrXfXfXdXfXtXdXdXgXgXrX=XOX_.c.C.].OX=XyXVXDXDXSXDXDXSXSXSXSXSXVXlX=Xc.o.X.R R R =.Z.7XcXvXcXlXgXgXdXrXrXrX0XrXrXlXvXCXDXHXKXDXCXVXVXvXlXfX8X&X[.C.m.8.8.8.8.8.7.X.) ) [ &.r.e.j.l.j.z.z.Z.Z.B.N.` 8                                                                                                                                                                                                                                                                                       ",
"                                                                                                                                                                                                                                                                                                                    M B V m ! ' ' #.&.e.h.m.C.].{.|.-X0XcXJXKXHXLXIXIXHXVXlXdXrXfXdXlXbXxXlXzXzXcXBXgX7XoXm.x.z.oX%X$XuXzXVXBXBXVXVXAXzXzXVXzXzXtX$Xc...} R R R ' x.$XxXvXbXlXgXgXyXrXrXrX0X0XfXlXVXCXCXDXHXCXzXlXlXjXrX5X&XOX_.c.k.o.7.8.8.7... .! m ! ' [ #.e.e.r.r.u.f.N.f.y.B                                                                                                                                                                                                                                                                                         ",
"                                                                                                                                                                                                                                                                                                                          q r v V V m m !  .m._.{.[.{.*X0XlXcXvXCXHXJXvXlXdXfXfXfXgXcXcXcXcXzXvXzXVXtX$XZ. .! ' =.l.B.W.oX%XoXoXoXoXoXoXoXoXQ.Q.W.l.' ^ ' T t t T  .oXgXbXlXlXgXgXyXrXfXdXfXrXfXdXdXgXdXgXxXdX8X8X6X5X@X].]._.c.h.7.X.X.7.k.7. .! r w q s g b b m m b m B B B V                                                                                                                                                                                                                                                                                           ",
"                                                                                                                                                                                                                                                                                                                                        6 k r.m.].'.).).{.3X8XeXyXjXjXtXrXrXfXdXdXlXcXVXcXzXvXvXzXVXyXoXl.h 1 5 w q g v m ! h k k k k k g g g s b r q r ! b 3 2 3 ^ _.yXgXdXlXgXgXdXfXdXlXdXrXfXfX0X5X&X=X5X4X#X|.[.].M.8.8.c.8.o...Q X.7.k.h. .h $               $ $ $                                                                                                                                                                                                                                                                                                   ",
"                                                                                                                                                                                                                                                                                                                                          g &.m._.).M.9.).{.*X3X3X5X6X8XrXrXdXgXlXcXCXCXCXVXvXvXvXCXyXoXf.r @ @ # ; ; = : 5 = = : = = = * * * * # $ 1 p ~ b 3 2 3 L C.rXfXhXbXjXlXgXgXbXcXbXjXfXfX9X&X|.|.&X@XOX[.].'.c.7.7.h.7.o.o.o.o.k.m.x.&.m                                                                                                                                                                                                                                                                                                                         ",
"                                                                                                                                                                                                                                                                                                                                          q ' h.M.M.c.9.M.'.[.@X|.|.|.3X8XrXdXlXcXBXSXDXCXCXvXVXvXCXtXoXN.v @ X . o o X O # o o o o o + + + o O o # $ w V T t 3 t R _.rXjXjXbXbXcXcXcXvXSXvXbXjXrX9X*X|.|.@X@X|.[.[.].M.7.7.k.h.h.8.7.k.A.C.m.x.(                                                                                                                                                                                                                                                                                                                         ",
"                                                                                                                                                                                                                                                                                                                                          0 B e.z.m.9.9.).'.{.@X|.|.|.5X0XfXjXbXcXCXSXCXSXCXCXCXCXCXtXoXi.g @ . X + + + + + + + + + + + + . + . . o # w ! T t t t R [.jXbXjXbXcXvXvXvXnXvXvXcXjXfX9X*X{.|.@X@X[.[.].C.m.7.7.h.h.h.8.8.8.c.m.m.l.~                                                                                                                                                                                                                                                                                                                         ",
"                                                                                                                                                                                                                                                                                                                                            V #.h.k.c.c._.OX&X5X5X*X3X9XfXdXlXbXbXvXCXCXDXDXGXJXSXCXyXoXe.r @ X . + . + + + + + o o o + + + O + + # $ 8 k R t t L Q @XvXvXvXvXCXCXCXvXcXbXcXbXjXfX9X*X*X@X*X@X[.].C.C.k...o.h.h.h.8.o.8.k.m.z.u.~ =                                                                                                                                                                                                                                                                                                                       ",
"                                                                                                                                                                                                                                                                                                                                            z ` e.k.h.c._.@X=X5X9X&X3X0XfXjXbXcXcXvXCXCXCXZXZXZXSXCXyXoXr.h 1 $ $ # # o O O O O O # O O O O O O X # $ e T R L L E 8.*XvXvXvXvXvXBXBXvXbXbXbXjXjXfX9X-X*X*X&X@X].C.m.z.h.X.7.k.x.k.o.o.o.8.m.z.u.~ $ X                                                                                                                                                                                                                                                                                                                     ",
"                                                                                                                                                                                                                                                                                                                                          * u ~ y.x.h.8.C.OX#X=X&X@X*X9XfXjXbXcXcXvXCXSXCXVXVXVXzXzXyXOXz.} k e 8 5 5 = # # # o @ @ @ X @ o @ @ @ & 1 k } ..Q Q o.c.@XrXyX0XyXyXgXcXvXbXbXbXjXdXfX9X-X*X&X&XOX].Z.z.j.7...h.m.z.c.h.o.o.c.Z.m.x.~ = X . . +                                                                                                                                                                                                                                                                                                               ",
"                                                                                                                                                                                                                                                                                                                                          # 0 B *.u.=.o.m.].OX#X@X[.|.5XrXjXbXbXcXvXSXSXzXkXgXtXtXtX6XOXA.h.} R R R e 8 6 6 6 1 1 1 1 & & & & & & 1 3 R o.c.c.c.c.M.].#X#XoX#X$X6XgXcXbXbXjXdXfXfX9XqX&X&X#XOXI.m.h.r.....k.m.m.m.x.o.o.k.Z.A.u.~ $ . . . + + . + + + +                                                                                                                                                                                                                                                                                                   ",
"                                                                                                                                                                                                                                                                                                                                          # 9 V #.&.X.} h.C._.].].).'.&X0XfXbXbXbXcXCXcXeX=X#XOXOXOXoX_.c.C.M.M.c.9.8.o.Q } W R ^ T T T b b T t R ^ E o.9.c.).).).c.k.k.x.r.l.B.oX7XfXjXfXfXrXrXfX9X3X*X@X@X].Z.z.=. . ...z.C.m.m.x.X.X.h.z.l.e.V # . . . + . + + + + + + + X X +                                                                                                                                                                                                                                                                                         ",
"                                                                                                                                                                                                                                                                                                                                        . X $ q ` ' ^ R ..k.m.M.c.9.M.@X8XfXbXbXbXbXvXjX&X_.k.h.o.7.8.8.c.{.*X-X*X|.{. X)._.c.9.8.8.8.7.7.7.h.7.o.9.c.9.9.9.(.(.;.o./ L t 6 r r =.oX9X0X0X0X0X0XfX0XqX*X|.[.].m.x. .'  ...k.M.C.m.x.} W | 2...' g # . . . . . + + X + + + X X X + + X X o                                                                                                                                                                                                                                                                                 ",
"                                                                                                                                                                                                                                                                                                                                      . . X % q ~ ' ^ R X.x.z.m.c.9.M.@X8XfXbXbXbXbXvXdXOXk.o.} ....o.o.9. X*X-XqX.X.X.X{.{.).`.(.9.9.9.9.9.9.9.9.(.`.(.9.(.(.(.k.o.I 3 1 1 1 8 T Z.4X8X0X0X0X0XfXaX9X*X@X|.].m.x. .'  .2.m.C.C.Z.x.} T )  .[ ( z X . . . . . + X X X X X X + + + + o o + o O #                                                                                                                                                                                                                                                                           ",
"                                                                                                                                                                                                                                                                                                                                  . + . . X % y G ~ ! ^ X.x.A.A.A.c.M.@XrXjXbXbXbXcXvXgXOXh.=. .&.=. .Q Q )..X.X.X.X.X.X.X.X X X`.(.(.(.(.`.`.`.(. X X`.9.9.9.c.o.X.L 3 1 1 6 6 k z.#X6XyXfX0XaXjXfX9X3X&XOX].m.x. . . .2.m.].C.Z.x.' ^ ) ' ( B 0 # . . . . + + o O O # % # # O o # # # o o o o # # # o                                                                                                                                                                                                                                                                   ",
"                                                                                                                                                                                                                                                                                                              ; ; ; ; ; ; % # # O + + + . X O > M B m ^ X.x.z.A.c.9.M.@X8XdXbXcXbXcXcXtXoX..' ~ ' #.) R Q )..X.XqX,X.X.X.X.X.XXXXXXXXXXXXXXXXXXXXX.X.X`.9.9.9.8.X.W e 6 1 $ $ & e e.oX$XeXyXaXmXjXjX0X5X&X@X].m.x. . . .2.m.C.C.m.x.) ! ~ ~ V M 9 o . . . . + + O O # # ; ; ; * * * * * * = = * = = = = = * * *                                                                                                                                                                                                                                                           ",
"                                                                                                                                                                                                                                                                                              % % < ; ; ; , : > H H H i H > > > > ; O + . . X ; u v h k ' x.x.c.c.8.c.OX9XfXbXbXcXcXcXwXZ.^ b p b ~ ! t E )..XsXsXsX,X,X,X.X.XXXXX.XXXXXXX.X.X.X.X.X.XXX(.O.O.O.E R 6 1 & $ $ @ 6 [ Z.$XuXyX0XmXjXjX0X5X&X@X].m.=.X.'  .r.m.C.C.m.h.) h b m v s : X . . . . + + O # # ; ; : > > > > 0 0 a a c a c a a a a 7 > * O O O                                                                                                                                                                                                                                                     ",
"                                                                                                                                                                                                                                                                                      % < % % % < < < : : > y y c c c c c c c c c ; ; o . . . # y u g k  .x.x.x.c.8.c.OX5XfXlXcXcXcXlX7Xx.e 8 9 w p e 3 R ).-XsXmXsX<X,X,X.X.XXXXX.X.XXXXX.X.X.X.X.X.XXX(.O.O.E R e 6 & @ $ # # = ! N.Q.$X7X8X0XaXfX0X9X&X@X].z.=. . ...2.m.C.M.m.h.^ h b m g f = X . . + + + + o # # ; : > > 0 a a c a z x x x x x x x x z a - * O O O O O O                                                                                                                                                                                                                                             ",
"                                                                                                                                                                                                                                                                                # # % % % % % % < % ; ; , > y z c c M M x x x x c H ; o . + X # 0 s g m &.z.A.A.c.8.c.[.6XfXjXcXcXcXgX$X=.1 & & $ 5 1 1 L A.3XaXbXmXsXsX,X.X.XXX.X.X.X.X.X.XqX.X.X.X.X X(.O.O.Q R g 5 & & $ $ # = g ` &.l.I.#X6XfXjXaX9X5X&XoXz.h. . ...2.m.C.M.m.h.^ h ! ~ v g = o . . + + + + O # * * > > a a a z z z x x n x n n C C C d a * * # % O O O O O % % O                                                                                                                                                                                                                                     ",
"                                                                                                                                                                                                                                                                            # # # # % # % % % % % ; ; , , > c c x x N N N x x N x H ; O + + + # : q g ! =.A.Z.Z.A.9.c.[.6XyXjXbXcXxXtX$X' & @ X X X X @ e x.#X9XhXaXsX,X.X.X X).'.].{.{.{..X*X.X*X|.{.).9.o.o.} k r 9 & & % $ # * 9 q 8 k 2.}.4XrXjXfX0X9X4XOXm.x... . .2.m.C.M.m.h.) ! ~ ` m n 7 o . . . + + + # * * = > a a a z z x x x x n n n l C C j d f - * * # % % O O # # o o O # % % O                                                                                                                                                                                                                           ",
"                                                                                                                                                                                                                                                                          = = = = = = : : : : : ; : > 7 7 7 s x x x N S C C C N x H ; o + + . o % 9 q b &.z.A.A.c.8.9.].3XrXjXbXcXlXuX#X' @ . . . . . X = ! f.Z.]._.M.0.k.7...X.| | 2.2.7.8.k.k.h.7...} R k h r 6 5 $ # % & % # # * = $ 5 ( I.2XrXjXfX8X9X=XOXm.h. .|  .h.m.C.M.k.2.) m ~ ` B m 7 # . . . + + o * * * = > a a a z x s d d j n j j l l l j f f 7 - = = : , * * = = = = * = ; * * * ; ; ;                                                                                                                                                                                                                   ",
"                                                                                                                                                                                                                                                                      , - - 7 8 8 8 8 7 0 a 0 0 7 7 f f f f f d s x N D D C C C x > ; + + . . . o = w r ) r.z.z.k.o.8._.&X0XjXbXcXdXwX%X` @ . . . . . + o $ 5 5 e e 6 6 6 1 1 1 $ $ $ = 5 6 6 6 6 1 1 $ & & & @ # @ @ @ % % # X o o o X # m I.2XrXjXfX8X6X4XOXm.h. .| ..h.m.C.M.n.2.( m ~ +.B n 0 # . . . + + o * * * = - a a a a s f f f f j j f j j j f f f f 8 - 7 a a - - - 7 7 7 7 7 7 > = = = = = = =                                                                                                                                                                                                               ",
"                                                                                                                                                                                                                                                                    > a n Z Z l l l A A _ _ _ _ A _ _ 1.:.:.1.A Z j S F D D S D x > # o + . . . . # 5 g ( ..x.z.k.Q 8.'.*X0XjXbXbXjXuXoX~ X . . . . . + + o o # # @ @ @ @ X X . X X X X X X X X X X X X . . . . X X X @ X X X + X + . X X B Q.2XyXjXyX8X8X5XOXm.7... .2.h.z.C.m.h.[ m b m B B n 7 # . . X + + o = = = , 7 a a a d j n Z l l l Z Z D A A A A A _ l A ] ] A A A A A ] ] ] ] Z d f s a s s s s a -                                                                                                                                                                                                           ",
"                                                                                                                                                                                                                                                                  : 0 M q.t.p.a.d.d.d.d.b.b.S.b.S.S.D.F.J.H.b.s.>.A ] q.%.q.] ] N a * o + . . . X # 7 g ' =.x.x.h.X.8.].*X0XjXbXbXjXuXoX~ X . . . . + + + X X o o o X X X X + + + + + + + + + + X X + + . . . + . . . X X . X + + + + X # ` Q.pXtXlXfX0X8X7XOXm.h.2. .2.h.k.m.k.2.( g q q v x s - # X X o X + o * - = - a a s d j Z A ] >.>.>.>.] >.q.t.3.t.p.a.d.d.b.S.b.b.d.b.b.K.K.K.V.i.] Z C C Z S D D C z H                                                                                                                                                                                                         ",
"                                                                                                                                                                                                                                                                % : s S i.b.b.D.D.D.D.D.L.P.U.T.U.U.Y.}.1XY.L.S.<._ >.q.q.q.] ] N a * + + . . + X # 5 g `  .r.h.7.Q 7.'.*X0XjXbXbXjX6XoX~ X . . . . + X X X X X X X X X X + + + + + + + + + + + + + . + . . . . + . . . . . . + + + . X # +.Q.pXtXjXtX8X8X7XOXm.7.2. .r.h.n.m.8. .! r 8 8 q q 0 = # X X O O o * = - - - a x d n Z ] q.t.i.t.t.<.q.q.t.s.d.b.J.P.P.P.P.P.P.P.T.T.P.!.!.!.!.b.,.Z Z Z ] ] >.>.A n c ;                                                                                                                                                                                                       ",
"                                                                                                                                                                                                                                                              * = 9 s ] s.b.v.v.v.S.F.F.G.U.U.U.U.}.}.>X1X1XU.S.3._ ] q.>.q.] A C - # + . . + + . # = g !  . .} } R Q M.@X9XjXbXbXdX6XQ.B X . . . . X + + . . X X X . . + + + + + + X + . + + + + + + + . . . . . . . . . . . + . . . . X S Q.4XeXjXrX6X6X4X[.c.7...| 2.j.k.m.8. .( r 8 0 q 0 0 = # o o O o o * - - - - a a d j Z ] t.p.s.s.t.t.q.t.t.s.b.L.Y.+X!.Y.Y.Y.Y.Y.T.T.T.Y.!.!.P.b.,.l l l Z ] >.>.A n c O +                                                                                                                                                                                                     ",
"                                                                                                                                                                                                                                                          - a - 7 f l <.b.D.v.5.v.v.F.F.G.U.}.}.}.}.}.>X1X1XU.D.3._ _ ,.,.,._ A n 7 # X . . + + . # 5 g !  . .} } R Q M.@X9XjXbXbXfX7XQ.m X . . . o X X X . . X X X X X . X . . . . . . . . . . . . . . . . . . . . . . . . . . . . . . X B Q.4XeXjX0XqX5X&X[.k.7...| 2.7.k.m.8. .( g 8 8 8 7 7 - = # # * * * = - - - - a d d j Z ] t.s.b.d.a.t.q.q.t.a.D.Y.+X1X+X+X+X+X+X}.Y.Y.U.Y.Y.!.P.b.,.l l l Z ] ] >.A C c % . X                                                                                                                                                                                                   ",
"                                                                                                                                                                                                                                                        a C ] Z l Z ,.a.D.D.v.v.v.v.F.F.G.U.}.}.>X>X>X>X1X1XU.D.3._ _ <.,.,._ _ Z 7 # o X + + + . # w v ' r.r...X.R Q M.@X9XjXbXbXfX7XQ.m X . . X X X X X X + + + + + . . . . . . . . . . . . . . . . . . . . . . . . . . . . . . . . . @ ( Q.4XyXjXrX8X6X&X[.c.7...| 2.8.k.M.n.e.[ B v g f f d f 7 > > > 0 - 7 a a - - a d n l Z ] t.a.s.p.3.:.1.1.:.3.v.L.Y.}.Y.Y.Y.}.}.Y.U.U.T.Y.Y.!.P.b.,.l l j l Z D A D x y # X X o o                                                                                                                                                                                               ",
"                                                                                                                                                                                                                                                    * f Z w.g.p.<.t.p.b.D.D.v.v.v.v.v.F.G.U.}.>X>X>X>X>X>X1XU.D.3._ 1.<.:.,.1.1.Z f = # X + + + X % 0 m &.l.z.x...E X.C.@X9XjXbXbXfX7XI.m X . + + + + + + . . . . . . . . . . . . . . . . . . . . . . . . . . . . . . . . . . . . . . . @ ( I.4XrXjXyX8X6X&X[.c.7.....2.8.k.M.n.e.[ ( V v s d j d s z x x x d d x a - 7 a x n Z Z _ q.t.i.3.:.{ { { :.3.d.D.L.U.Y.T.Y.Y.Y.T.U.U.U.T.T.Y.P.b.,.A l j j n C D C x 0 # o o O % ;                                                                                                                                                                                             ",
"                                                                                                                                                                                                                                                  * 7 j ] s.K.d.a.a.v.S.G.G.F.v.v.v.v.v.G.U.}.}.}.}.}.>X>X}.R.F.5.1.:.<.<.<.1.,.Z s = # o + X X . % 0 B *.B.B.x...W Q M.|.9XfXbXbXfX4XI.h X . + . . . . . . . . . . . . . . . . . . . . . . . . . . . . . . . . . . . . . . . . . . . . X m I.2XeXtXrX8X6X&X[.c.7...| 2.2.j.n.i.[ ( b s q 7 8 f j n n N D D C C x x 7 - a x n C Z _ ,.t.a.a.p.3.4.3.3.5.v.D.P.T.T.T.T.T.T.U.L.L.L.L.J.J.K.s.>.A Z j n n D A S n x 0 > > > y c y ;                                                                                                                                                                                         ",
"                                                                                                                                                                                                                                            7 a f f k ] p.K.J.J.v.D.D.D.L.F.S.v.v.v.v.v.F.G.U.}.}.}.}.>X>X}.G.F.5.:.<.3.:.<.:.1.S s = # o o o X . # 0 V &.f.l.j.2.W Q c.{.3XfXjXjX0X2XI.h . . . + + + + . . . . . . . . . . . . . . . . . . . . . . . . . . . . . . . . . . . . . . . . . N Z.$X6X0X0XqX7X4XoXk..... .| ..e.4.[ Z n 0 : = * - 7 d Z ] A A A A D D x - - f x n Z Z Z ,.p.a.v.v.5.5.5.v.v.v.D.L.T.Y.T.T.T.P.L.J.J.H.S.b.b.s.t.,._ Z Z Z Z A ] ] ] Z n n n M S F N > =                                                                                                                                                                                       ",
"                                                                                                                                                                                                                                          a x Z l j l :.p.S.J.J.D.D.F.L.U.U.G.D.F.F.D.F.F.G.U.}.}.}.>X>X>X}.R.F.5.4.t.a.t.t.<.,.] n 7 : * * % # # # : s m ' [ { W R E c.[.5XjXjXbXrX2XI.j X . + . + + + . . . . . . . . . . . . . . . . . . . . . . X X @ @ @ @ @ @ X + . . . . . . . . . N K.$X6X0X8X5X4X&XoXk...X. .) ) ) ( Z n s 9 = * * = 7 j Z ] ] A ] A D D x - - f x n Z Z Z ,.p.b.v.b.v.v.S.F.D.v.b.D.L.J.J.J.J.D.S.v.v.d.s.s.p.p.t.,.>.] ] ] ] ,.q.q.q.q.] ] ] Z ` S n 0 - =                                                                                                                                                                                     ",
"                                                                                                                                                                                                                                        > x F w.>._ _ ,.p.S.J.J.J.L.U.T.+X}.U.U.R.G.L.G.G.U.}.}.>X>X>X>X>X>XU.G.v.5.a.b.d.d.p.t.q.C s 0 0 0 > , % # $ = 8 g h k k k R k.[.9XjXbXbXyX2XI.b X . + + . + + + X . X . X X X X X X X X X . . . . . X X @ @ & 2 2 2 4 2 2 & o . . . . . . . . X m Z.$X8X0X8X3X3X#X].7.X.| } ( T k g 8 8 5 : = * * - f j A ] ] ] >.] A N x - - s n n Z Z l ,.a.b.H.J.J.D.F.L.D.D.D.D.H.b.b.d.d.a.p.5.t.3.<.:.<.t.t.q.q.q.q.t.t.i.s.s.t.s.i.i.q.] ] Z n s 0 > , ;                                                                                                                                                                                 ",
"                                                                                                                                                                                                                                        > x F w.>._ _ 1.t.b.H.H.J.L.U.T.}.}.}.}.}.}.}.}.U.}.}.}.>X>X>X>X>X>XU.G.v.5.d.b.d.d.a.t.q.Z d x z z c > # # # # $ 5 5 6 6 6 R 8.{.qXjXmXbXaX4XI.b X . . + . . . . X # & 1 1 & & & & & & & @ @ X X X X X @ @ 2 2 4 J J J J 3 2 & X . . . . . . . X m Z.$X6X0XqX3X&X#X].7.} ) ) ( T k f 7 = = = = * * = f n A ] ] ] >.] D N x - - s n n Z Z l ,.p.b.D.J.J.D.L.L.L.J.H.b.b.a.p.p.t.t.3.3.3.<.,.,.,.<.<.q.q.w.t.i.s.s.s.s.a.s.s.g.i.q.S j d f a 7 0 : ;                                                                                                                                                                               ",
"                                                                                                                                                                                                                                        * - C D A A A _ 3.d.H.D.D.L.P.U.}.>X}.>X1X1X1X}.}.}.}.}.>X}.}.}.>X}.U.G.v.5.a.d.s.d.p.t.,.Z j n n x z 0 * # # # # $ $ 1 1 1 e 7.'.3XaXmXjX0X#XZ.j X . . . . . . X $ w t I L t t t t t t w 1 & @ X X X X @ & 2 4 K K K K K J 4 2 @ . . . . . . . @ m Z.OX3X3X3X@X@XOXC.| W W T ( ( m f 8 = = = * * # = 7 n S ] ] ] ] ] A N z - - s M n Z Z l _ t.a.v.v.v.S.D.L.L.J.b.b.a.3.t.t.t.t.<.<.t.t.,.,.q.q.q.q.q.t.t.i.s.s.d.s.a.p.s.s.t.,.Z g f f f a a > ; %                                                                                                                                                                             ",
"                                                                                                                                                                                                                                      o o - d C Z l A _ 3.d.H.D.J.L.L.U.}.>X>X>X2X2X1X1X>X}.>X}.}.}.}.}.>X}.U.G.v.3.a.a.s.a.p.t.,.Z j C C C x a = * # # $ $ $ $ & 1 e ..'..XaXmXmX0X#Xm.g X . . . . . . @ 1 t R / / E P L L E E I r 1 @ @ X X X @ 2 4 J K Y Y Y K K J 2 @ X . . . . . X $ ! Z.OX*X3X*X@X#XOXC.| W T k ! ( m d 7 = = * * * # = 7 n S ] ] ] ] ] A N z - - s n n C Z l _ 3.a.a.v.v.v.D.P.L.J.b.a.t.3.3.q.t.t.t.t.t.q.q.,.,.,.,.,.q.t.t.t.p.p.s.a.p.t.a.p.<.>.l f f f d x a > * # O                                                                                                                                                                           ",
"                                                                                                                                                                                                                                      # * - d D Z Z A 1.3.v.J.D.H.J.L.U.>X1X>X>X2X2X1X|.}.}.}.}.}.}.>X>X>X>XU.G.v.5.a.d.a.d.a.p.,.Z j l C C x a - * # # % % % % $ 1 e 7.'.3XmXmXmXqX[.z.g @ . . . . . . @ 6 L / O.O.U P P P E E I t 2 @ @ X X . @ 2 4 J U Y Y Y Y K J 3 & @ . . . . . # 5  .].&X3X5X*X*X&X#X].2.) ! l m m n q 7 = * * , * # * 7 n S ] ] _ ] ] A C z = = a x n C Z l _ t.p.a.v.v.D.P.Y.Y.L.H.b.t.t.3.e.e.t.4.e.t.q.,.>.,.,.,.q.q.t.t.t.t.i.a.a.a.a.d.a.3.,.Z f f j j n s > * # O O                                                                                                                                                                         ",
"                                                                                                                                                                                                                                    # * = 7 j A Z A _ :.p.S.J.J.H.J.L.Y.1X1X>X>X>X>X>X}.}.}.}.}.}.}.>X>X>X>X}.R.S.5.d.b.d.b.d.p.q.Z j C C C x s - = # # % ; % < $ 1 k 8.].qXmXmXmXqX[.k.k @ X . . . X X @ 3 L / O.O.U U U U U O.P L 3 2 @ @ @ @ @ 2 4 K Y Y Y Y Y K J 4 2 @ . . . . X = 8 h.OX5X9X9X3X*X4X4XoXj.[ ( m m n s 7 = * * , , * * - a n S ] ] ] ] ] D C z = = a x n C C l _ t.p.a.v.D.G.U.+X+XT.J.b.a.t.3.3.3.4.4.<.<.<.,.>.>.>.,.q.t.i.t.t.3.3.a.a.a.a.d.a.3.,.( j j Z n n s : # # % O O                                                                                                                                                                       ",
"                                                                                                                                                                                                                                  = : 7 f j A ] ] _ _ ,.p.S.J.J.J.D.F.U.>X>X>X>X>X>X}.}.}.}.}.}.}.}.}.>X>X}.U.U.v.a.d.b.v.d.d.p.q.S d n C x n a - = * # * ; ; % $ 1 r r.].3XaXmXmXqX@XM.R 6 # # o X @ @ & 3 L P O.Y Y Y K K U U P P J 2 2 2 2 2 2 3 J K Y Y Y Y Y Y K 4 2 @ . . . . . = h h.[.*X&X*X*X|.#X#XI.2.) ( m n s 0 0 > = = , ; # o = a x S ] ] A ] ] S N c = * 7 z n n n l A ,.3.a.S.D.G.R.U.U.U.D.v.5.5.3.p.s.a.i.t.t.<.,.,.,.,.,.<.<.t.t.i.t.p.a.a.5.a.a.p.,.[ l k j Z n n s 7 # # # # o                                                                                                                                                                       ",
"                                                                                                                                                                                                                                = 7 f d Z ] q.t.,.1.1.:.5.S.J.J.D.D.F.U.}.>X>X>X}.}.}.G.R.}.}.}.}.}.}.>X>X}.U.G.v.5.a.v.d.d.d.t.q.S d j C x n a - * # # * * * % & 1 r e.I.#X9X0XaXqX*X_.Q e 6 $ # @ @ @ & 3 J P U Y Y Y K K K K K K K J 4 4 4 2 2 4 J K Y Y Y Y Y K J 4 2 @ X X . . X 5 T j.{.|..X|.|.{.].].V.[ m m M s a 0 7 9 = * * # o o * a x S A A A A ] D x a * * 7 z x n n j l 1.3.d.S.D.G.G.U.U.U.G.v.5.5.5.a.b.b.a.a.a.p.3.<.<.t.<.<.<.t.t.a.a.a.a.a.a.3.i.t.<.[ l k k n n b s 7 = # # # o O                                                                                                                                                                     ",
"                                                                                                                                                                                                                              y x j n A >.<.t.t.t.<.<.<.p.S.L.J.J.J.G.U.>X1X2X2X1X#X}.G.G.R.}.}.}.}.}.}.}.}.U.L.S.v.v.H.S.S.v.p.q.S d n C C N s - * # # * = = = $ 1 8 ! 2.n.'.{..X.X.X{.9.Q R 8 1 & & & 2 2 4 K Y Y Y Y Y K K K Y Y Y K K P P K J K K Y Y Y Y Y Y K J 4 2 @ @ @ @ @ @ q ) 8.). X X X).M.c.k. .l g s s 7 9 9 9 9 , ; * # o o = a x S A Z Z A ] Z x a * * > a x d j j l ,.p.v.H.D.G.R.U.U.U.L.D.v.v.v.b.J.J.H.H.D.S.v.v.b.b.d.p.3.<.:.<.t.p.a.p.p.3.a.t.4.[ ( j j Z Z S n x 9 : > = ; ; :                                                                                                                                                                   ",
"                                                                                                                                                                                                                              c D ] >.,.,.<.t.t.p.t.3.5.d.J.Y.T.T.L.U.}.1X2X3X3X4X2X}.G.G.R.}.}.}.}.}.}.}.}.}.U.D.D.H.P.P.J.S.d.w.A j C S S D x 7 = * # = - , = 5 5 5 8 k k R Q 9. X.X.X Xc.X.L 6 & & 1 2 2 4 K Y Y Y Y Y Y K K Y Y Y Y Y Y O.U U U U Y Y Y Y Y K K J 2 & @ @ @ & & & r } 8.(.(.(.9.9.8.Q R k 8 7 : = * = = - > , , ; # o # = a x S Z Z D A A Z x a * * > a x d j j Z :.s.S.J.J.G.U.Y.}.Y.T.P.G.J.G.U.+X+XY.Y.Y.Y.T.Y.!.!.P.b.a.:.1._ :.3.t.t.p.a.a.s.t.q.] Z Z ] [ %.] S n s a 0 0 i i <                                                                                                                                                                 ",
"                                                                                                                                                                                                                            > x ] <.t.t.3.3.5.a.p.t.t.a.d.J.!.!.Y.Y.T.}.2X2X2X2X#X#X].m.M.I.}.}.}.}.}.}.>X>X}.T.G.D.J.P.P.P.H.d.t.A j C S S C x 7 = # # = : : : 5 5 5 $ $ 1 6 R O.(..X.X.X`.O.L 3 2 2 2 2 2 4 K Y Y /.Y Y Y K K Y Y Y Y /././.Y Y Y Y Y Y K K K K J 4 2 & @ @ @ & & 1 p X.8.(.(.(.9.9.o.E t 6 $ $ * # # # * = = ; % # # O o * 0 x D D D D A A C x > # # > a s x d d l :.s.H.L.L.L.U.}.}.}.T.Y.U.L.L.Y.+X+X+X+X+X1X+X+X1X2X+XJ.5.:._ l _ ,.<.t.p.a.b.d.i.e.[ ( ( [ ,.q.q.] C x s x z z y >                                                                                                                                                                 ",
"                                                                                                                                                                                                                            > x _ 3.a.a.5.3.5.5.5.t.p.a.v.J.!.Y.Y.Y.}.1X2X2X#XOX].'.c.8.k.I.}.+X+X}.}.}.>X>X}.}.L.D.J.P.P.P.J.d.t.A f l S S C x : = # # = : : = 5 5 = $ $ $ 1 R O.(..X.X.X`.O.P 3 2 2 2 2 2 4 K Y Y /./.Y Y K K Y Y Y Y /./././.Y Y Y Y K K K K J 4 2 2 & @ @ @ & 2 2 I o.9.(.(.`.`.c.8.E t 1 $ # * # # o # * * # # # # + + * > x S S D C A D x a , o o > a z x s f l 1.a.S.P.L.U.T.}.}.T.Y.U.P.L.L.U.}.}.}.+X}.1X1X1X2X2X1XL.5._ l l l _ ,.t.t.a.a.d.i.e.[ ( _ ,.t.t.q.>.Z n s x s s 0 :                                                                                                                                                                 ",
"                                                                                                                                                                                                                          # > x _ 3.a.5.5.5.5.5.5.3.5.a.v.L.!.!.+X1X1X1X2X#X].C.c.9.o.Q 8.I.].}.}.}.}.}.>X>X}.}.L.J.J.P.P.P.J.d.p.A f j D C n z = $ # $ : 9 9 : w w 9 % % $ 1 R 8.(..X.XXX(.O.P 4 2 2 2 4 4 J K Y Y /./.Y Y Y Y Y Y Y Y Y /././.Y Y Y K K K J J J 4 2 2 & @ & & 2 2 3 ^ k.(.(.XX`.`.`.k.E e 1 & # % ; * o o o # # # # # + + * > x D D D C A Z x 0 * + o > a z s f f l >.p.S.P.T.T.Y.+XY.T.T.T.T.L.L.R.U.U.}.}.}.1X>X1X2X2X1XP.v.:._ _ _ >.q.t.t.a.v.b.a.t.{ W ( ,.e.t.<.] A l j g s s 0 ,                                                                                                                                                                 ",
"                                                                                                                                                                                                                        # # = d >.3.a.5.5.5.5.a.5.5.5.5.v.P.+X1X1X2X2X1X#X].M.8.o.o.Q E o.m.].].}.U.U.U.}.}.}.}.P.J.J.P.P.P.L.v.p.A f j S C n a = * # = 9 0 0 9 7 5 9 % < $ 1 R 9.)..X.X.X`.O.P J 4 4 2 4 4 J K Y Y Y Y Y Y Y U Y Y Y Y Y Y Y Y Y Y Y K K K K K J 4 2 2 2 2 2 2 2 2 3 / c.`.`.XX`.`.c.o.^ e 6 $ # * ; * o # o # # % % % o + * 7 x D A D A A Z x > * + o > c s x f f l ,.p.S.P.!.!.+X+X+XY.Y.Y.Y.U.G.U.T.U.}.}.}.>X>X1X2X2X1XT.D.v.d.a.p.p.p.a.a.a.b.b.b.p.{ W W _ ,.,._ _ l j k j s f 0 ,                                                                                                                                                                 ",
"                                                                                                                                                                                                                  # # # # # 9 n ,.3.a.d.5.5.a.a.a.5.5.5.S.U.1X1X2X2X2X#X].c.o./ E E E E } k.Z.I.J.L.L.P.Y.Y.Y.Y.L.L.L.P.T.P.L.S.p.A d d C N x s = = = - 7 c z > 7 7 9 9 $ $ q ! m.].|..X.X`.O.U K J J J J J J K Y Y Y Y Y U U U U Y Y Y Y Y Y Y U U U K K K K K K K J 2 2 2 2 2 4 4 J E c.`.`.`.`.).c...^ e 5 # # * ; * * * # # % % % # # # = a n S A D D D Z x - * o # 0 z x n d f l ,.a.K.P.Y.!.+X+X+X!.Y.}.}.U.U.U.}.}.}.}.}.}.>X1X1X1X1X}.Y.Y.T.P.J.H.S.v.a.v.b.V.b.i.:.W l ( _ _ _ l l k k g v s 0 *                                                                                                                                                                 ",
"                                                                                                                                                                                                              9 q d g f d d V S :.5.a.d.a.a.a.d.5.5.5.5.S.U.1X2X2X2X2X+Xm.o./ P P I I L ^ ..j.j.v.v.v.b.H.H.J.L.J.J.J.L.P.P.J.b.t.A d d C n d a - - - - 7 a c - 7 7 5 9 $ $ w g ) 2.0.9.9.O.O.U U K K K K K K Y /./.^.^.^.^.^.^.^.^.^.^.^.^.^.(.`.^.O.O.U O.^.^.O.O.P J 4 2 2 4 4 4 J E o.(.(.c.9.8.o.E k 8 = # o # ; * * * # # O O # # o o = 7 s n Z Z D D C d a * o * 7 x n n d f l 1.t.b.K.H.J.J.L.P.T.T.T.}.U.U.}.}.}.}.}.}.}.1X1X1X1X+X}.Y.+X+X+X!.Y.T.J.D.b.b.b.b.i.:._ ( _ ] [ [ _ W l l Z n x 0 ;                                                                                                                                                                 ",
"                                                                                                                                                                                                            7 s Z [ ,.:.[ _ ] ,.3.5.5.5.a.5.d.d.5.5.5.5.v.L.1X2X2X2X#XI.7.E P L L I L L R )  .4.4.5.5.a.a.a.v.H.H.D.J.J.L.L.J.b.t.A j j j C j d f f f f 7 a 0 - - - 5 : : = 5 5 8 k R R E E U U Y Y Y Y Y Y Y /./.^.XXXXXXXXXXXX.X.X.X.X.X.X.X.X.X X`.(.^.(.`.XX`.`.O.P J 4 4 4 J J P E O.o.;.o.o.X.E k e 6 $ # # # * # # # # # o o # # # # = 7 s j C C Z C d d a - * * a x n n d j l _ <.p.s.a.a.a.a.v.J.P.T.}.}.}.}.+X+X+X+X+X+X1X1X1X1X}.}.T.1X1X1X1X+X+XT.J.v.v.b.v.i.:._ _ [ [ ,.[ { _ _ { ] ] n 7 *                                                                                                                                                                 ",
"                                                                                                                                                                                                          = f Z ,.b.D.v.v.a.a.5.5.5.d.d.5.d.v.v.v.v.5.5.v.J.Y.1X1X+X}.m...R L L L L L L R W  .:.4.4.3.3.3.t.v.D.D.D.J.J.L.P.J.b.t.A j l C C C j j f f d f f a - - 7 7 7 9 9 - = = 5 6 3 4 J P U Y Y Y /././././.^.XXXX:X:X:X-X.X-XqXqX-XqXqXqXqXsX3X.X X(.(..X.X.X`.O.P J J J P K K P P E / / / / R t e 6 5 = $ * * * * # # # # o # = - - 7 a x n n C Z Z j f f a - = - s n n n n j Z ] ,.t.t.<.:.4.3.a.D.P.T.}.+X}.+X1X1X1X+X+X1X1X1X1X1X}.T.U.+X1X1X1X+X+XP.D.v.v.b.a.a.3.1.{ [ ,.,.,.,.,.:.<.q.>.S s =                                                                                                                                                                 ",
"                                                                                                                                                                                                        = = f _ a.L.}.U.G.G.D.F.F.F.F.F.F.F.D.G.F.D.S.v.v.D.T.+X+X}.I.k.} E R I I I I L R W  .,.3.3.3.3.3.t.a.v.D.J.J.J.L.P.J.v.3.1.l l A A A A A Z Z Z j j f 7 - 7 a a 0 0 7 = $ $ & 1 2 4 L P Y Y /./././././.(.XX:X:XsXsXsXsXaXaXaXaXaXaXaXmXmXaX,X.X(.XX.X.X.XXX^.U P K P U U U P P L J 3 3 3 3 1 1 1 5 = = = , , * # # # # # - s M n n Z S S Z D D C d f f a f - f n D S S C n Z ] q.w.w.>.1._ :.5.D.P.Y.}.+X+X}.1X1X+X+X1X1X1X1X1X1X}.U.U.}.+X+X}.Y.T.L.D.v.S.b.v.d.t.,.,.,.<.<.<.,.,.<.3.t.,.A x >                                                                                                                                                                 ",
"                                                                                                                                                                                                      : = 5 g _ v.U.}.}.U.U.G.G.F.F.G.G.G.G.R.U.U.L.F.D.D.D.J.L.Y.H.n.2.Q E R I I I L R R ) [ ,.3.3.3.3.3.t.a.b.S.J.J.D.J.P.J.v.p.1.l l A _ >.>._ _ A A l j f 7 - 7 a a 7 7 7 = # @ & & 2 2 4 P Y Y /././././.^.(.XX:XsXsXsXaXsXaXmXmXaXaXaXmXbXmXmXqX.X(.(..X.XXXXX^.U K U U U U U P P J 2 2 & & & & & $ = 5 5 : > > = * # * # # 7 n %.q.q.q.q.,.>.] S j f 7 - f f - a C D S D S Z S %.q.q.q.] _ _ _ 3.b.P.!.+X+X}.+X}.+X}.+X1X1X1X1X1X1X}.U.G.T.Y.Y.T.T.U.G.D.v.v.b.b.b.p.:.1.<.<.t.<.:.,.:.3.<.,.] n >                                                                                                                                                                 ",
"                                                                                                                                                                                                    i 0 9 5 g ( 4.D.U.U.R.R.R.G.F.G.U.U.U.U.}.1X}.}.U.L.D.v.b.b.I.n.i.| R R R R R L L R T ) ,.:.<.<.3.<.<.3.a.b.S.J.J.D.J.P.J.S.a.1.l l _ 1.>.>.1._ _ _ A l f 7 - 7 7 7 8 8 - = # & % & @ 2 w L U Y /././././.^.(.XX:XsXsXsXsXqXsXaXaXsXsXsXaXmXmXaXqXXX(.(.XXXXXX(.O.U K U Y U Y U P J 4 2 & & & $ @ @ $ $ 5 5 9 9 > : * * * # * f ( i.g.g.d.d.s.a.t.] d 8 - = - - - f C D S Z S Z A %.q.w.q.] _ A _ 3.v.J.Y.+XY.}.}.+X+X+X+X1X}.1X1X1X1X}.G.G.U.T.T.U.U.U.G.F.v.v.b.v.b.t.1.1.,.:.<.<.,.1.:.:.,.,.] n 0                                                                                                                                                                 ",
"                                                                                                                                                                                                    i u 0 w g l 4.b.U.R.R.R.R.R.G.R.}.}.}.}.1X2X1X1X}.L.D.v.a.v.V.i.4.) R R R R R L t k T { ,.:.:.:.<.<.:.3.a.b.S.J.J.D.J.P.L.S.a.1.l l _ >.,.,.1.1.>.>.] Z d 7 7 7 7 8 f 8 = = # % % & & & 3 J U Y /././././.^.(..X:XsXsXsXqXqXqXaXsXsXsXsXsXaXaXsXqXXX(.(.XXXXXX(.O.U K U Y Y Y U P J 2 & @ @ @ & @ @ @ $ 5 w 9 0 9 : = * * * * s #.g.K.K.H.D.S.S.s.>.d 7 = * - - - f C D S D Z Z A q.q.q.q.] ] _ _ t.b.K.P.!.!.Y.+X+X+X+X}.+X}.1X1X1X1X}.G.G.L.U.U.U.U.U.G.F.v.v.b.v.b.t.1.1.1.,.<.:.1.1.1.1.:.,.] n 0                                                                                                                                                                 ",
"                                                                                                                                                                                                  u M M z 0 g ( 3.J.Y.U.U.U.U.U.R.U.}.}.>X1X1X2X2X2X}.U.D.v.5.a.n.j.4.) T R R ^ R R T T ( [ 4.3.<.3.3.3.t.t.a.d.D.J.J.J.L.T.L.S.d.1.l _ >.,.,.,.,.<.,.,.>.D d 7 7 8 7 8 f f 7 : % % @ % @ @ 1 t P U Y Y /././.^.(..XsXaXaXaXaXsXaXaXaXaXaXaXaXaXaXaXqX.X(.(.XXXX X XO.P U U U O.O.U P L 3 & @ o % # @ # # $ 5 w 5 0 9 9 , = * * = x q.g.b.S.F.v.S.J.b.>.C 7 = : > 7 a x S ] ] A Z ] ] q.w.t.w.q.] _ >.t.b.K.!.!.+X}.+X1X1X+X+X1X1X1X1X1X1X}.L.G.P.U.T.Y.Y.T.L.D.S.S.S.S.b.p.:.1.,.:.<.<.,.1.1.:.,.<.>.S c :                                                                                                                                                               ",
"                                                                                                                                                                                                : u M N z f j ( a.P.+XU.U.T.T.}.U.}.}.>X1X1X2X2X2X2X>XU.D.v.5.v.n.j.4.{ W W ) } W W T W { 4.t.3.3.3.p.p.t.p.d.b.S.J.J.J.L.T.L.H.d.<.A _ >.,.<.<.,.<.t.t.q.A j f 8 0 8 g g g 7 : $ % % & @ @ 1 t P U U Y Y Y ^.^.`..XqXaXaXaXaX0X0X0XaX0X0X0X0XaXaX0XqX|.'. X X{.{.).o.P P P U O.O.U P t 6 $ @ o % # # # $ $ 5 5 7 8 0 7 > : , = : v w.g.d.v.v.v.v.F.b.,.C 0 ; : 7 a s n D %.] ] ] >.,.t.t.i.t.q.>.] ,.t.b.J.!.!.+X+X+X1X1X+X+X1X1X1X1X1X1XY.G.D.P.U.U.T.Y.Y.P.J.H.S.S.b.d.p.:.1.,.,.<.:.1._ 1.:.,.w.q.S x >                                                                                                                                                               ",
"                                                                                                                                                                                                = 0 M N s f j A 3.H.T.L.L.F.F.L.R.}.1X1X1X1X2X2X2X2X1XU.F.v.a.v.b.n.i.2.| |  .......4.2.r.i.i.t.3.3.t.t.t.t.s.b.S.J.J.J.L.T.P.J.b.<._ 1.,.<.t.<.<.<.t.t.,.A d 7 5 5 8 f g g 8 : # # & @ @ @ $ e L L P P U U O.O.;.).].[.OXOX[.[.[.OXoX[.[.[.oXoXOX].].M.8.8.c.c.c.k./ L L I I I I L t 3 1 $ # o # # # # $ = = = 5 7 7 7 : = = = = x q.g.b.S.F.F.F.L.S.,.j 7 # = : 7 7 d S >.>._ >.1.:.t.t.t.t.,.] ] ] t.g.K.!.!.!.!.+X+X+X+X+X1X+X1X1X1X1XY.G.D.D.D.D.D.J.J.J.H.S.b.b.d.s.t.:.1.:.:.,.1._ _ _ 1.,.q.q.S x >                                                                                                                                                               ",
"                                                                                                                                                                                                * 7 s x f f f l <.b.H.H.S.d.a.v.J.Y.1X2X1X1X1X2X2X1X1XU.F.v.5.v.D.b.n.j.j.2.i.j.j.n.n.n.b.b.a.p.3.<.:.:.,.<.a.b.S.J.L.L.P.Y.T.J.S.<.1.>.,.<.t.3.<.<.<.<.,.Z d 8 5 5 8 f f f 8 = # # # # @ @ $ 6 3 t 4 4 t L L I R / X.=.2.2... .e.e.e.e.=.&...4.,.[ [ ) k T T ^ T T t 3 3 4 4 4 4 3 2 & & @ @ # # # # # # = = = = 7 7 = = = = = = 0 ] s.b.H.L.L.U.L.b.,.j - # * - 7 f d A ,.,.,.,.<.3.t.t.t.,.>._ A ] q.g.K.P.!.P.T.Y.!.!.!.+X+X+X1X1X+X+XT.D.S.v.v.d.a.d.b.b.a.d.a.p.p.t.<.,.1.1.1.1.1._ _ _ _ >.q.>.S x > *                                                                                                                                                             ",
"                                                                                                                                                                                                * - 7 a 0 7 f f Z ,.t.<.<.1.1.<.d.T.1X2X2X1X1X>X1X1X1XY.G.v.d.v.D.H.V.n.n.n.n.n.m.V.V.n.b.b.b.a.3.<.,.>.1.,.p.b.S.J.J.L.P.Y.Y.P.S.t.1.,.:.<.t.t.<.<.3.<.,._ Z j d j j l j g 8 = # # # $ $ $ 5 8 8 w 1 1 2 1 1 9 w w r r v x z z x x x z u z u z z a q 0 9 w w w 5 5 1 & 1 1 2 & 1 1 & @ @ # $ = = = $ $ = = = = 7 7 7 7 - - : : - f ] i.p.s.b.H.J.K.d.t.Z f 7 7 f f k l ,.t.t.t.p.p.s.s.s.t.>._ A Z A ,.p.d.S.H.H.D.J.L.P.P.T.Y.T.}.}.+X+XT.D.v.a.5.5.3.p.a.a.3.3.<.<.3.3.<.,.,.,.,.,.,.1._ _ _ ,.q.>.S x a - > c a                                                                                                                                                       ",
"                                                                                                                                                                                              O * = > 0 > > - - - f f f f - f j :.F.1X2X2X2X1X1X1X1X1XY.L.F.v.S.D.G.G.F.v.n.n.V.V.V.V.n.b.b.b.a.p.<.>._ _ 1.t.b.H.J.L.L.P.Y.Y.P.K.p.1.,.<.3.t.3.3.3.3.<.<.<.>.] ] ,.q.q.] m f 7 * = ; : 5 5 8 g 8 9 $ # o X X O @ @ @ @ # # o + o # o # # # # X o o + o X X @ X o X X X X X @ X X X X @ # $ 5 0 8 8 5 5 5 7 7 7 7 7 0 7 7 7 0 0 a C q.i.q.>.t.s.s.s.s.p.q._ Z l Z A A _ t.s.d.d.b.b.K.K.g.t.>.A Z D A >.<.t.p.a.a.5.d.v.v.v.D.J.L.U.U.T.Y.P.v.d.a.p.3.3.3.t.t.:.,.1.:.<.3.3.t.t.<.<.t.t.<.,.>.>.<.t.,.A C d d x D S x                                                                                                                                                     ",
"                                                                                                                                                                                              O # # ; : : ; ; * # * * * * o * a A S.1X2X2X2X2X1X2X1X1XY.R.D.v.S.D.G.J.D.v.v.b.F.V.F.V.n.v.D.b.a.3.,._ l l _ t.b.H.J.P.L.T.!.!.P.H.p.:.:.<.3.3.3.5.3.<.<.t.p.s.s.g.g.g.g.q.m q = = = > 0 0 q s v q w $ X + . . . . X X X . + . . . . . . . . . . + + . . . . . . . . . . . . . + . . . X # : 0 q q q 8 7 7 7 7 7 7 7 a 0 7 a s s d j A ] C j D ] ] _ >.t.t.t.t.3.t.t.<.t.d.b.b.b.K.K.P.K.V.t.] A Z Z A _ >.,.3.5.3.5.5.a.v.v.v.D.L.L.P.P.T.L.v.a.3.3.:.1.,.:.,._ 1._ 1.,.<.t.t.t.t.t.t.t.t.<.,.,.:.t.,._ C j C D q.F D c                                                                                                                                                   ",
"                                                                                                                                                                                          + X X o + O % ; ; O + O * # * * o O > l d.1X2X2X2X1X1X2X1X>XU.R.F.S.S.D.D.G.F.v.v.v.F.b.b.b.v.v.v.v.5.<.1.l l l _ t.b.H.L.P.L.T.Y.!.Y.J.a.:.<.<.3.3.3.3.3.<.3.p.b.K.K.~.!.~.g.q.n 7 = = = > 0 u z v N v q = o + . . + . . X X X + + + + o X X X X X X + o + + X X X o . . + + . . . . . . . X # $ 5 8 8 8 8 8 8 8 7 8 7 f a 0 0 s x x d f d x a - 7 a s f j ] t.a.v.S.S.S.v.v.H.L.L.L.P.P.!.!.K.t.] A Z Z A _ 1.<.p.d.d.d.d.S.D.D.D.L.L.P.L.P.T.J.v.a.3.<.1._ _ >._ _ _ _ _ 1.,.<.t.t.t.t.t.t.t.<.<.<.,.<.,._ Z j j A q.q.F x >                                                                                                                                                 ",
"                                                                                                                                                                                    o # o o # o # X X X o O O O O O ; o # # o 9 j 5.1X2X2X2X1X>X1X1X>X}.R.F.S.D.D.G.G.F.v.v.n.n.n.n.v.v.v.v.v.3.:._ l l l _ t.b.J.L.L.L.Y.Y.!.!.P.d.<.<.:.<.p.3.p.3.<.<.a.b.P.!.+X1X!.g.q.j = # # = 9 y z z x n x s : o X X + + + X X X O # O O # # # # # # # # # # O O O O O o X + . + + . . + + + X X # = 5 8 7 7 8 7 f f f 8 7 f f q f v V n x 0 > = * * * * * * - l :.b.L.L.L.J.J.L.U.T.T.Y.T.!.!.!.K.i.] _ A A A _ 1.3.a.v.v.S.S.D.D.D.F.L.U.R.U.U.L.D.d.5.<.:._ _ _ _ _ A A l A 1.,.,.t.t.t.t.t.3.3.3.3.3.<.<.,._ A l l A q.q.D x > # o O                                                                                                                                           ",
"                                                                                                                                                                                  z x n x M B x y ; % O # % o o X X # o o o o 9 j a.1X2X2X2X2X2X1X1X>X>XU.F.D.D.G.G.J.F.v.v.v.n.m.m.F.v.v.D.b.5.3.,._ _ l 1.a.b.J.L.L.U.Y.Y.!.!.P.b.3.<.<.<.3.p.a.p.3.3.i.b.K.!.!.+X!.s.] f = # # # : 0 0 0 s x s 0 = # X . X . + + + X X o o o o o O o X X @ # # # X X o X X X X . . . . . . X X X @ # = : 9 8 7 7 0 7 8 f f f f f s s g b m V z 0 = * # o # * o # - j ,.a.F.D.G.F.F.L.U.Y.Y.Y.Y.!.!.!.K.s.>.] A A A _ ,.5.v.H.S.H.J.L.L.L.L.U.U.L.L.L.L.D.d.5.<.:._ A A _ A A A A _ >.q.t.w.t.q.t.t.3.5.5.3.3.t.t.,._ Z j j C ] A D x a - > > > a H                                                                                                                                     ",
"                                                                                                                                                                                M $.f.u.y.f.N.y.B q $ @ # $ # # # # # # # # # 7 l v.1X2X2X2X2X2X>X>X>X>XT.G.F.F.G.G.G.F.v.v.v.v.F.b.V.b.b.b.v.a.t.:.,._ _ ,.s.S.H.L.L.U.Y.Y.Y.!.P.v.5.3.3.3.5.a.a.a.4.4.e.i.V.K.Q.!.K.i.Z f = # # = : > > 9 0 s 0 9 = # X X X X X X X X X X X X X X X X X X @ @ @ @ X X X X X . X . . X X X X X X o # $ 9 9 w 0 7 8 0 f 8 f f f f d n j j j j j q 5 # # # o # * * # - j _ t.v.v.S.S.J.P.T.T.T.T.Y.+X!.!.K.s.,.] ] A A _ :.p.b.K.S.K.K.J.P.L.L.U.T.U.L.L.L.F.d.5.3.:._ _ _ _ _ _ _ A _ ,.t.t.t.t.t.t.p.p.a.a.a.p.p.a.t.>.A l l C Z Z l d d a s x N N x H >                                                                                                                                 ",
"                                                                                                                                                                              M $.~.;X%XoX%X%XZ.y.m 8 6 8 g q g g q s s f 7 0 s l d.+X2X2X2X2X1X1X>X>X>XT.F.F.F.D.G.G.F.v.v.v.v.F.m.m.b.b.b.b.a.3.,.,._ _ 1.a.b.H.L.P.U.Y.Y.Y.Y.T.F.v.d.5.5.v.v.v.a.4.{ ( ' @.e.t.i.t.,.Z d 7 = = = = = = = : 9 > : * # o o o X o X X X X X X X @ @ X X X @ @ @ @ @ @ X @ X X X X . . X X X X X o # # = 9 5 5 5 5 7 8 7 7 7 7 7 f d n n j l j k s 7 = * = = : - : = 5 f j { 3.3.5.d.D.L.Y.T.T.Y.T.+X!.!.K.s.,.>.] ] A _ ,.t.s.s.s.s.s.b.b.S.H.J.L.L.G.J.J.D.d.5.3.:._ A _ _ _ _ A A >.,.t.t.t.<.<.3.t.t.t.p.i.i.a.s.t.<.] _ Z A _ A A l l C D D D D N a > ,                                                                                                                               ",
"                                                                                                                                                                              B W.pXNXiXuXyXeX$XV. .T k !  .&.=.e.,. .,.[ ( Z Z Z i.Q.+X1X1X2X2X>X>X>X>XT.F.F.F.F.G.L.D.b.v.v.v.n.n.v.b.v.s.a.3.:.1._ _ Z _ p.b.H.J.P.U.T.Y.T.Y.Y.U.F.D.F.F.D.D.V.n. .T h e q r k k k h j b s 0 : : = * # # # * * # # # # # o o # # # @ # # # # # # # # # # # # # # # # # @ @ X X X X X X X @ # # # # $ 5 5 5 = 5 5 5 5 7 7 7 7 7 s M n j l l j f f 8 8 8 7 f f 8 5 5 8 f k W _ 1.p.b.L.Y.T.}.T.T.Y.!.P.K.s.,.>.] ] A ] >.q.q.q.>.] >.q.t.p.d.S.J.D.D.D.D.S.a.3.<.:.1._ _ _ _ _ _ _ 1.<.t.t.3.<.4.3.t.t.t.t.t.i.p.a.a.t.q.>.] >.>.] _ _ A _ _ _ ] A Z d - = #                                                                                                                             ",
"                                                                                                                                                                            v &.Q.uXNXzXkXlXfX=Xm.X.W R ..z.Z.C.I.I.Z.I.K.V.i.[ Z [ t.b.L.Y.1X2X1X1X>X>XT.F.F.F.F.G.G.D.b.v.v.n.j.5.3.3.3.<.,._ A l l l j l <.a.S.J.L.L.T.T.T.Y.Y.U.R.L.F.G.G.G.I.n.| R e 3 6 w 6 6 8 h m S S n a 7 - * # o o # # # # * = = = = : = = = = 5 5 = 5 : = = = = 5 = 5 5 5 = $ = $ = $ # $ = $ $ = : 9 9 5 w 8 8 8 w 8 w 5 5 7 0 0 7 7 0 s s d k j l Z Z Z l j h m m m e 8 e e k k k T 4.V.P.Y.}.}.T.Y.}.!.P.K.s.<.,.>.] ] ] >.>.] Z C j j Z A 1.p.b.J.D.S.S.D.S.d.5.3.<.:.1.1.1.1.1.>.,.<.p.s.d.a.a.a.a.d.d.s.a.i.s.a.b.d.t.t.q.>.q.>.] _ _ _ 1._ _ >.>.A d a = o O                                                                                                                           ",
"                                                                                                                                                                      F B B @.l.oX6XgXjXfXdXrX@Xc...Q X.c.].#X=X4X3X4X7X4X$XoXl.h g k W 3.v.Y.1X1X1X>X>XT.F.F.F.F.G.G.G.F.b.v.v.3.:.{ { _ W l l j d f f f j >.t.S.J.L.L.P.T.Y.Y.Y.T.L.L.G.G.G.F.G.k.} R t t 3 w e 6 e m ( ` ] S M s 7 = # o o # # # * > 0 a c z s s q 8 q q q u u s q u u u p u p u u u u u u q 8 0 0 0 0 0 q z v v v v v v g g g q 7 7 0 s 0 9 0 > > - - 7 j Z i.i.s.i.e.e.e.e.[ ! h h r e e e k { n.I.Y.+X}.U.Y.}.!.Y.P.s.<.q.,.>.] >.,.>.S n f 7 7 f j A <.d.H.S.S.S.S.S.d.d.d.5.3.<.<.<.<.<.t.t.p.b.b.H.H.H.D.D.D.b.b.b.b.b.b.H.b.t.q.%.] D ] A Z _ ] ,.>._ >.>.A n a = # o                                                                                                                           ",
"                                                                                                                                                                $.f.W.~.W.V.W.oX#XwXdXdXfXfXrX@Xk.| Q 7.C.OX=X8X8X8X8XrXyX6X#Xm.h 5 $ 8 l 5.P.1X1X1X>X>XY.G.F.F.D.G.G.G.D.v.v.a.:._ W l l l j j f f f f f f _ 3.b.H.J.L.L.L.Y.!.!.T.U.U.R.R.G.G.M.k.} R t t 3 w 6 6 e b ! @.#.] n x a = # o o O o # * > c c x M n v g g g v v v v v v v v b b b b b V v v v v v q s u z q q g b m m V m m m h g g s 8 7 0 s y 0 : ; % # # = f S p.b.V.b.n.j.j.j...^ T T t t t t e W n.I.oX+X}.T.}.}.!.Y.P.d.<.q.,.>.>.>.q.%.Z d 0 = = 8 f l ,.a.S.S.S.S.S.d.d.d.d.d.a.p.t.t.t.3.t.t.s.b.J.L.L.P.G.G.L.J.D.b.v.D.H.K.b.t.] S n n n M n n S S Z Z A ] D d a = o o O                                                                                                                         ",
"                                                                                                                                                              %.~.iXiXAXiXiXuXuXiXkXxXjXjXfXrX@Xk...Q 7.c.OX&X5X5X3X3X8X8X5X#Xk.g 5 $ 8 l 3.L.1X1X>X}.Y.U.G.F.D.D.D.D.D.v.v.a.p.:._ W _ _ Z Z l j j j f f j >.t.b.K.J.J.L.T.Y.Y.Y.Y.T.P.G.G.G.M.k.7.Q R L t t t w e r g m ( ] S n s a 7 * o + + + X # > y z x M n g s g g r r r g g g g g g g g g g g r r q r q q q 8 8 8 8 q v m j m ( ( ( l j m b s 8 7 0 0 : ; % % X # = 7 S t.b.b.j.n.7.7.2.| R R L t t t t t / l.I.Y.+XY.U.T.}.+XP.H.s.q.,.>._ _ ] >.] S n a 7 7 f j A 1.p.v.d.d.d.d.d.v.v.v.v.d.a.a.a.p.t.t.t.a.b.J.P.P.U.G.G.G.G.F.D.D.D.D.J.d._ f - - - > > - - 0 s s s x x s 7 = # o X O O                                                                                                                       ",
"                                                                                                                                                              y.uXKXPXUXKXFXZXZXVXVXVXcXlXtXeX#Xk...| 7.m.OX#X3X&X*X3XqX8X5X@X8.g 5 $ 8 l 3.J.+X1XY.Y.Y.U.G.D.F.F.F.D.D.v.v.a.3.:._ l _ ] A D C j n j d f j >.t.d.S.H.J.J.P.P.Y.Y.Y.T.P.G.G.G.M.8.7.E L L L t r t t r r h Z ( Z n d a 0 * o + + X X o = y s x M n g g g g g g g g g g k k k h h h k g r r r e e q 8 q 8 8 5 8 g j l ( ( ( ( ! l Z n d 7 7 7 : = ; % # X X # 0 S t.v.v.5.5.4.4.2.} R L L L L J L L } z.I.Y.Y.T.R.T.}.+XP.H.s.,.,.>._ _ >.q.] S n s 7 a f j A 1.p.a.a.p.a.d.d.v.S.v.v.d.d.s.s.a.p.t.p.a.b.J.P.T.U.U.U.U.U.R.G.G.G.J.J.d.l - * o o o o o # # * = ; : 9 > = # # o X O O                                                                                                                       ",
"                                                                                                                                                            8 u.uXFXKXPXKXFXZXHXHXDXCXVXzXdXyX$XM.8.7.k.Z.OX$X4X&X3X3X8X8X7X#Xm.r 5 $ 5 j :.D.+X+XY.Y.Y.U.L.D.D.D.D.D.D.v.a.a.3.1.l l A A A D C C n x d f j ] t.s.b.S.S.J.P.P.!.Y.P.P.L.G.D.D.M.8.o.E L R R ^ I p r e e k k Z Z Z n x a * o o X X + o > c z x n V n k g g h h h h h h k k k k k k k h h g r e r e q 8 8 8 6 8 e h ! ( ' [ ] ( Z Z B g 8 = = = # % # # X X # y F p.b.v.v.j.5.4.| Q L L L L L J J L X.c.I.Y.Y.T.T.Y.+X+X!.K.s.,.>.1._ _ 1.>.>.Z n f 7 7 f d A ,.p.d.a.p.p.a.d.v.S.S.S.b.b.d.d.d.a.p.p.a.b.L.Y.!.+XY.Y.}.}.Y.U.U.U.Y.!.S.A 7 * + + o + + o O % % % # # % # # o O X o o O                                                                                                                     ",
"                                                                                                                                                            8 l.uXZXZXGXFXZXHXKXHXCXCXVXBXkXyX$XC.k.k.z.Z.oX#X$X$X$X4X6X6X7X#Xz.r 5 $ 5 k :.D.+X+XY.Y.Y.T.J.D.S.v.v.b.b.b.a.a.t._ l l D S D Z C x x x s a d D >.p.s.d.a.v.H.P.P.!.T.P.L.G.G.D.M.8.o.E L R ^ ^ ^ T r e e k k Z Z S C x a = o o o + + * > c z x x x n j h k h h k T T T T T R T R R R R T T k T k g r r e e 6 e k k ( ] [ ] ] Z C m n f 7 = = = # # # % # # : z %.b.H.b.v.v.7.4.2.Q R L P P P K P P / A.I.Y.!.Y.T.Y.!.!.P.K.p.,.>.] _ _ ] >.] Z d 7 = 7 f d Z >.p.g.s.p.t.p.a.v.S.S.S.b.b.b.b.b.a.a.a.d.b.J.!.+X+X+X+X1X1X+XY.Y.+X!.!.K.>.f = # o o + + O O O O o X o # O O O # O X X o                                                                                                                     ",
"                                                                                                                                                          g T m.eXVXVXCXCXVXCXDXDXcXcXzXcXdXeX#X_.9.k.k.m.C.Z.A.V.Z.Z.I.Q.I.V.' 8 5 = 8 j 3.L.+X+XY.Y.Y.T.D.d.d.a.a.v.v.a.a.t.:.A l j l C C n d s a a 7 - a C ] w.p.3.<.5.b.K.P.Y.P.L.L.D.G.V.n.8...R L R ^ ^ T T h h k k j ( _ S C x a = * # # o o * > > 0 0 0 0 s b m ( ) ) ( ) ) ) ) ) } ) ) ) ) ) ) ) ) ^ ^ ^ ! ! m h h k ! ( ` ' ` S n j s s 0 7 = - - = * = : 0 : : 0 V %.b.H.b.b.v.v.j.8...E E P P P K K P O.A.].Y.Y.P.L.T.P.!.K.V.i.q.>.>.] ] >.>.] Z d a 7 7 a d C A w.t.t.,.,.<.p.d.S.S.S.b.b.b.b.b.d.d.d.d.b.K.P.!.!.P.P.P.P.K.K.J.L.P.!.P.t.Z f - = * # o o o o o X X o O o O O o X X X o                                                                                                                     ",
"                                                                                                                                                          ( r.].6XkXzXBXxXgXzXBXcXjXgXjXjXrX8X@XM.9.8.k.k.h.' h k k h Z ` ` V q $ $ 5 8 ( a.P.1X1XY.Y.!.P.v.5.5.3.3.5.a.a.p.3.1.l j f j d d f f 7 > = * * - n D q.<.,.1.:.p.b.J.T.G.G.F.F.D.m.n.7.X.R L L ^ ^ ^ T T T h h ( ' Z Z n d a - = , = * * * > > * * = = 7 b ( [ &. .[  . . . . . .| | |  . . . . . . . .' ' ' ) ) ' &.&.@.( n f 7 - - : = * = = - - - 7 f x s f s m q.s.b.b.S.F.v.m.m.k.o.E P P U K U U O.c.C.I.T.P.J.J.P.K.b.s.t.q.q.q.%.%.>.q.] C d f 7 7 a s x Z >.>.] _ _ :.3.d.S.S.S.b.b.b.b.b.d.a.a.d.d.b.V.V.V.s.s.s.p.t.t.t.s.H.!.!.V.q.S n f 7 = o X X o o O # # # o O o o X X X o                                                                                                                     ",
"                                                                                                                                                        v r.I.#X3X7XwXeXwX7XwXrXrX0X0XfXjXfX0X*X).9.c.k.j.=.h $ $ $ 5 7 0 0 9 9 $ 5 8 g _ t.H.T.L.F.D.D.v.5.:.:.<.<.3.a.p.t.3.1.l j f f d f f f - = * # # - n D q.,._ l 1.3.b.J.U.G.F.F.F.D.m.m.h.X.R L I ^ ^ ' )  .&. . .e.e.] ] Z n x a a c a H - > > > * # # # 5 v ( &.e.e...2.2.......................=.............=...e.f.f.w.S q = # # * % # # # = - a d n C S C Z S ] t.b.V.S.D.L.J.I.I.M.8.O.E U U U U U O.c.C.I.L.H.S.b.S.s.t.t.q.>.>.%.] ] ] A Z d f 7 = - 7 a x x S A A l A 1.<.a.S.S.S.b.b.b.b.b.d.a.d.d.s.p.t.q.] S S S D Z n Z ] 3.V.P.K.s.q.S n x 7 # o X o o X # # # o o o o o X o o                                                                                                                     ",
"                                                                                                                                                        ! A.$X7X|.].].]._._.[.[.*X*XqXfXlXdXfX&X'.M.M.c.x.=.g $ # X # # # # # = 8 q v m ( [ 3.p.p.<.<.3.<._ l _ :.:.3.p.p.t.<.1.l j f d d d a f - = * # # - x S q.,._ A _ t.b.J.R.G.F.D.F.D.m.n.h.X.R L R ' '  .r.n.V.V.V.V.V.s.q.A S n x x x x x a a a > * o o X = n ( &.e.2.4.2.2.2.2.7.2.2.2.2.=.=.=.r.r.r.r.2.2.2.r.2.r.j.l.f.e.S q * o o # % % # * = - d Z ] %.q.q.>.q.i.g.b.K.J.P.P.L.Y.}.C.c.O.O.U U U O.O.9.M.C.Z.H.b.a.a.a.t.] _ A A D D S S Z C n f - = * = - > 7 a x C j l l _ <.a.S.S.S.S.b.b.b.b.d.v.v.b.s.q.Z f - = = = = = # = 7 _ b.Q.K.V.s.q.] S x 7 = = = % # # o # o o o o o + o O                                                                                                                     ",
"                                                                                                                                                      w m m.#X3X'.M.c.c.9.9.).{.|.*X9XfXlXgXdX&X].).).M.k.r.h $ X X X X o X @ = 8 k ( ( Z m S D S D Z Z Z j j _ 1.:.3.3.5.3.,._ l d d d d d a a - , * # # > x S >.q.] Z >.t.b.L.L.G.G.D.D.D.V.n.2.| W R T ) ..4.j.H.P.P.P.P.K.s.,.] A D C n C D n d a a > ; o X X = s ( &.e.r.2.2.2.7.7.2.7.h.7.r.r.r.h.h.h.h.h.7.r.h.h.h.h.j.z.z. .Z 7 X . O O % = * # = 7 n +.w.w.w.w.i.i.g.V.K.J.P.P.P.P.}.oXC.k.o.E E U U O.9.c.m.m.V.V.b.p.3.t.>.Z l C C S D C n n n s - * * * * * = - f s n d f d A ,.a.b.S.S.S.S.S.S.b.v.v.S.b.s.q.n : o X X + + + . + o f ] g.g.g.i.q.@.S v 0 : 9 > , * = # # * # # # o o o O                                                                                                                     ",
"                                                                                                                                                      5 e ..].{.).c.c.).(.(.).|.-X9XrXgXcXlXdX5X'.M.M.M.z.h.m $ @ X O o o # # 8 h T ( m g f 0 0 0 0 0 f f f d Z ,.,.,.3.3.<.1._ j f f d d d a - - * * o o * a Z q.q.D Z ] t.b.J.L.F.F.D.D.D.V.b.5.4.W T W { 4.3.v.D.P.P.P.P.K.s.>.A S S C n C D C j d z y ; o X X = f m  .2.2.2.2.2.7.7.7.7.j.h.x.h.h.h.h.h.7.7.h.h.h.k.h.h.k.m.z.4.( 8 X X O O ; = * # = 7 j A q.q.q.q.q.i.g.g.K.J.P.P.P.P.I.}.M.8.X.E P E E o.8.k.n.m.n.n.s.t.t.t.>.Z l n n C C n d d x a - # o o o * = = 7 a x d a d Z ,.p.v.S.S.S.S.S.S.b.v.D.F.J.V.g.F 0 # X X + o + + + + = x S S n j g g V z 7 9 9 9 9 = 7 - 9 : $ # O X o o O                                                                                                                     ",
"                                                                                                                                                    % = 6 T k.c.c.9.9.c.c.9. X=XrXfXdXcXcXcXgX5X'.M.M.M.c.x.~ 5 # # # O # # $ q T ) ' m q = = * # # # * = 7 s S e.4.,.4.<.:._ A j f f a d d a - - * # o o * a C D >.A C ] t.d.J.L.F.D.D.D.D.b.n.v.4.:.W { 4.r.5.v.D.P.P.P.P.V.s.] A Z Z C C S S Z l j z a * o X X * q m [ r.2.2.2.2.7.7.7.7.j.h.k.j.j.j.x.h.h.8.h.h.h.h.k.h.k.z.n.e.( f # o * ; : > = * = 7 j A %.>.] ] q.q.s.b.K.L.P.P.P.P.I.I.M.8.Q R R E E o.k.k.z.n.n.b.s.t.t.t.,.A C n n M n n s s d a - o o o o * * = 7 a x a a f l 1.t.d.v.S.S.S.S.H.S.S.D.D.J.K.g.%.0 # # # # O O + o + # : 7 7 7 = = 5 q 0 w w 8 q q 8 s g x q 9 # O X o o O                                                                                                                     ",
"                                                                                                                                                  % $ w e ^ h.c.o.8.8.9.9.c.{.rXlXlXcXvXCXcXlX5X].).C.C.m.z.~ 6 $ # # O # # = v ` [  .' g 5 = * # # # # = 7 x +.t.e.4.,.:.:._ A j f f a d x a > = * # O o * a C D >.A C ] t.b.J.L.G.D.D.D.D.V.V.n.n.i.4.p.a.s.v.v.D.L.J.H.H.d.t._ Z Z Z l l D Z D l n x 7 * o + o = f Z [ e.e.e.r.2.2.h.7.7.7.7.7.7.h.h.h.7.8.8.8.7.h.k.z.z.z.V.V.i.] j - = - : > > : = - f j ] ] ] ] ] >.q.p.b.J.L.P.P.T.P.T.Y.V.7.| R R R Q ..k.n.n.n.n.b.s.p.p.p.w.] S n n n n d s d x a - # o o # * * - a x x x d d C ] t.d.b.S.D.S.H.K.K.K.D.D.J.K.g.%.0 # # # # # o o o o # # # = = # # $ 5 w w q g h h h ( ' ` V q $ # X O o O                                                                                                                     ",
"                                                                                                                                              : 9 5 6 h / X.;.o.o.o.8.9.M.).*XdXBXBXCXCXSXBXxXwX[._._.C.Z.B.' w $ # # X @ # : v #.e.e.[ m 8 5 = $ $ $ # = - z S e.e.4.,.<.:.1._ j f f a a a a > = * # O o * a C D >.A C ] t.b.L.T.L.F.D.D.D.D.D.H.D.b.b.b.b.V.b.v.D.D.D.b.b.a.3._ A A A l l A A Z l j d 7 = * * * 7 s Z [ q.e.&.e...r.h.7.8.8.8.8.8.k.8.8.8.8.8.8.8.k.z.z.z.V.V.V.s.q.Z f 7 7 0 a a 7 7 7 f n ] >.>.>.>.,.<.s.b.P.P.T.P.P.T.P.Y.H.a.4.W W W } 2.j.j.n.n.b.b.s.p.p.s.t.q.D n x x n x d d x a = o o o # , > > a x N x x x C ] t.d.b.H.H.H.K.K.K.b.b.S.S.V.g.] f = # # = $ # # # # $ $ $ : : # @ # = w q g h ( ) ) 2.x.e.` v = X X O o                                                                                                                       ",
"                                                                                                                                            u V m T R =.A.A.c.c.8.9.M.].[.OX=XdXcXcXBXBXCXBXzXeXOX_._.C.Z.B.' 6 & @ @ X @ # 5 v [ e.e.[ m e 8 5 w 8 5 = = = 0 N %.[ [ ,.:.:.1.A j f f a a a a - * * # o o * a x D D S C ] t.b.L.T.L.F.D.J.D.D.D.J.H.H.H.H.H.H.D.D.D.D.D.S.v.v.a.3.<.<.:.1.1.,.,._ Z j j s a 7 - 7 f n Z S ( ` ` ' (  .x.k.c.c.c.c.c.c.c.c.c.c.9.8.8.8.h.r.r.e.i.i.t.>.A Z C j n n n M d j j A q.t.t.t.t.t.a.b.V.I.I.P.P.P.P.P.P.J.b.a.4.4.4.4.4.i.i.j.s.d.d.s.p.p.s.s.q.D n s z x a a a a a * o + + o * * - a d x x a d j A t.d.b.D.H.H.K.b.s.t.>.,.,.,.] j f 8 f g g g 8 w = $ $ $ $ $ ; # @ # $ 8 h ! ) | | | 7.j.r.` g $ @ X O o                                                                                                                       ",
"                                                                                                                                          V &.x.x.8.8.).OX{.{.`._.].*X6X6X6XrXdXlXgXxXcXBXcXzXeXOX_.C.M.m.z.) 6 & @ @ @ @ $ 5 h [ 2.r...( k h h m V v w = = 9 s Z Z Z _ >.,._ l d f f a > > > - * * # o X # > x D D D n A w.d.J.P.L.D.L.J.F.D.D.D.D.D.H.H.J.H.H.D.D.D.D.D.D.D.S.v.v.b.b.a.a.a.p.<.] Z D C n d x j Z D Z n v s v g h ) j.C.'.'.'.).M.M.C.M.c.c.c.c.c.k.h. .T h Z Z Z A ] >.,.] ] ] %.] S A A q.s.V.K.K.V.V.V.H.P.I.I.P.P.P.P.P.P.P.H.H.v.v.a.a.v.a.a.a.s.d.s.p.p.s.s.s.q.] n s s s a a a a - * + + + + o O * - a a a a a s D q.s.b.S.H.H.b.s.>.j f f f f f 8 f k ' ,.e.&.` h 8 6 5 5 $ $ $ # # $ = v ' &.2.2.7.Q 7.k.2.! r $ X X O O                                                                                                                       ",
"                                                                                                                                          ` l.C._.).(. X-X-X@X@X@X&XrXgXdXdXgXlXcXlXzXcXBXcXzXeX@X]._.C.m.z.) 6 1 & $ $ $ 5 8 h  .2.h...} ) ) ' #.#.~ q 5 # $ 7 j j j Z _ _ Z j d f 7 7 - - - - * * # o + * a x D D D n S q.s.J.P.L.L.L.L.D.D.D.L.L.J.J.J.J.J.J.J.D.D.J.L.L.L.J.J.J.J.J.S.v.v.d.t.,._ ] ] A A A A ] ] C f 7 7 8 8 e ) A.].OX|.[.{.{.[.[.[.[.].].]._.C.k.' g 8 7 f d Z ] q.t.,.>.>.q.%.] ] ] t.V.P.P.P.P.P.J.L.P.P.P.P.P.P.P.P.P.P.J.J.K.H.D.v.v.v.a.s.s.s.s.p.p.s.s.s.q.] n a s s a - - > > o + + + + O o # * - a a a a s D q.s.b.D.J.J.b.p.l f = = = = 5 5 f ( i.V.I.Z.n.e.) ! h h g q q = $ 5 q ( u.z.m.k.8.8.8.m.7.T r $ X X O O                                                                                                                       ",
"                                                                                                                                        w *.Z.#X=X{. X X.X-X-X9XyXkXVXCXVXcXBXBXcXcXBXBXCXcXxXeX@X].'._.C.m.} k 6 6 5 8 8 e h ! ..7.h.h.h.h.h.l.l.N.*.v w $ $ = 7 f f j j l j f 8 7 - - > > > - * * O + + # a x D D S n Z q.d.J.P.L.L.L.J.D.D.J.J.J.L.L.L.L.L.L.L.L.L.L.L.L.P.P.P.P.P.P.L.J.D.D.b.t.,.,.q.>.>.q.t.q.] C 7 = = = $ 6 ' Z.#X7X8X5X3X3X3X3X5X5X=X=X5X4XOXZ. .8 = = - 7 d D ,.<.:.,.,.>.] ] _ >.t.K.!.+X+XY.Y.Y.Y.T.Y.Y.Y.P.P.T.T.T.Y.P.P.P.P.J.H.b.b.a.a.a.s.s.s.s.s.s.s.w.] n s z s a a a > - * + + + o O o o * - a a a a f D w.s.v.D.J.L.b.3.Z 7 * : 9 = = 5 f { Z.+X2X$X+XC.m.j.j.i.e.! h q w r B e.Z.I._._.M.9.M._.m.} h 5 @ X o O                                                                                                                       ",
"                                                                                                                                        q =.Z.#X=X{. X X.X-XsXfXzXBXCXJXSXCXSXCXBXBXBXBXCXxXgX6X[.'._._.C.m.X.R k k h h h T ( ) ..7.k.k.k.k.z.z.B.B.*.b 6 $ @ $ 7 7 f d j j f f 7 7 - - > > > , * * O o o # a x D D D j S t.d.J.P.L.L.L.J.D.D.J.J.J.L.L.L.L.L.L.L.U.U.U.R.U.U.P.U.U.P.P.U.L.L.J.b.a.<.<.<.,.,.t.t.q.>.C 7 = = $ $ 1 ` Z.#X6XrX9X9X9X0X0X8X8X8X8XwXwX$XQ.&.8 # # * - f Z ,.<.:.1.>.>.>.] 1.1.p.K.Y.+X+X+XY.Y.Y.Y.T.T.Y.Y.Y.P.Y.Y.Y.T.P.T.I.I.I.V.b.a.a.s.s.s.s.s.s.s.p.w.] n s z s a a > > , o + + + + O O o * - a 7 7 a f D w.s.v.D.F.L.S.t.Z 7 = , 9 = 5 5 k { I.2X6X6X3X[.].I.C.I.m.4.! h 8 h ( r.I.oX]._.).c.M.].C...! w @ X X O                                                                                                                       ",
"                                                                                                                                        w ' z.].@X X(. X|.qXdXlXzXBXVXCXCXSXSXCXCXvXvXcXBXlXyX&X'.M.).).M.M.7.| |  .e.e.e.r.r.2.h.h.8.8.8.h.k.k.x.l.&.g 6 $ @ $ 5 0 f d d d f f - - = = > > , * * # O o o * > x D D C d D q.d.J.Y.L.J.L.L.J.J.J.J.L.L.L.L.L.L.L.R.R.R.I.I.R.R.R.L.R.P.L.R.L.L.L.b.p.:.,.,.1.,.<.t.q.>.Z 7 = * % # $ ! Z.#X7X0X9X9XqX9X8X8X9X8X9XrXeX4XoXu.8 # # * - s D q.<.:.1.] >.>._ _ 1.a.J.Y.+X+X}.Y.}.T.T.T.T.T.T.T.T.T.Y.T.U.T.T.I.I.I.F.v.a.a.a.d.d.s.s.s.s.p.w.] n s s s 7 7 - > = o + + + + o # # * - - - - 7 a C q.a.d.D.F.L.S.p._ 7 = : 9 = 5 6 k | I.#X3X5X3X|.|.[.[.}.].k.} k 6 k T 2.I.oX[.'.).M._.].C.h.^ 8 @ @ X o                                                                                                                       ",
"                                                                                                                                        8 ! 7.C._.(.(.`.|.9XlXzXzXzXzXVXCXSXCXVXcXlXlXcXcXdXwX@X).M.).)._._.c.7.j.z.V.V.V.V.m.z.k.k.k.8.7.7.7.7.h.r.' r 5 # @ $ 9 0 s j j d d f - = * = , > , * * # O o o # > x C D C d Z q.s.K.!.P.J.J.L.J.J.J.J.L.L.L.L.P.P.R.I.].].R.R.R.R.R.R.R.R.R.R.G.G.G.v.t.:.1._ _ _ ,.<.q.>.D f : = = # $ m V.oX4X8X5X5XqX9X9X9X9X9X9X0XeX4XoXu.q = # = > z S q.<.1.{ _ >.>._ _ 1.5.J.P.!.+X}.Y.T.T.U.U.T.Y.Y.T.T.Y.Y.Y.I.I.I.I.I.G.F.v.a.a.a.d.d.d.s.s.s.p.w.] n s s s 7 - - > * o + + + + o o # * - - = = - 7 n q.p.d.S.D.J.H.s.] 0 = : 9 = 5 6 e | M.@X3XqX3X|.*X|.3X3X#XC.7.R e k R 7.'.[.].'._._.)._.A.x./ r & @ @ @ %                                                                                                                     ",
"                                                                                                                                        h  .k.).`.`.`.{.*XrXzXVXVXVXVXCXCXCXvXjXfXrXrXdXlXfX9X@X'.)._.)._._.c.k.k.V.Z.V.Z.Z.m.m.x.z.z.k.k.h.7.h.j.x.[ g 5 # X % 9 0 s x s s f f - = = = > > , * * * O o o # , x D D C d S q.s.K.P.J.S.D.H.D.D.D.L.P.P.P.U.T.T.Y.].].}.}.}.}.}.].R.U.U.U.U.G.G.G.v.a.:.1.1._ { 1.t.,.>.Z a = = * = = m V.$X8XrX0XqX9X0X9X8X8X8X8X0XrX6X%XN.q = * * - a D q.,.{ { ,.,.,.1.1.1.5.J.T.!.+X}.}.}.}.}.U.}.}.}.}.}.}.}.Y.U.Y.Y.U.R.G.G.v.d.a.a.d.b.d.a.a.s.p.t.] n s s s a 7 7 > , # X o o o o # * , 7 > * * , 9 n q.s.b.D.L.P.K.g.#.f : > 0 0 8 e k ..].#X5X0X0XqXqX0X0XaXrX#XC...R R Q k.[.@X|.[.[.[.]._.C.c.=.^ t 2 1 $ &                                                                                                                     ",
"                                                                                                                                      j ) k.M.`.`.`.`.{.*XrXcXCXVXVXCXCXCXvXjX0X9X5X9XrXgXrX8X*X].'.'.'.'.].M.k.k.m.V.V.m.m.k.m.x.z.z.k.j.7.7.j.h.e.' g = # X # : 0 s x s f f a 7 > = = > > > * ; * O O o * , x C D N x Z ] t.b.H.v.d.b.v.v.v.S.P.T.T.T.T.Y.}.}.}.[.[.}.}.}.}.}.}.}.}.U.U.R.G.G.S.a.3.3.:.{ { :.t.q.] Z f : : = * = Z Z.$XeXdXrX9X9X8X9X9X8X8X0XrXyX6X$XV.g = * * - a C >.<.,.:.,.,.,.,.:.:.a.D.Y.+X1X+X}.+X}.}.}.}.+X+X+X+X}.}.}.Y.Y.U.U.U.G.F.v.d.a.a.d.b.d.a.d.d.p.t.>.n s s s a 0 0 7 = * o o o o o # * > 0 0 = = , i N w.s.S.J.L.L.K.g.%.0 : : 0 q k k R 7.].3X8XaXaX0XfXfXbXvXcX8XOXc.Q X.8.M.@X3X*X*X@X@X[._.M.c.;./ I p e w 9 :                                                                                                                   ",
"                                                                                                                                  u ! ) 8.).`.(.`.^.^.`.`.@X9XdXlXzXVXCXVXcXfX5X*X*X&X0XdX0X9X*X].'.].].].].M.k.7.7.2.r.j.8.7.7.r.r.x.h.2.....2. . .! q = o + # : 9 0 s s f a 7 - - = = , , , * * O o O o # , a x C x a n Z 1.p.a.a.3.3.5.5.a.v.L.T.T.T.Y.}.Y.I.].'.'.].].}.}.}.}.}.}.U.U.U.R.G.J.S.b.a.a.3.4.4.t.q.] D x a z c > 7 Z l.I.#X5X3X&X9X9X9X9X9X9X5X3X3X#X].l.h 7 7 7 a d A q.t.t.t.t.t.t.t.3.3.a.D.Y.+X1X+X}.}.}.}.}.}.}.}.}.}.}.}.}.U.U.T.U.R.G.F.D.v.a.a.b.b.b.a.d.d.p.t.] n f s s s a a 7 = # o o o o o # * = = > * # ; : z S q.t.a.5.3.,.] B : = = 8 k ! ! } k.[.5XrXfXfXfXjXbXbXvXcXrX*X_.8.8.c.'.@X3X*X*X*X@X].M.8.o.o./ ^ ^ T b r 9 #                                                                                                                 ",
"                                                                                                                              * v !  .7.M.{.{.`.^.^.O.O.O.(.{.*XrXgXzXVXcXdX9X*X@X|.*X9XfX0X9X*X{.'.].].{.[.M.h.| W T ) | | } } )  . . .} ) } | ) ' m 8 * X . o * : 0 0 a a 7 - - = * * * * * * o o o o + # , a a x a f f j l ,.<.:.:.:.:.<.5.d.J.P.Y.Y.Y.Y.I.I.M._._.).'.'.].].}.}.}.}.}.}.}.U.T.P.L.L.H.b.a.a.3.,.] Z n M N N M s Z e.i.Z.].[.[.*X3XqX3X3X&X@X].].m.m.e.m j n n Z A ,.p.s.p.a.d.d.d.d.a.a.v.G.Y.}.1X}.}.}.}.}.}.].G.F.G.I.Y.}.+XT.U.T.U.U.R.F.S.v.a.a.b.b.b.a.a.a.t.<.] j f f a s a 0 7 = # o o o o o # # # # * o o # % > x C Z l j f f f 0 # = = 8 h '  ...c.[.5XrXjXdXfXdXbXbXvXcXrX=X].M.).'.{.*X*X*X*X*X@X_.9.E E E / / / ^ ^ p 8 $                                                                                                                 ",
"                                                                                                                          c N +.&.;.k.c.`.{.XX(.^.O.U U U O.c.`.@X=XfXbXdX0X9X&X*X*X3X8XfX0X3X*X{.{.{.{.OXOXC.7.) k e h h T T T T ! ) ) ^ ^ ^ ^ ! ! v 8 $ X . O * * , > > > , * * * * * O o O O o o O + o # > a c z a 7 f d Z ] ,.,.1.1.:.:.3.v.L.P.T.Y.I.I.Z.c.c.`.(.9.c.).).'.}.}.}.}.}.}.}.}.T.Y.T.T.P.D.v.5.5.:._ _ Z Z S S n n n N S +.&.j.M.|.9XqX0X5X#X].Z.2.i.e.[ ( Z ] ] ] ,.t.s.v.v.v.b.b.S.S.v.v.D.J.U.}.}.>X}.}.}.}.}.G.0.7.j.i.V.K.P.Y.Y.U.R.U.T.G.S.v.d.d.b.v.b.d.d.s.t.w.>.n f f f a a a 7 = * o o o o # # o o # # o o # = 9 a s x a - = * * = $ # 8 v ( ..7.7.M.OX8XdXbXbXjXlXbXcXcXcXdX8X&X|.[.*X*X3X*X*X*X*X*X_.o.E L L ^ / / / ^ I 6 & X                                                                                                               ",
"                                                                                                                        G w.V.Q.C._.).9.(.`.`.^.O.U K K P P O.O.c.`.*X9X9X9XqX3X5X5X9X0XfX0X3X*X{.{.{.[.@XOXC.r.! 6 6 8 e g k k k k T T T h h h h h q 5 $ X . X + o o O * O o o o o o o + + + o o + o + o # > a c a a 7 f j A >.t.<.<.<.3.3.5.v.J.P.Y.I.I.C.k.o.O.O.O.O.O.9.c.).}.}.}.U.Y.U.}.}.}.}.}.T.U.G.D.v.d.3.:.>._ A ] D Z m x y i 0 q h 2.].9X0XaX9X@XC. .k ( ( _ _ ] ,.q.q.w.p.b.v.D.D.H.H.J.J.D.D.D.G.U.}.>X}.}.}.}.}.'.0.Q R T ! [ e.V.Y.Y.U.U.U.U.L.H.b.d.d.v.v.d.d.s.s.i.w.>.n f f a a a a 0 - * # o o o # # o o # ; # # # = 7 0 a 0 > * o o # % % $ q ~ ' r.h.8.'.&XrXcXvXvXcXcXcXcXcXcXxXjXrX0X0X9XqXqX3X3X3X*X*X_.o.R L t I I I L L t 2 & @                                                                                                               ",
"                                                                                                                      c y.W.%XpX=X*X_.(.^.^.^.Y U U K K K J P P O.O.{.-XqX9X9X9X0X8X0XrXfX0X&X|.{.{.{.|.@XOXC.r.T 6 & 6 6 8 k k k k T k h e e e g g q 5 $ O . X X X X + + + + + X X + + X X X + X + + + o # = > 0 a 0 - s n A q.t.t.<.3.t.3.5.v.J.L.T.I.I.m.8.Q E O.O.O.O.O.9.M.].}.}.T.T.U.U.}.}.}.}.T.U.L.F.D.v.a.<.,.] A ] S Z n 0 * o X $ 6 R _.8XaXfX8X|.m.W 6 k l ( ] ,.q.w.t.t.s.b.b.D.D.J.J.J.L.J.D.G.L.U.}.1X>X}.}.|.}.I.8.R t 3 e k T 2.U.Y.U.U.U.U.L.H.b.d.d.v.v.d.d.s.s.p.t.>.C f f a a a a 0 - * # o o o # # o # # ; # # * = 7 9 7 > * o + o o # # 9 v ~ ' =.h.k.].4XdXcXCXVXcXvXVXzXzXcXcXcXjXjXjXjXaX9X5X3X3X&X*X_.o.R L t I I L t t t 3 1 @ %                                                                                                             ",
"                                                                                                                      F V.%XpXuXwX=X{.(.O.O.O.U U U U P K K K P E O. X-X9X0XaX0XrXrXrXdXdX0X3X*X{.{.{.[.@XOXZ.r.! 6 & 6 6 8 k k k T T T h e e e h g q 5 $ o . X + X + + + + + + + + + + + X X X + o + + o # * > 0 0 > - a d D >.q.<.:.<.3.3.5.v.D.L.L.I.I.M.k.o.O.O.O.O.O.9.9.).}.}.Y.T.U.U.U.U.T.T.U.U.R.L.D.D.S.a.:._ Z Z S S Z M y * o X $ 6 R _.0XaXfX9X@XM.| e k l _ _ ] ] q.q.w.p.d.b.D.D.J.J.J.D.G.D.D.G.U.}.1X+X+X#X#X}.C.7.R t 3 3 e k 2.I.}.}.U.U.U.U.H.v.a.a.d.d.d.s.p.s.i.w.%.n f f a a a 7 7 = # o o o o # # o # # O O # # = - 9 7 > * O + o o # $ w v ~ ' ....7._.3XyXzXvXVXcXVXCXCXVXvXvXbXbXbXjXjX0X5X*X&X*X*X@X_.o.E L L I I L t 4 4 3 1 & %                                                                                                             ",
"                                                                                                                    7 #.Q.pXeXyXwX-X{.(.O.O.Y U Y U U U K K P U U O. X-X9X0XaXfXrXrXrXfXfX0X3X*X|.{.{.{.[.OXZ.r.! 6 & 5 8 e h k k T T T h h r r h v q 5 % X . X X + + + + + + + X X + + X o               o * * > 0 > - 0 d C ] ,.,.,.<.3.3.3.d.D.J.L.I.I.Z.k.o.O.o.O.O.O.9.c.'.}.}.}.U.U.U.U.U.U.U.U.R.P.G.D.D.D.a.,._ l l Z Z n M y ; O O $ 6 R C.8X0XaX0X|.C. .g h ( ( Z A ] >.>.q.t.d.b.S.D.D.D.D.D.D.F.D.D.L.}.}.+X+X#XOXI.x. .I t 3 3 t t | I.}.}.U.U.U.L.H.b.a.p.a.a.p.p.t.p.t.q.] n f f 7 7 7 7 > = # o o o o # # o # # O o o # = : 9 0 > * o + X X # $ q V ' ' X.X.o._.=XyXcXVXVXzXCXDXSXvXvXvXbXbXbXjXaX8X3X*X|.|.|.OX_.o./ I L I I L L J 4 3 3 2 1 &                                                                                                           ",
"                                                                                                                    5 [ Q.4XwX8X-X-X`.^.O.Y Y Y Y U U U U P U U O.(.{.qX9X0XaXfXfXrXrXrXrX9X&X*X@X{.{.{.[.OXC.h.! 6 $ w 8 s g k h k T T h g r g r v z 0 = X . X X + + +                                   o ; , > > > - a d D >.q.,.:.<.p.3.5.d.D.J.L.I.I.Z.k.7.O.o.O.O.O.9.M.'.}.}.}.U.U.U.U.R.U.U.R.L.P.L.L.J.H.a.<._ j j n C n n c , # O # 5 k m.6X0XfX0X@XG.[ 8 m Z Z Z Z ] ] _ >.t.d.b.H.D.L.J.D.D.G.L.G.D.D.D.m.Z.M.m.m.7.^ I t 4 4 4 L R 7.I.}.}.}.}.U.L.S.d.3.3.3.3.<.:.<.t.q.] D n s f a a 7 7 7 = # o o o o # # o # # O O o # * : > 0 > * o + X X # = q m ' X...o.o._.5XdXzXCXCXVXCXSXSXvXvXcXbXbXjXaXaXqX3X|.{.[.@X*X{.c.o./ I / / I L L J 4 3 3 2 2 &                                                                                                         ",
"                                                                                                                    5 ' Z.#X=X-XOX`.(.O.O.O.Y Y Y Y O.U U U O.O.`. X-X9X9X5X9X0XrXwX5X7X5X5X3X&X@X|.{.[.|.OXC.h.! 6 $ w 8 q g g e h h h b g g g q g u 9 ; O .                                               ; , > > > - f j S >.w.t.<.3.p.5.a.d.D.J.L.J.I.I.k.7.o.;.O.O.o.9.M.'.}.}.}.U.U.U.U.U.U.R.P.P.P.L.L.L.J.d.3._ l j Z D Z n z > % % # $ k n.4X0XtX0X|.M.[ 8 g m Z l Z ] _ _ ] t.d.S.H.J.L.L.J.L.L.L.J.D.5.4.| ..X.X.E L t 3 4 4 4 J E X.k.I.].}.}.U.U.D.d.p.<.:.,.,.1.1.1.] A D Z n s s a a a 7 7 = # o o o o # # o o # O O o o # = , > , * o + X X % 9 r ! ' X...o.o.).5XdXvXCXCXvXvXvXvXvXvXbXjXaX0XqXqX3X|.{.{.{.|.*XOX).c.o.E / / / P P L L L L t 3 2 2 1                                                                                                     ",
"                                                                                                                  * $ ! B._.OXOX`.`.^.O.O.Y Y Y Y Y O.O.O.O.^.(.`.{.-XqX-X*X&X5X=X#XOXOXOX@X@X@X@X|.{.[.|.OXC.h.^ 6 $ 5 8 q g e e r h h v r p p q s 0 = # X                                                 ; ; , > > - f n Z >.w.t.<.t.p.p.5.d.D.J.J.J.I.I.n.7.o.;.O.O.O.9.M.'.}.}.Y.U.U.U.U.U.R.L.P.L.L.L.L.L.J.b.p.,.A Z _ ] A Z x > ; % $ $ g l.2X6XyX6X}.m.[ 8 g m l l l _ _ _ _ t.d.H.J.L.L.L.L.L.U.T.J.b.4.| R R R L L 3 2 2 3 4 4 J I X.o.k.m.V.b.b.b.a.p.3.,.1.:.1._ _ A A Z j n M s s a a a 7 7 = # o o o o o o o o # O o o o # * = , ; O + + . . # 5 r ^  .X.....o.).=XyXzXCXCXcXbXlXjXjXjXaX9XqX*X.X.X|.{. X X{.|.*XOX).9.O.E E O./ O./ E E E E I L L p w w                                                                                                   ",
"                                                                                                                O # $ r  .c.).`.^.O.U U Y Y Y Y Y U U U O.^.(.`. X{.*X-X*X{.{.[.].M.c.c.0.M.[.@X@X|.{.{.|.@X].h.! 6 $ 0 8 8 q 8 e e r r p r v v q 9 $ % #                                                   ; * , , : > a n A >.q.t.t.t.t.3.5.a.v.H.J.J.L.G.n.7.o.O.O.O.O.9.M.'.}.}.U.U.U.U.U.U.P.L.L.L.L.F.J.J.J.S.d.t.,.>.,.,._ A d 7 = = : 5 g i.%XpXuX6X].n.' g j Z l l l A _ _ 1.t.d.H.J.L.L.L.J.J.L.P.J.n.4.W t t t 3 2 2 2 2 2 4 4 L / X.o.} | | :.{ W 1.1.1.1.1.1._ _ A A Z j d s s a a a a a 7 > = % o X X X o o o o o + + o o o # # # O o . . . . # w g T ) } ....o.M.&XwXzXvXcXlXfX9X9X0X9X3X|.{. X X X X X X X X{.|.{.).9.U P P E O.;.O.;.;.;.;.O.O./ =.I 3 1                                                                                                 ",
"                                                                                                            O O % % $ w ^ ;.;.;.O.U Y U U Y Y Y U O.O.^.(.`..X.X.X{.@X*X|.{.'.'.C.8.o.o.7.M.[.|.@X|.{.{.|.@XC.h.^ 8 $ 0 8 8 q 8 q q r q w w 9 u 9 ; %                                                       ; ; * ; , - 0 d Z A >.>.,.:.<.<.3.a.b.S.H.J.J.G.n.8.o.o.O.O.o.9.M.'.}.}.U.R.L.L.U.P.P.L.L.L.L.L.J.L.L.K.S.d.t.t.i.p.<.,.C f 7 0 0 0 g #.V.Z.Q.Q.i.e.` ( ] q.,.,.,.<.3.3.t.a.b.H.J.L.P.P.L.L.T.T.J.m.2.W L L t 4 2 2 2 2 2 4 4 J L E R L k k k k f Z _ _ ,.,.1._ _ A Z Z n d s s a a a a a 7 > : * # o X X o o o o o + + o o o o o O + + . . . X $ q h ! } } ..X.o.M.&X0XxXvXcXfX9X&X-XqX-X|.{. X X).).).).).'.{.{.{.{.).9.O.U O.O.`.`.`.`.`.`.(.O.O.o.;./ 3 2 & $                                                                                             ",
"                                                                                                          o O O ; % & w I / / O.O.O.U U U U U O.O.^.`.`..X-X:XqX*X|.{.|.{.{.].M.k.Q R E Q c.].|.*X@X|.{.|.OX_.h.) 8 6 w 8 q q 8 q q q w $ $ $ ; % #                                                         ; * # # * = 7 f j C Z A A _ 1.:.<.p.b.H.H.J.J.I.m.k.8.o.o.o.8.9.).'.}.}.T.U.P.P.U.U.L.L.L.L.L.L.L.L.P.P.J.K.b.b.V.S.d.p.1.j x x x x q d g k Z m f g #.i.V.K.K.b.b.S.S.S.H.K.J.L.P.P.P.P.P.P.Y.Y.L.V.j.X.E L L 4 2 2 2 2 3 4 4 4 4 t 3 3 6 6 5 5 = s Z _ ,.,.,._ _ _ Z l j f a a a a a a a 7 0 > , % o o o o o o o o X + o o o + X X + + + . X # 9 M ~ ' ..X.....7.M.=XeXvXCXbXaX3X|.|.*X|. X). X{. X).).9.M.'.{.{.{.{.).`.O.O.(.`._.{.OX@XOX`.(.O.O.o.o.E 3 2 1 & $                                                                                           ",
"                                                                                                          o o O % % & w p I I / U O.U U U U O.^.`.{.-X-X-X9XsXsX-X@X{.{.].]._.c.7.Q R R Q c.].|.@X@X|.{.|.[.C.h.) 8 6 w 8 q q 8 q q w = # @ X O                                                             ; O o # # * - f d j l l l l _ 1.<.p.b.S.H.J.J.I.m.k.c.8.o.o.9.9.M.'.}.}.U.R.P.L.P.P.L.G.J.L.L.L.L.L.P.P.P.P.K.H.J.K.b.a.,.C n C N M a = # # $ # # 5 %.V.~.!.!.P.P.T.T.T.P.P.T.T.T.T.P.P.P.P.Y.Y.I.M.k.o./ I L 4 2 2 2 2 2 3 2 2 2 3 2 1 & & $ @ # 0 Z _ ,.,.>._ _ _ Z j d s a a c c a a a 0 0 0 , * # o o o o o o o + + o o o X + . + + + . X # y B @. .=...X...o.C.#X8XbXvXjX0X3X|.{.*X|.).)._.{.'._.M.9.9.M._.C.M.).`.).c.(.{.@X*X-X=XwX-XOX`.(.O.;.;.o.R L R k e 0                                                                                         ",
"                                                                                                        + + o o O # & 1 3 t L P P U P K U O.^.@X-XfXgXfX8X9X9X5X*X@X{.].).c.8.7.X.W R W Q k.].[.@X|.[.{.{.].M.h.) 8 1 5 8 q g s s 7 $ # # X                                                                 O O # # # * - f n C l l l Z _ >.,.t.s.d.b.b.V.V.n.8.8.o.o.o.o.9.c.M.G.G.G.G.F.F.G.L.L.J.J.J.J.J.J.L.L.L.L.J.D.D.J.H.d.p.1.l n S C M z = X X o X X 5 q.K.!.+X+X!.T.T.T.T.Y.T.T.U.P.P.P.P.L.L.T.T.I.M.9.O.E P J 4 2 2 2 2 2 2 2 2 2 2 1 & 1 $ @ @ # 0 j _ ,.,._ _ A A Z j d a 7 7 0 0 7 0 0 0 0 0 > = # o o o o X X o X X X X X X . . + + . . X # i B @. .=.X.} X.o.c.'.#XrXjXfXqX3X.X|.*X*X_.c.M.M.c.c.8.Q E Q ..X.Q o.c.).`.{.-XwXrXrXgXxXgXwX*X{.{.{.{._.M.c.].C.u.V                                                                                         ",
"                                                                                                        o + + o # # & 1 3 3 t L I P K K E ;.{.wXcXBXCXxXyXwX9X&X*X|.{.].M.8...X.} W W W } k.].[.OX|.{. X{.].M.h.) 8 6 w 8 s v g q : # X @                                                                   O O # # # * 7 s n C Z A A _ ] ] >.,.p.s.b.b.b.V.n.8.h.o.o.o.o.9.c.M.M.F.F.D.D.D.D.G.L.J.J.J.J.J.J.J.L.J.J.J.S.S.D.S.d.p.1.l C S S n s = + X o X X : q.P.+X+X1X}.T.U.U.T.T.T.T.U.T.U.T.T.L.L.U.U.G.M.9.o.O.P J 4 2 2 2 2 2 2 2 2 2 2 1 & $ @ @ @ @ 7 m _ [ [ _ Z Z Z C j f 7 7 7 0 7 > 7 0 0 0 0 > , # o o o o X X o X + + + X + . . . . . . X # 9 M @.' &.' ) } X.7.m.].4XeX8X5X3X*X*X3X@X_.9.c.k.8.7.X.R t R R k t E o.M.OX=XfXlXxXgXBXZXCXgXrX9X-X-X-X-X*X&XeX6XI.' q                                                                                       ",
"                                                                                                          + o # % # & 1 w t t L L I L P o._.=XgXDXDXDXVXxXgXyX5X@X{.].'.c.o.Q } W T ) } X.m.oXOX#X[.[.].[.[.C.k.) e 6 w 8 g v v s : # #                                                                       % # # # * 7 s n C Z A A _ ] ] >.,.p.s.d.d.b.V.n.8.k.8.o.8.9.9.c.M.M.F.F.F.D.S.G.L.L.J.J.L.L.L.J.L.L.J.L.D.S.v.S.S.d.s.,.Z D D D C z - o + + X X : q.P.+X1X1XU.}.U.T.T.T.T.T.U.U.U.T.T.L.L.R.U.R.M.9.9.O.E L 4 2 2 2 2 2 2 2 2 2 1 & & # # # X @ 7 j ( [ { _ Z Z Z j d f 7 - > > > > > 0 0 y y > , # o o o o o o o o X + + + + . . . . . . X # = u B ! ` ! T ^ } X.7.m.OX4X3X&X*X&X*X3X|.).0.0.8.7...W k e e e e e R o.M.#XrXxXVXBXzXBXCXCXNXgXgXfXfX9X9X9X0XlXeXC.' 8                                                                                       ",
"                                                                                                          o # % : $ 1 w p t L J L I P E c.=XgXCXHXHXZXZXAXzXtXwX*X[.]._.c.X.Q Q R R ) } ..Z.oX#X#XOX].].].].M.k.) e 6 8 q v V M z 0 %                                                                         ; # # # * 7 s n C Z D Z ] ] ] >.,.t.p.s.a.b.n.n.j.8.9.9.9.c.M.).C.M.m.F.F.F.D.D.L.L.L.L.L.L.L.L.L.U.L.L.J.D.S.D.S.S.d.t.A Z ] +.S x a = + o O O > q.P.+X1X1XU.}.U.Y.T.T.T.Y.U.U.U.T.T.U.R.U.U.].G.M.c.;./ L 4 2 2 2 & 2 2 2 2 2 1 & & & & # X # 7 j ( { { _ l l Z j d f 7 7 > > > > > 0 0 0 y > , # # o o o o o o O + + + + + + + + + + + X X # w r r h h t R ^ W E o.C.OX@X@X*X3X&X@X[.M.8.k.7.2.Q R e 6 e e e e R o.A.=XgXBXCXCXzXVXVXVXBXBXBXBXbXfXaXaXaXbXeXZ.! w @                                                                                     ",
"                                                                                                        @ @ @ & 1 w 3 3 t L J J K J P P `.=XxXZXHXZXZXCXVXzXtX6X@X].M.c.k...} } T R R } ..Z.OX#XOX[.].].].].C.j. .e 6 w 0 q z z y : %                                                                         O O # # * 7 s x n n n Z S A ] ] >.t.p.p.p.a.j.j.7.8.8.8.c.c.M.A.c.m.k.v.v.5.v.D.L.J.J.J.J.J.J.J.P.T.T.L.J.J.S.D.S.b.d.t._ A ] D S C 7 * # # # # 9 ,.K.!.+XY.U.L.R.U.U.T.U.T.U.U.L.L.L.U.U.R.U.M.8.h.;.X.^ t 3 2 & & & 2 4 2 2 2 2 & @ @ & & X @ 5 j ! _ _ Z Z C j j d f 7 7 > > > - > 7 7 7 > > = # # # # # # # * # o X X + + X X X X X + X o = 9 e T ! ^ T ^ ) R W } k._._.'.{.[.OXI.k...}  .2.2.} T k e k k e e R o._.=XdXxXcXcXlXVXZXCXCXVXcXvXlXaXaXaXaXjX5Xz.e 5 @                                                                                     ",
"                                                                                                        @ @ & 2 2 2 3 4 J J J J K K P P `.8XcXDXDXCXVXVXAXxXyX5X[._.c.k.7.X.| } } R R W X.m.oXOXOX{.'._.].].C.z. .e 6 5 9 : : : i <                                                                           O O o # * : 0 s x n d n n Z S ] ] q.w.t.t.i.j.i.7.7.7.o.k.c.A.A.c.7.7.7.5.5.5.v.H.J.J.J.J.J.J.L.P.Y.T.P.J.J.H.H.K.S.b.t._ A A A S C a = # # # # 9 >.b.P.Y.L.G.F.F.G.G.J.L.J.J.J.F.J.J.P.L.L.I.n.| ^ ^ T p 3 2 2 2 @ 1 3 4 4 4 4 2 & @ @ @ @ . @ : k l ] _ Z Z l j d f 0 7 - > > - = - 7 7 - - = * # # # * * # # # # o o o X + X + + + o o X # ; 0 h ^ ' ) ^ )  .) R E o.k.k.c.M._.m.7.} k k T )  ...} R R T T k e E o._.&XrXdXgXlXlXVXDXJXDXSXvXcXfX9X0XaX0X0X#X2.6 $ X +                                                                                   ",
"                                                                                                      # & 1 3 3 4 J L L P E P P P P P P c.=XgXcXCXzXxXxXkXyX7X#X].M.8.8.2.......| R R R X.m.oXoXOX{.'.).'.].M.z.) 8 1 5 : $ ; % ;                                                                             O O o # * : 0 s s s f f j n Z Z ] q.q.,.,.3.2.4.2.o.Q } X.o.o.o.o.Q Q 2.4.4.3.a.v.S.v.S.H.H.H.J.J.P.J.P.J.J.J.H.K.K.b.t._ A ] D D S s : # # # # 9 ] b.K.P.J.F.S.D.D.D.D.D.H.D.D.D.F.J.L.L.D.n.4.R e t 3 3 2 2 2 2 2 3 t J K J J 4 2 & @ @ @ X @ = g j ( _ Z C j d d f 7 - : - > > = - - 7 7 - = * * * * = = * * * # # o o o X + + + + o o # # : y b ! ' ^ ! ) } ) W E ..7.o.7.8.c.h.) T e 6 h )  . .} R R ^ ^ k k E ;._.&XwXrXfXfXyXxXCXSXCXcXfX9X*X|.*X*X-X&X].} 6 & @ % %                                                                                 ",
"                                                                                                      1 6 t L L L P P O.;.`.(.^.O.O.E P ;.{.=XrXgXfXrX8X3X#X[.'.M.c.8.8.7...2.h...W R } 7.m.].].[.{.].].].I.m.j.) 6 & = $ % % %                                                                               O O o # * - 0 s j d f f d n n D ] >.q.,.,.4.r.2.2.} R L L I I L L R W 4.4.4.3.a.a.a.a.a.d.v.v.b.S.S.S.S.S.S.S.S.S.S.b.p.1.] ] ] ] S s - = = # % 0 q.b.K.P.F.D.S.D.S.S.D.D.D.D.D.D.F.J.J.J.D.a.{ e 6 1 2 2 2 2 2 2 2 3 P U U U P L 3 1 & @ @ @ @ 5 g m Z S Z n j d f s 0 7 - - > > - - - 7 7 > > = * = = > > = = * % # o o o o + o + + # #     : i q b b b h ! ^ ) E Q o.8.8.7.8.k...! e 6 6 e ! ) ) ) R R ) ) T R } k._.=XrXrXfX8X6XdXcXcXdX9X{.(.o.O.O.9.)._.A.^ 3 6 5 9 9 9 =                                                                             ",
"                                                                                                      e R o.o.O.O.O.O.(.{..X.X`.`.O.E P O.A.OX9X0X0XqX3X{.'.).c.c.8.8.k.7.7.2.2...} Q } 7.k.C.].].].].].'.C.c.j.) 8 & $ # # %                                                                                   O o # * - a s j d f f d j j Z A ] >.>.>.4.r.2.2./ L t 4 4 4 3 3 t R 2.i.4.3.5.a.5.5.5.a.d.a.a.a.d.a.a.d.v.S.S.v.b.b.p.1.] ] ] ] S x 7 = = * % 0 q.b.K.P.D.S.v.S.S.S.S.S.H.D.D.D.J.J.J.J.S.a.( 8 & 1 1 2 2 2 2 2 2 J P O.O.O.P L 3 2 2 & & @ @ 5 r g m n n d s f s s s 0 7 7 7 > - 7 7 7 7 7 > - = = - > > > = , * # o o o o + o o O %         : 0 q q q e h T ) } } 7.k.7.2.2...) h e 6 6 8 h ! ^ R R R W ) ) ) ..c._.=XfXfXwX9X=XrXlXhX9X{.(.U P L P E / ;.o.R 3 3 6 8 r q w =                                                                           ",
"                                                                                                    r ' A.{.{.`.(.(.`..XsXsX:X-X`.O.P L E ;._.&X0X9XqX|.'.M.c.c.7.7.7.8.7.....| } W E Q Q 7.c.M.'.].'.'._.M.m.z.&.h w $ % %                                                                                     O o o * = 7 f d s f f f d j j D ] >.>.>.t.i.e.r.} L 4 4 4 4 4 3 t ^ r.n.i.a.a.5.5.3.5.a.a.p.t.3.t.3.t.p.d.v.v.d.v.b.p.:.1.] ] ] S s 7 = = * % 0 ] b.H.J.D.S.v.v.S.S.S.H.H.H.J.F.J.J.J.J.S.s.] 8 1 1 1 1 2 2 2 2 4 J U O.O.O.U P 4 3 2 2 2 2 1 5 q q q s s f a a f s s s s a 7 > 7 7 7 7 - - > - = = = > > > , = * # o o o o + + o O ;             : 9 5 6 6 h T } X.7.7...} Q W h 8 6 1 1 8 8 k T R R R W W W } ..k._.=XwXwXwX9X9XfXcXhX-X`.O.P P J J L L I R t t t t e h h g 8 =                                                                         ",
"                                                                                                    ! x.OX9XsX-X.X.X-XsXhXhXsX-X`.O.P L E o._.&X0XqX3X|.).9.c.8...Q ..2.2.....} } W W Q ..7.8.M._.'.'.M.M.c.n.l.&.V 0 : #                                                                                       O o o * = 7 f f f f f f d d j C A ] ] ] e.i.e.r.) L 4 4 4 4 4 t L ) x.V.n.a.a.5.5.3.5.a.p.p.<.,.,.,.<.3.d.v.d.d.b.b.a.,._ _ ] ] S d 7 : = = * 0 ] d.S.J.D.S.S.S.D.D.D.H.J.J.J.F.F.F.J.J.H.d.[ g w 9 1 1 2 2 2 2 4 J U O.O.U U P J 4 3 3 t 3 6 w 8 w w 0 0 7 7 7 f x n n x a a - 7 a a 7 > - - - - = = > 7 > - , * # o # # # O O O % ;                 $ & 6 e k } | 7.2.| W W T r 1 1 & & 1 6 6 k R R W Q W Q } o.9._.=XwXwXrXrX0XhXcXfX{.^.U K J J J 4 4 4 4 3 t t L R R T T g :                                                                         ",
"                                                                                                  6 ^ x.OXsXhXsXsXsXsXsXhXsX.X(.O.E P L / c.OX8XfXaXqX|.'.M.c.h...X...2.2.....| | | Q 2.8.k.c.M._._._.M.0.8.2.e.` V 0 ;                                                                                         o o o * = 7 f s d f f d d f d j A D S Z [ e.&. .^ t 3 3 3 2 3 4 L ' l.V.n.a.a.a.5.5.a.d.s.p.<.,.,.,.,.3.d.v.S.v.S.S.s.:._ _ ] ] A j a - : = = a >.b.H.J.D.D.D.D.D.D.D.D.J.F.F.F.F.F.L.L.J.b.q.g w 1 1 1 2 1 1 3 4 J U U U U P P J 4 4 4 t 3 3 w w 5 5 9 7 7 7 7 s n n N n x a > - a c a 7 > - - - - > 0 0 0 > - = # # # # # # # O ;                     $ 5 e k ^ } 2.r.| W W ! b w 1 1 & 1 6 6 R ) Q X...Q Q ..8.c.].=XwXwXwXrXfXlXBXfX`.O.U K K J J 4 4 4 4 3 4 t L R R T k r 5                                                                         ",
"                                                                                                  r } c.{.9XhXhXbXbXbXhXsX{.O.E R L L P o.A.#XdXbXjX0X3X[.C.m.x.X.| | 2.2. ...h.2.2.7.k.m.C.C.C._.M.M.k.7...) ! v u : %                                                                                         o + o o = 7 s x d s f f d d j n Z C C Z ( ' ' ' h t 3 3 4 4 4 4 L / l.n.j.t.t.a.a.a.d.d.s.i.w.,.>.,.<.t.d.v.S.S.S.S.a.:.1.>.] ] ] j 7 7 : = > f >.d.H.J.L.D.F.F.F.F.J.J.G.G.G.F.F.G.L.L.J.V.e.k e 6 1 2 6 3 3 3 4 J P U U K K J J J 4 4 4 4 3 3 w 9 5 5 7 7 7 7 s n C S S x a f - a a a 0 7 9 7 - - 7 7 7 9 9 : = * # # # # # # O ;                       w r g ! ' ..e. .[ ) ) m q 1 1 6 1 1 e R } 7.8.8.7.7.8.c.).OX5XwXwXwXrXdXlXcXfX`.O.U K K K J 4 4 4 4 3 t L R R R k k e 5                                                                         ",
"                                                                                                q T } k._.-XhXhXnXnXnXhX9X{.O.E E E E / o.C.#XwXjX0X3X|.'.m.k.h.......2...| ..7.h.j.z.Z.C.C.C.C.m.c.k.j...W h 8 5 : ;                                                                                             + + o * > c z x d s f s d d d x d d d b m m h r t 3 3 4 4 4 3 t ^  .e. .{ :.<.3.<.t.p.i.w.q.] _ >.,.t.d.b.S.S.S.S.a.<.1.1.>.] _ j f 7 = = : f ,.v.J.J.L.D.F.F.F.F.J.F.G.G.G.G.G.G.G.L.J.H.r.( b r r r r r e t 3 t J P K K J J J 4 4 4 4 4 3 3 w 5 1 = 5 7 7 7 s n S S S x a a 7 0 a a 7 7 7 7 7 - 9 7 9 7 7 : = * # # # # # # O ;                         8 q g h ! ( ( ! ( ( B r w 8 q 6 6 k } o.8.8.c.c.8.8.c._.@X5XrXrXrXfXdXgXlX-X`.U U K K K J J 4 3 3 3 t L R R t k e e 5 %                                                                       ",
"                                                                                                r ^ X.o.).{.qXhXnXSXnXcXaX@X9.Q Q Q o.o.h.C.OX=X7X4X@X'.m.8.2...2...2.2...| ..h.z.m.Z.C.I.C.Z.Z.z.j.h.2.) k 6 # # #                                                                                               + + o * : 0 a z a s a s s s s s a a 7 8 8 q 8 8 6 3 3 4 4 4 3 t t T T l k l _ _ _ >.q.q.q.>.] A _ ,.t.d.S.v.S.S.S.a.<.:.,.>.] ] j f 8 = = - 7 ,.d.K.P.J.S.D.D.D.D.D.F.F.G.G.G.G.G.G.G.D.V.j. .' ! ~ ~ ! ! T t t 4 J J J J J 4 4 4 4 4 4 4 3 3 w 5 1 = 7 7 7 7 s n S S C z 7 - 7 0 a 0 7 7 0 0 7 - 7 7 7 0 0 : = * # # # # # # O ;                           9 5 8 8 s f g g ! ! b h g h e e T h.k.c.c.M.M.c.c.M.'.@X8XrXyXyXdXfXdXfX*XO.P K K K K J 4 4 2 2 2 3 t L L t e e r 5 *                                                                       ",
"                                                                                                b X.o.o.c.`.*XfXcXnXSXvXhX-X).9.9.8.8.o.x.A.C.].].].C.k.2...| | ........| } | 7.j.j.m.Z.Z.A.x.x.r.r.r.e.( g = @ X                                                                                                   o O # , > 0 a a a a a s s s s a 7 = 5 5 6 6 6 6 3 3 3 4 4 3 3 t e e e f g k j j Z ] ] ] ] _ A 1.,.t.d.S.S.S.S.S.d.3.3.<.,.,.>.Z f f 7 = 7 f >.s.K.H.S.v.v.S.S.D.D.D.F.G.G.G.G.G.G.G.G.D.n.2. .' ' ' ' ) ^ R t t 4 4 4 4 4 4 4 4 4 4 4 4 3 3 w 5 5 5 0 f f f d C S S C a - - 7 0 a 0 7 0 a a 7 7 7 7 0 a a - = * # # # # # # % ;                             $ = = 5 5 5 q m ^ ! ' ' ' ^ T ..m.M.M.M._._._.).'.].&X8XdXgXgXkXjXdXfX@XO.K K K K K K J 4 3 2 2 3 t L L t k k e 5 $                                                                       ",
"                                                                                              y ^ h.k.c.).).{.sXcXnXnXnXvXfX-X X).c.c.c.8.k.h.2.2.r.2.X.W W W W Q } } } W R } ......2.r.r. . .' ' &.u.y.` s = #                                                                                                     O O # * , > > > - - 7 a s z s a 7 = = 5 6 1 1 6 3 3 3 3 4 3 3 3 6 6 6 8 8 8 f f d Z A ] ] ] _ >.,.p.b.S.b.S.H.H.b.a.a.p.t.t.q.] j d 7 8 0 s ] t.s.b.d.a.a.d.v.v.D.D.G.G.G.G.G.G.G.G.G.F.n.p.4.[ [  . .' ^ T r t 4 4 4 4 4 4 4 3 4 4 4 3 3 3 8 w 5 7 s d d d C S +.+.S s 7 7 7 a s a a a s s a 7 0 a s s s 7 = * # # # # # # ; ;                               # = = $ $ 8 g ^ X.r.r.r.2...m._.].'.'.{.{.{.].{.|.=XrXgXlXxXxXcXlXdX*XO.K K K K K K J 4 4 4 4 t L L L L R k f w =                                                                       ",
"                                                                                              u ' x.c.c.c.9.`.-XfXhXhXbXnXhXqX.X).c.c.c.8.7.| R R T T T R W W } R W } } W W W } | } }  .) ^ T k m ` #.$.B u ;                                                                                                         * # # * * * * # * : 7 a z s a 7 = = 5 6 1 2 2 3 3 3 4 4 3 3 3 6 6 6 6 w 0 8 7 f n Z ] ] _ _ 1.<.p.b.S.S.S.H.H.S.b.d.d.a.s.t.,.D j s f x n A q.w.t.t.<.3.3.p.a.v.D.L.L.G.G.I.J.J.G.G.D.v.5.4.| [ [ [ ' ^ T e 3 4 4 4 4 4 4 3 3 4 4 4 3 3 8 r 8 8 s n n n n S D +.+.D d 7 f 7 a s s s s s s s a s x x x s 7 = * # # # # # # %                                   % % # $ w g ) ..x.h.j.h.7.m.].{.{.{.{.|.|.[.|.*X9XfXgXgXxXxXcXxXdX*XO.K K K K K K J J 4 4 t t L I L L R k f 5 $                                                                       ",
"                                                                                              u  .x.k.8.o.O.9.`.*X-X-XsXhXhX:X.X`.o.9.M.c.8.Q R e e h T R ) } X.} } ......| } } ) ) ) } ) T h e e r v v 0 :                                                                                                           ; # # # # o o o # = 7 a z a a 7 : = 5 1 1 1 2 3 3 3 3 4 4 3 t e 8 w w 9 q 8 7 f n Z ] >.] _ 1.,.p.b.S.S.S.S.H.b.b.b.d.s.s.s.q.] Z n n M C S ] ] >.>._ _ 1.,.3.a.b.J.L.L.G.J.H.G.G.G.G.v.3.4.{ ( ) ) ! T k 3 3 4 4 4 4 4 4 3 4 3 4 3 3 8 q g g m m Z D D C S D ] D D d f a 0 s s s s s s s z s n n x x s 7 = * # # # # # # ;                                     % # # 9 g W | 7.7.7.7.7.c._.].{.{.{.{.{.|.*X*X9XdXgXgXgXxXcXlXfX@XO.K K K K K K J J 4 4 4 J L L L L k k e 5 $ @                                                                     ",
"                                                                                              q ' h.k.o.O.E O.O.`.`. X-XsXsX.X.X`.O.9.).c.7.W e 6 6 e r ^  ...2.X.| 7.8.j.2.| } W ) ) ' ' m e 6 5 $ $ # #                                                                                                               # o o o o o + # * - 7 a a 0 7 = = 5 5 1 1 2 3 3 3 3 4 4 t t r e w w u u q 0 s n S ] >.>._ 1.,.p.d.S.S.S.S.H.S.b.b.d.s.s.s.w.] S Z n N S C S D A A l Z A _ 1.t.b.J.L.J.D.J.Z.D.G.G.G.v.5.:._ T ! T h h e 3 3 4 4 4 4 4 3 3 3 4 3 3 3 8 q h h S ] ] A S D A A ] ] S x f a 7 f s s s s s s x x n N n x s 7 = * # # # # # # ;                                         # 5 r R Q 7...2.| Q 8.M.'.{.{.{.|.{.|.*X-X0XdXgXgXgXlXzXlXdX@XO.K K K K K K J J J 4 J t L L L L t k e 5 $ o                                                                     ",
"                                                                                              q ^ ..h.o.o.O.O.O.O.9.(. X-XqX-X.X`.9.9.).c.h.) e 6 1 5 r !  ...2...8.0.c.k.7.X.} ) ) ' ' ` b w $ # o O                                                                                                                   O O o + + + + # = 7 a z s s 7 5 $ $ 1 1 w 2 3 3 3 3 3 t t t r r w 8 8 q 8 7 f j D ] ] _ _ _ ,.p.b.S.K.S.D.D.D.b.v.b.b.s.s.t.>.A S C C D D S D D D A A A ] >.t.b.H.J.D.D.D.D.F.F.D.D.v.5.4.{ W ) ( ( ! k 3 3 3 3 3 4 3 3 3 3 3 3 3 6 w q g j Z Z Z A ] ] ] ] ] %.A n d f f s f s s s s s x d n C n n s 7 * * # * * * % O ;                                         # 5 g ) ..j.7.7.| Q 8._.].{.{.*X*X*X*X*XqX0XgXlXlXxXzXVXxXdX=XO.K K K K K K K J J J L P E / R t k k r w = #                                                                     ",
"                                                                                              g T } o.o.o.E E O.O.O.O.`..X-X-X-X X(.).).c.h.^ e 1 1 5 s ! ' ..2.8.8.c.m.k.7...} ) ^ ~ ` B z : # +                                                                                                                       O O o X + + + * - a s x x s 0 5 $ $ $ 1 w 2 6 3 3 3 3 t r r r e 8 8 8 8 8 8 f j Z A _ _ _ _ :.3.d.S.K.S.H.D.D.D.S.b.b.b.s.t.>.] D D D D S D D D D D D A >.,.t.d.b.S.D.D.D.D.D.D.D.D.n.v.4.4.{ | ,._ ( k t 3 3 3 3 3 3 3 3 3 3 3 6 1 6 8 k j Z ( _ ] ] ] >.,.q.>.A C j d d d d s z z x x d n C C n n x 7 * * # * * * O O ;                                           w b ) 2.j.h.7...Q 0._.{.@X*X*X&X*X*X5X9XfXjXcXzXzXVXVXzXgX=XO.K K K U U K K K J J P P E o.Q R k h r w = #                                                                     ",
"                                                                                              r R Q o.o.o.o.O.o.O.O.O.`.{.-XqX-X X(.).).c...^ q $ $ 5 q h ( | 2.8.8.0.0.k.7.| ) ! m V V v 0 $ o                                                                                                                         O O o + + + + * > a d x x s 8 = $ $ $ 1 1 1 6 3 3 3 3 t t h r e 8 e g k k k j Z _ _ _ 1._ 1.:.t.d.b.S.S.H.D.H.b.b.b.b.d.p.t.>.A Z C Z D D D A A A A A D >.,.<.t.a.d.d.v.v.v.v.v.v.n.n.n.n.v.i.j.j.i.4.( e 6 3 3 2 2 3 3 3 3 6 6 6 6 6 r k j ( _ ] ,.,.,.q.q.q.] A D C j j j d s s s s x d n n C n n x 9 * # # # * # O O ;                                           w V ) 2.j.7.7...7.M.[.#X=X5X9X9X5X3XqXqX0XgXcXzXzXBXVXNXgX=X;.P P U U K K K K J J P E o.o.} R L R e 8 = #                                                                     ",
"                                                                                            r t R E o.8.c.c.c.`.`.`.(.`..X-X-X-X X9.9.c.o.} h 8 & $ 5 w e k ) ..7.8.8.8.2.| ) ! h r 8 0 9 =                                                                                                                             O o X + . . + * > s x x x s 8 5 $ $ $ 1 6 6 6 3 3 3 3 t R T T k k k h ! ( _ [ ,.4.<.3.3.3.3.3.a.d.v.b.v.b.b.b.b.d.d.d.s.t.<.>.A Z l Z Z Z l A A A A D >.>.>.>.,.<.3.3.t.v.a.a.a.j.v.n.n.V.Z.V.I.Z.V.n.,.e 6 6 6 2 3 3 2 2 6 6 8 e e e j l ( _ { ,.,.,.,.q.q.q.] D D C n j j d f f s s x n n n n n M s 7 * # # # * # O O ;                                           w b ) ..h.2.7.7.8._.&X6XrXrXfXrX9X9XqX9X0XdXcXcXBXVXBXBXzXwX`.O.U U U K K K K K J P E o.o.X.R R R k 8 = %                                                                     ",
"                                                                                          t ^ } o.8.c.).].{.{.OX@X@X{.*X-XqXqX.X X9.9.c.o./ h 8 $ $ = 5 8 k W ..7.7...| | ) ! ! g 8 = $ %                                                                                                                               O o + + . . + , c x M n x s f 7 w 5 8 q q 8 3 3 3 3 t R T W | W W W {  .e.t.i.b.b.a.a.a.v.a.a.d.v.b.b.d.b.d.d.a.p.p.p.t.3.3.<.,.,.>.,.<._ _ _ _ ] ] ] >.] ] ] _ 1.>.,.,.t.t.3.3.4.5.n.V.Z.I.I.I.I.I.V.4.h 8 6 6 2 2 3 6 6 e k h ! l Z ( [ { ,.,.<.<.q.,.,.q.] Z C C C n j j n s f f s x n n n n M n s - * # # # # # O O ;                                           9 b ) ..h.2.7.7.c.[.6XyXjXlXlXfXwX9X9X9X9X0XfXlXxXcXBXBXBXfX@X`.O.O.U K K K K J J K P o.;.o.R R R R 8 = #                                                                     ",
"                                                                                N.N.l. .E Q ;.A._.{.@X&X7X8XwXfXfXfXrXfXhXhXsX-X X9.(.M.;.} h w $ : 9 w 8 k } 2.7.7.2.| ) T h b q 9 #                                                                                                                                   O o + + + . o > c x n n n n j s g g m ! m h r 3 3 t t R ..2.8.j.7.j.n.V.V.H.J.P.P.L.J.J.L.J.H.H.H.S.b.d.s.s.s.t.t.t.3.3.3.p.d.d.d.b.b.b.a.t.t.<.,.>.>.>.] ] ] ] ] _ ] >.,.,.3.3.3.4.j.n.V.I.H.J.I.H.b.2.! r 6 w 1 1 6 8 h ( [ e.e.4.t.t.t.t.4.3.t.t.q.,.>.] A l n n C C C C n n s s s x n n n n M n z - * # # # # # O O                                             9 V  .h.k.k.k.k.M.#XrXkXxXcXcXlXfXrX9XqX-X*X&X6XyXkXBXCXCXzXwX*X`.^.U K K K K J J J P O.o.o.E R R R 8 = @                                                                     ",
"                                                                              f.%XoX].M.8.o.M.{.*X-X9XrXfXdXgXcXcXcXcXcXcXhXsX*X`.9.9.M.x. .b 9 $ : 9 7 8 h ) ..2.2...} T k r q 0 =                                                                                                                                     O o + + + + o > c n n Z S D Z m m ( [ &.#.! ! t 3 3 t ) j.n.M.F.m.V.I.I.I.T.}.+X+XY.Y.Y.Y.T.P.L.J.H.b.a.s.p.t.t.<.<.<.:.3.a.b.K.P.P.P.P.H.b.d.p.t.>.] ] A A A ] A A A ] ] ] ,.,.:.3.i.n.m.D.V.m.V.V.m.4.( r 6 6 6 w q r ` e.l.s.b.b.d.d.s.a.t.t.i.i.t.<.] _ Z j j j n Z S D S n x s x x d d n n n x s : * # # # # # O O                                             9 V ..k.m.k.k.c.C.$XtXkXcXxXcXlXdXdXfX9X*X{.{.@X5XrXxXVXCXBXgXsX*X{.O.K K K K J J J J O.;.o.X.X.Q R k 5 @                                                                     ",
"                                                                              f.$X4X3X|.).9._.*X5XfXhXgXlXlXlXcXcXcXcXCXSXlX9X|.`.O.9.M.x.=.b w $ = : 5 8 h ^ } } | ) ( k 8 w 5 =                                                                                                                                       O o + + + + o > z x C D Z Z ( ( ( [ e.i.e.' ! r 3 3 t ) k.n.F.F.F.D.I.I.I.I.Y.}.}.Y.T.T.T.T.P.L.J.S.a.3.t.t.q.,.>.,.,.1.<.a.H.J.P.P.P.P.P.J.D.d.t.>.A A D D Z A A D Z Z ] ] ] _ { ,.i.n.n.V.m.n.n.m.n.4.( r 6 6 1 w r h [ l.V.b.a.a.a.a.a.a.p.t.i.i.t.<._ l j j j j n D A A S C n s x x f f d n x d a : * # # # # # O O                                             : v  .h.m.k.k.k.M.#XyXgXlXlXlXjXfXfX0X9X*X).)._.@X5XgXzXCXcXgXfX-X{.O.K J J J J J J P O.c.c.c.c.c.7.k 5 @                                                                     ",
"                                                                              i.4X6X0X3X X).{.*X9XhXcXcXcXlXjXlXcXcXVXCXCXlX9X{.(.O.9.M.k...b 8 $ $ = 5 w e k T W T T h e 5 $                                                                                                                                           O O + + X X # > x x j Z Z A _ { ,.4.i.n.l. .' r 3 t t  .k.n.G.G.F.G.I.I.I.R.I.R.U.U.T.U.U.U.P.P.L.D.5.<.t.q.,.,.>._ _ 1.:.d.J.P.P.P.T.P.Y.P.P.S.p.>.Z Z Z Z D S S S Z Z A ] _ _ _ :.2.v.V.m.n.n.0.n.n.4.( g 6 1 6 e h !  .V.V.v.v.5.5.a.j.a.p.5.p.i.t.<._ l j j j j n S ] %.] S M x x x f f f f s a 0 : * # # # # # O O                                             : v  .h.k.k.8.8.M.oX8XtXjXdXdXfXfXdX0XqX|.).9.9._.&XrXlXvXcXdX0X9X*Xc.P J J J 4 J J P o._._._._.].m.( 5 &                                                                     ",
"                                                                               .].[.|. X).9.).|.-XaXjXbXcXbXlXcXcXvXCXSXSXvXfX*X).O.9.c.h.} k 6 $ $ : 9 w q h h k k k 8 w $                                                                                                                                               O + + X o o - d d j l _ _ { ,.4.t.a.n.i.) ^ t 3 t t | n.F.G.G.F.G.I.Y.Y.U.U.U.U.U.U.R.L.P.P.P.L.D.a.3.,.,.>.>.] _ _ 1.<.d.J.L.L.L.P.P.T.L.P.H.d.<._ _ A D Z A ] ] A ] ] ] ] _ { :.2.n.V.m.m.n.n.b.v.7.( h 6 6 6 e h T { n.n.5.5.5.4.5.a.a.5.5.a.a.t.3._ l j j j j C S q.q.q.D C M x x f f a f f a 7 : * # # # # o O O                                               v  .h.z.k.k.k.m.].7XeXrXyXyXyXyXfX0XqX*X).9.9.).*XrXkXcXcXjXdXgXrX{.O.P J J J J L / c._.[.].[.OX].[ q $                                                                     ",
"                                                                              } c.M.).9.9.9.).{.*X9XfXjXcXcXcXvXVXVXCXSXDXSXdX9X{.9.9.M.8.R e 6 1 5 9 0 0 q g g 8 8 8 7 :                                                                                                                                                 O X + X + # - x j l Z _ _ ,.,.4.p.i.i.2.) T t t t T  .m.G.G.G.G.G.I.Y.U.U.U.U.U.U.U.U.L.P.P.P.L.D.a.3.:.1.] 1.,.,.,.,.3.b.H.J.J.J.L.L.L.L.J.K.b.t.,.>.] ] ] ] q.[ ] >.>.>.] _ { :.2.j.n.n.m.n.n.m.n.j.W k e e e k k T { i.n.5.v.5.4.5.5.5.a.a.a.a.a.t._ Z j j j j Z ] q.q.q.%.S n x s f f f f a 0 9 : * # o o o o O O                                               v ' h.m.m.m.k.m.].#X7X8XrXrXyXrXrX0X9X*X X).).).@X8XdXcXxXjXlXvXcX=Xc.O.L J L P O.;.).{.[.[.@X#XoXr.g $                                                                     ",
"                                                                          ^ X.c.].{.{.'.)._.[.*X3X9XfXjXcXcXvXCXCXCXCXCXSXCXgX0X*X'._._.8.R t 6 1 5 9 9 : 0 q 8 = 5 :                                                                                                                                                     O o + X o # - x C l A _ _ ,.,.3.p.i.4. .T R t t t T ..m.V.J.G.F.D.L.T.T.T.Y.Y.Y.U.U.U.U.U.P.P.L.b.5.4.1.1.1.,.<.t.3.3.3.a.b.H.D.D.D.J.D.H.H.H.b.p.t.<.,.,.>.,.,.,.] ] >.>._ _ _ { 4.a.n.n.n.n.n.v.n.5.{ W k k T ( ( W | 2.v.v.j.5.7.7.7.5.a.a.a.a.a.3.1._ l j j C S ] q.q.q.] C M s s f 7 f a 0 0 9 = * # o o o o O O                                               z ! ..x.j.k.7.k.m.].@X&X5X0XrX8X9X5X3X*X{.).).).{.&XrXlXcXjXlXvXvX7X`.o.L J P O.o.)._.].{.{.|.&XoXr.h $                                                                     ",
"                                                                    ~ y.V.C.OX&X6X9X8X9X=X5XwXrX0X0XdXbXcXvXCXSXSXSXCXCXCXBXlXfX9X&X@XOXc.E t e 6 1 = = # = 9 = =                                                                                                                                                         O o X X o * 7 n C Z A ] >.,.,.e.i.i.4.) R k t L R T  .l.n.b.b.v.v.D.J.L.L.T.Y.Y.T.T.Y.T.T.T.L.D.v.5.4.1.1.:.:.3.p.a.i.a.b.b.b.v.b.D.H.b.v.b.b.s.p.t.t.t.<.,.,.,.>.{ _ >.>._ _ _ { :.4.v.j.n.n.j.v.v.4.4.W W { {  . .{ 4.4.7.v.n.n.j.v.v.5.5.5.a.a.p.3.,._ l j j Z Z ] >.>.%.S n x s f f 7 f f 0 7 9 = * # o o o o O                                                 0 h ) ..2.2.| ..8.c.'.[.@X3X3X&X@X*X*X*X{. X).).].OX6XjXlXjXlXvXvX7X_.O.P P E ;.)._._._._.).{.@XoXh.h                                                                       ",
"                                                                  ~ u.Z.oX#X9X0XfXdXgXgXdXgXlXcXlXdXgXcXcXcXvXBXSXCXvXvXBXBXcXxXkXdXrX8X[.o.E R T e 5 $ # # ; ;                                                                                                                                                           O o X X o * 7 n C Z A ] ] ] ] ,.e.e. .) ) W W E Q }  .r.i.i.i.p.5.a.v.b.b.H.L.P.L.L.P.U.P.L.J.D.v.a.3.3.3.p.a.a.b.b.b.b.b.b.b.v.v.b.b.v.v.b.b.d.s.s.s.s.t.t.t.t.<.:.,.,.<.,.{ { { :.3.5.v.n.n.v.j.v.4.2.4.4.2.r.i.i.r.i.2.7.v.n.v.n.j.a.5.5.5.a.a.p.3.:.1._ l Z Z S S ] ] A C n s s f f 7 f f 0 7 9 = # # o o o o o                                                   e ^  .2.2...Q 7.8.M._.{.@X*X|.{.[.|.@X|.{.).)._.{.5XdXcXjXlXvXcX9X).O.L P E ;._.{. X).).).{.@XOXx.m                                                                       ",
"                                                                ~ x.Z.].@X3XaXaXjXbXvXCXCXCXSXJXCXcXlXlXgXdXgXgXcXcXcXcXcXBXCXCXCXCXCXzX6X_.m.m.B.@.s : # # ;                                                                                                                                                             O o X o o * 0 n C C Z S Z Z ( ` ' ' ( )  ...h.h.h.h..... .,.,.1.1.:.4.3.3.5.v.v.v.v.v.F.D.D.v.v.v.v.v.v.b.H.H.H.J.H.H.V.V.b.b.b.b.v.b.b.b.b.b.b.d.s.b.b.s.a.p.a.p.p.3.t.t.t.3.4.,.:.3.2.i.j.j.j.j.j.i.5.5.7.v.n.v.n.j.a.4.4.v.v.5.v.v.5.5.5.5.a.a.p.3.<.:.] _ Z Z S Z Z Z C j x s s s f 7 f f 0 7 9 = # # o o o o o                                                   e !  .r.h.2...7.8.M.).'.[.|.[.{.{.|.*X@X|. X)._.].5XkXcXlXlXvXcX-X`.O.J P E O.). X X X X'.{.*X#Xz.!                                                                       ",
"                                                              z ' z.C.[.|.qXaXaXmXbXSXSXJXJXJXJXJXBXcXlXfX0XaXaXfXfXdXlXBXCXZXDXHXKXHXHXkX#XOX#XoXl.m 5 # o                                                                                                                                                               O o + o o * 0 M n n Z S Z m m m m m ! ) 2.k.m.m.z.k.2. .[ _ _ W l W _ _ _ :.3.t.3.3.a.a.a.a.a.v.b.D.D.L.P.P.P.P.P.P.J.P.H.V.b.b.b.b.v.b.b.b.b.s.s.s.g.V.s.s.s.s.a.a.a.d.b.a.i.r.4.4.4.4.5.j.j.i.j.n.v.7.j.v.n.n.n.n.n.j.2.2.2.2.2.2.2.v.5.5.a.a.a.5.3.3.3.,._ _ ] S D C C n d f s s f a 8 f a 0 7 7 * # o o o o o o                                                     b #.e.x.r.| 2.8.c.M.M.'.{.{.{.{.|.@X@X|.'.M.)._.=XkXVXcXcXvXlX=X`.O.P E O.o.`.). X X X{.{.&X#XA.`                                                                       ",
"                                                              V ..c.C._.).|.qXqXaXbXvXSXCXCXSXJXCXlXgXrX9XqX-X9XsX0XwXgXBXVXZXZXGXHXHXHXBX6X4X6X=XZ.[ 8 #                                                                                                                                                                 O O o + + * > a s x n n m j j h j Z T } ..k.z.z.z.h.2.| { { _ _ A _ 1.1.1.>.,.,.,.,.:.t.3.:.3.d.b.S.J.P.P.P.J.K.K.K.J.J.S.b.b.a.a.a.a.s.s.s.p.i.q.q.q.q.q.q.i.s.s.d.b.b.b.v.j.j.i.5.5.3.3.5.5.j.j.j.7.7.8.n.n.j.r.r...} } ) | X.} | 2.v.v.a.5.5.5.3.3.3.3.,._ A A S Z n n d d f f s s a a a 7 7 7 - = # o o + + o o                                                     0 B ` +.` ! } 2.7.8.c.M._.'. X{.{.|.|.{.M.8.9.M.$XgXzXxXzXBXzXrX&X{.c.9.).).). X).).).).{.*XOXz.'                                                                       ",
"                                                              ~ h.M.).c.M.{.&X3X9XfXvXvXVXVXVXCXzXdXrX9X-X-X*X-XqXqX9XfXzXVXCXZXZXZXHXKXCXyXwXrX6X].r.g #                                                                                                                                                                 O O + o o * > 0 a s s n n j j j j l l ) ..h.h.x.h.7.2.| { { _ _ _ ] >.>.] >.>.>.] 1.>.1.1._ ,.a.b.K.P.P.P.P.J.K.K.J.J.J.S.b.d.3.3.5.a.p.s.t.q.q.] S S S D S q.s.s.b.b.b.b.b.n.n.n.v.5.5.5.5.5.j.j.7.2.2.7.j.j...} } E R R R ^ E E Q ..j.v.v.v.a.5.3.3.3.3.,._ Z A S C n j d d f f s s a 7 a 7 > 7 - * o o + + o o O                                                       y z v v g !  ...7.8.c.)._.'. X{.{.{._.9.o.8.c.@XgXcXxXzXBXzXlXfX5X@X{.|.@X{.'.).9.9.)._.[.{.x.`                                                                       ",
"                                                              #.A.OX#X{.{.|.3XqXqXfXvXSXSXCXCXVXcXfXrX9XqX-X-XqXsX9XfXgXcXCXCXZXZXKXKXKXZXtXwXrX7X].j.k @ .                                                                                                                                                               O O o O o * - 0 7 s s n n j j l Z j j W } ..X...o...| | { { { _ ] >.,.>.>.>.>.>.1.>.>.,.1._ ,.a.b.J.P.P.P.P.J.K.K.K.J.P.K.S.d.3.3.p.p.t.t.>.Z C j s s s s d ] i.g.V.b.b.b.b.n.n.n.v.5.5.5.v.v.n.j.2.| W W } E R R R L L L L L E R E ..j.n.n.b.v.a.3.3.3.3.,._ Z Z D C n j d s f f s s a 7 7 7 > > - * o o + + o o O                                                         $ $ 5 6 k ' ..7.7.c.M.M.M._.'.'.'.M.8.Q 8.c.$XlXVXzXzXvXzXcXlXdXrX8X9X5X*X|._.9.9.c.)._.M.2.m                                                                       ",
"                                                            M y.C.7XwX5X&X3X9X9X0XjXvXJXJXJXCXVXlXrX0X0XqXqXqX9XfXfXfXlXcXVXCXDXHXKXKXKXZXyX5X6X=X].l.h # X                                                                                                                                                               O O O O o * , 0 a s d n n m Z Z Z Z j T T W W W Q } | | { { { ] ] ,.,.,.,.,.,.,.,.,.<.<.:.1.:.a.b.J.P.P.P.P.J.K.K.K.J.P.K.K.d.3.3.p.i.t.<.Z f f 7 = 7 : = 7 C w.g.K.K.V.b.v.v.n.n.n.n.v.v.n.V.V.j.| W k t t t t t t t L L L L P P E o.h.k.n.n.v.a.5.3.3.3.,._ Z Z C n n j d s s f s s a 7 7 7 > 7 - * o + + X o o                                                             X @ $ 8 ( ..h.h.c.c.c.0.c.M.C.C.c.8.o.8._.4XzXCXcXcXcXvXcXcXcXcXlXdXrX9X*X'.9.9.9.9.9.8.| h                                                                       ",
"                                                            u &.oXwXgXyX0X0XaX0X0XjXvXSXJXJXCXvXdX0X9X9X3X&X=X9XrX8X8XrXdXcXvXZXZXKXKXKXAX6X=X=X$XoXZ.( $ X O                                                                                                                                                             O O O O o * - 0 a s x n n Z Z Z Z Z j k R R R R R W }  . .,.,.1.1.,.,.>.1.1.1.>.,.<.<.<.,.1.:.a.b.J.P.P.P.P.L.J.J.J.J.J.K.K.s.3.<.t.t.t.,.l 8 - = : : : = = n q.s.K.K.K.b.b.b.n.n.n.v.v.n.n.V.V.j.| W t 3 3 3 3 4 4 J J L L P P P P / o.7.n.n.b.a.t.3.:.:.>._ Z Z C n n j j d s f s f a 7 7 7 > > - * o + + + o O                                                               X $ q ` &.r.h.k.k.8.7.8.c.c.c.k.o.Q 7.M.4XzXCXcXbXvXcXcXcXcXcXcXjXfX8X&X[._.).9.9.M.0.| h                                                                       ",
"                                                              @.oXuXBXcXcXbXjXfXaXfXbXnXJXJXCXzXyX5X5X=X=X=X&X=X7X=X=X=X8XfXcXCXZXGXHXDXxX=X@X#X#X#XoX&.$ X X                                                                                                                                                             ; O O # o * - 0 7 s d n n Z Z Z Z Z m k h k k t R R W r.e.e.,.,.1.1.1.1.1.1.1.>.,.<.<.,.1.1.:.a.b.H.L.L.P.P.L.J.J.J.J.P.K.b.s.t.<.t.t.t.,.j 7 = = > 0 0 : - n q.s.K.K.H.K.V.b.V.V.b.b.b.v.n.Z.Z.j.| R 3 3 3 t 4 4 J J J J P P P P P E X.o.k.n.n.p.<.:.1._ _ A Z Z C n j j d d s f a a a 7 7 7 > > - * o + + + O O                                                                 $ V #.*.&...2.7.7.7.7.8.8.7.7.Q Q 7.c.=XxXVXcXbXbXbXlXjXjXlXjXdXrX8X5X&X|.{.'._.'._.2.h                                                                       ",
"                                                              #.oXtXCXCXCXvXbXjXfXbXvXvXSXvXkXrX=XOX].oXoX].oXoXoX_.C._.OX=XyXxXBXAXVXVXdX&X@X@X&X4X4XZ.) v u 0                                                                                                                                                           ; ; O * # * > 0 0 s d n C Z l j Z Z ( ! ! h e t t R ) 2.e.e.,.1._ _ _ 1.,.,.,.,.:.<.<.<.,.1.<.a.b.H.L.L.L.L.J.J.J.J.P.P.K.d.t.4.4.t.t.e.,.l 8 = : 0 y y 0 9 n ] t.b.b.b.V.V.b.V.H.D.F.D.D.V.I.Z.j.} R 3 2 3 t 4 4 J L L L P P P P P P E } o.h.e.,.1._ _ A A Z Z Z n n n n n d x s a 7 7 7 7 7 > > - * o + + + O O                                                                   z +.` ~ ! ) } | 7...7.7.7.h.....7.m.#XtXxXjXjXbXbXlXjXkXlXjXjXfX0X9X5X&X*X[.[.@X].j.!                                                                       ",
"                                                              y.%XxXDXCXSXSXvXvXbXvXvXvXcXdX7XOXC.8.o...X. .' &.&.' / ..c.].=XeXtXtXgXxXyX5X3X5X0XyXtX7XoXW.N.$.0                                                                                                                                                         ; ; % ; # * > 0 a s d n Z Z l j l ( ( ` ` ! k t L R )  .4.4.,.{ _ _ _ 1.,.,.,.<.<.t.t.<.:.:.<.a.b.J.P.L.L.J.J.J.J.P.P.K.b.s.t.[ ,.e.t.e.,.j 7 5 9 0 y c c 0 x A ,.p.s.b.b.b.b.b.V.G.L.L.J.I.I.I.j.W t t 3 3 t 4 4 J J L L P P P P P P P E } | { _ _ A l l Z Z Z C n n n n n n x s a 0 7 7 7 7 > > - * o + + + O O                                                                     0 8 8 e h T ) ..2.7.k.k.m.h.7.k.k.].6XeX8X0XjXlXlXjXlXcXlXlXdXrX0X8X9X3X&X5X5X#Xz.(                                                                       ",
"                                                              f.$XzXJXCXCXCXvXvXvXnXSXvXbX0X|.M.o.E R R t e r e r 6 3 R o.C.OX5X6XwXrXrX9X5X9X0XfXlXcXkXuXpX$XW.G                                                                                                                                                         ; ; ; # # * > 0 a s d n C Z Z j Z ( ' ' ' ! k k R R )  .4.4.:.1.{ 1.1.:.:.,.<.<.<.t.t.t.t.:.3.a.b.J.L.P.P.K.K.K.K.K.K.H.a.4.{ { [ &.e. .] j 8 7 0 y z c c z d C A ,.<.s.d.d.a.b.D.D.G.G.L.I.I.I.j.R t 3 3 3 t 4 4 t L L J P P P P P P L R R W W W l l l l l l C C C n n n n n s s a 0 7 - 7 7 7 > = * o + X + O                                                                             5 6 k ` r.h.7.j.z.z.z.x.o.7.Z.#X=X4X6XrXjXjXkXlXxXcXlXdX0X8X8X9X9X5X5X9X4XZ.'                                                                       ",
"                                                              f.#XxXCXvXvXvXvXvXvXvXvXcXjX9X[.c.X.R R T ! h p r r 8 e ) m.oX$X6XwXeXrXrX8X9X0XfXfXjXlXlXxXiXyX%XG                                                                                                                                                         ; ; ; # # ; > > a s x n n Z l l Z ( ' ' ' ! k k k R W | 4.4.:.:.:.4.4.:.:.:.:.<.<.<.<.,.:.:.3.b.H.J.L.P.J.K.S.b.b.b.b.b.4.W T k k ! ' ! h g 8 w 0 u z c c x d j l _ 1.3.3.3.,.3.5.a.v.v.D.H.I.I.k.E R t t t L t t L L L L P L P P P P L R R T ! l l l l l l l j j n n n n n d s s a 0 7 - 7 7 7 > = # o + + + O                                                                               $ 8 ~ e.j.2.7.h.2... .) W ..Z.oX#X4X0XyXrXrXjXlXlXjXrX9X3X3X3X3X&X3X5X$XV.`                                                                       ",
"                                                            B u.OXkXVXxXcXvXvXcXbXvXvXcXfX5X].c.X.W W ' ` b q 8 q 8 e  .Z.#X4X7X6XwXwX8X8XrXfXfXfXaXaXlXvXVXzXpX+.                                                                                                                                                        ; ; ; # O * , > 7 s x n n j j Z Z ( ( ( ' ! k t t R W ..2.2.4.3.3.4.3.3.:.:.:.<.t.q.,.>.,.:.t.b.J.J.J.J.J.H.b.b.b.b.j.i.{ k e e e t T e e e 8 w 0 0 c x x x d j j l _ 1.:.:.W :.4.4.4.3.a.b.V.m.k.Q E R R R R R L L L L L L L L L L L L R T T T l l l l C C j j n x d d n M x s s a 0 7 - - 7 > > = o o + + + O                                                                                   B y.e.2.2. .} ' ^ k e T h.Z.OX=X9X0X8X8XrXjXjXrX8X3X*X*X&X&X*X&X3X@Xm.`                                                                       ",
"                                                b ! ! ! ! ' &.l.OXkXVXcXvXvXvXvXvXvXvXcXjX6XOXC.k.2.2.u.#.B z 0 0 w 8 ' C.#X$X4X4X7X4X=X6XwXrXfXjXaX0XfXbXcXjX$X+.#                                                                                                                                                       ; ; ; ; # * * > 7 z x n j j l Z _ _ _ ( ( ! k R R R ..k.z.n.n.n.n.n.n.a.3.3.3.t.t.q.q.,.<.t.p.V.K.H.H.J.J.H.b.v.b.n.n.l.{ k t t t L t t e e e q q z x x x d j j l Z _ :.<.:.1.:.:.:.:.:.3.4.j.k.8.8.8.8.h.h.k.7.o.X.} R L L L L L L L L R ! ! l Z Z Z C C j j d d d d d d x s s f a 0 - - - 7 > > = o X + + o O                                                                                   N w.e.e.e.[ ' ' ! r e T ..Z.#X7X9X8X6X6X0XdXfX0X5X*X|.*X&X3X&X&X3X#XZ.'                                                                       ",
"                                            G #.x.x.x.x.z.B.l.z.oXkXCXCXSXSXvXvXvXvXvXxXjXeX$XoXZ.n.l.N.y.B z 0 = 5 8 ` Z.oX%X%X%X$X#X#X=X6XeXlXlXfX0XaXfXfXrXoXB @                                                                                                                                                       ; ; ; ; ; ; * > 7 z x n j j Z Z _ ] _ ( ) ( R R R Q 7.Z.I.I.I.I.D.I.H.b.v.p.3.t.<.q.q.q.,.t.p.V.P.H.H.J.J.H.b.b.n.n.z.l.| R t t t L t t t e g g v n n n j j j Z A _ >.:.3.3.:.,.:.1._ _ W :.4.8.k.M.'.'.'.].]._.M.c.h.Q R L L L L L L R T ( ( Z Z Z C C m n j d d d d s d x s s s a 0 > - > 0 0 > , * X + + + O                                                                                   M %.$.e.&.' ~ ~ B r 6 ! r.C.$X6X6X6X6X6X0XtXrX8X3X@X[.|.*X&X&X&XqX&XZ.[                                                                       ",
"                                            #.x.z.A.A.A.A.m.h...].tXCXCXSXSXvXvXvXbXyX0X7X$XoXI.z.e.e.$.+.v 0 : # # $ v *.N.N.B.B.V.B.B.Z.oX$XtXjXrX0X0XfX0X0XoXV @                                                                                                                                                       ; ; ; ; ; ; * > 7 s s n j j l Z _ _ _ ' { ) W W } 7.k.C.I.I.I.G.G.I.I.I.b.a.3.,.>.] >.>.>.,.t.V.P.P.P.P.L.H.b.n.n.n.z.x.} R t t t L t t t t r g g g b n j j j Z A ] >.3.5.p.3.t.e.{ _ _ W { 6.4.M.'.]. X X{. X'.).M.0.X.E R R L L L L h h ( ( Z Z n j n n b d d d d f f s x s s f a 0 - - > 0 > > = # X + + + O                                                                                     M B ~ ~ B V B V q 5 h  .Z.#X7X5X5X6X6X0XrX0X8X3X@X{.[.|.*X*X*X-X@Xm.[                                                                       ",
"                                             .x.c.).).).M.c...E C.wXVXCXJXJXvXvXvXrX#X X'.M.0.7.) h v v q $ & @ @ @ @ $ q g r g r h e e ^ X.Z.7XtXeX8X0XfXrX0XoXm @                                                                                                                                                       ; ; ; ; ; * * : > 0 s s d j j l Z ( _ '  . . ...7.k.m.C.I.I.M.m.m.G.I.I.V.a.4._ Z Z Z Z A _ <.V.P.P.P.P.P.H.b.j.v.j.l.j.} L t t J L L t t t r h g g j n j j l Z A ] ,.p.a.a.a.a.t.,._ { { :.6.7.0.).'.).).'.'.).M.0.0.7.Q R R R L t t h h ( ( Z C n n b b n d d d d x f s s s a a 0 7 - = > 7 > - * o X + + + O                                                                                         8 q q u M v w 1 g ) z.OX3X#X3X6X8X0XrX0X0X9X*X{.{.{.{.{.|.*X[.m.'                                                                       ",
"                                             .x.c.`.).c.c.k.Q R M.wXVXSXJXJXSXCXvX0X].0.7...} T g 8 5 9 $ @ X X X X X X @ @ @ $ $ $ & & 6 h l.pXgXeX8X0XfXrX0XoXB @                                                                                                                                                       ; ; ; ; * * * , - 0 f d d d j j l Z ( [ ,.r.r.j.j.m.m.M.I.I.m.M.M.G.I.I.V.a.,.Z j j d j l Z ,.b.P.P.P.P.J.V.a.i.2.7.h.x./ I J J J L L t t t R T k k l l l l A A _ ,.<.a.d.d.s.s.i.<.1.1.{ { 6.4.0.M.M.0.E.(.M.0.0.0.8.7.} R R R t t e k j Z Z Z C n n j j n s s d f a a f s s a a 7 7 7 - 7 0 0 > = # X + + + O                                                                                           5 9 9 u u 8 1 g ^ j.oX#X@X@X6X8XrXrXrXrX8X*X{.{.{.{.{.{.|.].z.`                                                                       ",
"                                            ' h.c.).).).c.h.} ^ Z.tXZXHXKXJXJXJXCX6Xc.} T k g r 5 # # # # X . X X X X X X X X X X # @ X $ e r.$XtXrX0X0XfXfXrX#X~ @ #                                                                                                                                                     ; ; ; ; * * * * - a a x d d j j Z Z Z ( [ e.e.j.z.m.m.m.M.I.I.M.V.D.H.V.n.4.( j d f d d j j ] b.K.K.K.Z.V.a.4.4.| | ..o./ L J J J J L L L R T ) W W 1.:.6.1.1.:.,.t.p.d.v.d.a.3.3.:.1.1.:.,.4.2.7.n.M.k.0.0.0.0.8.8.7.2.| } T T k e e g j Z Z C j j j j j j d s f a f f a a a a a f f f f d n z 0 : # X X X o O                                                                                             : 9 u r 8 6 h ) x.].#X#X#X6XeXdXdXdXjXfX3X@X|.[.[.[.{.'._.r.!                                                                       ",
"                                            ' k.M.).).).c.x.' T Z.iXZXHXLXKXJXJXCX7Xj.R e 6 5 5 # X . X o X X X + + + + . . . X X o X . # 8 &.$XgXrX0X0XfXfXyX#X~ @ #                                                                                                                                                     ; ; ; ; # * * * - a z n n j j j n C j Z ' &.e.e.j.n.m.m.V.Z.V.V.V.V.Z.j.r.{ l k f f s x n j ] s.V.V.V.V.l.4.{ { W } X.X.E L J J J J L L E Q ..2.4.3.5.5.3.3.3.3.3.a.a.v.v.d.5.3.3.:.1.1.:.,.,.4.4.i.v.8.8.8.8.7.2.2.2.| | W T k k e e g j Z Z Z n j j j j d d f f a f f a a a a a f d j j n n x 0 : # X X X O O                                                                                               9 V ~ h e ) x.C.oX#X4X4XeXyXdXdXjXcXjX8X*X|.|.[.|.{.'.C.r.(                                                                       ",
"                                            ' z.{.|.{.{._.x./ R A.uXVXHXKXJXJXSXCX7Xk.T k 8 8 w # X X X X X + + X + + + X X X X o o X . # w &.$XtX0XqX0XfXrXrX#X~ @ #                                                                                                                                                     ; ; ; % # * * * - x C D S Z j j j d f g h ( ( [ ,.e.r.4.2.i.i.j.j.j.j.4.:.W j k f d s n n j _ t.b.n.n.j.i.4.W W W R } o.E P J J L P E / o.k.m.V.b.D.D.D.S.S.S.v.v.d.d.v.v.a.3.3.<.,.1.:.:.,.4.:.4.4.2.4.2.2.4.| | | | { ) ! h h r r r f j Z Z C j j j d d d f a a a a 7 f f f a s n C D D S S n s 9 # X X X O                                                                                                 V y.B.B.B.oX7XuXuXuXyXtXdXtXtXdXjXcXjX8X*X|.{.{.{.{._.M.h. .T                                                                     ",
"                                            &.m.#X3X-X*X].A.) t x.uXAXGXJXJXJXSXVX7Xk.W T r r 8 = # o o o X + X X X X X X o o o O O o X $ 8 &.$XuX8XqX9X0XrX0XoX~ @ #                                                                                                                                                     ; ; % % # # * * 7 C D q.q.A C j d f 8 8 g k k k l ( ! ( ) [ [  . .,.4.{ ( l j j j j n Z Z Z _ e.p.p.i.i.i.4.W W W W } / E P P P P E O.c.A._.].Y.T.T.Y.T.U.L.J.J.H.S.v.a.a.3.4.:.:.:.1.:.:.4.:.| :.:.| | 4.4.| { W { { ( ( h h g q q q 8 g j n j j j j d d f f a a a 7 - - - 7 a x C S D A ] +.C x 9 # X X X O                                                                                                 ' W.$X$X$XyXAXCXVXzXBXvXxXgXtXtXdXlXjX8X*X|.{.{.{.{._.).m.k...!                                                                   ",
"                                            =.C.=X9XqX-X[.A.' k j.uXAXHXHXJXJXJXCXeXZ.| h e 8 5 # o X X X X + o + + + + . X X o o o X . # 8 &.$XtX0X9X0XfXrXrXoX~ @ #                                                                                                                                                     ; ; % % % # # * 7 D q.w.q.>.A Z j d f f g g 8 8 g g g g g h j h h m Z j j j j j j Z Z ] ] Z _ ,.t.t.i.i.i.4.{ W W Q X.o.O.E E O.O.O.9.).'.].}.}.U.U.Y.Y.T.T.Y.T.P.J.S.a.5.<.:.,.,.:.,.:.:.,.,.:.:.| | { | 4. .{ ( _ ] ( m b v g q q 0 f d b n n n j d d d f f a a a 7 - - 7 7 a x C D A S D F C x 9 # X X O O O                                                                                               &.oXuXeXyXzXHXKXDXCXDXCXBXlXkXjXlXcXlX0X3X@X|.[.[.[.[.[.[.oX].Z.V.l.$.                                                            ",
"                                            =.C.=X9XsX5XOX_.=.k z.uXAXHXLXJXJXJXJXtX].2.h 8 5 $ # X X X X X + + + + + + . . X X X o X . $ 8 =.$XgXyX0X0XfXfXrXoX~ @ #                                                                                                                                                     ; % O % % # # * a D w.s.t.q.] S Z n s d f f 8 5 w w 5 1 5 5 5 5 5 8 8 f g k j Z Z _ ] ] ] _ ] 4.t.t.i.i.i.2.| { | } o.;.o.O.o.o.(.`.`.'.'.[.}.}.U.U.T.Y.Y.T.T.Y.T.L.J.5.3.:.1.,.:.:.,.:.,.,.4.4.:.| { [ [ [ [ [ _ _ ] S m n v z s 0 0 f d j b n n j d d d f f a a a 7 7 f a a s x C D Z C S D C x 9 * X X O O O                                                                                               e.%XtXdXlXSXLXLXHXHXHXHXVXzXlXlXcXcXlXrX5X&X@X|.@X@X&X=X5X8X6X7X$X;XW.f.                                                          ",
"                                            =.C.=X0XaX9X@X_...t h.pXNXGXKXJXJXCXVXeXC. .k 6 $ # o X X X X + + + + + + + . . X X X X X . # 8 e.$XtXrX0X0XfXrXeXoXB @ #                                                                                                                                                     ; % O % O O # * a S q.t.w.q.] A D n n s f f 7 = = = = $ = 9 = 5 5 7 8 q g h Z Z A ] ] _ ] _ _ ,.4.4.e.e.r.4.{ { | X.o.o.o.o.o.9.(.`. X'.'.'.}.}.}.U.}.Y.T.T.T.T.T.R.F.3.:._ _ 1.,.,.,.:.:.:.:.:.,. .| [ [ [ ] _ _ S S m n x s s 0 7 7 0 f d j j n j s s f s a 0 0 0 7 7 f a s x x n C n n C S n s 9 # X o O % O                                                                                               &.oXyXjXbXSXLXLXHXDXJXZXVXxXlXlXlXxXjX0X9X&X@X|.@X*X&X5X9X0X8X6X6X6X%XV.$.                                                        ",
"                                            &.C.*X9X9X5X@X_...e r.$XiXCXHXZXvXzXgX7XZ. .g $ # # X X X X + + + + + . + + . . X X + + . . # 8 =.$XyX0X9X9XrXrXeXoXB @ #                                                                                                                                                     ; % O % O O o * f C ] q.>.] A A S S S n n x 0 9 0 9 9 $ : 9 9 9 9 0 0 g g m ( Z Z Z _ _ _ _ _ ,.,.[ ,.,.e.,.{ ) )  .....X.o.o.9.(.).'.).'.'.}.}.U.U.U.}.Y.T.U.T.U.G.D.,.{ _ _ _ 1.,.:.1.,.:.:.:.4.4.,.[ ] _ _ Z Z S S n s s f 0 7 9 7 7 0 s d s d s s f f a 7 7 7 7 7 7 7 a s s x x M n j n C M s 9 # X o O % %                                                                                               [ ].7XrXjXvXLXLXSXCXCXVXxXkXjXkXjXkXjXrX5X*X[.[.|.@X&X&X5X9X5X5X6X6X$XQ.f.                                                        ",
"                                             ._.&X9X9XqX&XOX=.e  .W.pXuXiXtX6X7X$XoXx.! 8 $ # # X X X X o o X + + + + + X X X + + + . . # q e.$XtX8X3X9XrX0XeX%X~ @ #                                                                                                                                                     O O O O # o o * a C A A _ A Z Z S S C n d a 0 0 0 9 9 : : 9 9 9 9 9 8 s j Z ] ( ( Z l _ _ _ { [ [ ,.,.,.,.[ _ ( ) ' )  .} / } o.8.M.'.G.G.R.}.U.U.U.U.U.}.U.U.U.U.R.S.,._ _ _ _ :.1.:.1.1.:.:.,.,.,.{ [ _ _ ( Z Z Z Z n d 0 7 0 7 7 7 0 7 0 f s s d f s s s a a f a 7 7 a x x x x s s f s d n x a : * o O O # %                                                                                                .I.4X0XjXvXKXKXJXVXVXVXzXjXdXkXjXjXfXrX9X&X|.|.@X@X@X@X3X9X3X*X3X7X$XQ.y.                                                        ",
"                                            &.].9XfXfXaX8X$Xz.k h &.B.Z.].C.c.c.k. .k 6 $ @ # o o X X + o o o o X + + + X X X + X + . . # q e.$XyX6X3X5X0XrXeX%X~ @ $                                                                                                                                                   % O O o O O o + * 7 x Z Z Z l j j Z n n f f 7 - : : = = = $ = : = = = 5 g b S ] ( ( _ _ _ _ { ,.,.,.,.,.q.,.] ( Z ! ! ! ! T k R R | 8.M.G.'.}.}.}.}.U.U.}.}.U.}.Y.Y.U.F.3._ _ { 1.:.:.:.1.,.,.:.,.,.,.[ [ _ _ _ Z Z Z Z n f 7 7 7 7 7 7 7 7 8 0 s s f f s x d d x M x s f d n n M x s a 7 7 a f a 9 = # o o O O # %                                                                                             r.].4X0XjXvXLXLXJXCXCXVXxXjXdXkXjXjXdXrX8X3X@X|.@X@X@X@X&X3X&X|.@X#XoXV.#.                                                        ",
"                                            e.oXrXhXhXdXfX6XZ.T e g T ) X.| Q Q W k 6 & @ @ X o o +           o o o X + X X X + o + . . $ s u.pXgX0X5X9XfXdXtX#X~ @ #                                                                                                                                                   O O O O o o o o * - x C Z l j d j Z n d f f 7 7 8 8 5 5 5 5 = = = $ = 5 s j Z ( ( ( ( _ _ _ { [ ,.,.[ [ ,.>.] ( l l l m m g 6 6 e R  .j.m.G.}.}.}.Y.Y.Y.}.}.}.}.}.}.Y.J.5.:.1.{ 1.<.:.:.1.:.,.1.,.,.,.[ { _ _ _ ( Z Z m n s 0 7 7 7 7 7 7 9 0 0 f s f f s n C C S S C n n n C N N x a 7 7 7 - 7 7 - = # o o # # # % #                                                                                         y.C.#X6XrXlXCXKXLXJXCXCXvXlXjXjXjXjXjXtXyXeX7X#X@X@X@XOX|.&X&X@X].].].Z.i.`                                                         ",
"                                            r.oXdXbXbXbXcXtXI.! r e r ^ ........ .T 6 & @ X X o o                 o X + X X X X + + . . $ v B.uXzXkXrXfXcXzXkX$X~ # #                                                                                                                                                   O # # # * * * * = 7 d C Z l j j Z Z n j d d d f d d f 8 8 8 8 5 = = = 5 8 g m ( ( Z W ( ( _ _ _ _ _ _ _ ] ] _ ( Z Z Z Z n f = $ = 8 ! [ i.n.J.P.T.T.Y.Y.U.}.U.}.Y.Y.Y.J.a.:.1.{ 1.:.:.:.:.,.,.1.[ ,.[ [ _ _ _ ( Z l j j g f 0 7 7 = 7 7 0 7 7 0 0 f f 7 d C D D ] ] S C C C C n M x a 7 - - - 7 7 > = * # # * ; ; ; ; %                                                                             ` #.$.f.W.$XuXtXlXcXvXJXKXKXJXCXCXcXjXtXtXjXtXyXyXrX0X6X&X#X@X@X|.[.OXOX]._.I.I.m.e.`                                                         ",
"                                            i.#XlXnXnXnXCXxXoX! q 8 r ' =.2.7.7.r.' e $ @ . + o                       X X X X X X + X . # g B.uXVXzXcXvXSXCXzXpX+.# #                                                                                                                                                 O # ; , , > = = = - 7 s x C C C Z Z D Z n n Z Z j l l l l k k g 8 8 5 5 8 g k m Z Z Z Z ( ( ( ( ( _ _ _ _ _ _ ( ! l ( ( S n 7 * o # $ 8 v [ e.n.b.J.T.Y.T.U.U.U.}.Y.Y.Y.L.v.3.:.1.1.:.:.1.,.,.,.1._ ] [ _ _ _ Z Z Z n j j d f 7 7 - = = - 0 9 - - 7 7 7 7 j S %.q.q.%.] Z Z Z C n x s 0 7 - - - 7 7 > = * * * * > : , ; # O                                                                       +.f.Z.Q.oX%XpXkXVXCXSXJXJXJXHXJXCXvXvXbXdXrXyXtXrX0XrXrXeX6X3X&X@X@X|.[.].].C.M.M.M.m.j.@.                                                        ",
"                                            B.4XvXJXSXSXSXBXoX! 8 5 8 !  . .....&.! 8 $ X X +                           o X X X X o + . # 8 e.pXiXtXfXjXcXlXtX#X+.# #                                                                                                                                                 O ; ; > H c a 0 7 7 a a x n n C D Z S A ] ] ] ,.[ { ,.,.,.{ { { ( Z l m ( ( ( ( ( Z Z Z ( _ ( ( ( ( _ _ _ _ _ ( W ( ( ] A C a # + o # & 9 g j ( 1.s.J.Y.Y.T.U.U.}.Y.Y.!.T.H.a.p.3.3.3.<.:.,.:.,._ _ _ ] _ _ _ Z Z Z n j n s s a 0 7 7 - - 9 > : : 7 7 7 7 j D %.q.q.>.] Z Z Z D n n s 0 7 - 7 7 7 0 > , = * * = > > , * # # O                                                                     f.oX$X4X6XeXkXVXSXSXSXSXJXJXJXJXvXvXvXbXjXyXyXtXyX0XrXyXyXeX6X4X3X&X#XOXoX].C.M.M.C.Z.V.*.v                                                       ",
"                                            V.4XCXJXJXJXJXVXoX( w $ 6 h ! ) } } ) h 6 # X + +                             o X X o o + . # 5 ' oX6X6X9X8XrXeXeXoX~ @ #                                                                                                                                                 o ; > c c x x a a a a s s x j n C D S ] >.q.t.t.t.t.j.n.n.j.j.n.l.i.t.u.g.i.q.[ ( Z Z Z Z ( ( ( ( _ _ _ _ _ _ _ W ( { ] ] D a # o + o # ; $ = 8 g ,.K.Y.Y.T.U.U.}.Y.!.!.Y.P.b.b.a.a.a.5.3.<.<.,._ _ _ _ _ Z Z Z Z Z n n M x s a a a 7 7 7 0 9 : : 7 7 7 7 d Z %.q.>.] A l j Z S S n s 0 - 7 7 7 7 0 > > , * * * = , = * # # # O                                                                   Z.pXiXzXbXbXbXnXnXnXSXSXJXJXJXSXvXvXbXbXlXdXtXjXdXrXyXdXdXyX0X6X5X4X&X$XOXoX_.M.M.I.].C.B.B                                                       ",
"                                            V.4XCXJXJXJXSXBXoXT w $ $ 8 g k T T ! e $ X . + +                               o X o o + . # 5 h Z.#XOX|.@X&X&X=XC.B @ #                                                                                                                                               o o * > c x x x a a a a a a x s d n C D ] >.q.t.i.t.i.v.n.V.b.V.V.V.n.n.V.Z.V.s.,._ Z Z Z Z ( ( ( ( _ _ _ _ _ _ _ W W ( ] ] D a # o + + X # @ # $ 8 _ S.!.Y.Y.T.U.Y.Y.!.!.Y.P.D.v.d.a.a.5.3.<.<.:._ _ _ ( Z Z Z Z Z n n n M s a 7 7 0 0 7 7 0 9 : - 0 a f 8 j S q.q.>.] Z l f C S S n x 0 - 7 7 7 7 0 > > , = * * * = = * # # # o o                                                                 V.4XyXlXbXbXbXnXnXnXSXJXJXJXJXSXvXvXvXvXcXjXjXjXjXfXdXjXdXyX0X6X5X4X&X$XOX].C.M.M.C.I.oXV.~                                                       ",
"                                            B.$XvXSXnXnXCXxXoX! 9 @ @ 5 8 8 e e r 5 @ X X o                                   + + O X . @ 1 h x._.).).).)._._.x.b @ #                                                                                                                                               + + # > 0 s x s a a a a a a z s a f d j D A 1.1.:.3.a.b.n.b.V.H.H.D.V.H.I.+XQ.V.t.( k k l l ( Z Z ( _ _ _ _ _ { _ ( ( Z Z ] S f * o X + o X X X * 7 _ K.!.Y.T.T.U.T.T.Y.T.U.L.D.v.d.d.a.5.3.3.<.,.>._ _ Z Z j j n n n n b n f 0 7 7 7 7 7 0 s 0 8 0 s d g d Z S %.q.q.] Z j f x C C x a 7 = - - - 7 7 7 > > : * # * * # # # # o + o                                                                 r.oX6XfXfXjXjXbXnXnXJXJXJXJXJXJXJXSXSXCXVXcXcXcXbXbXjXlXjXyX8X6X4X&X4X$XOX'._.M.M.M.Z.Q.B.m                                                       ",
"                                            V.4XcXSXnXnXCXxXoX^ 9 @ @ $ w 5 8 8 8 = @ X X X                                     o O o . @ 1 h x.A.9.9.9.9.).).;.r @                                                                                                                                               O + + # > 0 s d f a a a a a a z z a a f x C Z A _ :.t.s.b.n.n.n.b.H.I.I.I.}.+X!.K.i.W k k ! ( ( ( ( _ _ { _ _ ] ,.[ _ _ ( ( [ ] s = o + + O o X X * 7 _ K.!.Y.T.T.T.T.T.T.T.L.J.D.v.d.d.a.5.p.t.3.<.,.,.] ] Z j j n Z m n j j s 8 7 7 7 8 f s n g j b Z Z Z Z ] ] q.q.q.] Z j d d C n x a 7 - - - 7 7 a a 7 7 9 : * * = * # # # # o o O                                                             k j.oX7X0XfXjXjXcXvXvXCXvXCXvXVXvXzXxXxXxXkXtXjXkXjXjXfXjXjXdXrXrX8X7X7X=X[.'._.C.M.C.C.oXZ.` 6                                                     ",
"                                            V.4XcXSXnXnXCXzXoX! 9 # @ = 5 5 5 w w = # X X X                                       O o X # 5 ! x.C.M.0.c.M.M.M.;.r @                                                                                                                                             O o + + % > s x d a a a a a a z x z a a a x x n Z _ q.s.V.b.s.s.i.n.Z.I.I.].+X+X!.P.i._ l W _ { ,.,.,.:.,.4.:.:.:.,.1._ _ _ _ ,.q.n - # o + O X . X = f >.P.+XY.T.U.T.T.Y.T.L.J.J.D.v.d.d.a.a.p.p.p.t.3.<.,.] _ Z Z Z Z Z n j j b j g g j b n Z ] ] ] ] q.q.q.q.q.w.t.w.q.>.Z j s n n x s 0 9 - 9 0 0 s s s a 0 0 > = , : = = * ; * O O O                                                           ` i.oX7XyXjXbXbXbXvXvXlXtX8X4X4X2X2X$X$X$X$X$X#X2X4X7X6X8XtXcXxXkXkXdXyXrX7XOX].'.'._.].].oXW. .8 $ @                                                 ",
"                                            B.4XvXSXnXnXCXzXoX! q % # = 5 5 5 5 9 $ # @ o o                                         O o $ w ~ u.m.c.0.c.c.m.z.=.q @                                                                                                                                             O o + X % > s x x a a a a a s z x z a a a z z a j Z q.i.V.g.t.,.{ 2.V.I.Y.}.}.+XP.J.v.4.6.:.,.3.t.t.3.t.p.p.3.3.3.3.3.:.:.:.:.i.s.Z 7 * o + X X X X = f ,.P.+XY.T.U.T.T.Y.P.J.S.S.v.d.a.a.a.a.p.p.p.t.t.t.<.,._ Z Z Z Z Z Z Z Z Z Z Z Z Z Z A ] q.q.t.i.p.s.s.p.p.p.i.t.w.>.Z j d x x s 0 7 7 7 0 0 s x x z s s 0 0 > > > > , , , ; O O O O                                                   %.g.W.Z.oX7XyXjXjXbXbXcXSXVXyX$XoXm.V.m.V.z.z.A.A.A.A.Z.I.].OX#XyXzXVXVXVXzXxXkXeXOX].'.].].].].oXQ.r.h 6 $ 5 i i                                           ",
"                                            V.$XzXnXcXvXvXkXoXh 9 # X $ $ $ $ $ 1 $ % % @ o                                           # % 9 v ` ....| 2.2... .~ 9                                                                                                                                             O + + . + # > c z x s a a a a s s z a a a a 0 > > 7 d S q.y.q.Z j g W p.Z.I.Y.Y.Y.T.P.D.v.v.v.v.D.J.H.H.H.D.D.v.v.v.v.v.5.5.5.v.V.V.] 7 * o + + + . X * f >.P.!.T.U.U.U.T.T.J.v.d.a.a.a.a.a.a.p.t.t.t.t.t.3.t.<.,.] Z Z l Z Z ] ,.,.>.,.q.,.,.q.t.t.t.t.p.a.p.p.p.s.s.p.t.q.] Z j s s s a 7 : : : 0 c z x x z s a 0 0 > > > > > > , ; O o o o O                                               F W.pXuXuXyXlXcXbXbXbXbXvXSXzX$XZ. .T l ( ! h h ! ! ^ ! )  ...h.C.6XBXCXZXJXCXAXkXyXOX_._.'._._.].oX].j.) h r V -.+.B z                                       ",
"                                            N.$XdXcXbXbXzXtXI.k 5 X X # $ $ & & & $ % @ @ o                                             % : q g h ! l W ( ! m p ;                                                                                                                                             O + + . . # : 0 z x s f s s f f f s a a a > > , * = 7 x S S n s 8 = f _ s.H.I.T.T.U.U.U.U.U.T.T.Y.!.Y.Y.Y.Y.T.T.U.P.P.G.D.F.D.D.L.K.,.f * o X X + . . # 7 >.J.Y.R.G.R.U.T.L.S.a.t.3.3.t.t.p.p.t.3.3.3.3.3.3.t.3.<.] Z l l Z _ q.i.s.p.s.s.s.s.a.s.a.a.a.a.p.p.p.p.p.p.p.t.q.] Z l f s a 7 : = = : 0 z c x z s 0 0 0 9 > > > > > > , * O + o o O                                             x f.;XGXKXHXGXJXJXnXbXbXbXvXSXkXI.) 6 @ # $ $ @ & & 1 1 6 6 e t R h.$XAXZXHXHXGXVXzXyXOX_.C._._.M.'.[.].m...) ^ #.f.f.*.B                                       ",
"                                            f.#XdXcXbXbXcXkXoX! 9 o X # $ $ $ $ & & % # o o                                                 9 9 5 8 8 8 8 w w :                                                                                                                                             O o o X . . # > c c M x x n n n d d n n z a 0 > , = : 7 a x n x 0 7 = 8 Z i.V.P.T.Y.U.U.U.T.T.T.Y.}.+XY.Y.T.T.T.T.T.T.T.U.G.G.G.G.T.P.<.f = o X X X + + # 7 >.J.!.R.G.R.R.P.J.b.t.,.,.:.3.t.a.a.t.t.t.t.3.3.t.t.t.t.q.] Z l Z _ t.s.s.s.s.s.s.a.a.a.a.a.a.a.a.a.a.a.s.s.p.t.q.>._ Z n x s f 7 7 - 9 s z x x x f a 0 0 9 > > > > > > * * O + + o o                                             M f.pXGXHXJXJXJXnXvXjXmXjXcXCXiXZ.l 5 X @ $ $ $ $ $ 1 1 1 6 8 r k r.$XNXCXHXHXHXZXVXtX#X_.C.'.'.).'.OX[.M.k.X.) ' =.=.&.B                                       ",
"                                            f.#XtXcXbXcXVXxXoX( 0 # X $ $ $ $ 9 9 : % % O o                                                       = # # #                                                                                                                                                   o o o o . X % > c x N n n Z S D C j D C n x a 7 > > 7 7 0 x x z 0 7 7 f A t.b.L.T.T.U.U.Y.Y.Y.U.U.Y.+X}.Y.Y.}.}.Y.Y.}.}.}.U.R.G.G.T.P.<.f = # X . X + + # 7 >.P.!.U.G.G.G.G.S.a.:._ _ 1.<.t.s.s.i.t.t.t.t.t.t.p.p.t.t.q._ Z _ ] t.d.s.s.s.a.a.a.a.a.a.a.a.a.a.a.a.a.s.s.p.t.t.q.] A C C n n s a a s s x M n x f a 0 0 9 > > > > > > * * o + + X o o                                           V y.$XVXJXCXvXnXnXbXjXhXfXcXCXiXV.j = # # : 9 : 9 9 w u q q r b k r.$XzXVXZXHXHXHXCXtX#X]._.'.'.'.].@X#X].c.7.R R / ) ! g                                       ",
"                                            N.#XtXcXcXcXVXzXoX) u # @ # # $ $ 9 : ; % # o +                                                                                                                                                                                                               + O O O O X . # > z N D D S ] ] ] A A ] ] D n x s 7 - 7 0 a s x x a a f d ] t.d.S.L.U.U.R.U.T.}.Y.Y.U.}.}.Y.Y.Y.Y.Y.U.}.}.U.U.U.G.U.+X!.t.f = # X X X + + * f >.!.+XL.R.G.F.D.v.t.1._ _ _ ,.t.t.t.t.t.t.t.p.t.t.p.p.t.t.,._ Z Z _ <.a.s.d.d.a.a.a.a.a.a.a.a.a.a.a.a.a.p.p.t.q.q.q.>.] D S S Z n d d x n M M n d f f 7 7 9 - - - - > , * * o + + + + o                                           B N.pXVXJXvXnXvXnXbXjXjXjXbXVXtXZ.m 5 o % : : : : 9 w 0 q q q r k ..#XiXVXHXHXHXHXZXkX$X_._.'.'.'.'.@X@X].M.8.E E } Q W h w                                     ",
"                                            f.%XtXcXcXcXCXzX#X' u @ @ @ @ $ @ $ $ $ % # o o                                                                                                                                                                                                               + + O # # X X # > x C ] ] ] >.q.,.,.,.t.>.A l d f 7 - = 7 7 s x N N N x D q.t.s.b.D.L.R.R.U.T.}.Y.Y.Y.U.U.Y.}.}.}.U.U.R.R.R.U.}.Y.+X1X%Xg.n : # X . . . . * a q.!.1X!.L.G.F.S.v.3._ A _ _ ,.<.t.q.q.t.i.i.s.s.p.s.s.s.t.q.] Z l A ,.t.s.d.d.d.d.v.v.d.d.a.a.a.a.a.p.t.t.t.q.>.] >.%.] ] ] ] A D C C n n n n d d f f 7 7 9 - - > - > = * # + + + + + +                                           B N.pXCXJXvXvXvXnXbXbXjXjXxXVXuXZ.V 5 X # : : : : 9 0 0 0 q 8 8 e ' oXuXAXHXKXLXKXZXkX$X_._.].'.'.'.|.@X].M.8.Q Q o.o.| ! 5                                     ",
"                                            u.oXeXdXdXdXxXgXoX} r @ @ $ $ $ $ 5 w = # # O o                                                                                                                                                                                                               + o o % * # o * 7 n D q.] ] >.,.q.t.t.t.t.] A Z Z C j f d f s x N N N x D D q.<.3.d.S.D.D.F.L.T.U.U.U.T.T.U.U.U.U.U.U.R.U.U.U.Y.Y.!.!.~.g.M : # X X X . . # a q.~.!.P.G.G.D.F.v.t.1._ _ _ ] >.>.] ] ] q.w.t.t.t.t.t.t.q.] ( Z l Z _ <.t.p.a.a.d.a.a.a.d.s.a.p.p.p.t.t.t.,._ l Z A ] ] ] ] ] ] Z Z Z Z j j j d d f f f 7 7 7 7 7 - > = * # + + + + X X                                           G B.pXCXJXnXvXnXnXbXjXyX7X7XuX;Xg.v : X # % ; % $ $ : > > > 5 5 6 ( Q.uXzXJXHXHXHXVXkX#X_.C.].'.].].#X#X[._.c.8.8.9.9.7.| 8                                     ",
"                                            *.C.=X5X3X&X5X&XM.T g 1 1 6 e k g h g 8 = # O                                                                                                                                                                                                                 + o # ; , * * - z D q.q.>.] >.>.,.q.t.t.t.t.t.t.p.t.w.>.A n f 7 a c a a a x C A 1.<.5.5.5.d.S.F.F.L.T.Y.U.U.R.U.U.U.U.U.}.Y.Y.Y.K.b.g.g.+.0 = X X X o + . O > C i.g.b.D.L.L.G.D.d.<.>.>.1._ _ A Z Z Z S ] ] ] ] _ ] _ ] Z Z l l Z _ <.t.<.3.t.p.t.t.p.a.p.p.p.a.a.a.t.,.1.Z j j Z D ] ] _ ] _ Z l C C j j j j d f f f a 0 7 7 7 7 > - * # + + + + + + O                                         G V.pXZXJXSXnXnXnXbXfX#Xm.2.e.#.v = # X O           o # # # # $ 6 ! C.6XiXvXVXVXzXgXeXOX_._.'.'.].oX$X&X#X[.'.M.).'.).m.r.g                                     ",
"                                            #.m.OX|.{.{.{.].k.Q T e k W | | | ) ( g = # O                                                                                                                                                                                                               + + o o = > > > a x D q.q.>.>.>.,.q.q.,.q.t.t.p.d.K.K.K.g.q.D f = > 0 > , > a s j l _ 1.:.:.<.a.v.S.D.L.U.L.G.G.G.R.R.U.U.U.Y.Y.J.s.q.%.S x : % o X o X . + O ; c S >.p.v.L.U.P.J.v.p.<.<.,._ Z l j j d n C Z C C Z Z Z l l l Z Z _ ] ,.,.1.1.:.<.:.<.3.t.t.t.p.a.s.p.t.,._ l f f j Z _ ] _ ] Z Z l j n d s s d s f f f a a 7 a a 7 - - * * o + + o O + o                                         G V.pXZXHXJXSXJXJXjXeXC.! 6                               X X @ $ h V.4XeXjXjXtXyX6X4X[.'.].[.[.oXOX#X#X#X@X{.'.{.{.{.'.x.g                                     ",
"                                            ' z._. X).).)._.c.X.Q o.k._.].].].M.j.! 5 # #                                                                                                                                                                                                               + + + o > c c x x C Z A ] ] ] q.q.,.>.] ] >.<.t.d.J.!.+X~.g.] f * * * * # * - a j Z _ _ _ _ 1.3.a.a.v.S.D.D.D.G.G.R.R.R.U.U.T.P.b._ f f 9 = % % X X X . . . o + # = d ,.a.J.T.L.D.v.a.3.<.>.A l j j d f 7 f d f f j j j j l Z Z _ _ _ _ Z l l l _ A _ 1.<.3.t.p.p.p.t.t.,._ l f f j Z _ ] _ A Z l j j j f f f f s 7 7 q a a 7 7 7 7 - - = * + + o O O + o                                         G V.pXZXJXvXvXJXSXdX4XV.q                                   . X @ e l.+X4X8X5X3X&X4X4X&X@X4X6X4X#XoX]._.[.OX[.{.{.{.{.'.l.h                                     ",
"                                            ' x.A.).(.(.(.c.8.o.0._.@X6X0X0X6X#XZ.[ 6 @ # %                                                                                                                                                                                                             + + + o > c x N C C j Z A D ] q.q.q.] A Z A _ 3.b.!.+X2X!.V.>.f o X # X X o * - x D ] ] _ A _ ,.3.3.3.5.v.v.F.F.G.G.G.G.U.T.T.J.t.f # # @ X O O X X X X . . + . . X = Z t.J.Y.P.J.S.d.a.<.,.A l l j d 7 7 7 7 7 7 f j j Z Z ] ] ] ] _ Z l d k j j j l _ :.3.p.p.p.p.a.s.<.1.l d k l Z ] ] _ Z l l j j d s 0 0 0 0 7 0 s s a a a a 7 7 - = * o o o O O o o                                         G V.pXAXGXvXvXJXSXfX$Xf.=                                     . @ 8 u.oX#X@X[.].{.&X5X8X0XdXlXeX$X].8.7.C.[.[.{.{. X{.'.j.h                                     ",
"                                            ' x._.).).(.).).c.8.9.'.*XqX0X0X8X@XI. .6 @ # %                                                                                                                                                                                                             o + o o - z N C S C l C A A q.w.i.q.] S Z Z _ 3.D.!.1X2X!.g.] f o o # O X o * - x S ] _ ] A _ 1.:.:.3.5.d.v.S.D.D.G.F.F.G.G.L.K.q.8 X X X X O O X X X X + . . . . . * Z 3.J.!.T.P.J.v.d.t.t._ Z Z D j f 7 0 7 = 7 f j j Z _ ,.,.,.>.] _ l j d j j j l _ :.3.p.a.a.a.a.d.3.1.l j k l Z ] >._ Z Z Z Z n j s 0 7 0 0 0 f s x s a a a a a 7 - * o o O * O o o                                         G N.pXZXJXvXvXJXJXfX#Xf.                                      X @ 8 u.].#X#X|.{.[.4X8XyXjXcXBXyX$XZ.) R h.C.].{.{. X X'.k.b                                     ",
"                                             .k._.]._.).).).c.o.9.{.*X9X0XqXqX|.C...8 $ # % O O o O O                                                                                                                                                                                                   O + o # - s n Z Z C C Z _ >.q.p.g.w.F D C Z _ 3.J.+X+X+XP.t.S 7 X # % O o O * 7 n ] >._ ] _ _ 1.:.:.<.5.a.v.v.S.J.F.F.F.F.G.J.b.] 7 . o X X O o X X X o X . . . . . = j 3.J.+X}.R.G.G.D.d.t.,._ ] >.S d f s f 7 8 f j l _ :.t.t.t.t.q.<._ j l l l l l _ :.t.s.a.a.a.d.a.p.:.l j j l ] ] _ _ _ Z Z D C n s f 0 - 7 a s s z s a a a f a 7 - = # o # # % O O                                         N g.pXGXJXnXnXJXJXdX#Xy.                                      X @ g j.oX#X4X#XOX#X6XrXjXcXvXCXtX%Xu.8 6 ( j._.{.{.{.{.'.z.b                                     ",
"                                            ' h.m.C.M.M.).M.8.O.9.'.*XqX0XqXqX|.C. .8 @ X O O O o O O o +                                                                                                                                                                                               O o o # 7 f n C Z Z Z Z A A A q.w.F D x d j l 1.S.!.+X!.P.t.Z 7 o # % O o o * - x A ] ] ] A A 1.:.6.:.3.a.v.v.S.J.F.F.F.G.R.J.d.] - . X X X o o X X X X . . . . . . = j t.P.1X}.R.G.G.F.b.p.4.1.1.,.] n s s 0 7 8 f j l A 1.<.t.t.q.,.,.>.l l l l l l _ <.t.s.a.a.a.d.d.3.:.l l j Z ] A _ _ _ Z Z D Z n s 0 - - - 7 7 a z s a a s s s a - = # # # # O O O                                         N g.pXCXJXnXnXSXSXrXoXy.                                        # g i.oX#X=X#X[.OX7XeXjXxXcXVXuXoX*.w $ m =.m.].{.{.{.I.k.h                                     ",
"                                            !  .x.m.m.c.c.k.o.Q 8. X|.qXqXqXqX[.m.) 1 @ X X X O O O % o X o                                                                                                                                                                                             O o # * 0 d j j Z Z Z Z Z j d C D x a > - - f l d.Y.+X+XK.t.Z 7 # # O X + + * > x D ] A D Z l 1.:.:.:.3.5.d.d.v.D.J.J.L.U.U.J.a.S = . X X X o X . X X . . . . X . . = Z p.P.1XY.G.G.G.F.v.5.4.:.:.3.,.Z j s 0 7 9 f v n Z _ q.w.q.q.>.] ] A _ _ l l A 1.3.p.a.a.a.a.d.a.3.1.l l j Z S Z Z Z Z Z Z Z C n a 7 = - = = - 0 a s s s s s s a : = # # # # O O O                                         N g.2XCXJXvXbXvXcX8XoX&.                                        @ q e.I.oX#XoXC.].#X7X0XjXlXxX6XW.@.$ @ g } k._. X X'.I.j.h                                     ",
"                                              m '  ...X.X.} / Q 8.|.3XqX0X0XqX|.m.} 6 & @ X o O % % % % O X                                                                                                                                                                                             O o % = s n C Z _ ] ] S n a - 7 a > , = * - 7 j 3.H.L.P.K.t.A f = * * # o o * > c x n n n f j _ :.:.3.5.5.a.d.d.v.S.H.J.T.P.K.i.S * . + X X O X X X X X X X X O . . = C t.P.+XY.G.G.G.G.F.v.5.5.5.a.3.] n x s 0 q z s s d j D D S S Z Z A ] <.3.<.:.1.<.3.5.5.a.a.a.a.a.3.:.A j j Z S Z j l Z Z Z S n M 0 : * = * # = > a s z x s s s a - = * # # * * O O                                         x i.#XzXvXmXaXfXfX3X].#.                                        X 5 Z N.V.Z.B.h.c.oX4X6XyXdXkX7XZ.@.$ @ m r.M.{.|.|.{.].m.T                                     ",
"                                                  q r e e e T X.C.5X0XaXaXaX0X*X_...e 1 $ $ ; ; : : ; % O X                                                                                                                                                                                             O O ; 7 n S ] ] q.q.q.] M 7 * * * * # * * = - f A <.p.a.p.t.] l f a a y > * * * > 0 0 > 7 - f _ 3.5.5.v.v.v.b.d.p.p.g.b.P.!.W.f.S * . . X O O O # # @ # o O O # O X , S w.V.P.P.G.U.U.R.G.G.D.F.D.S.a.,.S n x x x z 0 7 = - 7 7 0 7 7 7 Z w.s.V.V.b.a.a.5.5.5.5.a.d.a.a.t.:._ l j S ] Z j j n n n n M x 0 = * * # # # : a a z z s s s a - = * # * * * # O                                         x &.oXrX0X3X.X.X*X{.M.'                                           # 7 g m ~ h t } C.#X7XyXdXkXpXQ.*.5 $ ' Z.OX5XqXqXqX#XC.!                                     ",
"                                                          & p =.].rXjXjXjXmX0X3X[.c.) r q 0 0 0 9 ; % % # X                                                                                                                                                                                             O o , a D q.q.>.q.i.w.+.x : o o o o o # * = = - f l A _ _ 3.<.] A D D x a > * * * ; * # * * f _ p.d.v.D.S.S.S.s.,.] q.w.g.g.g.%.x ; . . X O # # # # $ $ % # # % # # : x q.t.d.S.L.U.}.}.}.U.U.U.P.L.b.<.] Z M M M s 7 = o o # # # # # = n i.K.Q.P.J.b.b.d.a.5.a.a.d.a.a.3.<._ l Z ] ] Z n d f s s x z c : = # # # o # = 7 a c z s x s a 7 - = = * * * # O                                         z ' Z.5X3X X(. X X).c.'                                           . X @ # $ & & k m.#X7XyXdXkX6XQ.y.w = e.oX4XfXjXmX0X5X].'                                     ",
"                                                            v f.oXeXyX0X0X0X0X3X@X].m.=.' m v q 0 : % # O X                                                                                                                                                                                             O o : z F w.q.q.q.i.q.S c : o o o + o # * * * * - a f d l 3.t.t.t.t.w.%.x a * o o O O o + # f >.a.d.S.F.D.D.S.t.j 7 s z x C x a : o . . X o # % $ = = = = ; ; ; ; % ; 0 x d l <.D.T.>X>X}.}.}.}.Y.L.v.<._ Z n n n s = # o X X o o X # = j s.K.P.P.J.b.v.d.5.5.5.a.a.a.a.3.3.:.{ [ q.q.Z n 0 = = : > , = % # # # o o o # * - 7 a a x f a a a 7 > > > * # O                                         u ! m.@X.X X(. X X`.c.`                                             . X X @ @ @ h Z.$X7XyXdXgX7XQ.y.5 = e.oX6XlXbXjXjX0X+X[                                     ",
"                                                            M f.Q.6X6X3X3X3XqX5X3X&X#XC.l. .! v w $ # # X X                                                                                                                                                                                             O o > z +.w.q.%.q.i.q.S c : o o O o O ; ; ; # o * = - - j 3.a.b.K.K.K.g.D x * X + + + . X o f >.a.v.F.G.L.L.S.,.7 X . + + o + + + . . . X o # % = = : 9 : 0 : : ; % # # # o = l d.U.>X2X>X}.}.}.U.L.v.3._ Z j n n f = # + X X o X X # = n g.K.J.L.D.v.v.v.5.5.5.5.5.5.3.5.3.t.3.t.i.e._ x > # o # # # X X o o o X X o o * * = > a d s f x s s a a 7 * # O                                         u ! z.[.{. X(.XXXX`.c.)                                               . . . X @ b Z.7XeXtXfXdX4XQ.*.= = e.oX0XvXvXvXbXyX#X .                                    ",
"                                                            u G u.Z.].].'.[.|.|.*X*X@X].x.} T h w $ @ # o X                                                                                                                                                                                             O # : 0 S %.] Z D S C x y : # o o # # # % # O o o * * - f <.d.S.S.J.J.s.A f * + + + + . X o a >.d.S.F.G.L.L.V.q.- . . . . . . . . . . + X # * = = : 9 0 0 0 y i < % O o + o * l 5.L.1X2X1X}.}.>X}.U.D.3._ _ j Z S s - * X + + + X X # # d p.K.J.L.D.v.v.v.a.5.5.a.a.5.3.3.3.3.3.t.p.<.A x = o X X X X X X X o o o o o o # # * > a a x x n n x s a a = # O                                         0 ~ z.{.{.XXXXXXXX`.c.'                                                 . X . @ b Z.4X8XtXdXkX7XoXy.= = w.oX6XcXcXvXbXtX$Xe.                                    ",
"                                                            : u b ) X.} o.c.'.{.{.[.[.C.o.E R e w $ @ # X X                                                                                                                                                                                             % # , 0 n Z n f f s f 7 > * # # # # # # ; % O O O ; ; > j ,.d.v.v.H.K.p.A a # + + + + + + o a q.v.S.F.R.U.L.K.q.- X . . . . . . . . . + O ; : > > 9 0 q 0 0 y y > % % O o o * j p.L.1X2X>X}.>X>X>X}.G.5.4.,.Z S S s - * o + o O X X # # f t.b.K.P.D.v.v.v.a.5.5.a.a.5.3.3.3.3.3.t.p.<.A z , X X X X X X X X X o o O o o o o * > a z x n n n n x z c > # o                                         9 ! k.|..X XXXXXXXXX).'                                                     X @ b Z.$X8XdXjXxX6XoXy.5 = $.oX6XcXvXvXjXyX$Xe.                                    ",
"                                                              $ 1 e t R Q 8.)._.{.{.].C.o.R R e w % @ X X X                                                                                                                                                                                               # = > s n s 7 - 7 : = * * o # * # # o # # O O O O ; * f _ p.d.S.J.K.p.A a # X + + + . + o a q.b.S.F.R.U.L.V.q.- X + + . . . . . . . X # ; : > 9 0 y q q 0 0 0 > ; # o + + o f t.L.1X2X>X>X>X>X>X}.G.5.:._ Z S n z 9 * o + + O X X o # j i.K.P.P.D.v.v.v.d.a.p.a.a.p.p.p.p.p.p.p.s.t.A c : X . X X X X . . X o o o o o o o # > c x n M n n n x z c , o o                                         9 ( z.@X.XXXXX.X.X Xc.'                                                       @ r Z.$X6XtXdXkXpXoXy.= $ @.Q.6XcXvXvXbXiX2Xe.                                    ",
"                                                              # 1 6 r ^ ..k.M.)._._._.c...W T r 9 % X X X                                                                                                                                                                                                 # * = 7 s a - = = = = * * # * * o o o # o o + o o O # - l ,.s.b.H.K.p.Z a # X X + + . + o a ,.d.S.F.G.U.L.b.q.- + . . + + + . . . . X o % , > > 9 0 0 0 8 0 0 : * O o + + * x s.!.2X6X2X2X2X2X>X>XG.5.6._ j n M s 0 * o + + + X X # # C g.K.P.T.D.v.v.v.d.a.a.a.a.s.t.p.s.s.s.s.g.t.D c : X . . . . . . . X o o o o o O O # > c c x x x n n x a 7 = o O                                         0 ` V.#X*X.X.X.X.X Xc.~                                                         r V.#X4XeXyXtX4XQ.$.: = @.Q.6XvXvXvXvXiX2Xe.                                    ",
"                                                                $ 6 r ^ =.j.c.M.M.M.M.k.X.! h q : % O o                                                                                                                                                                                                   % # * = 7 - = * # # % * * * * * * # * * # # # # # % * - d A <.p.d.d.q.n 9 # . X + + . + o a ,.d.S.F.G.U.J.b.%.- + . . + + + . . . X X # * : > 9 0 y y 0 0 0 0 > * o + o + * x s.P.1X2X2X1X1X>X>X}.G.v.4.1.( Z Z n j 7 # + X o X o # * n i.K.P.P.S.v.v.v.d.a.a.a.d.p.t.t.w.w.w.w.w.w.D c ; X . . X . . X X o O # o o O O O # : 0 a s f s x x s a 7 = o O                                         y S f.].[.'.'.].].m.r.M                                                         q V.#X4X0XyXtX4XQ.$.: = +.I.7XcXvXvXbXtX%X[                                     ",
"                                                                = w b #.u.x.k.c.8.0.k.j.&.` V u ; % O                                                                                                                                                                                                     ; * * = - - = * % # ; ; * * * , : > > 7 - > - > > > , > a d l l _ ] C f : # . X X + + + o a ,.v.F.F.G.U.L.b.q.- + + + + + + + X X o o # * : 9 0 0 y z z s z s 9 * # o + + # x q.d.P.T.T.U.L.G.U.}.R.F.5.3.:.:.q.q.,.j - o o o o o # # s ] i.d.b.d.d.d.d.a.a.a.d.s.t.] Z n x n n N x a : # X X X O O O O % % % # # # # O o O # = = - 7 0 s s s a a , # o                                         H z B [ ..| | .. .! v                                                           r V.#X7XrXdXkX6XoXy.= # ( Z.4XzXvXvXjXeXoX'                                     ",
"                                                                  0 V $.u.r.2.2.Q | 2...' B v y % % O                                                                                                                                                                                                       , * = > = * ; # % % % O # ; > 0 0 s s s a a a a a > > a 7 f f f f 8 5 $ X . X X + + + o a ,.v.F.G.R.U.J.b.] - + + + + + X X o O O # # = > 9 0 y z z x x x x c > * ; O O * a A 1.3.5.p.p.3.5.D.+X}.T.D.v.a.v.v.S.v.,.7 * o o O o # # 7 n A ,.t.p.d.a.a.a.a.a.d.s.>.C f = * * , , ; O O X . + o O % % ; ; ; ; ; ; # O o X o O # # = = 7 a s s a 7 = # o                                           : w 8 e 6 8 r 8 9                                                             e B.#X7XrXfXdX7XoXy.5 $ B B.#XrXyXyX6X#XZ.!                                     ",
"                                                                  : 0 V ~ ! k k R k T h g q 9 : ; O                                                                                                                                                                                                         ; , * * * # # O O % O O # ; > 0 c s x s s s s a a 0 > > - - - 7 f 7 = $ @ X . X X . + o a q.v.F.F.R.U.F.d.] - + + + + + o O O O # # % : 0 0 0 z c M z x x x z 0 > ; ; * # > a f j d j n k l a.T.+X}.}.G.F.G.G.U.F.3.a * o o O O # # * 7 f A <.a.v.v.d.a.a.d.d.s.>.d - # + # O + o o + + + + O % ; ; ; ; ; ; ; # # o X + X o o # * = 0 s x x z a = # o                                                                                                                         q B.oX7X0X0XrX$XQ.y.9 # v &.M.#X|.|.[.C.j.g                                     ",
"                                                                    : 9 9 w w 5 5 w 9 9 & $ # # O                                                                                                                                                                                                             ; ; O # # o o o O o X o # > 0 c z x x x s s z 0 9 ; * * * * * = = $ # @ X X . . . X o a w.S.D.G.R.U.D.a.A * + o O O # # # % ; ; % ; : 0 y z z M M M x n n x c y > , ; * # # o o o # # # = 1.P.+X2X2X}.}.R.}.+X!.a.x * o X O % O o # X - j _ a.D.v.v.v.a.d.b.s.A a * X . . . . . . . . . O % % ; : , , , = * * # X + + + X + + # * a x N x a > * o o                                                                                                                         8 x.oX$X6X8X4X$XQ.*.w @ 8 ! 2.c.c.9.8...W 8                                     ",
"                                                                    % % % # # # & # # # # O # O                                                                                                                                                                                                               ; % O o o o X X o o o o # : 0 a a s s s s z q 0 9 : = = * # # = = % % # X X X X X o # s t.K.D.D.G.U.D.p.Z = X O O # * ; * ; : : ; ; : 0 0 u z z x x s x M x a 0 : * * # # o + + o o o o = ] P.+X2X>X}.R.R.}.}.Y.a.s * o o O % # # # X 7 Z 3.S.P.L.D.b.v.b.S.g.] a , X . . . . . . . . X # % % ; : = = , = = = # o X + X + + + * = a x x c a > * o                                                                                                                           q x.oX$X6X6X4X$XoXf.w @ q ) 7.c.c.9.8.2.W 8                                     ",
"                                                                        . . . . . . . . . X                                                                                                                                                                                                                   ; O o o o o X o o o o # * : 7 0 0 f f q q q q 0 5 : : = = * * = = # # # X X X X @ o * x i.K.S.S.D.L.b.t.D = o % % ; = , ; ; , : : ; : 9 0 0 q u z s f s x x 0 9 = * # # # o o + + o # # = ] P.+X1X>XR.R.R.U.T.P.t.f * # o # % # # X o 7 A p.J.Y.P.J.D.v.b.K.g.>.x , o . X X . X . X X X # # % ; = * = , : : = # o X X o o o o * * a a c c y > * o                                                                                                                         @ 8 r.oX#X7X6X=X$X%XB.8 @ v  .z.M.M.c.9.7.) e                                     ",
"                                                                                                                                                                                                                                                                                                                O o o o # O # # % # % : 0 a c s s s s s z z u 8 8 9 9 : = - 7 > 5 = $ # # # # % % = s %.t.t.<.3.t.q.] x = o % % * * * * ; , : : ; : 9 9 0 q u z s f s x x s 0 : = # # # # # o # # # # - >.Q.+X1X>XR.G.R.U.U.L.t.f * # o # % # # o o - D i.K.P.L.S.D.v.b.S.d.>.d > o X o o X X X X X # # % % * = * = , : : = # o X o o o o o # * > > 0 > > * # o                                                                                                                           8 ..Z.#X3X3X&X$X$XV.8 @ v  .m._._.M.c.j. .r                                     ",
"                                                                                                                                                                                                                                                                                                                O + o # * ; ; : : : : i z c x M V V V V B B V M v x x s s s x z q s 0 9 9 9 9 9 9 = 9 s d f f f f f 7 : # X # # % * * # = : : : : 9 9 0 q s z g g s v n v x s > = * # # * # # o # # # 7 q.~.+X1X1XR.G.R.U.T.P.t.d = # @ o % # # o o = x q.g.V.b.d.b.v.v.b.s.A a = # X O o X X o X # $ % $ = = : = = : : : = % # o O o o o o o o * * * * # # # o                                                                                                                           6 ) k.].|.*X*X#X$XB.w @ q ' x.C._.C.k.j. .g                                     ",
"                                                                                                                                                                                                                                                                                                                + + o ; : > > H i H i y c x N N B B B B G G G B V B n V n n V V v v v z u u u u u 9 = : = * # * * * * % % % % ; = = = = = : 9 9 0 0 0 s x v V V v v V B B V v 0 9 : = : : , * % ; ; * > F V.P.+X}.G.G.G.Y.T.P.t.f = # X o # % % O o # 7 C ] q.t.<.a.d.v.d.p.A f = # o O # o # # # = : : : : : : = = : : : = % % # o o o o o + o o o o o o o o O                                                                                                                         @ 6 ) k.'.|.*X&X&X$XZ.8 @ q ! r.m.m.c.h.r.' r                                     ",
"                                                                                                                                                                                                                                                                                                                + + # : i y y y y y y u z x M N B B B B B +.+.B B B B V V B B V v V V V v v v v u 0 = = % # # # % * ; : i i i y 0 0 0 9 9 q u u u z v M B B +.` ( ~ ` +.+.+.S n z u 0 y y 0 : , < : ; * s D q.b.F.v.F.F.L.L.J.3.f $ # # # % O % o o o * - a f l l :.a.d.d.p.A a - # # # # # # = = 9 0 0 0 0 w 9 : : : 9 9 = ; ; % # o # # o o o o o o o o O O O                                                                                                                       @ & r h.].[.*X3XqX5X4XW.r @ 8 m  .=.7.=. .' ! 8                                     ",
"                                                                                                                                                                                                                                                                                                                o o # > y c z z c y u u z z v N B B B B ~ +.+.~ B S ~ m V B B V V V B V V V V M u w $ $ % % # # % ; : i u c u z x x z z z z v v v v B B +.%.#.#.@.@.#.#.$.$.%.S M x z z z y 0 0 > : % o = 7 j 1.5.5.v.F.D.D.H.:.f $ # # # % % % O O o o o o # - f _ p.d.d.p.A d - # # * % * = = 5 7 s z q q 0 0 : : 9 0 9 : : : % # # # # # o o o o o o o o O O                                                                                                                 ; % # # 1 ! Z.#X#X3XqX0X8X7XQ.k @ w h ^ ) ) ) ^ m g 5                                     ",
"                                                                                                                                                                                                                                                                                                                o + # : i z z y y u u u u u z v B B B B ~ +.~ ~ ~ B B V V V m V v v V V V v p p q 9 $ $ # # O % % % % : i u u u z x z z z v M v v V V B +.+.#.#.@.@.@.@.#.#.+.V x z u q q 0 9 = ; ; o o # # f A 3.d.D.F.D.H.b.,.7 # # # # # O O o + + o o + o = f A t.d.s.t.A f - * # % = # = = 8 8 s q s f 0 9 9 9 : 9 9 : = ; % # # # # # # o o o o o o o O O                                                                                                               ; % # & $ 1 ' oX7X5X3XqXqX9X4XZ.g @ w g h h k e r 8 5                                       ",
"                                                                                                                                                                                                                                                                                                                o + % , i u u y y y u u y y z v V B B B +.+.~ ~ B B m b V V m V v b b b v r r r w 5 $ $ # @ @ % % @ % < i y u u u x v x v N N M v v V B ` +.+.@.@.` ` +.+.@.+.V u q 0 0 9 9 = * % # X X . X 7 Z <.v.G.D.D.H.b.,.7 # @ X o # o O o + + o o + o = 7 Z w.s.s.w.D f = * # % = = = 5 8 8 q s s f 0 5 = = : : : = $ $ % % % # # # # # # o o o o o O O                                                                                                           ; ; * ; % # & 5 @.#XuX8X0XqX3X3X$XZ.g @ w r r e e 6 6 & #                                       ",
"                                                                                                                                                                                                                                                                                                                + X % , i u u y y u z u 0 u z M V B ~ +.+.@.+.+.~ +.B m B B ~ ~ B B B m V v v v r q w 9 : % & % < % & # & & & = 9 0 s z v N N v v V V B ` +.+.+.` ` ` +.+.@.+.v u q 0 0 9 9 : = * # o X . X : C t.S.P.L.L.J.b.,.7 # # o o # o + + + + o O + o = 7 C w.g.g.w.D f = * # = = = 5 8 8 8 8 q q q 0 5 = = : : : = $ $ = = % % % % # # # o o o o o o O                                                                                                         < % # # # @ @ & 1 ' %XyX0X0X0XqX3X4XC.g $ 8 v g r 8 6 $ #                                         ",
"                                                                                                                                                                                                                                                                                                                o X % : 0 z z u u z M z u z v B +.+.@.@.$.$.$.$.@.@.+.~ +.+.@.@.@.@.@.+.` ~ ~ ~ B V v v u y i i i : $ # $ $ @ @ $ : 0 q x N N M V M V B ` +.+.@.@.@.@.@.+.#.+.V v q q q q 0 9 : , ; # X . X - C t.K.Y.L.L.J.V.q.0 # o o o # + + + + + + O + o = 0 C w.i.i.q.D f = * % ; : = 5 8 8 f q s s s q 9 9 5 : : : = = = = ; = = * * % % # o O o X X o O                                                                                                       % % # # # X @ @ & 1 ^ oX8X0X0X0XqX9X4XZ.g $ q v b v q 5 $                                           ",
"                                                                                                                                                                                                                                                                                                                o + # ; 0 z M u z z v x z M G F @.-.$.$.*.f.*.*.$.$.@.@.#.$.*.*.*.&.*.*.#.#.$.$.@.+.+.+.B B M M M u 9 9 9 5 = = 5 0 s z v N N N V V V B ` +.@.@.@.@.@.@.@.@.+.V z u z z x z 0 > , ; O X . + , N t.S.P.L.J.H.V.q.0 # o X o o + X + + + + o + o % > x S q.q.] n 7 = * $ ; : = 5 0 8 8 q q q q q 9 9 = : : ; = = ; = = ; ; ; ; % % # # o o o o O O                                                                                                       O # # # # $ $ & 1 6 } OX8X0X0X0X9X9X4XZ.g $ 0 v V v q =                                             ",
"                                                                                                                                                                                                                                                                                                                X X # ; 0 z v u 0 z x v M N +.$.$.*.*.*.f.f.f.f.*.*.*.*.f.y.f.f.f.f.f.f.u.u.f.f.f.y.y.y.y.$.$.#.@.+.V M M M v x v N N M M N N v v v v B ` +.+.+.@.@.@.@.+.+.G V v v v N N N z y > ; o . . . , x >.d.J.F.D.S.b.[ 7 # X X + + + + X + + + o + X # = 7 s n n n f - = = % ; & : : 8 8 8 q q q 8 0 9 = = = : = = = = = = ; ; : : ; % # # o o o o O ;                                                                                                     o @ @ @ $ 0 q 8 5 6 e ..#XrX0X0X0X0X9X=XZ.h $ 0 z v v u                                               ",
"                                                                                                                                                                                                                                                                                                                X + # ; 0 z v u u z x M N F $.y.f.f.f.f.f.f.f.f.f.*.f.f.f.f.f.N.N.N.N.N.g.f.f.g.f.f.f.f.f.u.y.y.*.$.@.+.%.+.G G G F F N N N M x x z v V S +.+.@.@.@.@.@.+.@.+.V v M N G G G N c 0 , O . . . , x >.d.J.D.D.S.b.] 0 O X + + + + + + + + o # # o # % = - 7 7 7 7 = : ; : : : : 9 w 8 8 s s q q 0 w = = = : ; = = ; : = ; ; : : ; ; # # o o o o o O                                                                                                     X X X @ 8 B #.+.~ ` } k.@XqX5X3X*X3X*XOXV.g $ 9 u z z y                                               ",
"                                                                                                                                                                                                                                                                                                                o X # ; 0 z v u z x x N B F $.y.f.f.f.y.y.f.f.f.*.*.*.f.f.f.f.N.f.N.N.g.f.f.f.u.f.u.u.f.u.y.e.*.&.#.@.@.$.%.@.@.%.%.%.F B B N M z z v V S +.#.#.@.@.@.@.@.@.+.B V N B G F G N M c > # X . X , x q.b.P.J.J.H.b.] 0 # X + + + + + + + o o * * * , * = = * = = = = : : 9 9 9 9 w 8 8 s g g q q 8 0 5 = 5 : : : : : : : ; : : : , * % # o o o o o %                                                                                                     X @ @ $ V u.Q.Q.Z.Z.m.'.*X3X[.'.).).M.m.e.q @ = 9 9 i                                                 ",
"                                                                                                                                                                                                                                                                                                                o + # ; 0 z v v M v x N B +.$.y.f.f.y.y.y.y.f.*.*.*.*.y.u.f.f.f.f.f.N.N.N.f.u.u.u.f.u.y.y.y.&.*.*.#.#.#.$.$.$.#.#.#.%.+.S B B M v u z N G @.@.#.@.@.@.@.#.#.+.B V M B B +.F G N x y * X X X : M >.b.P.L.J.H.b.] > # X X o o X + o o # # ; ; ; * * # # o # * = = 9 0 0 0 w w w w 8 q r g g q 8 0 5 5 5 9 9 = : 9 9 : = : : : : , % # # o o o O O                                                                                                     + X @ $ m V.$X4X#X|.[.|.*X|.).8.o.....e.~ 5 @ %                                                       ",
"                                                                                                                                                                                                                                                                                                                + + # * 0 z v v M v v M B +.$.$.y.y.y.y.y.y.y.*.*.*.*.*.u.f.f.f.f.f.u.f.f.f.l.f.f.f.y.*.&.#.@.#.#.@.@.#.#.#.#.@.#.#.%.+.+.B B M u u u V B +.@.%.@.@.@.@.#.$.@.B V V B B +.G G N z 0 # X . X = x ] g.K.K.V.b.b.] > # X . X X X o o o o # ; ; * * * # # # * * = : 9 0 0 0 w w 8 8 8 8 q q q 8 8 8 w 5 5 9 w 9 9 9 9 : : : : > : , # # # o o o O O                                                                                                     + X @ & b z.OX@X|.|.|.|.|.[.c.Q R R T ~ v = @                                                         ",
"                                                                                                                                                                                                                                                                                                                X X o * 0 z v M M v v v N G @.$.$.y.f.f.f.f.y.$.#.$.*.*.y.f.f.f.f.f.f.f.u.u.N.N.f.f.y.#.@.` ( ` @.@.#.#.#.#.#.+.@.@.@.+.+.B B M u q u v B +.@.#.@.@.@.#.#.$.@.B V V B B B B B N z 0 % X X @ : z %.g.V.V.s.g.g.+.= # X X X X o O O O # ; ; * * * * # # # * , : 9 0 0 0 0 w w 8 8 5 5 w w w w w w w 0 0 0 0 9 9 9 9 : : 9 : 9 : , # # # o o o O O                                                                                                     + X @ & r x.].[.|.|.|.|.|.'.8.E R e 6 r 8 $                                                           ",
"                                                                                                                                                                                                                                                                                                                + o o % 0 x N N B M v M B G @.$.*.y.f.f.f.f.y.$.#.#.$.*.*.y.u.f.u.u.f.f.u.u.N.N.f.f.$.( B m b m ` ` #.$.$.$.#.#.@.@.#.%.+.+.B M u q u V B +.%.#.@.@.@.$.$.$.@.B V V M B B B M v z u : % % % : y n S ] ] Z S S x = # o o O O # % % % ; ; ; ; = = * * # # * , 9 0 0 u q 0 w w 8 w $ $ $ $ $ $ 5 5 0 0 u z y y 9 9 9 9 9 9 9 9 : , # # # o o o O %                                                                                                     X . @ $ r x.oX|.|.|.|.|.|.{.0.} R 8 6 q w $                                                           ",
"                                                                                                                                                                                                                                                                                                                O o # = u N S S B B B B G +.$.$.y.f.y.y.y.y.y.$.$.$.*.*.*.y.u.f.y.f.u.u.u.u.f.f.f.*.+.b g r q v B ` #.$.*.$.$.#.#.$.$.#.@.+.B V v p p V ~ +.#.#.@.@.@.$.$.$.@.B V V V M V V M v M M y i i i > > = = - = = = : = # # # # % % % ; ; ; ; : : , = = = * # # * , 9 0 y u u q q w 5 1 $ $ $ $ # $ $ 5 u z x x z y i 0 9 9 5 9 > 9 : : # # # o o o O %                                                                                                     X X X $ g l.OX@X|.|.|.|.|.[.m...T 8 8 q 9                                                             ",
"                                                                                                                                                                                                                                                                                                                o # # = q N S S B B B B G +.@.$.$.y.$.$.$.$.$.$.#.#.#.#.#.$.*.*.*.*.y.y.*.&.*.*.$.$.~ v r q q v B ` #.$.y.*.$.$.$.$.$.#.+.+.B V v p g V B +.+.@.@.@.#.$.$.$.#.` B B V B B B V M N N z u u u i : * o # o . # # % # # % ; % % ; : : : : : : , = = = * # # * , 9 9 0 u q q q w 5 1 $ $ $ @ @ # $ 9 z M N M x z y i 9 9 9 9 9 9 : : # # # o o o O O                                                                                                     O X @ $ r u.oXoX[.[.].].[.].z.&.h 6 5 q 9                                                             ",
"                                                                                                                                                                                                                                                                                                              ; # # # = q N B B B B B B B ~ +.+.$.$.$.%.#.#.#.@.@.@.@.@.` ` ` ` ` @.@.@.@.+.@.@.@.@.~ V v g g v B ~ +.%.$.$.$.%.#.#.#.+.+.+.B V V v g v B ` @.@.#.+.@.#.#.$.#.+.+.+.` +.+.+.~ B G S N z M M u : % . X . . X X % % ; : : ; ; ; : : ; , : , ; * * = = * * = : : 9 0 0 0 q w w 5 1 & & & $ $ $ 5 8 z M N N x z y y 0 9 9 9 9 9 : : # # # o o o O O                                                                                                       X @ $ q #.V.Z.M.M.m.m.M.z.e.( e $ = 9                                                               ",
"                                                                                                                                                                                                                                                                                                              % * = = = s B ` B G B B ` +.+.+.+.@.@.@.@.+.@.+.+.@.@.@.` ` ~ ~ ~ ~ ( ` ( ~ ~ ~ ~ ~ +.~ V V v g V B B B B +.@.%.+.@.#.+.+.+.~ B V V v v v B ` @.#.#.@.+.@.@.$.$.@.#.@.@.@.#.@.@.+.+.+.B z M N c : % . X X . o o % : : i : ; ; : : ; ; , , , * # # = = * = : : : : 9 0 w w w w 5 1 1 1 1 1 & $ 5 8 z v N N x z u 0 0 9 9 9 9 9 : : # # # o o o O O                                                                                                         # % 9 ` y.u.e.2. .| 2.[ ! v 8 $ $                                                                 ",
"                                                                                                                                                                                                                                                                                                            : : : 9 0 q v B ` ( +.` ` +.@.+.` ` @.@.@.@.@.#.@.@.@.@.@.` ( ! ! m m m m m m m m m ~ B B B B V v v M v q z v v v v B +.+.B B S +.B B V v V ~ ` @.$.#.#.#.#.$.$.$.$.$.$.$.$.$.$.$.$.@.+.B v N G c > ; X . X X X O % : 0 y y 0 9 9 9 : = # # % # # # # % = : : 0 9 > 9 0 w 5 5 w 5 5 1 w w 2 1 6 8 r v v V V M v z 0 9 9 : 9 9 9 : , * # # o o o O O                                                                                                           # $ = q q q f e 8 8 8 5 = # #                                                                   ",
"                                                                                                                                                                                                                                                                                                            : i 0 q z v V ` ` ` +.` +.@.@.@.' ` @.@.#.@.#.#.#.@.#.#.#.' ' ` ! ! m m m m m m m B B m B B B V v v v 8 5 5 0 0 0 0 v V B B B S +.~ B V V B ( ' #.*.$.$.#.$.$.$.$.$.*.*.y.y.y.*.$.$.$.@.B V N N z i ; o . X X X O % 9 y u u y 0 9 0 : = # # # # # # $ = = : : 0 9 > 9 0 w 5 5 w w 5 w e r r e 8 e r v b V V V v s q 9 9 : 9 9 9 : ; * # # o o o O O                                                                                                             O # @ # @ @ @ @ @ @ # o X                                                                     ",
"                                                                                                                                                                                                                                                                                                          : i u z v v V B ` @.@.@.' @.@.&.#.' ' @.#.&.&.*.y.y.y.y.e.e.&.&.#.' ' m m m m m m m B m m V V V V V v V s 9 5 9 9 9 5 9 s z x M B G B B V V B ` +.#.$.#.#.#.#.#.$.$.*.*.*.*.*.*.*.*.$.#.+.B V N N z : % o . . X . X # 9 0 u u 0 9 9 0 : = # # % % % = = = = : : : 9 9 9 9 5 5 5 5 5 5 6 e r r r e e r g v V b V v s q 9 9 : 9 9 9 : , # # o o o o O O                                                                                                                 X X X X X X X X X                                                                         ",
"                                                                                                                                                                                                                                                                                                          : y z v v v b m ` #.#.#.' ' ' @.' @.' &.=.=.y.y.u.f.u.f.f.u.u.u.u.e.&.` ` ( ~ ! m m ~ B m V V V v v V N z 0 : = = = = = 9 0 0 z N B B V V V B ` +.@.#.@.@.@.#.#.#.$.$.$.$.$.$.$.$.$.$.#.+.B v v v z 9 $ # . . X X X # 9 9 y u 0 0 0 0 9 = = = = = : : : : : : : : : : 9 9 5 5 1 1 5 w 6 3 e r e e e e g v m V V v s q 9 9 : : > 9 : , # # o o o o O O                                                                                                                                                                                                           ",
"                                                                                                                                                                                                                                                                                                        % ; 0 u v v v h m ` #.#.[ ' ' ' &.&.&.=.=.e.u.u.u.f.f.f.f.l.f.f.l.f.u.e.&.#.#.@.` ` ` @.` ~ V V V v V B N z 9 = = = = = : : : 5 0 x N N N B B B S +.@.$.%.%.#.#.#.#.$.y.y.y.*.*.*.*.*.*.$.@.B M V M z 0 ; % # # # # # $ 9 q q q q q q q q 0 9 9 9 9 : 0 0 0 : : : : 9 : 9 9 w 5 5 1 w 6 3 3 e r e e e r g v V V V v z 0 9 9 : : > 9 : : # # o o o o O O                                                                                                                                                                                                           ",
"                                                                                                                                                                                                                                                                                                        % ; 9 q q r g g h ! ' [ [ '  .&.=.=.=.=.r.x.l.l.l.N.N.i.l.N.N.l.N.N.f.u.y.y.y.*.*.#.#.*.@.` B B B V B B G N y : = ; : 0 : : = = 0 z M N N B B B ` +.#.$.$.%.#.$.#.#.$.y.f.y.*.y.f.f.f.*.*.$.G V M M v u 9 ; ; ; ; = = : w u u z u u z x z u u 0 y 0 0 y y y i 0 0 0 9 9 9 0 q q w w w w 3 e t r e e r g v V V N N M z 0 9 9 : 9 > 9 : : # # o o o O O O                                                                                                                                                                                                           ",
"                                                                                                                                                                                                                                                                                                      % % : 9 q r g b b m ~ ' ' &.&.=.=.=.=.....=.r.x.l.B.V.N.N.l.l.B.B.B.N.N.l.u.u.u.y.y.*.*.f.&.] ( ( B V V B G M u 9 : : : i : = % * : 0 z z z M B B B S %.$.+.+.+.%.@.+.$.y.y.y.*.f.f.f.y.*.*.-.~ V M M M z u u u u i y y u u v M M v v v M M v z z u y y y y y y y y i 0 0 u u v M p q w w 6 3 t e r 8 r r v V N N N M z 0 9 9 : : > > : ; # # X X o X o O                                                                                                                                                                                                           ",
"                                                                                                                                                                                                                                                                                                    O # % 9 q q v V m ! ` ' [ [ &.=.r.x.=.X./ / / X.=.l.B.B.B.l.l.l.B.n.N.l.l.l.u.u.f.u.y.*.y.u.y.#.` ( B b V B G N z u 0 0 0 0 : = # # = 0 0 0 0 u z x x B +.@.B B B +.+.+.#.y.y.$.*.*.f.f.*.*.$.-.G V N B N M N M M M M M M N V V B B B V B B V M v z u 0 0 y y i i i y 0 0 0 z M B +.B v r q 6 e r e q 8 q s v V N N N x y 0 > : = : > > : = # # X X o X o O                                                                                                                                                                                                           ",
"                                                                                                                                                                                                                                                                                                O o O % = w q b b m ` #.#.' [ =.u.x.;.;.o./ / I R ^ =.=.B.B.B.B.B.V.B.N.l.l.l.f.u.f.N.u.u.e.y.f.u.y.#.` B V V V B B v z z z u 0 : $ # % * , : ; : , 0 i 0 z N G M v v V B +.@.#.$.$.#.$.$.$.#.#.-.+.B M M B B B B B B B B B B B B B +.` ~ B S S B V V v z q 0 0 y y y 0 0 0 0 q v B +.%.+.B q 8 8 w q q r q r q v v v M z u 0 0 : : ; : : > , * # o o o o X o O                                                                                                                                                                                                           ",
"                                                                                                                                                                                                                                                                                              O o X o = 0 v m ~ ~ ` #.y.e. .&.r.u.=.;.o./ P P L L L ^ =.x.B.B.B.B.V.B.l.l.l.l.l.u.u.u.u.u.y.u.u.y.*.#.` B V V V B V v z z z z u 0 : ; ; ; : ; O O O # ; = 9 z M u 8 q z V N B B ` B B ` ` ` B B B B V v V M V V V B B B B B B B B ~ ` ` ( ( ` ` +.S B V x z q u u u u y u u z z B +.$.w.#.~ v q 8 q q q q q u u u u u u u 0 0 9 : : ; ; : : = * # o o o o X o O                                                                                                                                                                                                           ",
"                                                                                                                                                                                                                                                                                            o o o X o ; z B ` @.@.#.*.u.u.e.e.u.x.=.X./ P P P J J L I / =.B.B.B.B.V.B.l.f.l.l.l.u.u.u.u.u.u.u.u.y.*.#.@.` B V V B V v v v M v z 0 9 0 0 : : ; o X . X o # = y u w w 0 q v v V M V V v V V V V V V V v v V N M V V B B B B B S B ` ` ` ` ` ` +.+.@.+.G B v z u u u u u u u z x v S @.$.y.$.` v g q e r r q q q q q 0 0 0 0 9 : : : : = = , : = * # o o o X X o o                                                                                                                                                                                                           ",
"                                                                                                                                                                                                                                                                                          O o o o + # : z B +.@.@.#.*.y.y.e.u.x.x.=./ E P P P K J J L ^ =.B.B.B.B.B.B.l.l.f.f.u.u.u.u.u.u.u.y.y.y.*.#.@.+.~ B B S V v z v M z u 0 9 y y i , % X X . X X # ; y z u q u v v v V M B v v V V V V V N V v v V V V v V V B B B B B B B ~ ` ` ~ ` ` +.+.` B B M z z u z z z z z v v v S @.$.$.#.B g q q r r r q q q q 0 w 9 9 9 9 : 9 : : = : , : = = # o o o o o o O                                                                                                                                                                                                           ",
"                                                                                                                                                                                                                                                                                          O o o O o % 9 v B ` @.#.#.&.*.e.u.u.l.x./ / P P P K P J J L ^ =.B.B.B.B.B.B.B.l.f.u.u.e.=.e.y.y.u.y.y.y.*.#.#.@.` ` ` +.B v x v v z 0 0 0 0 z i : # X . . X X o : u z z z z v M M M M B V v V V V V B B M V v v v v v v V V V V B B B B B B B B B B +.S B B M v v u z z z z z v M V V B +.#.#.+.V g q q q q q q q 8 8 q 0 9 9 0 9 : > > : : : : : , , # # o o O O o O                                                                                                                                                                                                           ",
"                                                                                                                                                                                                                                                                                          O O O O # ; 0 V ~ ' #.&.&.&.*.y.f.B.l.;./ I P P K U P K J I ^ =.B.B.B.B.B.B.B.N.f.u.u.e.=.e.y.u.u.y.y.y.*.#.#.#.@.%.%.@.G B N N N v z u 0 u z y ; # X . . . X # : c M z z z v M v v M M V V V V V V B B N V v v v v v v V V V V B B B B B B B B B B S B B B B M v M M z z z x v n V b B S +.` B v g q r r g q q q q q q 0 0 9 9 9 > 0 9 > > > 0 0 > > * # o o O O O O                                                                                                                                                                                                           ",
"                                                                                                                                                                                                                                                                                          O O O % # ; u B +.#.#.*.y.y.*.u.f.B.l.;./ P P P U U U K P I / =.B.B.B.B.B.B.B.N.l.f.u.=.=.e.y.u.u.f.y.y.$.#.#.#.#.%.#.$.+.G S F F S N v z z x y , # X X . X X O : y c u y u z z z z x M x v v M M N N N N M x z x x v v V V V V B B B B B B B B B B G B B B M M M v v v v v v V V V v V m B B V v v g v v v v g q u s q 0 0 0 0 9 9 0 0 0 0 0 0 0 0 0 * # o o O # O O                                                                                                                                                                                                           ",
"                                                                                                                                                                                                                                                                                          % % ; ; % : z ~ #.#.#.*.y.y.y.u.N.l.x.;./ P P P U U U K P / / =.B.B.B.B.B.B.B.B.l.f.u.&.&.&.&.y.y.y.y.$.@.+.` +.+.+.+.@.+.G G %.F G N B v v v y ; # o X X X X X % H H i 0 y u y y y z z z z x v v v M N M x z z z z z z v v v v V V V V V B B V V B B N N M V v v v v V V v v V V V V V m B B V v v v v v V v v v z z s q 0 0 0 0 0 0 0 0 0 0 y y 0 0 * # o o O # O O                                                                                                                                                                                                           ",
"                                                                                                                                                                                                                                                                                          ; ; % # * : v +.*.*.e.y.*.*.y.u.N.u.=. .E L P U U K K K P / ;.x.B.B.l.B.B.B.l.l.B.N.y.&.&.#.#.&.*.y.*.#.` B V V V B B B B B S G G G S B M M v u : ; ; % # O o X o O ; % % : i y i i y y 0 0 u z z z z M z z u q q q z s z s g g g v v v v V v v v v v v v v v v q v v V V V V B B B m m B B m V V V b v v v v v g v v z s q q 0 0 0 0 0 0 0 0 0 0 0 9 * # o X O O O O                                                                                                                                                                                                           ",
"                                                                                                                                                                                                                                                                                        ; ; ; ; % = 9 v @.y.y.u.y.y.y.y.f.N.u.=./ ^ L P U U K K K P / ;.B.B.V.B.B.B.B.l.l.B.N.u.&.&.#.#.&.&.*.*.#.~ V v g v v v V M M N N N N N N v v v u 9 : : : ; # o + + X O o # % : : : : 0 0 0 0 0 0 u u u u u q 0 0 0 u q q q q q q q s g g g v v u z z z z u q u u u v V B B B ` ` ` ` ` ` ` ` ( ~ B m V V V V V V v v v x z z z z z u 0 q 0 0 0 q q 0 0 * # o X O O O O                                                                                                                                                                                                           ",
"                                                                                                                                                                                                                                                                                        ; ; ; * = : 0 B *.f.u.u.u.u.u.u.N.N.u.=./ I P P U U K K K P ;.B.B.V.V.B.B.B.B.B.B.B.N.f.e.&.#.#.#.$.*.*.+.B v g q q v v z z u z x M v x v z z z u 0 : : : ; # X . . . . . X o # % * ; , , , : : 0 0 i i y 0 y 0 0 q u z z z q q q s g g s s g q u u z v u q u z g v V B @.@.#.$.*.$.$.$.&.&.$.@.+.~ ~ m m B B B V V V V V V V M v v z s q q q q u u y 0 * # o o O O O O                                                                                                                                                                                                           ",
"                                                                                                                                                                                                                                                                                      ; ; ; ; * = 9 z +.u.f.f.f.u.u.f.u.N.N.u. ./ R L P U P K K P E ;.B.B.V.V.B.B.B.B.B.B.B.N.N.u.y.&.#.@.@.#.$.+.V v p q q v u q 0 0 0 u z z u u z z q 0 0 0 : : ; # X . . . . . . X o # # # * ; ; ; : : 9 0 0 y 0 0 0 0 u z z v v v g v v g g s g g g u v v v v u u v v v B ` $.*.y.u.u.y.y.y.y.y.y.*.#.+.~ ~ B ~ ~ B B m B B B B B B B M v z z q q q z z u 0 * # o o O O O O                                                                                                                                                                                                           ",
"                                                                                                                                                                                                                                                                                    ; # * * * # = 9 v +.f.N.l.l.f.f.f.u.u.N.u. ./ I L P P P K P P / ;.B.B.B.A.B.B.B.B.B.B.B.N.N.f.y.&.#.` ` ` @.B v u u u v z z q 0 0 0 y u y 0 y u y 0 0 0 : : * % o X . . . . . . X o O o # # % % * ; , , : : 0 : : : 0 y z x M v v v v v g g s s s s q q z v v u g v v V B ` $.*.y.u.u.y.y.y.y.y.y.*.$.@.~ ~ ( ( ( ~ B B B B B B B B B N V v z q q q z s u 0 * # o o O O O O                                                                                                                                                                                                           ",
"                                                                                                                                                                                                                                                                                    % * * = = # = 0 v +.f.N.u.u.u.N.f.y.u.N.u. .^ I L P P P K P P / ;.B.B.B.B.l.B.B.B.B.N.N.f.f.f.u.&.' ~ ~ ~ ` B v u u z v v z u u 0 0 u u 0 0 0 y 0 9 : 0 : ; % # o X . . . . . . X o o o O # # # # # * * ; ; : ; = = 9 0 z v N M v v v v v v s s z s q q z v v z v V V V B ` $.&.y.y.y.y.e.e.y.y.y.*.$.+.~ ~ ~ ( ( ~ B B B B B B B B B B V v v q q q z z u 0 = # o o O O O O                                                                                                                                                                                                           ",
"                                                                                                                                                                                                                                                                                  ; ; , : > > = : 0 V #.f.N.u.u.u.N.f.y.u.N.e. .^ I L L P P K L L / ;.B.B.B.B.l.B.B.B.B.N.l.f.N.N.u.&.` m m ~ ` B v u z M M M z z z u z z u 0 0 i y i : : 0 0 ; % # # X X . . X + + X O O O O # # # # # % ; * * ; ; ; : 0 y z x v x q q s v v v s v v s g g V N N M V B B B ( +.&.&.&.e.e.e.e.&.e.e.y.y.$.@.~ ~ ~ ~ ( ~ ! m B B B B B B B B V v g q q u z z z 0 = # o o o O O O                                                                                                                                                                                                           ",
"                                                                                                                                                                                                                                                                                  ; , : 0 0 0 7 8 s B *.N.B.u.u.u.N.u.u.u.N.e.' ^ I L L L P L L I / ;.B.B.B.B.l.B.B.N.N.N.N.N.f.N.f.&.` m V B +.B v u z v M M M z z z z z z y 0 y y y : : 0 0 : % % # o X X X X X X O # % O # # ; ; ; ; ; ; ; = ; ; : : 0 0 u z z q w w 0 q q q q s z z g v B B +.+.+.+.+.` ` @.#.#.#.&.&.&.&.#.y.y.y.y.*.@.` ` ~ ( ( ~ ~ ! ~ B B B B ~ B B M v v q q z x x z 0 = # o o O O O O                                                                                                                                                                                                           ",
"                                                                                                                                                                                                                                                                                ; ; : 0 z s s q 8 v ` *.f.N.f.u.u.u.u.u.f.f.e.&.' ^ ^ R R I L L / X.;.x.B.B.B.B.N.N.N.N.B.f.u.f.f.u.' B v s B %.B v q u v v v M v v v v z z q 0 0 0 y 0 0 9 9 : = = # # # # # # # o O o # # # % # # % * * * = = : 9 9 : : 0 0 y y 9 = = 5 9 0 u u u q u v V B @.+.@.@.#.#.' [ #.&.&.&.e.e.e.e.e.u.u.u.u.*.@.` ` ~ ` ` ` ` B B B V B B B B B V v z s q z z z u y * # # o O O O                                                                                                                                                                                                             ",
"                                                                                                                                                                                                                                                                                ; = 9 0 z z q q 8 b ` *.f.N.f.u.u.u.e.u.u.u.e.&.&.@.' ' ^ ^ ^ / / ;.;.x.z.B.B.B.N.N.N.f.f.u.u.f.f.e.( v 8 0 M F B v q u v v V M N N M v v z q 0 0 0 0 0 9 9 : : = = # # % % % % # o X o # o # % % % % * * * * = : : : = : 9 0 0 9 = $ $ = = 9 0 q q q q q v B @.@.@.@.#.#.#.#.&.y.y.e.u.u.u.u.u.e.u.u.y.&.' ` ~ ` ~ ` +.` B B V V V V B B V M z q q 0 q z z y i ; # # o O O #                                                                                                                                                                                                             ",
"                                                                                                                                                                                                                                                                                ; , 0 u z x g q q V ` $.f.g.f.u.e.e.e.e.u.u.u.u.y.*.&.&.@. . .X.;.;.;.x.x.x.x.x.l.N.l.u.u.u.u.f.f.&.V q 5 = v G B V v v v V M B B N N N v z q 0 0 0 0 0 9 9 : : : = = = = = ; ; # # o o # o # % % % * * * * * = : : : : : 9 9 9 : = $ $ $ = 5 0 w w 0 q 8 v B @.@.+.@.#.#.#.&.&.u.u.u.f.N.N.f.u.u.u.u.y.*.@.( B ` ` +.+.` ~ B V v V V V V V x s 0 0 8 0 u z y 0 ; # # o O O %                                                                                                                                                                                                             ",
"                                                                                                                                                                                                                                                                                ; , 0 z v v v g v B +.y.f.N.f.u.e.e.e.u.u.u.f.f.f.f.y.u.=.=.=.=.;.;.;.;.;.=.=.;.u.N.N.f.u.u.u.f.f.&.b 8 $ $ q B B N V V N N B B G G B B N z u 0 q 0 0 0 0 9 9 9 9 : = = : : : : % # o o o o # # # % % * ; = = = 9 9 9 9 9 0 0 9 : = $ $ $ = 5 0 w w w q 8 z B @.#.@.@.#.#.#.#.&.y.y.u.u.f.f.u.u.u.u.u.u.*.@.` ( ` +.+.+.+.~ B V v v v V V v x s 8 7 5 8 0 q i 0 * # # o O O %                                                                                                                                                                                                             ",
"                                                                                                                                                                                                                                                                                % , y z v M v v v S #.f.N.N.f.u.e.e.e.u.u.u.f.N.B.N.N.N.u.u.x.x.x.;.;.;./ / / ' =.l.N.f.u.u.u.u.f.&.V 8 = $ 8 V B B V B B B B B B G G G N v u 0 q q q 0 9 9 9 9 9 : ; ; : : : : % # # o o o o # # # % * ; , , , i i 9 0 0 y 0 0 9 9 5 = = 5 7 8 7 7 0 0 0 z B +.@.+.@.@.@.+.@.#.y.y.y.u.f.f.u.y.u.u.f.y.*.+.` ` ` ` +.+.+.` V v v v v V V v z q 0 9 5 9 0 0 0 : * # # # O O %                                                                                                                                                                                                             ",
"                                                                                                                                                                                                                                                                                % , y z v v v v V S #.y.g.N.u.y.e.e.e.e.u.u.f.N.B.N.N.N.N.N.l.x.x.;.=./ I I I ^ @.u.l.u.u.u.u.u.u.y.` b q w v B B B B B B B B B B G G G G M z 0 q q 0 0 9 9 0 0 0 9 : : : : : : * # # # o X o # # # # % ; ; , , i 9 9 9 9 0 0 u z z u q 0 q q q 0 0 0 0 q s V B +.S +.+.+.+.@.@.*.*.y.y.y.y.y.y.y.y.y.*.#.` ` ` ` ` ` +.+.` V v v v v V V v z s 0 9 9 9 0 0 0 : * # # # O O O O                                                                                                                                                                                                           ",
"                                                                                                                                                                                                                                                                                ; , y z z v v v n S %.y.f.f.y.e.&.&.e.u.u.u.f.N.B.N.f.f.N.l.x.=.;.=./ I L L L I ' *.l.u.=.u.y.y.u.y.#.@.B v B +.B B B B B S S B B G +.+.B v z q 0 0 q 0 0 0 0 0 0 9 9 9 : : : : * % # # o X X o o o # # % * ; , : : : 9 9 9 0 z v N M v x v v x q q q q q z v N B B B B B B +.+.$.$.*.*.*.y.*.*.#.$.$.$.#.+.S S ` ` ` ` +.` V v v v V V V v z s q 8 9 0 0 0 0 : * # # # O O # O                                                                                                                                                                                                           ",
"                                                                                                                                                                                                                                                                                ; , y z z x v v v S @.w.f.f.y.&.&.&.e.u.u.u.N.B.B.N.f.f.N.N.x.=.X./ I L J J L I ' u.l.u.*.u.y.y.y.y.*.*.@.~ +.@.+.B B B B +.+.+.G +.+.G B v z q 0 q q 0 0 q q 0 0 0 9 9 : : : : ; % # # # X X o o o o # # % * ; : : : : : 9 y x N N N N M M M v z z s z z z v M V V M N B B B G @.@.#.#.$.#.#.#.#.#.#.#.%.` S S ` ` ` ` ` ~ B v v v V V V v z q q 0 9 0 0 0 0 : * # # # O O # O                                                                                                                                                                                                           ",
"                                                                                                                                                                                                                                                                                ; , 0 z v v v v v n S #.y.y.e.e.&.&.e.u.f.N.N.N.B.N.N.N.N.f.u. .R L J J J J I / =.u.l.u.y.u.u.e.*.*.y.y.y.*.$.#.+.B V B +.+.+.+.S +.+.+.B M u 8 q q q q 0 q q 0 0 9 9 9 9 9 9 : ; % # # # o o o o o # # # # # * $ : : : : 9 0 x N N N M M V V V M V N M v x v v v s z z v v M B +.+.+.+.@.@.@.@.@.#.$.#.#.+.B +.` ` ` +.` B V v v v v V V v z z q 0 9 0 0 0 0 : ; % # # # O # O O                                                                                                                                                                                                         ",
"                                                                                                                                                                                                                                                                                % , 0 u v v v v s M S +.*.e.&.&.&.&.e.u.f.N.B.B.B.N.N.B.B.N.u.X.R L J J J J I I ' =.u.u.u.u.u.e.*.y.y.y.y.*.$.$.+.~ B B ~ +.` +.+.+.+.S B V u 8 q q q q 0 q q q 0 9 9 : 9 9 9 : = % # # # o o o o o X # # # # % $ : : = : : 0 M N N N N V V V V V n B N M v v v z q 0 u u u v M B ~ +.+.+.+.' ' @.#.#.#.%.` B +.` ` +.` ` B V v v v v V V v z z q 0 9 0 0 0 0 > ; # # # O O O # O O                                                                                                                                                                                                       ",
"                                                                                                                                                                                                                                                                                ; = 9 q z z s q q x V S #.$.&.e.&.&.y.u.f.f.N.V.W.V.V.V.B.B.u. .R L J J J L L I ) &.u.u.u.u.y.y.*.*.y.y.y.*.#.#.+.~ B B B B ` ` +.+.+.B B v q 8 q s q 0 0 q q q q 0 5 = : 9 9 > = # # # # o o o o o o X o o # # $ : = = : : 0 v N N B N N N N V V V V V V v x s q 0 0 0 q q u v B B ~ +.+.+.` ` ` @.#.#.%.` B ` ` ` ` +.` B V v v v v V V v x s q 0 9 0 y y i 9 * # # # # o O O O O                                                                                                                                                                                                       ",
"                                                                                                                                                                                                                                                                                ; = 9 q u z q q q z v B @.#.&.e.&.&.&.y.f.f.N.W.W.W.W.W.B.B.x.=./ / L L L I I ^ ' &.u.u.u.u.y.y.&.&.*.*.*.$.#.#.+.` B B B B B ` +.+.S B V v q 8 s s s q 0 q s z u 0 9 : : 9 9 9 = # # # # X o o # o o X X X # # $ : : = : 9 0 M N N S N N N B N V V V V V v z s q 0 0 0 q q u v V B ~ ~ +.@.@.@.@.#.#.#.#.` B S ` ` ` ` ` B V v v v v V V v x z q 0 9 0 y y i 9 * # # # # O O O o O O                                                                                                                                                                                                     ",
"                                                                                                                                                                                                                                                                                ; , 9 0 u z q q q v v B #.w.e.e.e.e.e.y.y.u.f.g.f.f.f.f.f.l.l.x.x.;.o.o./ / / / =.=.u.u.u.u.y.*.*.y.y.y.*.*.&.$.#.+.( B m V B ` ` ` B B V v q 8 q s s q q s z z z q 9 : 5 5 9 > = # # # # o X o # o o o o o # # $ : : = : 9 q v N N B N N N B B B B B B B V v s q 8 8 q q q u v B B B ~ +.@.@.@.@.#.#.#.@.` B S ` ` ` ` ` B V v v v v v V v x z q 0 9 0 0 0 i 9 ; % # # # # # # o O O                                                                                                                                                                                                     ",
"                                                                                                                                                                                                                                                                                ; = 9 0 u z q q u v V S $.y.y.y.e.e.y.y.*.*.$.y.w.$.$.$.*.u.B.A.Z.A.A.c.x.x.=.=.=.u.u.u.u.u.y.y.y.y.y.y.y.*.*.&.$.+.` B m V B B ~ ~ B V V g q 8 q s s s s s v v x s 9 5 5 5 9 > = # # # # o X # # o o o o o # # = : : = 9 0 q z v N M M v N N B B B B B B V V v v u u v v v v N ~ ~ ~ ~ +.@.@.@.#.*.*.#.#.` B B ~ ~ ~ ` ~ B V v v v v v V v x z q 0 9 9 y 0 i : ; % # # # # # # O O O                                                                                                                                                                                                     ",
"                                                                                                                                                                                                                                                                                % * 9 0 u z q q u v V ` *.y.e.e.e.e.y.e.@.B V V N x x V m &.B.Z.Z.C.Z.Z.A.B.x.u.e.u.u.u.u.u.y.y.y.y.*.*.*.*.*.&.$.@.( B m V B B B B V v v s q 8 q s v v x v v v x s 0 5 : 5 5 : = # # # # o X # # o o o o o # # = : : = 9 0 0 q z z u q u z M N V V B B V V V V V V V B B B B +.@.+.+.@.#.$.#.#.#.*.*.$.#.` m B B B B B ~ B V v v v v v V v x z q 0 9 0 0 0 0 : ; % # # # # # # O O O                                                                                                                                                                                                     ",
"                                                                                                                                                                                                                                                                                % = : 0 q q q q q v V ` *.y.e.e.e.e.e.#.( s 5 = * # # = q ' B.Z.C.C.C.Z.Z.Z.B.u.e.u.u.u.y.u.y.y.y.y.*.*.*.*.*.*.#.` ( B m m B B V V V v g q q 8 q q v v v v M v x q 0 : : : : : * # # # o o X # # o o o o o # # * = = = 0 0 0 0 9 9 9 5 9 q z v v V V B B B B S +.B +.@.@.@.@.$.#.#.#.$.*.*.*.#.#.*.*.$.#.` m B B B B B ~ B V v v v v v v v v z q 0 9 0 0 0 0 : * % # # # # # # # O O                                                                                                                                                                                                     ",
"                                                                                                                                                                                                                                                                                % % 9 q q v v g g m ~ @.*.*.y.e.e.e.e.#.V 9 % % O + o = q ' Z.C.C.C.C.Z.Z.Z.V.l.u.u.u.u.u.u.u.u.u.u.y.e.e.e.e.y.#.+.` B B ` ` B B V v g q q q 8 v V V V V V V v x s 0 : = = = = # # o # # o       O o # # o # # = = : 9 9 0 0 9 7 7 9 : 5 0 z z v v v M N N B +.+.%.+.+.#.@.@.$.*.*.y.y.y.y.*.&.&.&.*.*.@.~ B B B B B B B B v z v v v v V v v v u 0 9 9 0 0 9 > * # # o # # # # # # O                                                                                                                                                                                                     ",
"                                                                                                                                                                                                                                                                                % $ 9 u v V m j h m @.*.f.y.y.e.f.i.u.&.B w & % % O # : q ' Z.I.].].C.Z.Z.Z.V.B.l.f.f.f.f.f.f.f.u.u.y.y.y.y.e.y.#.+.+.` ~ +.+.` ~ B v g u u u q v M B B V B N M x s 0 5 = = = = # o o #               # # # # # = = : 9 0 0 0 0 7 7 9 5 9 0 z z z x z z M N B +.+.+.+.+.#.#.#.$.y.y.y.y.u.u.u.=.*.*.*.*.#.~ B B B B B B B V v z v v v v v v p v q 0 9 9 0 0 9 : = # # o # # # # # # O O                                                                                                                                                                                                   ",
"                                                                                                                                                                                                                                                                                % $ 0 V B ` ` ( ` ' #.&.y.u.f.f.u.y.e.@.V 5 $ : % # % 9 v =.W.oX].]._.Z.Z.Z.V.B.N.N.f.f.f.N.N.N.f.f.u.u.u.y.y.y.#.+.+.+.` +.#.+.+.B v q q u z v V B B N N B N v s a 9 5 = = # # o o o                   # # # # = ; : > 0 0 0 0 7 7 9 9 9 0 z z z s q q z v B +.+.+.` +.#.@.@.$.y.u.f.f.u.u.u.y.y.y.y.*.#.B B B B B B B B V v z v v v v v v v u q 0 5 9 0 0 > - = # # o O # # # # # O O                                                                                                                                                                                                   ",
"                                                                                                                                                                                                                                                                                % = u B +.#.#.@.[ [ #.&.e.u.f.N.g.f.y.+.v $ # $ # X # 5 r &.Z.oX].].C.Z.Z.Z.A.B.B.l.f.f.f.f.g.N.f.g.f.f.u.y.*.&.#.+.+.+.` +.@.+.+.B v q q z z z N B N N N N N x 0 7 9 : = # # # o o o                     o o o = = : : 0 0 0 0 7 9 0 0 0 0 z z q q 0 0 s v B +.+.+.` ` +.+.+.#.y.u.f.f.u.u.u.u.y.y.y.*.@.B V B B B B B B V v z u z v v v v u q 0 9 5 9 0 0 > - * # o o O # # # # # O %                                                                                                                                                                                                   ",
"                                                                                                                                                                                                                                                                                # = z +.$.$.y.w.&.e.e.e.e.e.u.f.f.y.$.+.v w 5 5 5 = 5 8 h e.C.oX]._._.C.Z.Z.V.B.l.u.u.u.u.f.f.f.f.f.N.f.u.*.$.#.#.` +.+.+.+.#.@.%.G N v V v v v N N N M v M x s 9 9 : = = # # # o o                       O o o = = : : 9 0 0 0 7 7 0 0 0 q u u q q 0 0 s v B +.+.+.~ ~ ` ~ ` #.y.u.u.u.u.u.u.u.y.y.*.*.#.~ V V B B B B B V v s z z z z x z z s 0 9 : 9 0 0 9 - # # # # # # # # O O O                                                                                                                                                                                                     ",
"                                                                                                                                                                                                                                                                                # : v @.*.y.y.y.e.u.u.e.e.#.] ] S N M v v V m S S B m (  .z.oXoXoXoXoX]._.C.Z.B.l.u.u.u.y.u.u.f.f.f.f.u.y.&.#.@.+.` +.@.#.$.$.$.$.@.G G G B M v M N M z z x s 0 5 9 : = % # # # o o                       % O o ; = : : 9 0 0 0 9 0 0 0 q u z u q q 0 0 z v B +.+.+.` ~ ` ~ ` #.y.u.f.N.N.f.u.u.y.*.*.*.#.~ V m B B B B B V s f z z z z x z z q 0 9 : 9 0 0 9 > = # # # # # # # O O O                                                                                                                                                                                                     ",
"                                                                                                                                                                                                                                                                                % : M #.*.y.y.y.y.u.f.e.[ Z j s z y 0 u B w.g.N.B.N.f.B.z.Z.oXoXoXoXoXoXoXQ.Z.B.u.y.*.=.&.*.y.y.y.y.f.y.*.#.@.@.+.( +.#.$.*.y.y.y.$.-.%.+.F N M M M z q q u 0 9 : : : = % # # # O                           O O % = ; : 9 0 0 0 0 0 q q q u z z z z q 0 q v B +.` ` ` ~ ( ~ ( @.y.u.N.N.N.N.u.u.u.e.y.*.#.~ V B B B B B B V s s z z z z z z z u u 9 : 9 9 0 9 9 : : * * * % # # O O O                                                                                                                                                                                                     ",
"                                                                                                                                                                                                                                                                                % = M $.y.y.y.y.y.f.u.$.( n a : = ; : u #.W.%X%X$X%XoXoXoXoX#XoXoX].oX].].C.Z.B.u.y.&.&.#.&.*.y.*.y.y.y.*.#.#.@.` ( +.#.$.y.y.y.y.$.%.@.-.F N v z z q 0 0 0 9 : = = = % # o o o %                           O o # % = , : 0 0 9 0 0 q q q z z z x z q q q v V +.` ` B B ( ~ ` @.y.u.N.N.N.N.u.u.u.y.y.*.#.~ V B B B B B B V s q z z z z z z z u u 9 : 9 9 0 9 9 9 > , = , * # # o O o                                                                                                                                                                                                     ",
"                                                                                                                                                                                                                                                                                % = M $.y.y.y.y.y.u.f.@.m f * # o # $ 9 f.pXuXiXiXiXuX6X$X#XOXoX].].oX].C.Z.A.l.=.*.&.#.#.&.&.&.#.&.*.&.#.@.#.#.@.` ` @.$.y.f.y.*.$.$.-.%.G N x u u y 0 9 9 = = = = = * # X o o %                           o X X o % = : 0 0 9 0 q q q q z x v v z q q q g B ` ` B B ` ~ ~ ` ' y.u.u.N.N.B.N.u.u.u.y.*.#.~ V B B B B B V v g q z z z z z z z u 0 9 : : 9 9 0 0 0 0 y > > , % # o o o                                                                                                                                                                                                     ",
"                                                                                                                                                                                                                                                                                % : M $.f.y.e.e.y.f.f.$.B q # # X # = v V.uXiXxXxXzXiXuX7X$XOXOXOXoXoX_.Z.Z.z.x.u.y.&.&.&.&.&.&.#.&.*.*.#.#.#.&.@.` +.#.y.f.f.y.$.-.F G B N x u u u 0 0 9 : = = * = = * # X o O                             X X X o # % ; : 0 0 0 u z z s z v v v x z s q v B +.` ~ ~ ` ( ~ ` @.y.u.f.N.B.N.N.u.u.u.y.y.$.( V B B B B B B V v q s z z z z u q 0 0 9 : 9 9 0 0 0 0 0 y 0 > ; # O o o o                                                                                                                                                                                                     ",
"                                                                                                                                                                                                                                                                                = 9 N $.y.y.y.y.y.f.g.$.B s # @ X @ w ~ W.uXzXkXiXxXiXyXeX4X#X#X#XoXoXC.Z.V.l.u.u.u.*.=.=.=.*.&.&.&.&.&.&.&.*.*.#.@.@.$.y.f.y.$.F G M x M z y 9 y u y 9 : ; = = * * , * o X X O                               X X X o # % : 0 0 u z x z v v V M v v v g v v V ` ` ` ( ` ` ` ` @.y.u.N.N.B.B.l.l.u.u.y.y.*.` m B B B B B B V v q q q u z z q 0 9 9 = = : 9 0 0 0 0 0 y 0 > ; # o o o o                                                                                                                                                                                                     ",
"                                                                                                                                                                                                                                                                                = 9 N $.y.e.e.e.y.f.f.$.+.M $ # @ $ b u.oXtXzXtXtXiXtXtXuX7X#XoXoXoXC.Z.A.B.l.r.u.u.y.u.y.y.y.*.&.&.&.&.*.*.*.*.#.@.#.$.y.y.y.$.G N z u u u 0 : 0 y 0 9 ; = = % # * ; * o X X X                               X X X X o % : 0 0 u z v x v v V M v v v v v V B ` +.` ` ` ` ` ` #.y.u.N.B.B.B.l.u.u.u.f.y.*.` m B ~ B B ~ B V g q 8 8 q u q 0 9 9 9 = = : 9 9 9 0 0 0 y 0 : ; # o o o o                                                                                                                                                                                                     ",
"                                                                                                                                                                                                                                                                                % 5 V #.y.&.e.e.e.u.f.*.%.B 9 $ 5 g &.Q.4XtXxXtXtXiXiXiXtX7XoX].Z.Z.A.V.B.B.l.e.u.l.l.u.u.u.u.e.&.&.#.&.&.*.&.#.#.@.@.#.$.$.$.+.N v u 0 y y 0 : 0 i i : ; = * # # % ; # o X X .                               X X X X X % : 0 0 q z x x v v V M V v v v v V B ` ` ` ` ` ` ` ` #.y.u.l.l.l.l.l.u.u.u.u.y.*.` m ~ ~ ~ ~ ~ ~ V g 8 w w w w w 5 9 9 : = = : 9 9 > 0 9 0 0 > = # o o o o o                                                                                                                                                                                                     ",
"                                                                                                                                                                                                                                                                                # = V #.*.&.e.e.q.q.y.$.-.B 0 w r ' Z.$XeXgXlXdXkXkXkXkXiXpXoXm.x.=.e.l.l.N.f.u.u.l.l.l.u.u.u.e.&.&.#.&.&.&.&.#.@.@.@.#.#.#.+.B N z 0 0 0 0 0 : : : : : : = * # # # # o o X X                                 X X X X X % : y 0 q z v v v V M M V V V V V V B +.` ` ` ` ` ` ` #.=.u.l.l.l.l.u.u.u.l.u.y.*.' m ~ ~ ~ ~ ~ ~ B g 8 w 5 5 5 5 5 $ 9 : = = : 9 9 > 9 > 0 > : * # o X o X o                                                                                                                                                                                                     ",
"                                                                                                                                                                                                                                                                                % = V #.y.&.e.e.e.[ ` B V q 5 8 ( V.oXeXtXdXkXgXgXiXkXNXiX$XZ. .^ k ^ [ u.f.N.f.l.l.l.u.u.u.y.=.=.&.&.&.&.&.&.#.@.@.#.#.#.+.+.B v z 0 0 i 0 0 : : : : : : : * # o o o o X X +                                   X X X X % : y 0 u z v v V N B B B B B B B B ` +.` ` ` ` ` ` ' #.=.u.u.u.u.u.u.u.l.l.f.f.y.@.~ ( ` ~ ~ +.+.~ v 8 5 5 5 5 9 1 $ 9 9 : : : 9 9 > 9 9 0 > , * # o X o X o                                                                                                                                                                                                     ",
"                                                                                                                                                                                                                                                                                % 9 M #.y.y.e.e.e.' V q = # $ 8 e.oX7XtXlXdXdXgXkXxXNXNXNX$Xl.h 6 1 8 B *.f.N.N.u.l.l.u.u.e.y.=.e.=.&.&.&.&.&.#.@.@.#.$.$.@.S N x z y 0 i i 0 : : : : : : : * o X X o X X +                                     o X X X % : y y z x N N N B B B S S +.+.+.S ` ` ` ` ` ` ' ` @.#.*.u.u.u.u.u.u.u.l.N.N.f.y.#.` ` ' ` ' ' @.~ b 8 8 w 5 w w 9 5 9 9 9 : 9 9 9 9 0 0 0 0 , * # o X X X o                                                                                                                                                                                                     ",
"                                                                                                                                                                                                                                                                                  : v $.*.&.&.e.&.` u : o X X 5 &._.=XfXdXfXdXgXiXiXiXNXiX%X&.g $ = 0 M $.N.N.B.u.u.u.u.u.u.=.=.&.&.&.&.&.#.#.@.@.+.+.%.@.G B N N z y y 0 0 9 : : : : : : , % # X X + X X o                                     X X X o # ; 0 u z z v M N B S S B +.+.+.+.+.` ` +.` ` +.+.` @.#.*.y.f.u.u.u.u.u.l.u.f.f.u.#.` ` ' ' ' #.' ) b t 6 3 6 w w 5 5 9 9 9 9 0 0 0 0 0 0 0 9 = # o X + + X o                                                                                                                                                                                                     ",
"                                                                                                                                                                                                                                                                                  = M @.*.&.&.e.&.! 0 % . . . $ ) C.*XfXfXrXrXdXtXiXiXiXiX%X@.0 = % > M $.f.B.x.u.u.u.u.u.u.=.=.&.&.&.&.#.#.@.@.+.` +.+.F S G N M z y 9 9 9 9 : : : : : : , % o X X + X o                                       + + X X # ; 9 y u u z M N B S S B S +.+.+.+.` ` +.` ` +.+.+.@.#.*.y.f.f.u.u.u.u.u.u.l.l.u.' ` ` ' ' ' X.' ) T t t 3 3 3 w w 5 5 w 9 9 0 y y 0 0 0 0 9 = # o X + X X o                                                                                                                                                                                                     ",
"                                                                                                                                                                                                                                                                                = 9 M @.*.=.&.e.#.v = # + . . 1 ) C.*XfXfXrXrXgXkXgXtXiXuXoX` w % # , z %.f.l.l.x.u.u.u.u.u.u.y.&.*.*.&.#.#.@.#.` ~ B B N M M M z u 0 9 9 9 9 9 : : > : , , % # X X + X o                                       + + X X o * 9 y 0 0 q z N B S S B +.+.+.+.+.+.` ` ` ` +.+.+.+.@.*.y.u.f.l.l.l.u.l.l.l.l.y.' ' ( ) ' &.&.X.' T t 3 3 3 3 3 w 5 5 w 9 q y u y y 0 0 0 9 = # o X + X o O                                                                                                                                                                                                     ",
"                                                                                                                                                                                                                                                                            : 9 0 z B $.*.e.&.&.#.z # # + o X 5 X._.&XfXfXaXfXgXlXgXgXgXuXoX@.8 = # ; 0 B f.u.u.u.u.u.u.u.u.y.u.*.*.*.&.$.#.#.#.` B V v z s u u u y 0 9 9 9 0 9 9 0 0 0 > : ; # X X + X o                                       + + X X # % : 9 9 9 0 z N G S F +.+.@.@.%.+.+.` ` ` ` +.+.+.+.@.*.y.u.u.l.l.l.x.l.l.l.l.u.#.' ' ) ' ' X. ./ I t 4 3 3 3 3 3 2 w w i u u u y y y u y 9 = # X X + + o O                                                                                                                                                                                                     ",
"                                                                                                                                                                                                                                                                      0 y 0 a 0 v N +.$.y.y.e.e.#.u # # o @ @ w =._.-XhXhXfXfXgXgXgXdXgXuXoX` w $ # # 9 B *.u.u.u.u.u.u.u.u.u.y.y.*.&.&.$.#.#.' B V v q q 0 0 0 0 9 9 9 9 0 9 9 9 9 7 7 > > ; # o X + X                                         X X X X # % : : : = = q M B G F +.+.@.@.+.+.G +.` ~ ` ` +.+.+.@.&.y.u.u.l.l.l.l.l.l.l.l.u.&.' ^ ^ ^ ^ ^ ^ ^ L t 4 3 3 3 3 3 3 w w q u u y y y y u y 0 ; # X X + + o O                                                                                                                                                                                                     ",
"                                                                                                                                                                                                                                                                    N G S S N N S @.#.$.y.f.f.u.#.u @ X X @ @ 3 o.].-XhXhXhXfXhXhXfXfXtXwXQ.! 6 $ @ # = V *.u.N.N.N.l.u.u.u.u.y.y.&.#.#.@.@.' ` B v q q 0 7 9 9 : : : 9 9 9 9 9 9 9 9 9 > , * # o o X o                                         o + X X o # $ ; = # $ 0 z N N S G +.+.@.+.+.G G ~ ~ ` ` +.+.+.@.&.y.u.u.l.l.l.l.u.l.l.l.u.&.' ! T R R L L L J 4 4 4 3 3 3 3 3 w w u u z y y y y u y i ; # X X X o o o                                                                                                                                                                                                     ",
"                                                                                                                                                                                                                                                                  z F %.%.%.+.+.%.$.$.#.$.y.y.$.G q # # @ @ & 4 o.{.-XhXhXsXsXsX0X9X9X6X7XZ.^ 6 1 $ = w V $.u.N.f.N.f.u.u.u.u.y.*.#.@.' ' ' ' ` B v s 8 0 7 9 9 9 9 9 9 9 9 9 9 9 9 9 9 > , * # o o X +                                           X X X o # $ $ $ # $ 9 u z N N B B S G S B B B B B ~ ` +.` +.+.#.e.u.u.f.u.l.u.u.u.x.x.u.&.' T t L L L L L L 4 4 4 4 4 3 3 3 w w u u z u y y y u y i ; # o X X o o O                                                                                                                                                                                                     ",
"                                                                                                                                                                                                                                                                  v +.%.+.` S S @.$.%.B B +.+.B V 0 $ $ 1 1 2 L O.`.-XsXsX-X-X-X.X|.|.&X&XC./ t e 8 8 q b @.#.y.u.u.u.=.=.u.u.=.#.#.@.' ' ' ' @.+.B v q q 0 0 0 0 0 9 9 9 9 0 0 0 7 7 9 > > , * o o X o                                           X X o # # $ $ $ # $ 9 u z x N N B B B B B B B B B ~ ` ` ` +.+.#.=.u.f.u.u.l.u.l.u.x.l.u.e.' T t t t t L L J J J J 4 4 3 3 3 6 q u u z u y y y u y i ; % o X X o o O                                                                                                                                                                                                     ",
"                                                                                                                                                                                                                                                                  v +.` B B S ` @.@.B z u u u z 8 8 q r r 3 4 L O.(..X:X-X.X{. X X).).{.@X_./ R R p p p b m ` #.&.u.y.&.=.y.=.&.#.#.@.' ' ' @.#.@.` V g q q u y y 0 y y 0 0 0 9 0 0 0 9 > > : # o o + O                                           + o o o # $ : : $ $ 9 u z v M v v N B B V B B B B S G ` ` +.@.#.e.u.f.u.u.i.i.x.u.x.l.u.&.' T t t t t t J J J J J 4 4 4 3 t t q u v z z z c c u u y : % o X X o o O                                                                                                                                                                                                     ",
"                                                                                                                                                                                                                                                                  v B ` B B S +.+.G v 9 & % = = 8 r b ^ ^ / E O.^.(.XX:X:X-X-X-X*X*X*X=X9XOXc.o.o./ ^ R r r v B ` &.&.#.&.&.&.&.#.#.#.#.' ' #.#.@.` V g q q u u y y y y y y 0 9 0 0 y 0 0 0 : * # o + O                                           + o o o # $ = = $ $ 9 u z x M x v V N B V B B B B B G ` ` +.+.#.e.u.u.u.u.i.u.u.u.u.x.u.&.' T t t t t J J J J J J 4 4 4 3 3 t r u z z z z z z u u y : % o o + o o O                                                                                                                                                                                                     ",
"                                                                                                                                                                                                                                                                  p B ` ~ ` ` +.G N i # X X X @ 6 h ' =.;.;.;.^.^.(.XX:XsXsXhXhXdXfXdXgXgX=X_.c.c.;./ R t 6 6 q h ' #.[ #.&.&.&.&.&.&.#.#.#.#.#.@.` V s q s z u u u y y y y 0 0 0 0 i 0 0 0 > * o o + O                                           o o o o # $ $ $ $ $ 9 u z M x z x v N N N B B B B B S B S +.+.@.w.y.u.u.u.u.u.u.r.u.u.e.&.' h t t t t J J J J J J J 4 4 3 3 t r u u z z z z z z u y : % O X X o o O                                                                                                                                                                                                     ",
"                                                                                                                                                                                                                                                                  u B ` ` +.+.+.G M 9 X . . . # 6 T =.;.;.;.`.(.(.`..XsXsXhXcXCXCXCXCXCXcX9X{.`.`.`.o.E t 2 1 w h ' &.=.=.&.&.&.&.&.&.&.&.#.&.&.@.` V s q s z z z u u u u u 0 0 0 : : 0 > > : * # o o O                                           O O o # # $ $ $ $ = 9 u z M M z v v N N N V B B B B B B B +.+.@.$.u.u.u.u.u.u.u.u.u.u.e.&.' h t t t t L J J J J J J t 4 3 t t r u u z z z z z z u y : % O o X o o O                                                                                                                                                                                                     ",
"                                                                                                                                                                                                                                                                  u B +.+.+.+.@.S M : X . . o : e R ..o.O.;.(.`.`.XX-XhXcXSXDXHXHXHXHXDXBXsX X`.`.`.O.O.L 3 w q b #.f.f.u.y.&.&.&.*.*.*.*.=.&.*.@.+.V s q s z z z z u u u u u u > ; = ; , , , * # o o O                                           O O O # % % ; $ $ = 0 z M M v v v N N N M N B B B B B B B S +.@.$.y.y.u.u.u.u.u.u.u.u.=.&.' h t t t L J J J J J J J 4 4 3 t t p z z z z z z z z u y : % O o o o o O                                                                                                                                                                                                     ",
"                                                                                                                                                                                                                                                                  p G +.` +.+.%.G M : X . . o 9 r ^ X./ E O.(.`.XX.XsXhXcXSXDXHXHXHXHXDXcX9XXX(.(.(.(.O.P 3 w q ~ e.N.N.f.y.&.&.*.*.y.y.*.=.*.*.#.+.V s q s z z z z z z z z u u : % # # # * ; % o o o                                             O O # # % % ; $ $ $ 9 u z M v M v N N N v N N B B B B B B S ` @.#.*.y.y.y.u.e.e.u.u.e.=.&.' h t t t t t J J J J J J 4 4 3 t r p z v z z z z z z u i ; % O O o o O O                                                                                                                                                                                                     ",
"                                                                                                                                                                                                                                                                  u B +.` ( +.%.G x : X . . o : r ^ / / E O.^.`.`..XsXhXvXVXCXAXZXHXHXSXlX-X(.(.(.(.(.O.E t w u ! &.f.u.y.&.&.&.*.y.y.*.*.&.&.*.@.` V q q q z z z z z z z z z u : # X # # # % # o o O                                             O O O # % $ $ $ # $ : y u z x v v v M v v v N V V B B B B B ` +.@.#.$.*.e.=.&.=.=.e.=.&.&.' T t t t t t J J J J J J 4 t t t r p z z z z z c y u y : ; % # O o o O O                                                                                                                                                                                                     ",
"                                                                                                                                                                                                                                                                  u B ` ( ( ` @.B x : X . . o 9 r R / / O.O.^.`.XX.XsXcXCXVXAXzXAXCXDXVXhX-X(.^.(.(.(.^.E L r p b #.y.y.*.#.#.#.y.y.y.*.&.&.&.*.@.S V z q u z z z z u z z z z u : # o O # # # o o o                                               O O O # # % % % # # $ 9 y z x z x v v v x v N V V B B B B B S ` ` @.@.$.&.&.#.&.&.&.&.'  .' T t t t t t L L J J J 4 4 t t t r p z z z z z y 0 y 9 : % # # O O o O O                                                                                                                                                                                                     ",
"                                                                                                                                                                                                                                                                  q S +.( ' #.@.G x 9 X . . o 9 p X.;.;.O.(.`.XX.X-XhXnXSXCXvXxXzXCXJXSXhX-X`.(.XXXXXX`.O.L t r v V B B B B B #.*.u.u.u.=.*.*.*.$.G N z 0 y z z z z z z z z z z : # X # O O # O O O                                               O O o # # % # # # # $ 9 y z x x z x x x x v N V V V B B B B B S ( ] [ #.#.#.#.@.&.&.' &.&.' ! r t 3 t t t t t t 4 4 t t t p r v u u u z s u q 0 : = % # # % O O O O                                                                                                                                                                                                     ",
"                                                                                                                                                                                                                                                                  z ` ] ` ' #.#.B z : X . . o 9 ^ ;._.).`.`.{..X-XsXhXnXSXSXvXbXcXCXSXSXhX-X`.(.XXXXXXXX9.E L w w 0 q w w q v ` *.u.l.u.u.y.*.*.#.G N z 0 y z z z z z z z z z z : # O # # # % O O                                                   o o # # % % # # # $ : y z x z z z z z z v N V V V B B B m m S ( ] @.@.' @.' #.#.@.#.#.#.! b r e e e t t t t t t t t t p b b v v u u z q 0 0 9 : * # # # % O O O O O                                                                                                                                                                                                   ",
"                                                                                                                                                                                                                                                                  z ` ` ` ' #.#.B z : X . . o y ' C.=X=X&X-X-X-X-X-XfXcXvXvXvXbXzXvXvXbXhX-X`.(.XXXXXXXX9.E t 6 5 9 9 $ = w p +.y.u.u.u.y.y.*.*.#.B M z 0 y z z z z z z z z z z : # O # # % ; %                                                     O O # # % % # # # $ : i y z u u y u u u v N N V N B B m m B S ` ` +.@.@.@.` @.@.' ~ ~ ~ b r 8 8 w w 2 3 3 3 4 t t t p h b b v v u u u q 0 0 9 : % # # # % O o O O O                                                                                                                                                                                                   ",
"                                                                                                                                                                                                                                                                  z ` ` ` ' #.#.G z : X . . # u &.%XgXxXdXfXfXsX-X-X9XhXlXcXcXbXxXcXbXhXsX.X(.(.XXXXXX`.O.R t w 1 = = $ $ 5 q B *.y.u.u.y.*.*.$.#.B M u 0 y z z z z z z z z z z ; # X o # % ;                                                         O # # # % # # # $ : 0 0 y y 0 0 0 0 u v N N N N B B m m B B S +.+.@.@.@.+.+.` ~ b v g e 8 $ 1 1 $ & 1 1 3 3 t t t b b b b v v u u u q 0 0 : = % # # # # O O O O O O                                                                                                                                                                                                 ",
"                                                                                                                                                                                                                                                                  z ` @.' ' #.#.G z : X . . # u y.$XNXBXlXjXdXfX9X9X0XfXlXcXvXvXvXvXcXhXsX.X(.(.XXXXXX`.9.E t w $ $ : # $ = q B *.y.u.y.*.*.*.$.#.B v q 0 0 z z z z z z z z z u ; # X o O # ;                                                         O # # # # % # # # : 9 0 y y 0 9 9 0 q v N N N N B B B B B G G +.+.@.@.@.@.@.+.m p q w w 1 $ $ $ $ $ & 1 w 6 t r h b b b v v z u u u q 0 9 : = % # # # # # # O O O O O                                                                                                                                                                                               ",
"                                                                                                                                                                                                                                                                  z +.@.' [ &.#.G z : @ . . # z e.$XNXxXdXjXjXjXfXrXfXgXcXvXCXCXvXvXvXbXsX.X(.(.`.XXXXXX9.E r 5 5 : : $ $ 9 u ~ *.y.y.y.y.y.f.y.$.B v q 0 0 z u c c z z z z z u : # X o O O                                                             % # % % % # # # : 0 0 y y 0 9 9 0 y v N B N B B B B B B G G +.+.@.@.@.@.+.~ V q w 9 $ $ # # $ $ $ $ 1 w 8 e h h b b v v z u q u u q 0 9 : ; % # # # # # # # O O o O O                                                                                                                                                                                             ",
"                                                                                                                                                                                                                                                                  z +.@.' [ *.$.G z i # . . # z e.$XNXzXjXlXbXcXjXdXlXcXcXvXvXSXSXnXvXmXsX.X(.^.`.XXXX`.9.E r 1 $ ; : % % : u B *.y.y.y.y.y.f.y.$.B v q 0 0 z u y y u u z z u u : # X o O O                                                               % % # % # # % : 9 0 u y 0 9 9 9 y M N B N B B B B B B G +.+.+.+.+.+.+.` B v q 9 1 & $ # # # # # $ 9 9 q r h b b v v v z u q q q 0 0 9 : ; % # # # # # o o o o o O O O                                                                                                                                                                                           ",
"                                                                                                                                                                                                                                                                  z ` @.' [ &.#.+.z i # . . # z u.pXCXZXvXvXvXvXcXcXBXCXBXcXvXSXSXnXbXfXsX.X(.^.`.`.XX`.9.E r 1 $ ; : = ; : 0 M $.y.y.y.y.y.y.y.$.S v q 0 0 z u y y u u z z u y , o X o + O                                                                 ; ; # # # % ; : 0 y y 0 9 9 0 y M G G B B B B B B B G G G +.+.+.+.` ~ B v q w 5 1 & # # # # # % 9 u q r r g g g v v z u q q 0 0 9 9 : ; % # # # # # o o o o o o O # %                                                                                                                                                                                         ",
"                                                                                                                                                                                                                                                                  x ` @.[ [ $.#.+.x i @ . . # z e.pXZXZXVXvXvXvXvXzXVXCXCXcXcXnXnXbXaXsX-X X(.^.(.`.XX`.8.E t 1 $ $ : % % = 9 B #.y.y.y.y.y.y.f.$.B v q 9 0 z z y y u u z u u y ; # + X + O                                                                   ; # o # % : 0 0 y y 0 9 9 9 y M G N N B B B B B B B B B ~ +.` ` ( B V m m h v r 8 w $ # % % : y u u r e r r v v v z q 0 0 0 0 9 9 : = % # # # # # # # # o o # # # % %                                                                                                                                                                                       ",
"                                                                                                                                                                                                                                                                  z ` @.[ [ &.$.G x i # . . # u &.$XzXBXlXlXjXjXxXzXBXBXcXgXfXhXsX-X.X.X.X`.^.^.(.(.`.(.o.E t 1 $ $ : % % = w M $.y.f.y.y.y.y.f.$.+.N s 0 0 z z z z u u z u z y : # o + o                                                                       % # # % : 0 y y y y 9 9 0 y M N G B B B B B B B B B B ~ ` ` Z m m ! [ u.N.V.N.u.$.M 9 $ $ & i u u q q e r v v v z q 0 0 0 0 9 9 : ; = % * ; * * % * * * % ; : , ; ; %                                                                                                                                                                                     ",
"                                                                                                                                                                                                                                                                  z ` @.[ [ &.$.G z 9 # X X # 0 ' oXuXyX8X0XrXfXdXlXxXxXgXdXfX9X-X{.`.`.`.`.^.^.^.(.(.9.o.R p w $ % : % % = 9 M $.y.f.u.u.y.y.y.$.S N s 0 q z z z z z z z z u z : ; o X o                                                                       % # # * : 0 y u u 0 9 9 0 y v B G B B B B B B B B S S S ` ` ! m m ( u.Q.%X;X%XoXW.$.q $ & 9 i 9 w w 8 8 r b v v z 0 0 0 0 9 9 9 : : ; ; : : : : ; : : : : 9 0 i : : ; %                                                                                                                                                                                   ",
"                                                                                                                                                                                                                                                                  z ` @.' [ &.$.G z : @ X X O 9 ! Z.$X#X|.*XqX0XlXzXzXlXxXcXdX9X-X`.(.(.`.`.;.O.O.O.O.O.Q R r 2 $ % : % % $ 9 V @.y.u.y.y.y.$.$.@.B z q 0 0 z z z c u u z u u y : ; o o o                                                                       O O # * : 0 y u u y 9 9 0 q M B G B B B B B B S S S S S ` ~ m b ! ' l.oX$X$X$X#XoXf.p 1 & 9 9 9 5 1 1 6 r v v g z 0 0 0 0 9 : : : : : : : 0 0 0 0 0 0 0 9 0 y y 0 : % O                                                                                                                                                                                   ",
"                                                                                                                                                                                                                                                                  z ` ` ' [ #.#.B z : @ X X X = e h.]._.9.).*X0XxXzXzXxXzXVXcXaX-X`.o.9.c.c.;.O.O.O.O.O.Q R e 1 $ $ : % $ $ 9 V @.y.u.u.y.y.$.#.` V s 0 0 0 z y y y y u y y y i ; O o o                                                                         O O # * : 0 y u y 0 9 9 9 q v B G G B B B B B S S S B B ~ B V g h ) l.oX#X#X#X$X%XN.b 5 $ $ 9 $ & & 1 6 q v v q s 0 9 9 9 : : = : : : : 0 0 i i i y 0 0 0 0 0 0 0 , # o O                                                                                                                                                                                 ",
"                                                                                                                                                                                                                                                                  z ` ` ' [ #.#.G z i @ X X X = h x.].).9.).-XfXcXVXAXxXVXSXvXfX-X`.o.;.;.;.;.O.U O.O.O.Q R q 1 $ $ ; % $ = w V $.y.u.u.y.y.*.$.` v q 0 0 z z y 9 : 9 9 0 9 : ; # O o o                                                                         O o O ; : 0 y y u 0 0 9 9 q v B G S B G S S S ` ` S B B ~ B V r h ^ x.oX#X#X*X#X%XB.h 6 $ $ $ $ & & $ 5 8 g v s s 0 9 5 9 : = = : : : : 0 0 i y i y y 0 0 0 0 0 9 ; # o O O                                                                                                                                                                               ",
"                                                                                                                                                                                                                                                                  z ` ` ' [ #.#.G M i @ . X X 9 m Z.#X{.).{.-XgXCXZXCXAXCXJXvXdX=X`.9.;.;.o.;.O.E E O.O.Q T q $ $ $ ; $ $ = w V $.y.y.y.y.y.*.$.` V s q u z z 0 : = $ = : : $ # # O O                                                                           O o O ; : i y u u 0 9 9 0 z M B S S G +.+.S S S S S B B ~ B b r h ^ x.].OX@X|.@XoXl.h 6 $ $ = 9 $ 5 w 8 q v z s q 7 : : : = = ; : : : : : 0 i i 0 0 0 0 0 q q q 9 = % O O O ;                                                                                                                                                                             ",
"                                                                                                                                                                                                                                                                  u ` ' ' [ #.$.+.M y # . . o 9 h A.#XOX).{.-XfXcXCXVXxXzXCXcXrX=X).;.k.o.o.o.O.E E Q X.W h 8 $ $ $ ; $ $ $ w V $.y.y.y.e.y.&.$.+.V s s s z z 0 = % # # % % % # # O                                                                               O O ; : 0 y u u 0 9 9 0 s M B S S ` +.+.` S S S B V B B V v e r T ..C.OX|.|.@X#Xx.T 8 6 1 5 0 5 w 8 q v v x z 0 9 : = = = = ; : : : : : : 0 0 0 0 0 0 0 q q q : = % # O O O ;                                                                                                                                                                           ",
"                                                                                                                                                                                                                                                                  v ` @.' [ #.#.~ M 9 @ . . o $ r x._.A.k.`.{.-XrXdXlXkXdXrX7X*X_.c.o.o.o.o./ E I I / / ^ r 8 $ $ % % $ $ $ 9 v $.*.*.*.&.&.&.$.` V s q 0 z z 0 = * # # # # # # % O                                                                               O O # : i u z u 0 0 9 0 0 v B +.` ` S ` ` ~ B V V v u z p q 6 e t Q c.'.{.*X&X$XZ.} k e 6 r r r q p v v v x s 9 : = = = $ = = : : : : : : : 0 9 0 0 0 0 0 0 0 5 : = % # O # % ;                                                                                                                                                                         ",
"                                                                                                                                                                                                                                                                  g ` @.' [ #.#.` N 9 @ X . X % q @.B.;.O.o.).{.*X5X8X8X5X=XOX_.A.o.o.o.o.X.E R L L ^ ^ T e w & $ & $ $ $ $ w v @.$.*.*.#.#.#.&.` V s 0 0 s y 9 * * # # O O O O O                                                                                 O O # ; 0 y y u u 0 0 9 0 n S ` ` ` ` ` +.~ B v v q q u q 8 6 3 t Q c.].[.*X&X=X].7.T k g h b v r p p u z z 0 9 : = = = = = = ; ; : ; : : : : 9 0 0 0 0 0 0 0 9 : ; = # o O % % %                                                                                                                                                                       ",
"                                                                                                                                                                                                                                                                  v +.#.@.@.#.#.` N 0 # X . X % 6 h / / E O.9.).).'.[.OX[._.M.c.k.o.o.o.o.X.E R L L R ^ r 8 5 & $ $ $ $ $ $ 9 v @.$.f.y.&.#.&.y.@.B s q 0 0 0 : * * # # O O O O O                                                                                 o O # = : 9 0 0 : : : : 0 v B ` ` ` ` ` ` ~ V v u 0 9 q q 8 6 k } c.OX&X5X8X8XwX#Xm...^ m b V e 8 5 5 9 0 0 > > : = = = = = = : : : : : : : 9 9 y 0 0 0 0 0 0 0 9 : : % # # # % # O                                                                                                                                                                     ",
"                                                                                                                                                                                                                                                                  v +.#.+.+.@.+.B N 0 # X . X # 1 t L L L E O.9.9.9.c.C.c.c.8.k.o.o.o.o.o.Q E R R L L p t w 1 1 $ 5 5 $ $ $ w v @.*.f.y.&.&.=.y.#.B x q 0 0 0 : * # # # O O O O O ;                                                                               o O o # = = = = = % * = 9 x B S ` ` ` ` ` ~ V v u 9 9 0 q 8 8 ^ x.].4X0X0XfXfXdX=XC.x.' ! ! b 8 1 & $ $ = : : 9 : = : ; ; ; ; : : : : : 9 : : 9 9 0 0 0 0 0 0 0 0 0 : : % # % # O O                                                                                                                                                                     ",
"                                                                                                                                                                                                                                                                  z B S B B B B N M i # X . . # 1 3 t t L E o.8.8.8.8.k.8.o.o.o.o.X./ } } E R R R L t e 6 1 $ 5 5 q q 8 8 q v B @.*.y.*.&.#.&.$.+.N s q 9 0 0 : * # # # % # o o O O                                                                               O O o o # # # % # # # = 9 x B B S ( ` ` ( m v q 0 = = 9 w 8 e  .Z.OX6XrX0XfXfXfX=X].k. .) ^ ! r 1 & & @ $ : ; 9 : ; : : : : : 9 : : : : : : : : 9 0 0 0 0 0 0 0 0 0 : : % # % O O o o                                                                                                                                                                   ",
"                                                                                                                                                                                                                                                                  0 v M V v v x z z : @ . . . X & 6 t t t L o.8.k.k.k.k.7.Q Q o.X./ E R R R R R L t t 6 1 & & 9 q V B V V B ` @.@.#.*.*.#.#.#.@.` V s 0 7 9 0 = * * # # # O o o O O                                                                               o o o o o # # # o o # * 9 x N B B B B ( ( m v q 0 = = = 5 6 e r.].4X8XfX0XaXfXrX=X].k.X.} ' ) r 6 1 1 & $ $ ; : : ; : : : : : 9 : : : : : : : : : 9 y 0 0 0 0 0 9 9 , ; # O # O O o o                                                                                                                                                                   ",
"                                                                                                                                                                                                                                                                  : u z z z z z u u 9 % o . . X & e t t t L / o.o.7.7.7.X.Q Q X.X./ ^ R R R R R R t 3 1 1 & & u v ` #.@.@.#.$.$.#.&.*.&.#.#.#.@.S M s 0 9 0 0 : * * # # # # O O O O                                                                               o o o o o # # o o o o # : z N B B B B ( ! m g q 0 5 = 5 5 e R k.OX5X9X0XqX0X0X0X&X].k...X. .' ! r e q 5 $ $ % , ; ; , : : 0 0 0 : : : : : : : : : : 0 0 0 9 9 0 9 : = % o O # O o o o                                                                                                                                                                   ",
"                                                                                                                                                                                                                                                                  : 0 u u q q u z u i % O X . @ 1 r ~ T t R / / / Q } } Q Q X.o.X.} ^ R R R R R R h e 1 1 & 9 u V #.u.e.y.y.u.y.#.&.*.*.&.#.#.#.S M z q 0 0 0 > * * # # O O O O O O                                                                               O O + o o # # o o o # * > z N S B B B ! ! m g 8 8 5 5 5 8 k W m.&X9X0X0XqXqXaX0X&X'.c.7...h.r.=.' ) ~ g 9 : % * % * , : 0 0 0 0 0 9 9 0 0 : : : ; : 9 9 9 9 9 0 0 : = # o # # O o o o                                                                                                                                                                   ",
"                                                                                                                                                                                                                                                                  ; 0 u u u q 0 u y i : # . . @ 1 r ~ ~ I L L R R E ^ E Q } Q X.X.} ^ R R R T T h r e 1 1 & 9 M ` e.f.u.u.f.f.y.&.&.*.*.#.@.@.#.B n s 0 0 q y > = * # # # # O o O O                                                                               O o + o o # # # o # # * > z M B m m m ~ ~ m h r q 8 8 8 e R } C.3X0XaXaXqXqXaXaX*X'.c.7...7.x.r.=.=.&.B q $ % # # # ; , > > 0 0 0 : : : : : : : : : : : : 9 9 0 0 , * # o + O O O o o                                                                                                                                                                   ",
"                                                                                                                                                                                                                                                                  ; 9 y u q q 0 y y i < O . . X $ w b b t t t t L R E E E E E E E / E R R R e e h r e 1 1 & 9 v ` &.u.e.&.e.u.e.$.#.#.@.` ~ ( +.B v s 0 0 q y > = * # # # # O o O O                                                                                 O o o o # # # # # # * > z N n n m m m m m h h m m h k k W | C.3X0XaXaXaXsXaXaX*X'.0.o.X...7.7.2.r.&.( q = % o # # % ; : > 0 0 > : : : : : : : : ; ; : : 9 9 9 : = # o o + + O o o o                                                                                                                                                                   ",
"                                                                                                                                                                                                                                                                  % 9 0 u q q 0 y y i ; # X X X @ 1 r r 6 6 3 3 t R / / Q E R R E E E ^ R k e e h r e 1 1 $ 9 V ` e.u.&.[ &.e.&.#.@.` ~ V V V B V x s 0 0 q y > = * # # # # O o O ;                                                                                 O o o o # # # # # # * > z M V V V V V V V m m ( ( ( ) ) } 7._.3X0XaXaXaXaXaXaX*X).8.X.Q ..7.7.2.2.r.` q $ # X o o # ; : > 0 0 9 > : : : : : ; : ; ; = = : : : : = # o o + + o o + O                                                                                                                                                                   ",
"                                                                                                                                                                                                                                                                  % 9 0 q q 0 0 u y i : % # X X @ & 1 5 1 1 2 3 t ^ X.X.} E E R E Q Q E R k t r b b r 2 1 & w V ' e.f.e.&.&.&.&.' ( m v v g v V M x z s 0 u c 0 = * # # # o O o O ;                                                                                 O o + O # # # # # * * > z x V V V V V m V m ! ` ' [ &. ...7._.&XqX0XaX0X0XaX0X*X'.c.o.X...7.2.2.2...( q $ # # O # # * , > 0 0 0 > : : : : : : : : ; ; : : : : : = * # o + o o o + O                                                                                                                                                                   ",
"                                                                                                                                                                                                                                                                  $ 9 0 0 0 0 0 u u y 9 : = = $ & & & 1 & & 1 3 I ^ X.o.X.E E E Q X.X.} ^ h t r b b r w 1 & w V [ e.f.u.e.e.*.#.( m v g q q u v v x z s 0 y c 0 = * # # # # o o O O                                                                                   o + o # # % # # * = : q x M M V n V v V m ( ' [ &.&...2.7._.@X3X9XqX9X9X9X9X@X_.c.o.X...o...| ..| ! 8 $ % # O O # # ; > 0 0 0 9 > : : : : : : : : : : : : : : , * # # + + o o o O                                                                                                                                                                   ",
"                                                                                                                                                                                                                                                                  $ 9 0 0 0 0 0 0 y y 0 0 z u 0 w $ & & @ @ 1 2 t R / X.o.Q O.Q Q o.o.X./ L 3 3 r p r w 1 6 r ~ #.e.u.u.e.e.&.@.( m v g q 8 q z x z x s 0 0 y 0 , * # # # # o o O O                                                                                   o o o o # % # # # = : 0 x n x v V V v v V m ( ` ' [ [ | | c.].{.{.{.{.@X@X|.'.c.7.X.} X.X.} Q W W h w $ # O O O O # * : 0 0 0 9 > : : : : : : : : : ; : : : : , * # o + + o o O O O                                                                                                                                                                 ",
"                                                                                                                                                                                                                                                                  $ 9 0 0 0 0 0 0 y u u z B B N p 9 & @ @ @ 1 2 3 t E / o.o.o.8.8.8.o.X./ t 3 2 3 3 w w e r m @.&.y.y.&.$.$.#.+.+.B V v s q s z z s z s 0 0 y 9 : = # # o o o o O O                                                                                     o + O o # # # # * = 0 s s s s v v s s g g v v m ! ! T R Q 8.9.9.c.c.M.M.M.8.o.X./ / / / R R R T g 5 $ & O o O # # * : 0 0 > 9 : : : : : : : : : : ; : : : : = = # o + + o o O O O                                                                                                                                                                 ",
"                                                                                                                                                                                                                                                                  $ 9 0 0 0 0 0 0 u u u N +.%.G M w & & & & 1 2 3 t R / o.o.8.9.9.8.o.} ^ t 2 & 2 2 2 w b ~ ' &.e.y.e.#.@.#.#.+.` B v z q q s z s s z u 0 0 0 9 : = # # o o o o O O                                                                                     O + o O # # # # # = 9 s s 0 q x x s q q g g g v m ! k R Q 7.7.8.8.8.c.8.0.8...X./ ^ / ^ R R R T g 5 $ & O O O # # * > 0 > > : : : : : : : : : : : : : : : : = = # # o o o o O O O                                                                                                                                                                 ",
"                                                                                                                                                                                                                                                                  $ 9 0 0 0 0 q u z z z B @.%.+.B p 1 1 1 1 1 3 3 t R X.o.o.8.c.c.h...) r w & @ & & $ w ~ f.f.u.u.y.&.#.] +.+.+.B B v z u 0 0 z z z z c u 0 0 9 : = % # # # # # % ;                                                                                       O o o o o # # % : 0 q q q 0 q q q q q f s s b m ! ! T } 7.k.k.k.8.c.k.k.j.7.X./ E / / / ^ ^ ! g 5 $ # # o # # % ; : 0 0 0 0 : : : : : 9 0 : : : : : : 9 9 > , % # o # # # O O O O                                                                                                                                                               ",
"                                                                                                                                                                                                                                                                  % 9 0 0 0 0 0 u z z v B +.@.` B q 1 1 1 1 2 3 3 3 t / X.Q o.8.7.X.W k q 1 @ @ @ & $ w ` u.N.f.u.y.&.@.` +.+.+.B N x z 0 0 0 z c c c y 0 0 9 9 : : = % * * % O O O ;                                                                                       O o O o # # % ; 9 0 0 0 9 8 8 7 7 8 7 0 q s v V m k  .h.k.k.k.k.c.k.k.h.7.X.R ^ ^ ^ ^ R T ! g 5 $ # # # # # = : 0 0 0 0 : : : : : : : : : 9 > > > > > 9 : : % # # # # # O O O O o                                                                                                                                                             ",
"                                                                                                                                                                                                                                                                  % : 0 u 0 0 0 u z v M B +.+.B v 8 & & 1 1 1 w 1 2 3 e t e t R R e e 6 1 $ @ @ @ & @ 5 B y.f.u.u.e.@.` ` +.+.S N M z u 0 0 0 0 y y y 0 0 0 9 9 9 9 : ; ; ; ; ; O O O                                                                                           O O # # % = : 9 9 5 = = = $ $ = : : : 8 q g h h ) r.h.j.k.k.h.h.h.7...} R R R R T h h h r 5 $ $ @ # # = ; : : 0 0 : : : : : : : : : : : 9 > 0 9 > 9 : : % # # # # # O O O o o +                                                                                                                                                           ",
"                                                                                                                                                                                                                                                                  % : 0 0 0 0 0 u v M N B S B V q 6 & @ & 1 1 1 1 & 1 1 1 1 1 6 6 1 & & $ @ & @ & # @ $ v #.e.e.&.$.@.` ` ` S B N v z q 0 9 9 0 0 0 0 0 0 0 9 9 9 9 : : : , : ; ; O O                                                                                             O % # % % ; = = $ $ $ $ $ $ = = = $ = 5 8 q r ! &.r.7.h.7.7.7...| } T t t t e e e r r w = $ # # # $ = : : : > 0 9 : : 9 : 9 : : : : : 9 0 0 0 > 9 0 : ; % # # # o O O O o o + +                                                                                                                                                         ",
"                                                                                                                                                                                                                                                                  * : 0 0 0 0 0 z z M N B S B V r 5 @ @ & $ & & & & & & & & 1 1 1 1 @ @ & @ @ @ # # @ # q ` [ &.$.#.@.+.` +.G B N v z y 0 0 0 0 0 0 0 0 0 0 9 9 9 9 : : : : : ; ; ; % %                                                                                               ; % % % % $ $ # $ $ # # $ = * % % $ $ 5 6 g ! ) ) } } } Q R R R e 6 6 6 6 6 6 6 w 5 $ $ = = = ; : : 9 0 0 0 0 9 9 9 0 > : > : : : 9 9 0 0 9 0 0 : ; % % # # o o # # o o o o                                                                                                                                                         ",
"                                                                                                                                                                                                                                                                  = : 0 c s s s z v N B B ` S m v w & $ @ & & & @ @ @ @ @ @ @ 1 2 2 & & & & & @ @ # @ $ 8 m ' ' #.#.@.+.+.B B B N v z y 0 9 9 0 0 0 0 0 0 0 0 9 9 9 : : : : : ; ; % O O                                                                                               ; % % % % $ $ $ $ $ # # = ; * % % # $ $ $ 6 k k k R R R R R k k e 1 1 1 $ $ # $ $ $ $ = : : : : : 0 0 0 0 0 0 0 9 0 0 > > 0 0 0 0 0 0 0 0 9 0 0 0 : ; % % # o o # # O o o % O                                                                                                                                                       ",
"                                                                                                                                                                                                                                                                  ; : 0 c s z z x x N B B S S m v q w $ $ $ & & & & & 2 1 2 2 3 2 2 2 2 3 6 w w w 8 w 8 v B ~ ~ ` +.+.B B B B N N v z y 0 9 9 0 0 0 0 0 0 0 0 9 9 : : : : : : : ; O o o O                                                                                               % # # # # # $ $ % # # # # # # # # $ $ 5 q m T T ) ) ) W R R k e 6 & $ @ @ X # # # # $ : : : : 0 0 0 0 0 0 0 0 : : : > : : : > : > 9 9 9 > 9 0 0 i : : ; % o o o # o X o # %                                                                                                                                                       ",
"                                                                                                                                                                                                                                                                    : 0 z z x x x x N N B B m V B v u w 5 $ $ $ & & 2 2 2 3 4 t L J L L L I h b m ! m m ~ ~ ~ B B B B B M N N N M v z y 0 9 9 0 0 0 0 0 0 0 0 9 9 : , , : , : : % O + + O                                                                                               % % % # # # # $ * # # # o o o o # $ 9 w V ' [  .&.&.=. .' ' ! v w $ $ # o X o o o # $ : : : : : 0 0 0 0 0 0 : : : : : : : : : : : : > > : > 0 i i i : : ; # o o # o X o # # %                                                                                                                                                     ",
"                                                                                                                                                                                                                                                                    , > c c x x x v M V B m m m V B V u 5 & $ & & 2 3 3 t J L P P K P P L R / )  .[ [ ' ` +.~ V B B B V v M N N N v z 0 9 9 9 0 y y 0 0 0 0 0 0 9 : = : : : , ; # o X X o O                                                                                               % % # o # # % % % # # # # # # # $ = w v Z ' ' [ &.&.[ ' ( V q 9 % # O X + X X X # % ; : : : : 0 0 0 9 0 0 : : : : : : : : : : : : > 9 9 0 0 i 0 : : : % # # % = $ $ = = = %                                                                                                                                                     ",
"                                                                                                                                                                                                                                                                    , > 0 c z s x x M n B B m m B ~ B v w 6 1 & 1 2 4 L L P P P P K K P P E X...h.r.e.&.#.@.~ B B B B M V M N N M v z q 0 9 9 0 0 0 0 9 0 0 0 0 9 9 : : : : : ; # o X X o O                                                                                               % % # O # # % % % % # # # # # # % = = q g m m ! ` ~ ! V v v 0 ; # o X + + + X X # % ; : : : : 0 0 0 9 : : : : : : : : : : : : : : > 9 9 9 0 9 : : ; ; % # % 9 0 0 0 q 0 9 = %                                                                                                                                                   ",
"                                                                                                                                                                                                                                                                    , , > 7 9 9 q z v n B B m m B ~ B V r 8 1 1 2 3 t L P P P P U K K K P E o.h.x.x.x.e.&.#.+.B M N N M v N N N x x z u 0 9 9 9 0 0 0 0 q u u q 0 9 : : : : : ; # o X X X O                                                                                                 % O O O # # # % * * * * # # # # # # = 8 s 8 q g v q 7 8 7 = # X X X + + X X X # ; ; : : : : 0 0 0 0 : : : : : = = = : : : : : : > 9 9 9 : : ; = % % % % = 0 z v v v v 8 = $ %                                                                                                                                                 ",
"                                                                                                                                                                                                                                                                    ; ; , , : = 5 0 z M B B m m m B B V v r 6 1 2 3 4 L L P P U U K K P P E o.h.h.h.r.&.@.%.B M v v v v v v N N x z z z 0 5 9 9 0 0 u u u z z z 0 9 = = : : , * # o X X X O O                                                                                               % O O O o o # # % * = * * # # # # o # # # # # $ $ # # # # o X X X X X X X o # # ; ; : : : : : : 9 : , ; ; ; = = ; : : : : : : : > 9 0 9 : = $ % % # % # = u V V m m b q 5 $ % %                                                                                                                                               ",
"                                                                                                                                                                                                                                                                    ; ; = = = * = : q v V m m m h m m m V b r 6 6 3 3 4 J J K K K K K L P E o.x.x.r. .[ @.%.S M z z z z M M V V x x z s 9 : 5 9 0 0 z z v v v z u 0 : = : : ; % # o X X X O O                                                                                               O o O o o o o # # * = = $ # # # X X . X X . . . . . . . . . . . X X X o # # % * ; ; : : : : : : : : = = = = = = ; : : : : : : : 9 9 0 > , * % # # # $ $ 5 z m ! m m m g w $ $ % %                                                                                                                                             ",
"                                                                                                                                                                                                                                                                      ; ; = $ # $ : 0 z N m m m h m m ! B V g q 8 3 3 t J J J K J K J J J E ;.z.l.i.e.#.#.%.G N z z z v N N V N M x x s 0 7 9 9 u z M N N B N N v u 0 9 : : ; % # o X X o O O                                                                                                 o O o o o o # # * : = = % % % # X X o o X X X X . . X X . . . X o # # * = = ; ; ; : : : : : : ; ; = = = = = ; : : : : : : : : 9 9 0 9 ; % # # # # # $ 5 g m ! T T ! h q 5 $ % # O O                                                                                                                                         ",
"                                                                                                                                                                                                                                                                      ; ; * % # $ : y z V V V V m m ! ~ B V v g w e 3 4 t 4 J J J J 4 4 4 R =.B.B.N.u.w.#.%.S M z z z v N N N N n M M n z 0 7 0 z M N G G G G B B v 0 9 9 : ; % # # o o O % % %                                                                                               O O o o o o # # * : = = = ; % # # # # # O O O O o o o o o X X # # * = : : : : : : : : : : ; ; = = = = = = ; ; : : : : : : : > 9 9 0 : , * # # % # # $ 5 r h h T T ! h r 5 $ # # O O                                                                                                                                         ",
"                                                                                                                                                                                                                                                                      ; ; ; = % = : 0 z v V V m m m m m B V V v q w 6 3 3 4 4 4 4 4 4 2 3 I =.u.N.f.f.w.%.S V z z u z v N N n N N N N V v s 0 0 z M N N B S S S B v q 0 9 : ; # # # # # # % % ;                                                                                                 + X X X o o # * = = = = ; ; $ % % % % % % % % O o + + o o O # % = : : : : : : : : : : : ; ; = = = : : : ; ; : ; : : : : : > > 9 9 : = * # # % % $ $ w r h h k T ! b r 5 # # O O O O                                                                                                                                       ",
"                                                                                                                                                                                                                                                                      ; ; * = = $ 5 8 u v v v g V m m m V V V v q 5 1 2 3 2 2 2 4 2 2 2 2 3 ^ *.f.f.f.w.@.S v q 0 0 q z v N B B B S S B V g q q z M N N N N B B N x y 0 9 9 = # # # # # # # % %                                                                                                 o + + + + + # * * * # % ; ; % # $ = = ; ; % # # o o o o o # # # * = , : : : : : : : , , ; ; = = = = , , , , , = : : : : : : > > > : , * # # # # % # : q g h h h m v w $ # O o o o o                                                                                                                                       ",
"                                                                                                                                                                                                                                                                      ; ; * $ = = 5 8 q v v V V V m m m m m V v q 5 1 2 2 2 3 2 2 2 2 2 2 3 ^ &.f.f.y.@.` B v 8 0 0 q z v N B S B S +.B V v p u v N N N N N N N N M y 0 9 9 : $ # # % % % # % %                                                                                                   + + + + o # * * * % = = = = $ $ = = = ; * % % # # # # # # % % = = : : : : : : : , , , ; ; = = = = , , , , , = : : : : : : > > > : ; % # # # # % # : s v m h m b p 9 $ o + o + o O                                                                                                                                       ",
"                                                                                                                                                                                                                                                                      ; ; * $ = = 5 q g v V V B V m m m ~ ~ B V q 5 1 1 2 2 3 3 4 2 2 2 2 3 I ` *.$.#.S B V v 8 0 u u z v N S S S F +.+.B V v v v N B B N N N N N z y 0 0 0 : = = = = ; % # % % O                                                                                                   o + o o O * ; * = = = = = = : = , , , , , ; ; ; = = $ % * * = , : : : , , : : : , , , , , = = = = , = = , = ; : : : : : : > > : ; # # # # # # * 5 q b m h m b r 5 # o o o o o O                                                                                                                                       ",
"                                                                                                                                                                                                                                                                      ; ; * $ = = 9 q V B B B B m B B ~ ~ ~ B V q 5 1 1 2 2 3 3 2 2 2 2 2 3 p ~ @.+.` m V n s q 0 u z z v N S G G F +.+.B V v v v N N N N N M v M z y 0 y 0 9 : : : : : ; # O % O                                                                                                     O O O ; ; ; * * = = = : : : : : : , , , : : : : ; ; ; = = = , : : , , , , : , , : : : , , , = = , = = = = ; ; : , : : : > > : * # # # # # # # : q m m h m b r 5 # O o o o o O                                                                                                                                       ",
"                                                                                                                                                                                                                                                                      ; ; * $ $ = 0 v B B B B B m m B B ~ ~ B V q 5 1 1 2 2 2 2 2 2 2 2 2 2 r b ~ S B n v x q 0 0 z z z v N G F S F %.G N v v z x v N N M v v z z q 0 0 0 0 9 9 0 i i : ; # O O O                                                                                                         ; ; ; ; * % % $ = = : > > > : , , : : : : : : ; ; ; ; = , , : , , , , , ; , , : : : , , , = = ; ; = = * = , , = , : : 0 : = # # # # # # # = q v h h b b q 5 # # O O o o O O                                                                                                                                     ",
"                                                                                                                                                                                                                                                                      ; ; % % # : 0 V G @.+.G B B m B B B B V v q 5 1 1 2 2 2 2 2 2 2 2 2 3 r r m m n n v x q 0 0 z z z v B G %.G +.F G N v z u z v v v v v v z z 0 0 0 0 0 0 9 y y y i : # O O O                                                                                                             ; ; % # # # $ = : 9 9 > > > , , , : : : : : : ; : = = , , , , , , ; ; , , : : : , , , = = = = = = = = , , = = : : : : ; % # # # # # # = q g h h h b q $ # # O o o o O O                                                                                                                                     ",
"                                                                                                                                                                                                                                                                      ; % # % # : q N +.@.@.@.+.S S ` ( ` ~ B v 8 5 1 1 1 2 2 2 3 2 2 2 2 3 t p B B V M v v v q u z z z v B %.%.+.%.%.G N v z z x v v v v M v z z q 0 0 0 y 0 0 u u y i : # O O O O                                                                                                           % % # O o # # ; : 9 9 9 9 : : , , : 9 9 9 : : : : , ; , , , ; ; ; , ; ; , , , , , , , = = = = ; ; * = = = = = : : : : : = # # # # $ $ = 8 g h h h b q 5 # # o o + o O O                                                                                                                                     ",
"                                                                                                                                                                                                                                                                      % % # # # 9 q N %.$.$.@.@.+.+.+.` +.+.B V 8 5 & 1 1 2 2 3 3 3 2 2 3 w r b ~ B B M V V v z u z x x v B %.%.%.%.%.F B v z z v v M v M M v x z z y 0 y y 0 0 y u y i , # # # O O                                                                                                             O O o o o % : 0 0 9 9 9 > : : , : 9 9 9 : : : : : , , , , , : : , ; ; ; = , , , , , = = = = * * * = = = = = : : : : : = $ # $ $ $ $ 5 8 h h h m m q 5 # # # O + o O O                                                                                                                                     ",
"                                                                                                                                                                                                                                                                      O % # # # : 0 N F %.@.@.%.@.@.+.+.+.B B B 0 w 5 6 w 3 3 3 4 4 3 2 3 t p b ~ B B M V V V z u z v v N B @.@.@.@.%.F N v z z x v M V M v x x z u 0 0 0 0 0 0 0 y y i : # O O O O                                                                                                               o X X o # * = , , = = = = = , : : : ; = = = = * = , : , , : : = = = = , , = , ; , = = = = = # * * * * = = : : 9 0 0 0 w 5 w q 8 w 8 q g h h h b q 5 # # # # o o o O                                                                                                                                     ",
"                                                                                                                                                                                                                                                                      O % # # # : 0 N F @.@.@.%.%.@.+.+.B B B B x s q r r r t t 4 4 4 2 3 t p b ~ B V M V V V v p v v v V B @.@.@.@.%.G N z u q s v v v M v x x z u 0 0 0 0 0 0 0 y y i : % # # % O                                                                                                               o + + o # # % ; * = = = = * * * = = % # # # # % * , , , , ; , = = = ; , , = = ; , = = = = * % # # * * * = : : 0 0 z v v q u v v r q g h h h h b q 5 # # # # o O O O                                                                                                                                     ",
"                                                                                                                                                                                                                                                                      O % # # # = 9 v G %.%.%.%.%.@.+.G B B B S V M V B b b t t t 4 4 4 3 t b ~ ~ B B V V V V v g v v v B ` @.#.%.%.@.G B v u q x v v V M v x x z z 0 0 0 0 0 9 y y u y : % # # % O                                                                                                                 o + + o # # % % % # % # # # # # # # # # # # # * , , , , , , = = , , , , = = ; , , , , , * # # # # # % * : 9 0 q v v v v v V V v g g h h h h v q 5 # # # # o O O O                                                                                                                                     ",
"                                                                                                                                                                                                                                                                      O % # # # = 0 z B F %.%.%.%.@.+.G B B S G +.%.%.$.*.@.^ ^ L J 4 4 t t ^ ~ ~ ~ B B B B m V v v v v B +.#.$.$.$.%.+.B V v v n M V V N v v x z z 0 0 0 0 0 9 y y u y : % # # % % %                                                                                                                 O O O # o # # # # # # o o # # # # o o # # * = , > : : : : = = , , , , = = ; , : , , ; * # o o o o # * : 9 0 q q g g g g b b v v g h h h m g f 5 # # # # o o O O                                                                                                                                     ",
"                                                                                                                                                                                                                                                                      o % o # # $ 9 z B F %.%.%.@.%.+.B B B S +.%.$.$.y.*.*.@.^ L J J t L L ^ ~ ~ ~ B B B B B b b b V m ` #.*.$.$.$.#.+.B V v v n M V V V v v x x s q 0 0 0 0 9 0 0 u y : % o O O % %                                                                                                                   % O # o # # # # o o o o o o o o o o # # = , > > > : : : = = = = , , = = = , , , , ; # o o + o o o # = 9 0 q g q e e g h V V b h h h j j v s 5 $ # # # o o O O                                                                                                                                     ",
"                                                                                                                                                                                                                                                                      o O o # # # = u N G F F F +.+.G B B B S +.F %.$.$.*.&.' I L J J J L I ^ ~ ~ B B B B ~ ~ m ~ ~ ` ` @.#.*.*.*.$.#.+.B V v v v n M V V v v x x s q 0 0 0 0 9 0 0 y 0 : # o o O % O                                                                                                                     O O o O o o o o O O O O o o o o o # # = , : > : : : : : = = = , , = = = , , , , ; # o X X o o X o $ = 0 q g g r e e r g b h g k h j b b s 5 $ # # # o # O O                                                                                                                                     ",
"                                                                                                                                                                                                                                                                      o O o # # # = q N G G G G B B B B N B B G +.%.$.@.#.&.` I L J J L L I ^ ! ! B B m B ~ ~ ~ ` @.#.#.#.&.*.*.*.&.$.@.+.~ V V V V V V V V v v x z q 0 0 0 0 9 0 0 y 0 ; # o o O % O                                                                                                                       # o O O o o O O # # O O O o o o # # = : 9 9 5 : : : : , = = = : ; ; = ; , , ; * # X X + X X X X # # w q v g g k e e r h g g g h j b b s 5 = # # # o # O O                                                                                                                                     ",
"                                                                                                                                                                                                                                                                        o o o # # = 0 M G G B B N B N N M N N S F %.%.+.+.@.~ I J J J L R ^ ^ ! ~ ~ B m B ~ ` ` #.&.&.&.&.*.y.y.&.*.*.$.#.` ( B B B V B B V v x x s 0 0 0 0 0 9 0 0 0 0 : # X O O % O O                                                                                                                       o O o O o O O # % # # # # # # # % : : 9 9 9 : 5 : : , = = = : ; ; ; ; , , ; % # X . + X X X X X # 9 q v g g k k k b b b h h k h g v s 5 = * # # o O O O                                                                                                                                     ",
"                                                                                                                                                                                                                                                                        o O o X # # 0 M N G N N N N N N N N N N F F F +.+.+.V p t 4 t L ^ ^ ^ ! ~ ~ ~ ~ B ~ ` @.&.e.u.u.u.u.y.u.y.y.y.e.&.#.[ #.` ~ B B V v v v x s 0 0 0 0 0 0 0 0 0 i : # X O O O O O                                                                                                                         O o O O O O O O # # # # # # # # : : 0 0 0 > : > = = = = = , ; ; : : : ; = $ # o o + X o X . X # : u v V h h h h ! ! ! b h h h h g 8 7 = * * # # O O ;                                                                                                                                     ",
"                                                                                                                                                                                                                                                                            O o o % 9 z M M M M M M N x c c x N S F %.%.+.+.V p t t t t I ^ ^ ^ ~ ~ ~ m m B ~ ' &.e.u.u.u.u.y.y.y.y.y.e.&.&.&.&.` ~ B B V v v v x s q 0 0 0 y 0 0 0 0 : : # X o o O O O                                                                                                                                 ; ; O O # # # # # # # # ; : : 0 > , , = = = = = ; ; ; ; ; ; ; % % % # # X + + + X . . # : y v b b h h ^ ! ) ~ b h h g g k 8 5 = * * # # O O %                                                                                                                                     ",
"                                                                                                                                                                                                                                                                            # O o # ; 0 u u z z z M M c z z c x N F %.F +.G B ! I t t r I T T ! ~ ! b V b V ~ ' &.=.e.e.e.e.u.u.=.=.e.e.&.&.&.&.@.` B m V v g s x s q 0 0 0 y 0 9 0 0 : ; O X X o O O O                                                                                                                                       ; O # # o o # # # = : : : : = = = = = = : : = = % % % % # # % # # o X . X . . X # : 0 u v g h ! ' ' ' ' m g r g g h 8 5 = * * # # O O %                                                                                                                                     ",
"                                                                                                                                                                                                                                                                              O # # % ; 9 9 y u z x M z z z c c N G F F +.+.~ ~ ^ t t r I b ! ! ~ ! b b b V ~ @.&.=.e.e.e.e.u.u.e.e.e.y.e.e.*.&.@.` B B V b v v x s 0 0 0 0 0 0 9 0 0 : ; # X X X O O O O                                                                                                                                       O O O o o # # % $ ; : : ; = = : 7 8 0 0 0 : $ # % % # # # % # # o o X . X X # $ 9 9 p v r e ! ' ' @.' ! h r g g g 8 5 = * * # # O O %                                                                                                                                     ",
"                                                                                                                                                                                                                                                                              o O o # # = ; i y M M M M z z c x N N G F +.+.+.+.~ T t r b b ! m ! b b b b V ~ @.&.=.u.e.e.e.u.u.u.u.u.u.u.y.y.y.#.@.( ~ m m V V v s s 0 0 0 0 0 9 0 0 > ; O X X o o o o O                                                                                                                                       O O o o o # % * ; ; ; ; $ = : 0 v v V v z 0 = # # # o X o # # # # # @ X @ # = = 9 w r b h h ^ '  .&.#.! h g g g g 8 5 * # # # O O O O                                                                                                                                     ",
"                                                                                                                                                                                                                                                                              o O o X o # % : y M M M x c z c x N N B G +.+.+.+.~ ! r h b b b b ! b b b b V ~ @.&.*.u.e.e.e.u.u.u.u.u.y.&.#.$.$.#.@.` ` ( m V n V v s 0 0 0 0 9 0 0 0 > ; O X X o o + + o                                                                                                                                         O o O # # % * ; % $ $ $ = 8 s B B B B V q = # # # X X X o o o # * = $ $ = 9 0 5 w r b h T ! '  .&.#.! b g g g g 7 = # # # # O O O %                                                                                                                                     ",
"                                                                                                                                                                                                                                                                              o X X X o o # : y M M M z z c z c N N B B G +.+.` ~ b h h b v g b V V V b b b B +.&.&.y.e.e.e.e.e.e.u.e.@.~ B B B ` ` ( ` ( Z m m V v z q 0 0 9 9 9 0 0 : ; # . X o o + + o                                                                                                                                             O O * # # ; % $ $ $ = 0 v ~ ~ ~ B V q 5 $ # # o X X o O o # 5 0 0 0 q u q w q r b ! ! ' '  .&.#.! g r r q s 7 = # # # # o O O %                                                                                                                                     ",
"                                                                                                                                                                                                                                                                              O o o X o o % > y z M M z c y c z M N B B G G +.+.~ m h h v r r r b b b b v b m ` #.*.y.y.e.e.e.e.i.y.&.( v q q g V m ( ` ` ( B m V n s q 0 0 9 9 9 0 0 : ; # . X o o + X + O                                                                                                                                               * # # ; % % $ $ = 8 v ! ~ ! ! b q w = $ # # X X o o o = 8 v v v v v r q r r h ! ' ' '  . .' m r r r q s 7 = # # # o o O O O                                                                                                                                     ",
"                                                                                                                                                                                                                                                                              O o o X X # % > c M M M z u u z z N N G G B B S +.` ~ B B b g r r v b V v g v ~ +.#.*.y.y.e.e.e.u.i.y.#.~ g w w 8 g V ` +.#.+.S S B V v s 0 0 0 0 0 0 0 9 ; # . X X o o o o O                                                                                                                                                 % % ; ; $ # $ 5 8 v ! ! ! m h g q 8 8 9 = * % * * # = q v g v v g g r r h ! ^ ' ' '  .&.' ! b g q q q 8 = # # # o O O O O                                                                                                                                     ",
"                                                                                                                                                                                                                                                                              O o o X X # ; H c M M M z z u z z N N G G B B B G +.` ~ B V v g g v v b v g b B ` #.*.y.y.y.e.y.y.u.y.@.B q 5 5 5 q V ` ` #.@.` ` S B v s q 0 0 0 0 s 0 0 : # X X X o o o o o                                                                                                                                                 ; O ; ; % # $ 5 8 h m h h h h g g q q q 0 9 : , : * = q g v v h g g r h ! ^ '  .' '  .&.' ! b g q q s 7 = # # # o o O O O                                                                                                                                     ",
"                                                                                                                                                                                                                                                                              O o O X X # ; i c M M M x z z z z N B G G G G B S %.G B B V v v v v v b b b m ~ ` #.&.y.y.e.y.y.u.u.$.+.v 0 = = = q V S +.$.#.+.+.` B V g s q q 0 0 s q 0 ; # . X X X o o o o                                                                                                                                                 ; ; % ; % # $ 5 8 g h h h h h g k g g s s s q 0 9 = = 8 g v b b g g r h ! )  .' '  . .&.' ! b r 8 8 q 7 = # # # o o O O %                                                                                                                                     ",
"                                                                                                                                                                                                                                                                              O o O X X O ; 9 z M M M x z z z z M N S G F G +.+.G S B B V V v v V V b m B ~ ` ` ' #.&.$.$.*.y.y.$.+.V z 9 = = 9 8 V G @.$.#.+.+.+.B V v z z q 0 0 s q 0 : # . X X X o o o o                                                                                                                                                 ; O % ; % # $ 5 8 k m k h g g g g g g g g s z q 0 = 5 8 g v m h h k h T )  . . .' '  . .' ! h q w 8 q 7 = # # # O o O O O                                                                                                                                     ",
"                                                                                                                                                                                                                                                                              O O O X X # % i z M M M M x x z M M N B S S S S S B S B B B B B B B B B B ` +.@.@.@.#.$.@.' ` +.+.S B z 0 5 = : 9 u N G G +.S B B ~ B V v s s 0 0 0 s u y : # X @ X X o o o o                                                                                                                                                 ; O O % # # $ 5 8 g h h h h g k g e g g g g s q 8 5 5 q h m m h h h h T )  . .' ' [  . .' ~ b q 5 7 q 7 = # o # O o O O O                                                                                                                                     ",
"                                                                                                                                                                                                                                                                                O O X X # $ 0 z M M M M M x M M N B N N N N N N B S +.+.+.+.` +.+.` +.+.@.$.$.#.&.e.&.` m V v v q q 0 9 : : 0 u M N M v z u p v B V V v s f 0 0 0 z z y : # X @ X X o o o o                                                                                                                                                 ; O O % # # $ = 8 g m h h h k k k e g g g q q q 8 5 8 g b m m b h h T ! '  . . .[ [  .&.[ ` m q w 8 s 7 * # # # # o O O O                                                                                                                                     ",
"                                                                                                                                                                                                                                                                                O # o X # = 0 z N M M M z z v M B B N v s q s v V B +.+.+.+.+.+.@.+.@.#.$.$.$.$.&.e.$.~ v q 8 5 $ = = 9 : : 0 u z M v 0 5 5 w q V V V V x s f f s x z u i % @ # X X o o O O                                                                                                                                                 ; O O % # # $ = 8 g m h h h k k g k k k e e e e q 8 q v m m ! m h h ^ )  . . . . . . .&.&.' ~ g 8 q s 7 * # # # o o O O O                                                                                                                                     ",
"                                                                                                                                                                                                                                                                                # # o X # = 0 z N N M M z z v M N M x q 5 5 0 q v B +.+.S S +.` +.+.+.+.@.#.#.#.&.&.#.m q 8 5 $ $ $ : : = $ : 9 u z u 9 $ $ 5 8 V V B V n x s s x M N M y : % % X X o o O O                                                                                                                                                 O O O % # # $ 5 8 g m h h g k g k k k k g g g g g r g b m ! ! m h T ^ )  . . . . . . .&. .' ~ g 8 q s 7 = # # # o o o O O                                                                                                                                     ",
"                                                                                                                                                                                                                                                                                O % o o # = 0 z N N N M x x x x N x u 9 $ $ 9 q v B +.S G S S ` ` ` +.+.+.@.%.#.$.#.+.V 8 5 = # # $ = : $ $ $ = u u u = $ # # q M B B b V M n V n V N N z y : % X X o X o o                                                                                                                                                 O O o o o o $ 5 8 g b h g g h k k k k k k k g h g g h h ! ! ! T T T ) '  . . . . ...&.&. .' ! h e 8 g 8 = # # o o + o O O                                                                                                                                     ",
"                                                                                                                                                                                                                                                                                O O # X # = 0 z N N M n n x n M N M z u 9 9 9 u V B +.G F F F +.+.@.@.@.#.$.w.w.$.@.` v 0 5 : = = : 9 : = # $ 5 9 u y ; $ $ = z M n V V m b n n B n B N v z 0 = X X O O o o                                                                                                                                                 O O o o o o # 5 8 g m h h h h h k h k k k g h h k h k T T ! T T T T )  . . . . . ...&. . . .) m h g b 8 $ # # o o + o O O                                                                                                                                     ",
"                                                                                                                                                                                                                                                                                O % # o % : y M N N V n n n M M N M M z u y u M B B G G %.%.+.+.@.@.@.@.#.w.y.y.$.` V q 5 9 9 : : 0 u 0 = $ 5 q u q 0 = $ ; ; y x M b V m m n B m n B B N M y ; X O O O o O                                                                                                                                                 ; O o o o o # 5 8 g m h h h h h h h h h h h h m h m T ^ ! ! ! ! ! ^  . ..... . . . . . . . .' ! ! m m q 5 # # o + o o O O                                                                                                                                     ",
"                                                                                                                                                                                                                                                                                O % # o % : 0 M N N V b b M M N N M z z u u u M B B B G %.%.%.%.%.#.@.#.#.w.y.w.%.N q : = = : : : y M V v r V ~ B v q $ $ ; ; 9 0 s q s b m B S V b V B N v y = o o O O o o                                                                                                                                                 O O O O o o # 5 8 g h h h h h h h h h h h h h h ! ! T T ! ! ! ! ) ) '  ..... . . . . . . . .' ) ! ! ~ g 5 # # o o o o O O                                                                                                                                     ",
"                                                                                                                                                                                                                                                                                  % # o % : 0 v B N V M V n M M x z z c y y u z N N B G %.%.%.%.#.#.@.@.#.$.y.y.F z = # # # % % = u B +.+.#.y.f.*.~ v $ # $ $ : = = 5 8 g b n m m b b n M x 0 = # o o o o O                                                                                                                                                 O O O O o o # = 8 g m k k k k h k h k k h h h h ! ! T T T T ! ^ ) )  . . . .| |  . . . . . .' ) ! ~ ~ v w # # o o + o O O                                                                                                                                     ",
"                                                                                                                                                                                                                                                                                  % # o % : 0 v B V V V n n M x y i : > : : > y u z M N G S S +.#.#.@.@.#.$.$.$.B 0 % o o # # # # 0 B @.*.f.B.V.N.#.V 5 # $ ; ; # $ $ 5 g V m S m m V V v z 0 = # # O + o O                                                                                                                                                 O O O O o o # 5 8 h ! h k k k h k k k k h h h h ! T T T T T ! ) )  . . . . .| |  . . . . . .' ) ) ` ` v w $ # o o + o O O                                                                                                                                     ",
"                                                                                                                                                                                                                                                                                  ; # o $ : u M B V V m B n n z : = # % # # # = : 0 u z V V v B %.%.@.@.#.$.#.+.x , o o o o # # @ = V @.u.V.Z.Z.V.&.m w # & : ; $ $ $ 5 v B S S S m m V v z q > % # # o o                                                                                                                                                   O O o O o # $ 5 r h ! T T T T T k k h T T T T T T ! ! T T T T )  . . . . . .| | |  . . . . .} ' ) ) ' b w $ # o o o o O O                                                                                                                                     ",
"                                                                                                                                                                                                                                                                                  ; # # $ : q V B m m m B B x s * o X . . . . X % 9 y z v q s V %.%.%.#.w.w.@.S z # X X o o o X X $ v ' x.Z.C.I.V.e.! 8 $ = 9 & $ $ $ 5 v S S S ` S m n s s q 9 * * O O O                                                                                                                                                   % O o O o # $ 5 r m ) ! T T T T h h T ! ! ! ! ! ! ! ! ! ! ! ) )  . . . . . .| | | |  . . . .} ) ) ) ' m 8 $ # # # O o O O                                                                                                                                     ",
"                                                                                                                                                                                                                                                                                  % # # # = q v B m V m m n x 0 % o . X . . X X # 9 u s s q g B w.f.f.f.f.f.$.V u # . . X X X # X = b ' h.m.Z.C.z.i.` 8 $ = 9 $ $ $ $ w v B S N B B b s s z z 0 , * O o O                                                                                                                                                   O O O + X # $ 5 g h ) T T T T T T ! ! ^ ( ! ! ! ! ! ! T T ! ) ) ) ) | | |  . .| | |  . .|  .} W T ^ ) h 8 $ # o # # O O %                                                                                                                                     ",
"                                                                                                                                                                                                                                                                                  % # # # : s V B m m m m n s 0 # X X X . . X X # 0 z v v g v ~ y.f.f.f.f.f.#.V 0 # X X X X X X X $ g ' r.z.m.m.z.i.( 8 $ 5 9 : : $ $ w z V M n v M v s s z c > , ; O O                                                                                                                                                     O O O o X # $ 8 g ^ ) T T T T T ^ ! ! ^ ( ( ! ! ! ! T T T T ) )  . .| | |  . .} } | | } } } } W W ) ) h 8 $ # # o O O O %                                                                                                                                     ",
"                                                                                                                                                                                                                                                                                    # # $ 9 z V B m m m m n x 0 # X X X . . X X % 0 v B ~ ~ m ` %.F F F %.%.` v 0 : * # # # % # X 5 b [ j.m.m.m.m.l.[ e 5 w 9 w 9 = 5 5 8 q 0 9 0 0 9 > > 0 9 , ; # O O                                                                                                                                                     O O % O o # $ 8 h ! ) W W W W W T T T W ^ ! T T T T ! T T ! ) '  . . . .|  .| } } } | } } } } Q Q }  .T 8 5 # # o O O O %                                                                                                                                     ",
"                                                                                                                                                                                                                                                                                    # # $ 9 z V B m m m S n s 0 % X X o X X X o ; u B ` ' ' ` ~ x c a c x z v v g s q 9 $ = ; # # w m  .x.m.M.m.m.l. .g 5 8 q q w 5 5 5 5 5 = $ = = = * % * * * # O O                                                                                                                                                       O O % O # # 5 g ! )  .} W W W W T T T W ^ ! T T T T T T T ! ) '  . . . . . .| } } | | } | | X.| | X.=.) r 5 # # X O O O O                                                                                                                                     ",
"                                                                                                                                                                                                                                                                                    # # = q N B ` B m B S n s > # X X O X X o o = u B @.[ &.@.B 0 : * = : = q V V V v 8 $ = = # # 5 g ' l.m.M.m.m.z...h 8 8 8 8 w w 5 5 5 = # # # * # # # # # O O O                                                                                                                                                         O % % # # # w h ( }  .} } } } W W W T T T R T T T k T T T ^ ) ' '  . . . . . . .|  .X.....7.7.7.7.h.z.' h 6 # # O O O O O                                                                                                                                     ",
"                                                                                                                                                                                                                                                                                      # : x S +.+.~ m B S V 0 : # X X O X X o o = s ~ ' [ &.&.~ : # X X o # 8 B ( ( m q 5 = = $ $ 5 r ` r.m.m.m.m.z...h 8 8 q w 5 w w 5 5 $ # # * * # # # # O O O                                                                                                                                                           % % % # # # 8 m [ ....| } } } W T T T T T T T T T k T T T ! ) ) ) ) ) ) )  . . . .r.h.x.x.k.k.k.z.z.m.=.h 6 # @ # O O O O                                                                                                                                     ",
"                                                                                                                                                                                                                                                                                      # 9 x S S ~ V g b n x 0 : # X X O o X o o = z ` '  .u.u.+.7 # X X # $ u ~ ' ' ` b 8 5 9 $ $ 5 r ! r.m.M.m.m.z.&.k 8 8 q 8 5 w w w 5 $ % % ; % % % O O O                                                                                                                                                               ; ; % # # = q ` e.r.h.........| } | ) ) ) ) ) ) ( ! ^ ! ! ! ! ! ^ ) ^ ^ ^ ) )  .r.l.x.x.x.z.m.m.m.A.Z.r.h 6 $ @ # O O O O                                                                                                                                     ",
"                                                                                                                                                                                                                                                                                      % , z N N v q 8 q s 0 : = # X o # o X o # : s ` #.&.l.N.&.v 0 $ = = 0 v ' [  .' m r 8 w 5 $ 5 r ( r.V.M.m.m.m.r.T g g s 8 8 8 q 8 w = $ % ; ; ; ; ;                                                                                                                                                                   ; ; % # # = g ' u.x.z.k.h.h.h.7.2.2.2.2... ....... .' ' ) ) ! ! ! ! ! T ! ^ )  .r.l.z.z.z.z.m.m.m.C.Z.r.h 6 $ @ # O O O O                                                                                                                                     ",
"                                                                                                                                                                                                                                                                                        ; > c c y 9 = : : : ; * # # o # o o o # : v ( [ e.l.l.u.( b q q q b ( [  . .' ! g r w 5 & 6 r ) r.m.M.m.m.m.r.T g h h g g g g s w = $ # O ; ; ;                                                                                                                                                                     ; ; % # # $ g  .x.z.z.z.k.k.k.k.k.8.k.8.h.h.h.r.r.r..... .) ! ! ! ! ! T T ^ )  .h.m.m.m.m.m.c.c.m.M.Z.x.! 6 $ # O O O O O                                                                                                                                     ",
"                                                                                                                                                                                                                                                                                          ; < ; ; % # % = % # # # # o # # o o # = v ( [ e.r.r.r. .' ( ( ` ) [ [ | } ( h g r w 5 1 6 e ^ r.m.m.m.m.z.r.T g h h g g g g q 5 $ # o O O O                                                                                                                                                                       ; ; % # $ $ e  .x.k.c.k.8.8.k.k.8.8.8.7.7.7.h.7.r.r..... .) ) ^ ! ! h h T T )  .h.m.m.m.m.m.m.M.M.C.Z.x.! 6 $ # O O O O O                                                                                                                                     ",
"                                                                                                                                                                                                                                                                                            O o o o o # # # o o o o # # # o o # = v ' [  .2.r.r.e.&.&.&.u.e.e. .) ) ! k r r 8 6 1 6 h ) 2.z.m.m.m.z.r.! h h V b h g g s 5 # # X O O ;                                                                                                                                                                       ; ; ; # # & r  .x.k.k.8.7.8.k.k.8.7.j.7.h.7.7.h.h.=.......X.} ) ^ ! T T T T ) } r.z.z.z.m.m.m.m.M.C.Z.r.h 5 # # O o O O O                                                                                                                                     ",
"                                                                                                                                                                                                                                                                                                    # # # o o o o # # # # o o # = v ' [ 2.2.2.2. . .' &.e.e. .| ) ) ) T k h h g e g T  .h.z.m.M.m.m.r.! h b B m m m m g 5 # # X O O O                                                                                                                                                                       ; ; % # # $ r ' r.h.h.7.2.7.j.j.7.7.j.h.h.7.h.h.=.......X.} } ) ) ^ T T T ^ ^ ) r.l.z.z.m.m.m.m.m.m.Z.r.b 5 # o O O O O O                                                                                                                                     ",
"                                                                                                                                                                                                                                                                                                        % O O O # # % % % # # # 5 v ' &.2.2.2...} ' '  ...2.| W W | | ) ) ( ) ( ! )  .2.j.z.m.C.Z.A.r.! h m m m ! m m v 5 # # X + O O                                                                                                                                                                     ; ; ; ; # # $ q ' &.r.2.2.| 2.2.2.2.2.h.h.h.h.=.=.=.=.....X.} } } } ) ^ ^ ^ ! ! )  .u.x.l.m.m.m.m.m.m.m.r.b 5 # o o O o O                                                                                                                                       ",
"                                                                                                                                                                                                                                                                                                          O % # % % ; ; % # o # = g `  .2.2...| }  . ...r.2.| W W | | } ) |  ... ...r.h.k.z.m.C.Z.V.r.! h m m m m m m v 5 # # X + o O                                                                                                                                                                     % % % O # # # w ~ ' '  .) ) ) ) } |  .r.r.h.=...=.=.......X.X.} X. .X.' ) ^ ! h h ! '  . .2.7.7.7.7.h.j...h 5 # o o O o O                                                                                                                                       ",
"                                                                                                                                                                                                                                                                                                              O ; ; ; ; # o o # $ g (  .2.7.| | W } | ..2.7.2.Q Q ....| | | 2.2.2.2.h.j.k.z.m.C.Z.V.r.! h h m m m m V v 9 # @ X X o o                                                                                                                                                                     O O O O + # # = v b ! ! h h k h k T )  .2.r.................X.....=.=.&.' ^ h 8 6 8 k k W } Q } Q Q ..2.} h 8 # o o O O O                                                                                                                                       ",
"                                                                                                                                                                                                                                                                                                                % ; ; ; # X X # = g ( ..2.2.Q Q X...2.h.k.k.k.k.k.8.7.| | 2.7.7.7.7.j.k.k.z.m.C.Z.Z.r.( h b m m h m m v 9 # X X X + O                                                                                                                                                                     O O O O o O X # 8 r v b r e e e e k T  .............X...........=.=.&.&.' h e 6 $ 5 8 k T } Q E Q Q | ..) h 5 $ X X O O O                                                                                                                                       ",
"                                                                                                                                                                                                                                                                                                                % % % % # O o # = r ( ..h.2.| ..2.h.h.z.I.].].OXoX].C.k.7.7.7.8.2.7.k.k.k.m.C.].I.Z.h.( h h ! ! ! m m g 5 # @ . + + o o                                                                                                                                                                   O O o O O o X # 5 8 q r q q 8 6 6 r h '  .......2.2.........=... . . .' m r 8 $ $ 9 g ! | 2.| Q Q o...h. .h 8 $ o o O O                                                                                                                                         ",
"                                                                                                                                                                                                                                                                                                                  O % % O O O # $ e !  .r.2.....k.z.z.m.oX#X4X7X4X#X].m.8.8.8.8.2.8.8.k.c.m.C.].].C.x.) k m ! ! ! ! ! g 5 # X . + + o o                                                                                                                                                                   O X o O O o X # = 5 w q q w w w w e b '  ... ...2.2.| ..=.=.=. . .) ! T g 8 6 $ $ 0 v '  .2...| ..7.7.h. .T 8 $ o o O                                                                                                                                           ",
"                                                                                                                                                                                                                                                                                                                    O o O o O o $ 8 h  .2.2...7.k.k.j.k.].4X8XeX8X4X[.M.8.7.8.7.Q 7.8.c.c.m.C.].].Z.j.) k h T T T ! ! g 5 # X . + + o O                                                                                                                                                                   O o + o O o X # $ = 5 5 w w 5 1 1 8 g ' &.e...2.2.2. . .&.&.X.) T R e e 6 6 5 $ $ y M ' ..2...Q | 7.7.h. .! 8 = # # O                                                                                                                                           ",
"                                                                                                                                                                                                                                                                                                                      o O O o X $ 5 h ) ......7.k.k.k.k.oX6XrXrX8X4XOXM.8.o.o.Q Q 7.0.c.M.M.'.].].Z.j.W k T ! T T ! ! g w # X . + + o o                                                                                                                                                                 O O o X X o X . # $ = 5 5 5 5 1 1 1 8 g @.&.&.[  . . .) )  . . .) R k e e 6 6 8 5 $ i M ~ '  .| } X.....r. .m 8 $ # #                                                                                                                                             ",
"                                                                                                                                                                                                                                                                                                                        O O o X # 5 g ) ..2.7.7.k.m.k.m.#XeXyXrX8X&X[.M.8.o.o.o.o.8.c.M.).'.].[.].I.k.) T R ^ ! ^ ^ ! h w $ @ . + + o o                                                                                                                                                                 O O o o X o X . # $ 5 w 8 8 8 6 6 6 r v ~ ` ` ! ! ! ! h ^  .=...| | W R R T h g w $ : u b h ( ) } |  ...&.' h 8 = #                                                                                                                                               ",
"                                                                                                                                                                                                                                                                                                                          O o X # 5 g (  .2.7.k.k.m.c.M.#XeXrXrX6X#X].0.8.8.7.7.7.8.M.'.]. X[.@X].].z.| T ^ ^ W ) ) ) m 8 $ @ . + + o o                                                                                                                                                                 O O O o o o X X # 5 q g g k g 8 8 8 r v v v v r r q r e T } h.x.h.7.7.7.h... .! q $ $ 0 q g h ! ) ' '  .' ! v 9                                                                                                                                                   ",
"                                                                                                                                                                                                                                                                                                                          O O o # 5 e T | 2.7.k.c.m.m.M.#X8XyXyX6X#X].M.c.c.c.c.c.c._.].]. X[.@X[.].Z.2.} X. . . . .' ! 8 $ @ . + + o o                                                                                                                                                                 O O o X o o X X # q M ( ( ( ! k h h g v 8 w w w 5 5 5 8 k } h.k.k.k.k.k.m.z.r.' e & $ w w w 8 g b h k h h q 8                                                                                                                                                     ",
"                                                                                                                                                                                                                                                                                                                            O o # = 8 h ) | 2.7.k.c.k.M.OX6X0XrX8X3X|.{.].].].].M._.].].]. X{.|.OXoXC.k.2.h.x.x... . .! 8 $ @ . + + o o                                                                                                                                                                 O o X X X X . X $ g ` #.,. .{ ) ( ! m b 5 $ $ $ $ # $ 5 e } j.z.k.k.c.k.M.z.r.) e & $ 9 5 = 5 8 q 8 6 5 5 =                                                                                                                                                       ",
"                                                                                                                                                                                                                                                                                                                              o o = 0 q h ( | 2.k.c.0.0.[.5X8XrX0X5X&X&X*X3X3X#X[.[.[.|.[.{.|.@XOX]._.m.k.k.k.x.7... .^ e $ # . + + O O                                                                                                                                                                 O o o X X X X . = m ' r.r.2.| | ) ) ! v 5 @ # # # # # $ e ) h.z.k.0.0.c.M.m.r.' r $ % : : = = : 9 : ; %                                                                                                                                                           ",
"                                                                                                                                                                                                                                                                                                                              o O * : = w h !  .k.m.c.M.{.&X5XwX0X9X8X0XrXfXtX0X3X3X&X#X@X|.@X&X@X[.].C.m.m.m.c.k.7...) g 5 # X X + O O                                                                                                                                                                 O o o + + X X X = b ) | 7.2.| | |  .( V 5 # # # # % # $ r ' h.k.k.0.0.0.c.k...! r $ : > : ; ; : < < %                                                                                                                                                             ",
"                                                                                                                                                                                                                                                                                                                                ; ; ; # $ 8 h  .k.m.c.M.'.OX$X4X5X5X0XdXlXcXcXjXrX0X5X&X@X[.|.*X@X[._.C.m.m.m.c.k.8.2.) g 5 # X o O % O                                                                                                                                                                   o o + + + X X 5 m ' ..2.| Q Q |  .` b w # # # # # $ $ e ^ r.h.7.8.8.8.c.k...! q $ & : : ; ; : < <                                                                                                                                                               ",
"                                                                                                                                                                                                                                                                                                                                O ; ; @ @ 6 g ) j.c.c.c.C.].].[.OX@X5XrXjXjXjXdXfX0X3X@X{.'.{.|.{._.M.c.c.m.m.k.k.j.7. .g 5 # X o O % %                                                                                                                                                                   o o + + X X . 5 m ) ..2.| Q | | | ) b 5 # # # # # # $ 8 ) r.h.8.8.0.0.c.k.| ^ 8 $ $ % : * ; ; < ;                                                                                                                                                               ",
"                                                                                                                                                                                                                                                                                                                                  % ; # @ 1 r ' x.m.k.8.c.m.m.m.C.].@X9XyXfXyXyXdX0X3X|.'.).'.{.'.).M.c.c.m.m.c.k.k.h. .h 5 # X O O ; ;                                                                                                                                                                     O O O o X . $ b )  .2.Q Q Q | | ) h 5 @ @ @ @ @ # & 6 T r.h.8.0.0.c.c.8.} T 6 & $ $ % # % ; :                                                                                                                                                                 ",
"                                                                                                                                                                                                                                                                                                                                  ; ; @ @ $ e ' l.m.m.k.k.k.x.h.8.c.].=XyXyXrXfXjXrX3X[._.M.).].'.).M.M.C._.].C.m.m.z.=.b w $ X # % ; ;                                                                                                                                                                       O O o X X = V ' r.2...X.| |  .' b w # @ @ @ @ @ $ e ) r.h.k.k.c.c.k.j.| ! 8 $ # # # # # % ;                                                                                                                                                                 ",
"                                                                                                                                                                                                                                                                                                                                    ; O @ $ r ' l.A.z.j.k.k.h.7.7.8.C.#X8X8X8XyXdX0X&X{.).M.).].].].].[.[.OXOX[.].C.Z.r.! 8 $ # # # ; ;                                                                                                                                                                           O O X 9 B @.=.r..... ... .' B w # # # X # @ $ e ' u.l.x.z.k.k.j.r. .! q $ # # O O O O                                                                                                                                                                   ",
"                                                                                                                                                                                                                                                                                                                                    O O # $ e ~ l.z.j.h.h.h.7.7.7.8.c.].=X5X5X0XrX6X*X{.).).).{.{.{.OX#X#X=X=X#XOX].C.x.^ 8 $ # # ; ; ;                                                                                                                                                                               o : M B ' ' ) ) ) ! ~ m z 9 # o o X X X # 5 m #.&.&.2... .) [ ( m q $ # # O O O                                                                                                                                                                     ",
"                                                                                                                                                                                                                                                                                                                                    O + X $ q ! r.j.j.2.7.k.h.7.7.8.k.C.].OX&X&X5X&X@X{.'.).'.{.@X*X7X6X8X6X7X4X#XOX].j.! 8 $ @ # * ; ; <                                                                                                                                                                             % : u v v h g g g g q 8 9 # O o + X o O # $ 8 v V m m m k k k v z 0 = # o + o O                                                                                                                                                                     ",
"                                                                                                                                                                                                                                                                                                                                      o X $ q ( e.j.h.2.7.k.h.7.7.7.c.c._.].@X@X&X*X@X[.]._.].[.@X3X6XeXeX8X7X4X#X#X].m.) e 1 @ # ; ; ; <                                                                                                                                                                               : : 0 q 0 w w w w 5 = * O o + + + o o o # : 0 0 8 8 8 8 5 7 9 9 ; # o o o o                                                                                                                                                                       ",
"                                                                                                                                                                                                                                                                                                                                      X X = g ` r.j.7.2.j.k.x.7.h.7.k.c.M._.[.|.*X*X&X@X]._.].[.@X3X6XeXeX6X4X&X&X#XOXZ. .g 5 $ $ : : : >                                                                                                                                                                                 % $ $ # # # # # # o X + + . + + + + X X o # # # # # # # # # # o + + o o                                                                                                                                                                         ",
"                                                                                                                                                                                                                                                                                                                                      o X = g ' e.j.7.2.h.k.k.h.h.7.k.m.M.'.[.@X@X*X&X@X{._.].[.@X*X7X8X8X7X&X@X*X@XOXC.r.h 8 $ = 0 0 : :                                                                                                                                                                                   @ X X X X X X . X . + . . . . + + . . X X . . X X X X X X + X + o                                                                                                                                                                             ",
"                                                                                                                                                                                                                                                                                                                                    O X X = g ` r.h.2...7.7.7.7.7.7.7.c.).{.@X@X|.@X*X@X]._.].[.[.@X&X6X6X7X&X*X@X@XOX].r.T e 1 w q 0 : ; ;                                                                                                                                                                                           X X X X + o + . . + + + X + + + . X X X X + + X o X                                                                                                                                                                                 ",
"                                                                                                                                                                                                                                                                                                                                    O X X = g ` u.j.7.| ..7.7.7.2.| 7.M.].@X&X*X@X|.@X[.]._.].[.{.[.#X4X7X5X&X*X|.|.[.C.h.! r 6 8 u q $ % % %                                                                                                                                                                                                                                                                                                                                                                                                                             ",
"                                                                                                                                                                                                                                                                                                                                    O X X 5 b ' l.x.h...o.7.7.h.7.2.c.].=X8X0X8X3X&X*X@X]._.'.].].{.#X4X6X5X&X@X[.[.[.C.h.) h q g v u $ # % % % <                                                                                                                                                                                                                                                                                                                                                                                                                         ",
"                                                                                                                                                                                                                                                                                                                                  X o . X w m &.l.l.j.7.7.7.h.h.k.k._.&XrXlXcXjX0X9X5X*X[.'._.].[.[.#X4X6X7X&X@X[.{.[.C.k. .! g h V p = # % % : < <                                                                                                                                                                                                                                                                                                                                                                                                                       ",
"                                                                                                                                                                                                                                                                                                                                o # @ @ $ 8 ! [ l.l.j.2.7.7.7.7.8.c.'.4XjXcXcXbXfX0X9X3X@X'.].].[.].#X=X3X&X#X|.].].'.M.k. .) k l m v 5 $ # % % ; ; ;                                                                                                                                                                                                                                                                                                                                                                                                                     ",
"                                                                                                                                                                                                                                                                                                                                # # # $ 1 e !  .r.h.2.2.7.8.7.8.0.c.].7XjXcXcXjXfX0X0X5X@X].{.[.[.].OX#X#X#XOX[.].C.C.m.h...) W ( ( m w $ $ $ % ; ; ; ;                                                                                                                                                                                                                                                                                                                                                                                                                   ",
"                                                                                                                                                                                                                                                                                                                              0 q q e g h T ' =.h.k.j.j.z.m.k.8.8.m.].7XdXxXcXjXdXfXrX9X&X[.OX#XOXoXOXOXOX[.].'.M.m.m.k.2...| ) { ' m 8 1 $ % % ; ; ; ; %                                                                                                                                                                                                                                                                                                                                                                                                                 ",
"                                                                                                                                                                                                                                                                                                                            7 F y.e.e.e.r.r.h.x.z.m.z.z.C.Z.m.m.c.m.].4XyXlXcXcXjXfXfX0X3X&X3X4X=X#X#XOX[.].'.C.m.m.m.k.h.2.| ) [ ' m 8 5 = ; ; ; ; ; # %                                                                                                                                                                                                                                                                                                                                                                                                                 ",
"                                                                                                                                                                                                                                                                                                                            z y.V.Z.C.C.Z.m.m.m.m.C.m.A._.oX_.C.A.A._.#XwXgXvXbXlXdXfXrX8X5X5X7X4X4X#XOX].C.m.c.m.m.k.j.h.2.| ) ' ' m 8 5 = : ; = * % # % %                                                                                                                                                                                                                                                                                                                                                                                                               ",
"                                                                                                                                                                                                                                                                                                                          # c $.m.C.].].].].C.C._._.C.C._.]._._.A.k.A.].&XrXcXlXjXfX0X0X8X5X5X4X4X4X#X].C.k.7.8.k.j.7.2.2...| ) ) ( h 8 5 = $ $ % % % # # %                                                                                                                                                                                                                                                                                                                                                                                                               ",
"                                                                                                                                                                                                                                                                                                                          @ y +.k.'.OXOX[.[.[.].].[.]._.].OXoX]._.c.c.].@X9XlXjXdXfX0X0X9X5X3X&X4X4X#X].m.7.Q 2.j.2...X.....| W ) ( k 8 6 5 $ # % # # # # # #                                                                                                                                                                                                                                                                                                                                                                                                             ",
"                                                                                                                                                                                                                                                                                                                        @ @ u ` k.].&X&X@X@X@XOX*X&X#X#X=X5X=X=X#X].'.{.|.9XlXjXfXfXfX0X8X5X3X&X4X4X#X].c...| 2.h.2. .X.2.2.} T ) ) ! e q 8 5 $ # # # # # # #                                                                                                                                                                                                                                                                                                                                                                                                             ",
"                                                                                                                                                                                                                                                                                                                      @ @ & q &.m.[.3X3X3X3X3X4X6X8X8X0XyXjXtXyX8X3X*X*X3X0XjXjXfXfXfXfX8X5X5X3X4X4X#X].c.2.|  .2... .......| W } ) ) ! h g p = # # # # o o #                                                                                                                                                                                                                                                                                                                                                                                                             ",
"                                                                                                                                                                                                                                                                                                                  s g e e k ' A.].*X9X8X8X8X0X0XdXjXjXjXjXlXlXlXjX0X9XqXqXfXjXjXfXfXrX0X5X3X&X&X#X#X[.C.m...) )  . . . .....| W }  . .&.' ( V w @ # # # o o O                                                                                                                                                                                                                                                                                                                                                                                                             ",
"                                                                                                                                                                                                                                                                                                              B u.N.l.e.7.j.Z.#X&X9X0XrXfXdXjXbXcXcXzXxXvXvXvXvXvXjXfXaXaXjXbXjXfX0X9X5X&X@X@X@XOX[.].C.z.| T ! ^ ^ ) '  . .| } X...x.B.l.y.` 8 @ # # # O o #                                                                                                                                                                                                                                                                                                                                                                                                             ",
"                                                                                                                                                                                                                                                                                                          : u @.Z.%XoX].].].[.5X8X8X8XrXfXdXjXcXvXvXcXcXcXcXvXvXvXbXjXfXfXjXbXjXaX9X5X&X@X@X#X#X[.].C.M.z.} T h ! ! ^ )  . . .....h.z.Z.V.f.@.8 @ # # # O o #                                                                                                                                                                                                                                                                                                                                                                                                             ",
"                                                                                                                                                                                                                                                                                                        @ $ r #.oX6X7X3X3X|.*XqX9X5X3X9X0X0XtXlXcXcXxXlXbXbXbXvXcXlXjXfX0XfXjXfX0X9X&X*X[.[.|.@X[.'.M.m.z. .T h m h m ! ) | ..h.x.k.m.C.Z.l.#.8 @ @ # % o o #                                                                                                                                                                                                                                                                                                                                                                                                             ",
"                                                                                                                                                                                                                                                                                                      @ @ $ r  .oXeX0X8X0X3XqXqX3X*X*X&X5X5X0XtXcXcXlXjXlXbXbXbXjXrX8X5X&X9XfX0X9X3X&X*X[.{.|.@X[.]._.M.z...! ! m h h h ^ } r.j.z.z.Z.C.Z.l.[ q @ # & # O o o                                                                                                                                                                                                                                                                                                                                                                                                             ",
"                                                                                                                                                                                                                                                                                                0 x N z w 6 h  .].4X5X3X3X.X*X.X.X|.{.|.*X@X3X9XyXdXdXdXlXlXdX0X5X@X{._.).[.&X&X&X&X3X&X@X|.@X#X#X$XOXI.m.u.' ! b g e h ! } r.x.z.m.m.C.Z.i.[ 8 @ @ @ O o o o O                                                                                                                                                                                                                                                                                                                                                                                                           ",
"                                                                                                                                                                                                                                                                                            % > V #.f.&.h k R ..C.#X*X*X.X{..X{.{.{. X X{.{.[.@X5XrXyXdXlXlX0X&X].c.8.o.o.c.].{.|.@X3X5X*X@X&X3X7X6X=XoXZ.l. .` g e 8 k T } 2.z.k.k.m.Z.V.j.' 8 @ @ # o X X o o O                                                                                                                                                                                                                                                                                                                                                                                                         ",
"                                                                                                                                                                                                                                                                                        X X # 0 ` Z.%XI.k.8.k.M.|.4X&X&X&X|.{..X.X|.|.|.|.|.*X9X0XdXfXjXdXjX8X@X_.8.o.o.8.c.].OX@X5X0XrX0X9X8X0XeX6X$X].m.B.x.' h r e h T | 2.k.k.k.m.I.Z.l.' q @ @ O O O o X X X + + + X + X + X X X + + + X + o o + o X X X X X + X + + X X + X + X + + X +                                                                                                                                                                                                                                                                                                                             ",
"                                                                                                                                                                                                                                                                          o X X X . . . . X $ p *.%XuXeX3X|.|.#X5XeX7X$X#X@X|.3XqX-X3X3X3X5X9X0XyXkXgXxXgXyX3X[.M.9.8.8.9._.OX&X6XrXlXlXlXjXjXjXeX7XOXC.z.m.B.&.h h g h W | 7.m.n.n.Z.I.Z.l.#.q @ # O O O X X X + + + + + + + + + + + + + + + + + + + + + + + + + + + + + + + + + + + + + + + + + + + + + + + + + + + X X X X + + X + + X X X X + + + + . . . . .                                                                                                                                                                                                                                                         ",
"                                                                                                                                                                                                                                                                    % % = : 0 s x M v z 0 $ $ q ' oXeXyX8X5X7XeXtXtX4XoX]._.[.3X0X0X0X0X0XaXfXyXeXwX7X4X#XOX[.OX].].[.[.[.&X8X0XyXlXcXvXvXbXbXlXeX3X].c.7.z.V.&.h g g h (  .j.M.m.m.M.I.Z.B.&.r @ @ # O o + . X + + . . . . + + . . . . . . . . . + + + . . . . . + . + + . . . . . + . + . . . + . . . + + + + + + + + + + + + + + + + + + + + + + + + . . . . . . . . . . . + . + . . . + + + + + . + . . . + . . . . . . . . . . + + + + . . . +                                                                                                                                                                       ",
"                                                                                                                                                                                                                                                                  % % : 0 m q.V.V.W.W.W.y.v 9 5 b B.#X4X6XeXtXjXxXkX$Xm.k.8._.3XrXfXfXfXfXjXxXtX4XoXZ.j...7.m.OX7XrXdXdXdXlXcXcXbXcXvXvXvXbXbXlXrX#X'.8.Q j.B.' e e e h !  .z.C.M.M.Z.C.Z.l.' q @ @ o O X + X X + + . . . . . + + + + + + + + + + + + + + + + + + + + + . . . . . . + + + + + + + + + + + + + + + + + + + + + + + + + + + + + + + + + + + + + + + + + + + + + + + + . . + + + + + + + + + + + + + + + + + + + + + + + + + + + + + + + + + + + + + + + + + + + + + + o o X X + X                                                                                                                           ",
"                                                                                                                                                                                                                                                                < < % 5 8 { Z.$X2XpXpX$XW.~ q 5 e u.oX2XyXlXxXzXvXxX+X2.} W c.&XyXgXdXfXfXlXzXeXoXx.X.^ t R x.#XrXcXCXVXvXCXSXCXvXvXvXvXbXbXbXbXrX#X'.7.Q j.B.' e e 8 k T  .l.Z.M.m.m.C.Z.l.' 8 @ @ # O o X . X + . . . . . . . + + + + + + + + + + + + + + + + + + + + + + . . . . + + + + + + + + + + + + + + + + + + + + + + + + + + + + + + + + + + + + . . + . . . + + + + . . . . X X X X X X X . X . X . + + + + + + + + + + + + + + + + + + + + + + + + + + + + + + + + + + + + + + + + o o + + + + + + + + + + o                                                                                                 ",
"                                                                                                                                                                                                                                                              < i < = w k i.+XtXkXzXiXuX%X' q 1 w u.oX6XkXzXzXvXVXkXoXW k e 7.$XrXdXfXfXfXjXkX=Xz.T r 6 6 e =.$XyXvXSXvXcXvXvXvXvXbXbXjXjXjXbXbXtX4X].8.| k.A. .g r e k T ) 2.k.k.k.k.M.m.j.' 8 @ # # O o + . . . . . . . . . . + + . + . . . . + + + + + + + + + . + + . + . . . . . . + + + . + . . . . . . . + + + + + + . . + + + + + + + + + + + + + + . . + . . . + + . + . . . . . X X X X X . . . . . . . . . . + + . + . . + + + + + + + + + + + + + + . . + + + + + + + + + + + + + + + + + + + + + + + + + + + + + + + +                                                                                       ",
"                                                                                                                                                                                                                                    + + + + X + X + O o     ; : i : = 8 k j.4XvXVXGXAXiX%X) 6 & q f.%XuXAXCXCXCXAXiXZ.k 6 6  .#XyXdXjXjXfXdXtX#X .6 1 & & 8 y.$XtXvXSXvXbXbXbXvXbXbXjXjXjXjXbXvXkXeX#Xk.2.z.z. .h e 8 e T ^ } ..2.8.k.m.m.h.[ e @ # # # O X X X . . . . . . . . . . . + . . . . + + + + + + + + . . . + . . . . . . . . + + . . . . . . + . . . . . . + + + . . + + + + + + + + + + + + + + + + + + . . . . + + + . . . . + + + + + . . . . . + . . . . . . . . . . . . + + + + . . + + + + + + + . + + + + +                                                                                                                                             ",
"                                                                                                                                                                                                                  + + + + + X X + + X X X X + + X o o o o # ; : H : = 8 k h.$XzXVXCXxXuXoXT 5 $ w f.%XiXGXHXJXGXAXiXV.e 6 6 #.;XtXlXbXcXlXlXtX%X' 6 1 & 1 w *.$XtXvXSXvXvXvXvXvXcXcXbXbXbXbXvXCXzXiX4XM.7.j.l.) e 8 8 r h ! ) } ..7.k.m.z.h.[ e @ @ # # O O X X . . . . . . . . + + + + + + + + + + + + + + + + . . . . . . . + . . . . + + . . . . . . + + . + . . + + + + + + . . . . + . + + . . . . + + . . . . . . . . . . + + . . . . + + + + + + + + + + + + . + + + + + . . +                                                                                                                                                                                     ",
"                                                                                                                                                                                                                  + + + + + + X X X + + + + o o o o o o o # * , > = = 5 e ..%XtXzXzXtXpXV.k $ @ w f.;XiXGXKXHXGXAXuXl.8 & 6 $.;XtXlXvXcXxXkXyX%X` 5 $ = = 5 f.$XkXvXSXvXvXvXvXvXbXvXvXvXvXcXvXSXVXxX7XC.7.j.r.! 8 8 q g b ! ! T | 2.j.z.z.l.' q # # # O O o X . . . . . . . . + . . . . . . . . . + + + . . . . . . + + + + + . . . . . . . . . + + + + . . . + . . + + + + . . . . . . . . + + + + +                                                                                                                                                                                                                                                                     ",
"                                                                                                                                                                                                                  + + + + + + + X X X + + + o o o o o o o # * * > = = 5 6 ! Z.$X=X4X#XI.e.8 $ # 5 $.Q.pXiXAXzXiX6X%Xe.5 $ $ ` Q.6XyXjXfXtXeX6XQ.m $ # % $ 5 f.$XrXjXcXjXjXjXlXjXjXjXbXbXjXjXbXcXkXyX#XM...h.h.( e q q v ~ ~ ^ ^ )  .r.l.l.u.` q @ # # O O O X X + . . . . . . + . . . . . . + + . + + + . . . . . . + + + + . . . . . . . . . . + + + . . . . + . . + + + + + + + + + + . . . . + +                                                                                                                                                                                                                                                                       ",
"                                                                                                                                                                                                                    + + + + + + + + X X + + + + o o o o o # * * > = = 5 6 g =.Z.Z.Z.z.e.T 5 $ @ & V i.I.4X7X4X$X+XZ.( $ @ $ V V.+X$X4X3X3X#X#XV.g # # # # $ *.%X6XrXfX0X8X0X0X8X6X8X0XrX8X8X0XrX0X7XOXk...h.u.` r q q V ` +.~ ! ) [ e.u.u.&.( q # # # O O O X X + . . . . . . . . + + . . + + + . . + + . . . + . . . + . . . . . + + . . . . . . . . . . . + + . . + + + + + + + + + + + . . . +                                                                                                                                                                                                                                                                         ",
"                                                                                                                                                                                                                        + + + + + + + X + + + + o o o o o # % * * = = = 5 e ~ =.=.x. .T k 5 $ @ $ v [ j.I.I.I.I.V.i.h $ & & q *.V.Z.].'.'._.C.e.8 # # o # $ ` Z.OX@X#X@X[.|.|.[.[.|.@X#X@X|.#X@X#X].M.7.Q 2.e.` g q q z N B h g m m ` ' ` ( V w # # o O O o X X X . . + + . . . . + + + + + + + . . + . . . . + . . . . . . . . . + + . . . . . . . . . . . . . . . . + + + + . . . + + . . . . .                                                                                                                                                                                                                                                                         ",
"                                                                                                                                                                                                                            + + + + + + o o + + + + + + o o # * * * * $ 5 8 h ) ) } W k e w 5 $ & q T Q 2.2.2.2.| ) r 1 $ @ 1 h ( W | Q 7...2.! 5 X o X @ # h r.k.c.c.0.8.0.0.8.8.8.0.M.0.0.M.M.0.8.7.Q W  .&.! 8 9 5 9 0 8 w w 8 8 q q q 8 w $ # o o o o X X X X . . + + . . . . . . + + + + + . . . . . + + + + + . . . . + + . . . . . . . + . . . . . . . . + + + + + + . . + + + + + + . . +                                                                                                                                                                                                                                                                         ",
"                                                                                                                                                                                                                                  + + + X + o + X X + + X o o # * * # $ 5 8 h ) W Q W k g 8 1 $ $ q k W Q } } } } ( r 1 & & 1 g k k R R Q Q } h 1 X o X # $ g  .2.8.8.7.o.8.8.7.Q o.8.8.8.8.8.8.8.7...Q }  . .m w : = = = $ = = = = = 5 $ $ $ # # X X X X X . . + . . . + . . . . . + + . . + + . . . . . . + + + . . . . . + + + . . . . + X X + + + + + + + + + + + + + + + + + + + + + + + +                                                                                                                                                                                                                                                                           ",
"                                                                                                                                                                                                                                                          + + o * # # $ 5 e T ) | 2.W T h w & & $ g ) | 2.7.7.r...' g 1 & & 8 b ' (  .2.7...=.! : . X + # $ h ..z.k.c.k.k.k.k.c.k.k.m.M.M.M.M.M.M.0.8.2...2.[ b 7 : = # % $ $ $ = $ = $ $ # $ # # X X X X X . . . . . . . . . + + . + + + + + + + + + + + + + + + . . + + + + + +                                                       + X X                                                                                                                                                                                                                                                                             ",
"                                                                                                                                                                                                                                                            + + # # # $ 5 e !  .2.r.| ) b w & $ $ g ' 4.j.l.r.=.&.' v 5 & $ w v +.' &.e.h.=.=.b = . . . X $ V u.V.Z.Z.m.m.m.m.m.m.m.M.C.M.M.Z.C.m.n.j.7...e.[ v 5 = # # # * $ $ # # $ $ # # # # # o o + X X . . . . . .                                                                                                                                                                                                                                                                                                                                                                                                   ",
"                                                                                                                                                                                                                                                              O # # # # $ 5 g m ` ! m g 8 5 $ @ $ w v B ` ` ( m B g 9 $ @ @ $ 9 v V m B ~ ~ V p @ . . . X # u +.e.2.2. .....2.2.2.2.2.2.2.2.2.2.4. .[ ' ) ( m s = # # # # # = = = = # # # # # # o o X X X X X X +                                                                                                                                                                                                                                                                                                                                                                                                         ",
"                                                                                                                                                                                                                                                                # # # # # $ w q q q q w 5 $ # @ @ $ w 8 8 q 8 8 8 5 $ @ X X @ % $ 5 5 5 w 9 9 $ @ . . . . X : M m h l k k k h k k k h h h h h h h h h k g g 8 5 $ # # # # $ * * # # # # # # # # X X X X X . X + +                                                                                                                                                                                                                                                                                                                                                                                                         ",
"                                                                                                                                                                                                                                                                ; % # # # # $ = 1 5 = $ $ # # @ @ $ = $ $ $ $ # # # @ @ X . X @ @ # # @ # # # # X . . . . X O : w w 8 5 5 5 w 5 w w 8 8 8 8 8 8 8 8 8 8 w 5 5 $ # # # # $ * % # # # # # # # # # X X X X X X X + O                                                                                                                                                                                                                                                                                                                                                                                                         ",
"                                                                                                                                                                                                                                                                  ; % % # # # $ $ $ $ # # # # # # # # # X # # o X X X X X . . X X X X . X X X . . . . . . + X X X @ @ @ @ @ @ # @ # # # # # $ $ $ # $ $ $ # # # # # # % # # # # # # # # # # o o o X X X X X X +                                                                                                                                                                                                                                                                                                                                                                                                           ",
"                                                                                                                                                                                                                                                                    O # # # # # # # # # # # # o O O o X X o o + X X X X X . . X . . . . . . . . . . . . . + + . . . X . X X X X X X X X X X o # # # # # # # @ # # # # # O O O O # o o o o o o X X X X X + + + +                                                                                                                                                                                                                                                                                                                                                                                                           ",
"                                                                                                                                                                                                                                                                      O # # # # # # # # # # # O % % % # # # o + + + + X X + + X + X + X + + + + . + . . . + + + X o O O o O O O O O % % % % % % # # # # % # # # # O X X o O O O O o o o X X X X X X X X + + . .                                                                                                                                                                                                                                                                                                                                                                                                           ",
"                                                                                                                                                                                                                                                                        O o # # # # # o o O # O O o o O O o + + O + o + o o o o + + + + + + + + + + X + + o o + + + o + o + o + O O O O O O O O # o o o # O O O O o X X o o O O o + + + X X X X + + + + + + + +                                                                                                                                                                                                                                                                                                                                                                                                           ",
"                                                                                                                                                                                                                                                                              # # # O o O                                                                           O O O O O o O o O O O O O o O o o O % o O O o o O X o o X + X + o o X X X X + X X X X X                                                                                                                                                                                                                                                                                                                                                                                                               ",
"                                                                                                                                                                                                                                                                                                                                                                                                                                                                                                                                                                                                                                                                                                                                                                                                                                                                          ",
"                                                                                                                                                                                                                                                                                                                                                                                                                                                                                                                                                                                                                                                                                                                                                                                                                                                                          ",
"                                                                                                                                                                                                                                                                                                                                                                                                                                                                                                                                                                                                                                                                                                                                                                                                                                                                          ",
"                                                                                                                                                                                                                                                                                                                                                                                                                                                                                                                                                                                                                                                                                                                                                                                                                                                                          ",
"                                                                                                                                                                                                                                                                                                                                                                                                                                                                                                                                                                                                                                                                                                                                                                                                                                                                          ",
"                                                                                                                                                                                                                                                                                                                                                                                                                                                                                                                                                                                                                                                                                                                                                                                                                                                                          ",
"                                                                                                                                                                                                                                                                                                                                                                                                                                                                                                                                                                                                                                                                                                                                                                                                                                                                          ",
"                                                                                                                                                                                                                                                                                                                                                                                                                                                                                                                                                                                                                                                                                                                                                                                                                                                                          "
};
