/* XPM */
static char *d4d19cc2265f41f68ec8ce6efeff6ef4Jr1IHbs750C0zpGW[] = {
/* columns rows colors chars-per-pixel */
"421 592 256 2 ",
"   c None",
".  c #040301",
"X  c #0B0501",
"o  c #0D0A03",
"O  c #0D0C09",
"+  c #070607",
"@  c #130501",
"#  c #130C03",
"$  c #1B0C03",
"%  c #130D09",
"&  c #1B0804",
"*  c #151204",
"=  c #1B1305",
"-  c #1D1A05",
";  c #161109",
":  c #1C1409",
">  c #1D190A",
",  c #171907",
"<  c #17120D",
"1  c #230C02",
"2  c #290802",
"3  c #370902",
"4  c #231304",
"5  c #2B1403",
"6  c #231B05",
"7  c #2C1A05",
"8  c #22160A",
"9  c #241B0C",
"0  c #2B1C0C",
"q  c #2A150A",
"w  c #331C04",
"e  c #331D0B",
"r  c #381705",
"t  c #251C11",
"y  c #2A1E11",
"u  c #271813",
"i  c #331D11",
"p  c #2B2405",
"a  c #25220B",
"s  c #2B240C",
"d  c #2D290C",
"f  c #272405",
"g  c #33220C",
"h  c #3B250B",
"j  c #332C0C",
"k  c #3D2A0C",
"l  c #372405",
"z  c #3A340D",
"x  c #38330C",
"c  c #2D2313",
"v  c #2D2A12",
"b  c #272313",
"n  c #332513",
"m  c #3B2513",
"M  c #332B13",
"N  c #3B2A15",
"B  c #332619",
"V  c #352A1A",
"C  c #3C2C1A",
"Z  c #392619",
"A  c #353113",
"S  c #3B3413",
"D  c #3E3915",
"F  c #3C331C",
"G  c #3B381A",
"H  c #3E3321",
"J  c #3B2E20",
"K  c #1F200B",
"L  c #460803",
"P  c #570803",
"I  c #471806",
"U  c #561806",
"Y  c #461D11",
"T  c #6A1004",
"R  c #432B0D",
"E  c #472709",
"W  c #552709",
"Q  c #47350D",
"!  c #432D13",
"~  c #412E1B",
"^  c #492A14",
"/  c #552A14",
"(  c #443214",
")  c #4C3314",
"_  c #433C14",
"`  c #44321D",
"'  c #4B341C",
"]  c #433C1A",
"[  c #4C3B19",
"{  c #543B1C",
"}  c #5B3D1B",
"|  c #553716",
" . c #55350C",
".. c #653A18",
"X. c #6F3010",
"o. c #443422",
"O. c #4A3622",
"+. c #4C3A24",
"@. c #4C3C2A",
"#. c #453A24",
"$. c #523C24",
"%. c #523E2A",
"&. c #593B23",
"*. c #422F21",
"=. c #6E3D25",
"-. c #4A4416",
";. c #46411B",
":. c #4B451B",
">. c #4E491C",
",. c #484315",
"<. c #5C421C",
"1. c #524C1D",
"2. c #554619",
"3. c #58521D",
"4. c #55430A",
"5. c #63431C",
"6. c #69471B",
"7. c #75461C",
"8. c #6B5417",
"9. c #4C4623",
"0. c #5C4324",
"q. c #534D22",
"w. c #55412B",
"e. c #5A442C",
"r. c #584827",
"t. c #565124",
"y. c #5B5424",
"u. c #5B552A",
"i. c #5E592A",
"p. c #5C5825",
"a. c #5A4732",
"s. c #5C5633",
"d. c #634523",
"f. c #6B4B24",
"g. c #674A28",
"h. c #754B26",
"j. c #625C25",
"k. c #635C2B",
"l. c #685529",
"z. c #73532C",
"x. c #785629",
"c. c #634C33",
"v. c #684C34",
"b. c #685636",
"n. c #7C5C33",
"m. c #765836",
"M. c #764C32",
"N. c #65612C",
"B. c #6B642C",
"V. c #6A6527",
"C. c #736A2D",
"Z. c #6B6433",
"A. c #6E6933",
"S. c #686436",
"D. c #736C34",
"F. c #776838",
"G. c #7B7334",
"H. c #7B743B",
"J. c #787438",
"K. c #77722D",
"L. c #66621F",
"P. c #725B42",
"I. c #7B7642",
"U. c #796644",
"Y. c #5A5040",
"T. c #893411",
"R. c #861E0A",
"E. c #8D4C16",
"W. c #85592B",
"Q. c #845C34",
"!. c #8F512A",
"~. c #846234",
"^. c #84643B",
"/. c #8C6A3D",
"(. c #8A6637",
"). c #936B3C",
"_. c #966937",
"`. c #847A3A",
"'. c #99733C",
"]. c #8E672C",
"[. c #A77037",
"{. c #A45D1F",
"}. c #8C6C43",
"|. c #866946",
" X c #936E42",
".X c #996B44",
"XX c #877845",
"oX c #947244",
"OX c #9B7444",
"+X c #99774A",
"@X c #997A54",
"#X c #897455",
"$X c #A37C4B",
"%X c #A57947",
"&X c #A37D52",
"*X c #AD7448",
"=X c #94755B",
"-X c #C27D3F",
";X c #89833C",
":X c #968737",
">X c #B28930",
",X c #DBA621",
"<X c #8B8444",
"1X c #938A49",
"2X c #998C53",
"3X c #A9834C",
"4X c #A48253",
"5X c #AB8454",
"6X c #AD8A5B",
"7X c #A98659",
"8X c #B38C5B",
"9X c #B68956",
"0X c #B8935C",
"qX c #B4894E",
"wX c #AA8B63",
"eX c #B38E62",
"rX c #B59263",
"tX c #BA9564",
"yX c #BD9A6B",
"uX c #BA9768",
"iX c #B49870",
"pX c #B39970",
"aX c #C5965A",
"sX c #CAA459",
"dX c #C29D6B",
"fX c #C49A65",
"gX c #C39E71",
"hX c #C9936B",
"jX c #CAA36C",
"kX c #C7A36B",
"lX c #C4A373",
"zX c #CAA573",
"xX c #CCAA74",
"cX c #CDAB7C",
"vX c #C7A779",
"bX c #D3AC78",
"nX c #D7B37B",
"mX c #D3AC6F",
"MX c #E4B471",
"NX c #E2C23B",
"BX c #D2AE81",
"VX c #D4B383",
"CX c #DCBB8B",
"ZX c #D9B786",
"AX c #DBBD92",
"SX c #CCAF83",
"DX c #E2BC89",
"FX c #E2BD92",
"GX c #DDC292",
"HX c #E6C798",
"JX c #E7C790",
"KX c #EACDA3",
"LX c #EDD2A7",
"PX c #F3D8AE",
"IX c #F8E1B8",
"UX c #E2CDAB",
/* pixels */
"                                                                                                                                                                                                                                                                                                                                                                                                                                                                                                                                                                                                                                                                                                                                                                                                                                                                          ",
"                                                                                                                                                                                                                                                                                                                                                                                                                                                                                                                                                                                                                                                                                                                                                                                                                                                                          ",
"                                                                                                                                                                                                                                                                                                                                                                                                                                                                                                                                                                                                                                                                                                                                                                                                                                                                          ",
"                                                                                                                                                                                                                                                                                                                                                                                                                                                                                                                                                                                                                                                                                                                                                                                                                                                                          ",
"                                                                                                                                                                                                                                                                                                                                                                                                                                                                                                                                                                                                                                                                                                                                                                                                                                                                          ",
"                                                                                                                                                                                                                                                                                                                                                                                                                                                                                                                                                                                                                                                                                                                                                                                                                                                                          ",
"                                                                                                                                                                                                                                                                                                                                                                                                                                                                                                                                                                                                                                                                                                                                                                                                                                                                          ",
"                                                                                                                                                                                                                                                                                                                                                                                                                                                                                                                                                                                                                                                                                                                                                                                                                                                                          ",
"                                                                                                                                                                                                                                                                                                                                                                                  P.U.m.P.P.U.|.#X#X#X#X#X#X=X#X#X#X#X#X#X#X#X#X|.U.U.U.U.m.m.m.m.m.m.m.P.m.P.b.b.b.b.v.c.v.c.c.c.c.c.c.a.e.e.e.e.w.w.w.e.a.@.                                                                                                                                                                                                                                                                                                                                                            ",
"                                                                                                                                                                                                                                                                                                                                                                                P.|.@X@X@X@X@X@XwXwXwXwXwXiXiXiXwXiXiXiXwXwXwXwXwXwX7X4X@X@X#X#X#X#X#X#X#X#X#X#X}.|.|.F.^.|.F.m.F.m.n.m.m.m.m.m.m.z.m.z.m.m.e.O.                                                                                                                                                                                                                                                                                                                                                          ",
"                                                                                                                                                                                                                                                                                                                                                                              b.#X&XrXuXeXeXtXyXvXcXcXSXSXBXBXBXBXBXBXBXBXBXBXBXSXBXcXvXyXuXrXrXeXeXeXrXrXeXeXeX6X7X4X@X@X@X@X@X+XoX X/././.}./.}.}.}.}. X}.b.w.                                                                                                                                                                                                                                                                                                                                                          ",
"                                                                                                                                                                                                                                                                                                                                                                              b.#XwXyXfXtXtXfXzXcXVXZXZXZXCXZXCXCXCXCXCXCXCXCXFXFXCXZXZXcXlXyXyXdXdXdXdXgXdXyXyXtXrX8X6X6X6X6X7X4X+XOXoXoXoXOXOXoX X XoX+X+Xm.0.                                                                                                                                                                                                                                                                                                                                                          ",
"                                                                                                                                                                                                                                                                                                                                                                              m.#XwXuXtX0X0XtXkXzXbXVXnXZXZXZXZXZXZXZXZXZXZXCXDXCXZXZXVXzXyXuXrXuXuXuXuXyXyXuXtXrX8X6X5X5X6X6X5X4X$XOX).).).).). X).).).oXoXm.{                                                                                                                                                                                                                                                                                                                                                           ",
"                                                                                                                                                                                                                                                                                                                                                                              b.#X7XeXeX8X8XtXyXlXzXbXbXnXVXVXnXcXnXVXVXVXVXZXZXZXZXVXcXlXuXrX8X8X8X0XrXtXrXrX8X8X6X4X$X4X7X7X7X4XOX X).).).).)./.(.(.(.)./.z.{                                                                                                                                                                                                                                                                                                                                                           ",
"                                                                                                                                                                                                                                                                                                                                                                              b.#X7XeXeXrXrXrXuXyXlXxXcXnXVXVXcXcXcXVXSXcXSXZXZXZXZXZXSXlXuXrXrXrXrXrXuXuXuXuXrX8X6X4X4X7X6XeX6X7X+XoX).).oXoX X}././././.(.l.$.                                                                                                                                                                                                                                                                                                                                                          ",
"                                                                                                                                                                                                                                                                                                                                                                              m.@XwXeXeXrXrXrXrXyXlXzXcXcXcXcXcXcXcXSXSXcXSXVXZXZXZXVXSXlXyXuXuXuXuXuXyXyXyXuXuX8X6X4X4X7XeXrXeX6X&X+XoX XoX+XoX X}.}./././.z.0.                                                                                                                                                                                                                                                                                                                                                          ",
"                                                                                                                                                                                                                                                                                                                                                                            F.}.7X7X6X8X8X8X6X8XtX0XyXkXzXxXxXlXzXzXcXcXcXVXVXVXZXZXVXSXvXlXgXgXgXgXlXlXlXlXlXyXuXrX6X4X7X6X8XrX8X4X+XOXOX+X+X+XoXoX XoXoX}.n.z.&.                                                                                                                                                                                                                                                                                                                                                        ",
"                                                                                                                                                                                                                                                                                                                                                          P.|.wX7X4X@X@X@X+X@X4X7X7X7X7X5X4X4X4X5X5X8XtXyXlXlXdXdXlXzXxXcXcXVXVXZXZXBXBXcXvXvXcXcXcXvXxXcXxXvXvXvXyXrX6X6X6X8XrX8X7X$X+X+X$X$X+XoX X XoX+X+X}.^.n.m.z.m.z.z.v.g.c.                                                                                                                                                                                                                                                                                                                                        ",
"                                                                                                                                                                                                                                                                                                                                                        b.U.7XSXiXiXiXiXrXeX6XwXeX6X5X7X4X4X3X$X3X3X5X8XrXuXyXyXyXlXlXzXcXcXBXBXBXBXcXcXcXcXBXZXZXVXBXBXBXBXBXcXcXzXyXrXrX8XrXrX8X7X4X4X4X4X4X$XOXoXoX+X@X@XoX|.|.|.|.|.|.Q.n.m.m.w.                                                                                                                                                                                                                                                                                                                                      ",
"                                                                                                                                                                                                                                                                                                                                                        b.|.wXyXiXuXrXrXrXeX8XeX8X7X7X4X4X4X3X$X$X4X7XrXrXyXgXyXlXlXlXvXvXcXcXcXcXcXcXcXcXcXBXVXVXBXBXBXBXBXBXBXVXcXvXdXuXuXuXuXrX8X6X6X7X6X6X7X&X&X@X+X@X+X}.^.Q.n.^.|.|.|.|.|.m.a.                                                                                                                                                                                                                                                                                                                                      ",
"                                                                                                                                                                                                                                                                                                                                                      e.|.wXrXyXyXuXrXrXtXeX8X8X6X7X5X5X5X5X5X&X&X4XeXuXyXvXvXvXvXvXvXvXvXvXvXcXcXcXcXcXcXcXcXBXBXBXBXBXBXVXVXVXVXVXcXvXvXlXdXdXuXrXrX8X6X8X8X6X4X4X4X4X@XoX/.n.m.m.n.|.|.|.^.|.F.g.R                                                                                                                                                                                                                                                                                                                                     ",
"                                                                                                                                                                                                                                                                                                                                                  P.P.U.@XiXyXgXyXtXrXrXrX8X6X6X6X6X7X7X8X8X5X4X4X6XuXvXBXZXCXZXVXSXcXvXvXvXvXcXcXcXcXBXBXBXcXBXVXBXBXBXBXBXBXBXZXVXcXcXvXvXlXyXyXtXrX8X7X6X8X6X7X6X6X4X+X XQ.z.z.m.n.Q.Q.n.n.n.n.d.W !                                                                                                                                                                                                                                                                                                                                   ",
"                                                                                                                                                                                                                                                                                                                                                U.=XwXiXyXvXvXyXyXtXtXtXtX8X8X8X8X8X8X8X8X8X8X8XrXuXvXZXGXHXHXHXAXZXSXvXvXvXvXcXcXcXcXBXBXBXBXBXBXBXBXBXBXBXBXBXBXBXcXcXxXzXlXyXyXuXtX8X6X6X8X8X6X8XeX7X+X}.n.h.z.x.n.^.^.n.m.n.x.z.d.{ &.                                                                                                                                                                                                                                                                                                                                ",
"                                                                                                                                                                                                                                                                                                                                                =XpXSXvXSXBXvXvXdXyXtXtX8X8X8XtXyXyXuXfXdXdXdXdXgXvXVXHXHXKXKXHXHXCXVXcXvXvXvXcXcXcXcXBXBXSXBXBXBXBXBXBXBXBXBXBXBXBXcXcXcXcXvXlXlXdXyXtX8X8XrXrXrXrXrX6X@X}.n.z.z.z.n.|.^.n.n.n.n.x.z.m.m.v.                                                                                                                                                                                                                                                                                                                              ",
"                                                                                                                                                                                                                                                                                                                                              b.wXvXSXVXVXSXSXvXkXfXtXtXrXtXyXdXzXzXxXxXbXcXcXcXVXZXGXHXKXKXHXHXHXAXVXSXvXvXvXvXcXcXcXSXSXSXBXBXBXBXBXBXBXBXBXBXBXBXBXBXBXcXvXvXzXzXlXyX8XtXtXtXtXrXrX6X@X/.~.x.n.n./. X}.^.n.~.Q.(.^.}.@X|.b.                                                                                                                                                                                                                                                                                                                            ",
"                                                                                                                                                                                                                                                                                                                                              b.wXlXSXVXcXvXvXlXdXtX8X8X8XtXfXzXbXbXBXVXVXVXZXZXZXCXAXHXHXHXHXGXCXZXVXcXvXvXxXcXcXcXcXSXSXSXBXBXBXBXBXBXBXBXBXBXcXcXcXcXSXcXcXxXxXxXvXdXtXtXyXtXrXrXrX8X@X X^.n.n.Q./. X}.^.^.^././.^.}.@X|.b.O.                                                                                                                                                                                                                                                                                                                          ",
"                                                                                                                                                                                                                                                                                                                                              m.2XiXcXcXlXyXlXgXuX8X8X8X8XtXkXcXDXCXCXCXCXCXCXCXCXCXCXCXCXCXCXZXVXSXSXcXcXcXcXcXcXSXSXSXSXSXSXSXBXBXBXBXBXBXBXBXcXcXcXcXcXSXcXcXBXVXcXzXyXyXyXtX8X8XrX8X&XoX/.(.^.~./.}. X}./.}. X}.^.}.#X|.b.+.                                                                                                                                                                                                                                                                                                                          ",
"                                                                                                                                                                                                                                                                                                                                              v.@XiXyXyXyXuXyXyXtX8X8X8X8XtXlXVXJXJXJXJXFXFXFXDXFXCXZXVXVXVXVXVXSXSXSXSXcXSXBXSXSXSXSXVXVXVXSXSXBXBXBXBXBXBXBXcXBXcXcXcXcXSXcXcXVXVXcXzXdXdXdXtX8X8XtXrX4XOX X/./.^./. XoXoX X XoX}.^.}.oX}.m.$.                                                                                                                                                                                                                                                                                                                          ",
"                                                                                                                                                                                                                                                                                                                                              m.@X7X8XrXrXrXyXuXtXrXeX8X8XtXvXZXHXHXHXHXHXJXFXCXFXCXZXVXVXVXVXSXSXVXVXVXVXZXZXZXAXAXAXAXAXAXZXVXZXBXBXBXBXBXcXcXBXBXcXcXcXcXcXcXVXBXcXzXdXkXkXyXtXtXyXuX6X+X+XoX}././.oX+X+XoX+X+XoX^.}.oX}.F.g.'                                                                                                                                                                                                                                                                                                                         ",
"                                                                                                                                                                                                                                                                                                                                          %.g.m.@X4X4X4X8XrXyXyXuXtXtXrXrXyXxXZXHXHXHXHXHXJXFXCXDXCXZXZXZXCXAXAXAXAXGXAXAXHXKXKXHXHXKXKXKXHXAXZXBXBXBXcXcXcXcXcXBXBXBXBXBXBXcXcXBXcXxXlXdXdXkXdXyXyXdXyXeX4X+X+XoX/./.oX+X+XoX+X+XoX}.}.oX}.^.v.{ m                                                                                                                                                                                                                                                                                                                       ",
"                                                                                                                                                                                                                                                                                                                                ` &.c.e.v.P.|.oX4X4X+X$X8XtXdXyXgXdXyXyXyXyXvXVXFXJXHXHXHXJXGXCXFXFXFXAXHXHXHXHXKXLXPXLXLXLXLXLXLXLXLXLXLXKXHXZXBXBXcXcXcXcXcXxXSXBXVXZXZXZXZXVXVXcXzXdXyXdXkXdXyXyXyXyXrX7X$XOXoX}.}.+X+XoXoX+X XoX/./././.^.z.d.' O.O.O.+.~ v                                                                                                                                                                                                                                                                                                           ",
"                                                                                                                                                                                                                                                                                                                            y n $.m.|.|.|.@X@X4X7X4XOX+X6XtXgXgXlXlXlXgXyXyXlXxXZXCXFXJXJXJXFXCXFXFXHXHXKXLXPXPXPXIXIXIXIXPXPXLXLXLXLXLXLXKXAXZXBXSXcXcXcXcXcXcXSXSXZXCXAXAXAXCXZXcXzXdXtXdXkXkXyXyXdXdXtX6X&XOXoX X X+X@XoXoXoX X X}.(./.(.^.n.z.g.d.c.c.v.+.g 8 :                                                                                                                                                                                                                                                                                                       ",
"                                                                                                                                                                                                                                                                                                                            0 N 0.|.@X4X4X7X6X6X7X&X+X&XeXyXlXvXxXcXxXzXlXdXdXzXbXcXcXVXCXZXZXZXCXFXHXKXLXIXIXIXIXIXIXIXIXPXLXKXHXHXHXHXHXAXAXZXSXcXcXcXBXcXcXcXSXVXHXKXKXKXKXHXGXVXvXdXyXdXzXzXdXkXlXlXdXrX7X$XOXoXOX+X&X+X+XoX X X}.}./.^.~.n.z.z.z.m.m.m.g.k q = # %                                                                                                                                                                                                                                                                                                   ",
"                                                                                                                                                                                                                                                                                                                          $ 0 N g.oXwXwXeXrXeX8X7X&X+X&XeXgXvXVXVXVXcXxXzXyXtXdXdXkXlXzXnXZXnXnXZXCXHXLXPXIXIXIXIXIXIXIXIXLXKXHXAXAXAXAXAXZXZXVXSXcXcXcXcXcXcXcXVXCXKXPXPXIXPXLXHXAXcXlXdXkXxXxXlXzXxXvXlXuX6X4X+XOX+X&X&X&X+X+XoX X}.}.}.}.^.n.Q.x.x.n.n.m.v.! 6 = # # %                                                                                                                                                                                                                                                                                                 ",
"                                                                                                                                                                                                                                                                                                                          $ 0 ! z.+XrXrXuXtXrXeX7X&X+X&XeXgXcXVXZXZXVXcXzXyX8XrXrXtXtXdXxXcXbXnXVXZXHXLXIXIXIXIXIXIXIXIXIXLXHXAXZXZXAXZXZXVXVXSXSXvXvXvXvXvXvXcXVXAXLXIXIXIXIXLXKXHXAXSXxXcXBXbXzXxXxXxXzXdXrX6X4X$X&X7X4X4X&X+X+XoX}./.}.}.^.~.Q.W.n.n.n.n.z.! 6 * # # ; ;                                                                                                                                                                                                                                                                                               ",
"                                                                                                                                                                                                                                                                                                                          $ 0 ! z.+XrXrXrXrXrXeX7X&X+X+XwXyXvXVXZXZXcXcXzXyX8X8X6X8X8XtXkXxXxXcXVXVXGXKXPXIXIXIXIXIXIXIXIXLXHXAXAXAXAXZXVXVXSXSXcXvXvXvXvXxXxXcXVXAXLXIXIXIXIXPXLXKXHXAXCXCXZXVXzXzXzXzXzXgXtX8X6X7X7X6X6X7X7X4X&X+X}./.}.}.^.~.Q.Q.n.n.n.m.v.! 4 = # # ; ; %                                                                                                                                                                                                                                                                                             ",
"                                                                                                                                                                                                                                                                                                                          $ q ! z.@XiXrXrXtXtXrX6X&XoX+XwXyXcXVXZXZXBXcXzXyX8X6X6X6X8X8XdXzXxXcXVXVXAXHXLXIXIXIXIXIXIXIXPXKXGXAXAXZXZXVXVXVXVXSXcXzXlXxXxXzXxXcXVXCXKXIXIXIXIXLXLXLXKXHXHXHXAXZXzXzXlXlXlXgXyXrXrX6X8XeXeXeX6X7X7X+X}./.}.}.^.^.~.Q.n.n.n.F.z.! 4 = # # ; ; %                                                                                                                                                                                                                                                                                             ",
"                                                                                                                                                                                                                                                                                                                          $ 0 ! b.@XiXuXuXuXtXrX6X&X+X+XeXyXcXZXZXZXVXcXzXyX8X6X6X8X8X8XyXlXxXcXVXVXCXHXLXPXIXPXLXPXPXLXLXKXGXAXAXZXZXVXZXVXVXVXcXxXlXlXxXzXzXxXSXAXKXPXIXIXIXLXLXLXLXLXKXKXHXZXzXkXdXdXdXdXyXtXtXrXrXuXtXuXrXeX6X&X X/.}.}.^.^.(.~.~.^.^.|.m.! 4 = # * ; % %                                                                                                                                                                                                                                                                                             ",
"                                                                                                                                                                                                                                                                                                                          $ 0 ! m.@XiXuXuXuXtXrX6X&XoX+XwXuXlXVXBXBXcXxXvXtX8X8X8X8X8X8XyXlXxXcXBXBXZXAXHXLXPXLXKXLXLXLXKXHXHXGXAXAXCXAXGXGXCXZXVXcXvXlXlXlXzXxXcXVXHXLXLXPXLXKXHXHXHXHXKXLXHXVXgXyXrXrXyXyXyXtXuXtXuXyXyXyXyXrX6X&X X}.}.}.^./.(.(.^.^.|.|.m.! 6 = $ $ ; % % ;                                                                                                                                                                                                                                                                                           ",
"                                                                                                                                                                                                                                                                                                                          $ 0 ! m.@XiXuXuXuXtXrX6X&XoX+X7XrXdXvXxXxXvXvXlXtX8X8X8X8X6X8XtXdXlXxXcXvXBXZXAXHXLXKXKXKXLXLXKXKXKXKXHXHXHXHXKXHXHXJXZXcXvXlXvXlXzXzXxXcXCXGXHXHXHXAXCXCXGXHXHXHXAXSXuX8X6X6XrXuXyXtXtXtXuXyXyXdXyXtX6X&X X}.}.^.^./.(.(./.}.|.}.n.` 6 = $ $ ; ; ; :                                                                                                                                                                                                                                                                                           ",
"                                                                                                                                                                                                                                                                                                                          $ 0 ! z.@XiXuXrXrXrXeX7X+X XoX4X6XrXyXgXgXgXdXyXtXrXrXrX8X8X8XtXdXlXzXlXlXlXvXZXHXHXHXKXKXLXKXKXKXLXLXLXLXPXPXPXPXPXKXHXVXlXlXlXlXlXzXzXxXbXBXVXBXBXSXcXSXVXZXCXCXZXlX8X5X4X4X6XrXtXtXtXuXtXuXyXdXgXeX7X+X X/.^.^.^.}.(./.}.|.}.@Xn.! 4 : $ $ ; ; ; ;                                                                                                                                                                                                                                                                                           ",
"                                                                                                                                                                                                                                                                                                                          $ 0 ! z.@XiXuXrXrXrXeX6X&XoXoX@X7X6XrXuXuXyXyXyXtXrXrXrXrX8X8XtXdXkXzXgXdXyXlXcXCXHXHXKXLXLXLXKXLXLXLXLXPXPXPXIXIXPXLXHXVXlXgXlXlXlXlXjXjXzXxXvXvXvXzXzXxXxXnXVXVXcXdX8X5X3X4X6XrXtXuXtXuXuXyXyXgXyXeX&X+X}./.|.^./.}. X XoX@X@X@X|.' 4 : $ $ ; ; ; ;                                                                                                                                                                                                                                                                                           ",
"                                                                                                                                                                                                                                                                                                                          $ 0 ! z.@XiXuXrXtXtXrX6X&XoX X@X&X4X6XeXeXrXuXuXuXtXtXtXrXrXrXtXyXdXkXdXdXyXfXzXZXFXJXKXLXLXLXKXLXPXPXPXPXPXPXIXIXIXLXHXVXlXgXlXlXgXgXfXjXjXlXvXvXlXlXjXkXjXxXbXxXvXuX8X5X4X4X6XrXtXuXtXuXuXyXyXgXyX6X+X X/./.^.}.}.}. X+X&X7XwXwX#X' 4 : $ $ ; ; ; ;                                                                                                                                                                                                                                                                                           ",
"                                                                                                                                                                                                                                                                                                                          $ 0 N z.+XrXrXrXrXrXeX7X&X X X+X+X4X7X6X6XeXtXuXtXtXtXuXtXrXrXtXyXdXdXdXyXtXtXdXxXZXFXHXHXKXHXHXKXPXPXIXIXIXIXIXIXIXLXHXSXgXgXlXlXgXgXkXkXgXjXgXgXlXkXjXjXkXzXzXzXzXuX8X7X4X4X6XeXtXuXtXuXuXyXgXdXuX7XoX/.^.^.^.}.}.}.+X&X7XeXwXwX#X+.4 = $ $ ; ; ; <                                                                                                                                                                                                                                                                                           ",
"                                                                                                                                                                                                                                                                                                                          $ q m g.oXeXeXeXrXrX8X7X+X X X+X+X&X7X7X6XeXrXrXrXtXtXtXtXrXrXtXuXyXdXyXyXtXrXyXjXbXZXCXFXJXJXJXHXLXPXIXIXIXIXIXIXIXLXHXSXgXyXgXgXdXgXdXkXdXdXgXlXgXkXjXjXdXjXjXjXzXdX8X6X4X7X6X8XrXtXtXuXuXyXdXyXuX4X X(.^.^./.}.}.oX+X4XeXrXiXiX#X+.4 : $ $ : ; ; <                                                                                                                                                                                                                                                                                           ",
"                                                                                                                                                                                                                                                                                                                          $ 4 h g.oXwXwXeXrXrXeX7X+X X X+X+X4X7X6X6X8XrXrXrXtXuXtXtXtXtXtXyXyXdXdXyXtXrXtXkXxXbXVXZXCXCXCXHXKXPXIXIXIXIXIXIXPXLXAXcXyXyXdXdXdXdXdXdXdXgXlXlXlXvXjXjXdXjXkXlXxXdXrX8X7X7X6X8XrXtXuXyXuXyXgXyXrX4X X(.~.^.^.}.}.oX@X7XeXiXiXiX#X+.4 : $ $ : : ;                                                                                                                                                                                                                                                                                             ",
"                                                                                                                                                                                                                                                                                                                          $ 4 g g.}.6X6XeXrXtXrX7X+X X X+X&X4X6X6X6XeXrXrXrXuXuXtXtXtXtXuXyXgXlXlXkXdXyXfXjXzXxXbXnXZXVXZXAXHXKXKXLXLXLXLXLXKXHXVXvXyXuXdXyXfXdXdXdXlXgXlXlXlXlXkXkXkXkXlXlXxXlXtX8X6X6X8XrXtXuXyXyXyXgXgXyXrX4X X(.~.^.|.}.}.oX&X6XrXrXiXiX#X+.4 : & & : & ;                                                                                                                                                                                                                                                                                             ",
"                                                                                                                                                                                                                                                                                                                          $ 4 g 0.|.7X6X6XrXrXeX7X+X X X@X&X4X6X6X6XeXrXrXrXrXuXtXtXtXuXyXdXlXzXzXzXkXdXdXlXzXzXzXbXbXcXVXZXCXGXAXGXGXGXHXHXAXZXcXlXuXuXdXyXyXdXyXyXyXgXgXgXgXlXdXkXdXlXdXlXvXgXyXtXeX8XrXtXyXyXyXyXyXgXgXdXrX4X X(.~.^.|.}.}.oX@X7XeXrXiXiX=X$.q : & & : : ;                                                                                                                                                                                                                                                                                             ",
"                                                                                                                                                                                                                                                                                                                          $ $ e 0.|.4X7X7XeXeXeX7X&XoX X+X&X5X6X6X6X6X6X8X8XrXrXuXuXuXuXyXgXlXlXlXlXkXdXjXzXzXlXlXxXxXzXzXxXcXcXcXcXVXVXVXVXcXcXvXlXyXyXyXyXyXyXyXyXyXdXdXdXdXdXlXlXlXlXlXlXlXlXyXuXrXrXrXtXyXyXyXuXyXyXyXdXrX&X X/.~.^.^./.}.oX&X6XeXiXiXiX=X$.4 : & : : & ;                                                                                                                                                                                                                                                                                             ",
"                                                                                                                                                                                                                                                                                                                          $ = i 0.|.@X4X7X6X6X6X4X&XoX X+X&X5X6X6X6X6X6X6X8XrXrXrXrXrXtXyXdXgXlXlXlXkXdXkXlXlXlXfXdXdXdXdXdXkXkXdXdXdXkXkXdXdXdXyXyXuXuXuXuXyXuXyXfXyXyXyXdXdXdXdXyXlXlXlXlXlXlXdXyXtXrXtXuXdXgXdXyXyXdXyXyXrX&X).(.Q.^.^./.}.oX@X6XrXiXiXiX#X$.q 8 : : : % ;                                                                                                                                                                                                                                                                                             ",
"                                                                                                                                                                                                                                                                                                                          $ = i &.F.@X+X@X@X4X4X&X+XoXoX&X4X7X6X7X7X6X6X6XeXeXrXrXrXrXrXtXyXdXdXdXdXdXfXfXfXfXfXfXfXfXyXtXyXyXyXfXyXdXdXdXyXyXyXyXuXuXuXuXuXuXuXyXyXyXyXyXyXyXyXyXyXyXyXlXdXlXlXgXdXyXyXyXdXgXlXgXdXdXgXdXyXrX&X).(.Q.^.^./. XoX4XrXyXiXiXpX@X$.q 8 : : & % ;                                                                                                                                                                                                                                                                                             ",
"                                                                                                                                                                                                                                                                                                                          # $ e &.n.+XoX}.+X+X+X+X+XoX+X&X7X7X6X7X7X6X6X6X6X6X6XeXeXeXeXrXtXyXdXyXyXtXtXtXtXtXtXtXfXfXyXyXyXyXyXfXyXyXyXyXyXyXyXuXuXuXuXuXyXyXuXuXtXyXyXyXyXyXyXyXyXyXyXdXlXlXlXgXlXgXgXlXlXlXdXlXdXgXgXdXyXrX&X).(.Q.^.^./. XoX6XrXyXyXyXiX@X$.q 8 $ $ : %                                                                                                                                                                                                                                                                                               ",
"                                                                                                                                                                                                                                                                                                                          @ $ e $.m.+X}.}.}.oXoXoXoXoX+X&X7X7X7X4X7X4X7X7X7X7X7X7X7X7X7X8XtXdXlXdXdXfXtXtXtXtXtXtXtXfXfXfXfXyXyXyXyXyXyXyXyXyXyXuXuXuXuXyXyXuXuXyXyXyXyXyXyXyXyXyXyXyXyXdXlXlXlXlXlXlXlXvXvXlXyXdXuXuXfXuXuXeX&X).(.Q.^.^.(./.oX$X6XeXrXiXiX@X$.q 8 $ $ : ;                                                                                                                                                                                                                                                                                               ",
"                                                                                                                                                                                                                                                                                                                          @ $ e &.m.oX}.^./././.}. X XoX+X4X4X4X4X5X4X4X4X4X4X&X@X@X$X&X7XtXlXxXxXzXlXdXdXdXfXfXtXfXdXdXfXfXyXyXyXyXyXyXyXyXyXyXuXuXuXuXuXuXuXuXyXyXyXyXyXyXyXyXyXyXyXyXdXlXlXlXlXlXlXlXvXvXdXtXrX6X8XeXeXtX8X&X).(.Q.Q.^.^.(././.oX+X+X4XwX#X{ q 8 & $ : %                                                                                                                                                                                                                                                                                               ",
"                                                                                                                                                                                                                                                                                                                          $ $ e $.m.}.}.^.}./.(./.}.}. X@X&X@X@X4X4X4X4X4X&X+X@X+X+X+X+X7XrXzXcXnXcXbXxXzXlXdXfXtXtXfXyXyXyXyXyXtXtXtXtXtXtXtXtXuXuXuXuXuXuXuXuXuXuXuXyXyXyXyXyXyXyXyXdXlXlXlXlXlXlXvXvXzXvXtX7X4X+X$X5X8XtX8X&X X(.Q.Q.(.^.~.~.W.~.(./.oX@X|.{ q 8 & $ & %                                                                                                                                                                                                                                                                                               ",
"                                                                                                                                                                                                                                                                                                                          $ $ 0 $.m.}.}.|.}././././.}. X+X@X+X+X@X$X&X4X&X+X+X+X+XoXOX+X4XtXzXVXZXVXbXbXbXxXdXtX9X8X0X8X8X8X8X8XrXrXtXtXtXrXrXrXrXrXrXrXrXrXrXuXtXtXtXtXtXyXyXyXyXyXdXdXlXlXvXvXlXvXzXvXvXlX8X+XOX XOX4X8XtXeX&XoX(.Q.^././.Q.Q.W.W.Q.~.}.+X^.' 0 8 & $ :                                                                                                                                                                                                                                                                                                 ",
"                                                                                                                                                                                                                                                                                                                          $ $ 0 $.m.}.|.^././.^.|././.}.oX+X@X@X@X@X+X@X+X+X+XoX+XoXoX+X4XrXzXZXZXZXZXZXVXbXxX0X5X8X6X5X6X6X6X6X6X6X6X8X8X8X8X8X6X6X6X6XeXeXeXeX8X8X8X8XrXrXrXtXtXtXtXyXyXdXgXlXlXlXvXvXxXlX4X)././. X$X8XtXeX5XoX).Q.Q.^.^.~.n.W.W.W.Q.^.}.m.) 0 : & $ &                                                                                                                                                                                                                                                                                                 ",
"                                                                                                                                                                                                                                                                                                                          $ $ 0 ' b.|.|.^.^./.^.^.^.^.|.}.oX+X@X+X+X+X+X+XoXoXoXoX X).oX$X8XlXVXVXZXZXZXVXbXxX0X&X4X$X$X3X$XOXOX+X$X$X$X$X$X$X$X&X&X&X4X4X4X4X4X4X4X4X4X4X7X7X7X5X5X6X6X8X8XrXrXrXrXyXlXvXyX4X).(./. X$X7XeX8X4X X(.Q.n.Q.Q.n.x.Q.W.Q.Q.^.}.m.) 0 $ & $ $                                                                                                                                                                                                                                                                                                 ",
"                                                                                                                                                                                                                                                                                                                          # $ 0 ' z.|.|.^.^.^.^.^.n.n.^.}.oXoX+X+XoXoXoXoXoX X}./././. X+X6XkXVXVXZXZXCXZXVXbXeX5X5X3X$X3X$XoX).oXoXoXoXoXoXOXOX+X+X+X+X+X+X+X+X+X+X+X+X+X@X+X+X$X$X$X$X4X4X7X7X6X6XrXuXyXtX$X)././.oX$X6XrX8X4XoX/.Q.n.~.Q.n.n.~.~.(.~.^.|.m.! q $ # $ $                                                                                                                                                                                                                                                                                                 ",
"                                                                                                                                                                                                                                                                                                                          # $ q ' z.U.F.F.^.^.^.^.n.n.^.}.}.oX+XoXoX XoXoX X/./././.).oX+X8XlXZXZXZXDXFXDXZXbXtX5X5X5X5X5X$XoX).).oXoXoXoXoXoXoXoXoXoXoXoXoXoXoXoXoXoXoXoX+X+X+X+X+X+X+X+X$X$X$X$X4X6X8XeX8X$XoXoXOX$X7X6XrXrX7X+XoX/.^.^./.^.~.(.(././.^.|.m.! q $ $ $ $                                                                                                                                                                                                                                                                                                 ",
"                                                                                                                                                                                                                                                                                                                          $ $ q ' l.U.F.F.^.^.^.^.n.n.^.}.}.oXoXoXoX XoXoX}././././.).OX$XrXxXZXCXDXDXJXFXDXnXtX9X9X8X8X8X5XOX).).).oXoXoXoXoXoXoXoXoXoXoXoXoXoXoXoXoXoXoXoXoX+XOXOXOXOXOXOXOXOXOXOX$X$X4X5X$X+X4X5X6X6XrXuXuX6X4X+XoXoX+X+X}./././.}.}.^.|.z.! q $ $ $ $                                                                                                                                                                                                                                                                                                 ",
"                                                                                                                                                                                                                                                                                                                            $ q ' l.U.U.|.|.|.^.^.n.n.^.^.}.oXoXoXoXoXoX X}././.(.(./.oX$XrXxXCXFXFXFXJXFXDXZXfXtXtXtXtXyX8XOX).).). XoXoXoXoXoXoXoXoXoXoXoXoXoXoXoXoXoXoXoX+X+X+X+XOXOXOXOX+X+XOXoX+X+X$X4X$X$X5X6X6X8XtXlXvXyX8X6X7X6XeXwX@X}.^.n.Q.Q.m.m.g.! q $ $ $ #                                                                                                                                                                                                                                                                                                 ",
"                                                                                                                                                                                                                                                                                                                            & 4 ' v.U.|.|.}.}.|.F.n.n.F.^.}.}.}. X X XoX X}./.}.}././.oX$XrXxXCXFXFXJXJXJXFXDXdXtXtXtXdXdX8XOX/./.).). X X XoXoXoXoXoXoXoXoXoXoXoXoXoX+X+X+X+X+X+X+X+X+X$X$X$X$X$X+X$X$X4X7X7X6X6X8XrXtXyXcXVXcXlXyXyXlXvXlXwXoXx.6.6.f.d.d.{ h q $ & $                                                                                                                                                                                                                                                                                                   ",
"                                                                                                                                                                                                                                                                                                                            $ 4 ! c.U.U.|.|.|.|.F.n.n.F.^.}.}.}.}.}. XoX X}.}.oX+XoXoXOX4XyXBXFXJXJXJXHXJXHXDXgXfXdXgXzXxXtX$X)././.).).). X X X X X XoXoXoXoXoXoXoXoXoX+X+X+X+X+X+X$X+X$X$X$X$X$X$X$X4X8XtXtXuXyXdXlXlXvXVXZXVXcXvXlXcXVXvXwX Xz.} | } } } ) w 4 & @ #                                                                                                                                                                                                                                                                                                   ",
"                                                                                                                                                                                                                                                                                                                            # 4 ! a.P.P.m.F.U.F.n.F.^.^.}.}.}.oX}.|.}.oX}.oX+X4X6X7X4X4X8XgXVXHXHXHXHXHXHXHXFXBXgXcXBXZXZXlX4X).oX).).oXoXoXoXoXoX}./. X X X XoXoXoXoXOXoXOXOXOX$XOXOXOX$X$X$X$X%X%X&X7XuXlXcXBXSXSXSXSXVXAXCXVXcXvXlXvXSXSXwX|.f.| / } | ) ! e 8 & @ X                                                                                                                                                                                                                                                                                                   ",
"                                                                                                                                                                                                                                                                                                                            # = N r.b.c.v.b.m.m.n.n.n.^.|.}.oX}.}.|.|.^./.}.@X6XyXuXrXrXyXxXCXHXKXHXHXHXHXHXHXZXcXZXCXFXJXcX8X5X+XOXOX+X+X@X+X+X+XoX}. X X X X X.XoXoXOXOXOXOXOX$X$X$X$X$X$X$X&X&X&X7XtXvXVXAXAXAXAXAXAXAXAXAXZXcXvXlXvXSXvXwX}.g.| ) { | ^ R e q # @ o                                                                                                                                                                                                                                                                                                   ",
"                                                                                                                                                                                                                                                                                                                            # = n +.w.$.&.0.g.g.m.m.n.F.}.}.oX}.|.m.m.z.n./.&XrXlXlXlXlXvXBXDXHXKXKXHXHXHXHXHXCXVXFXHXHXHXCXvXuXrXeXeXrXrXuXrX6X@X+X X}. X X X X X XoXoXoXOXOX$X$X$X$X&X&X4X7X7X7X6XrXgXVXHXKXKXKXHXHXHXGXHXAXZXcXvXlXvXSXvXrXoXz.} | } | ^ h q $ & @ o                                                                                                                                                                                                                                                                                                   ",
"                                                                                                                                                                                                                                                                                                                            o # 0 ! ' ( ! ' 0.d.z.m.m.n.}.}.}.}.F.m.g.f.z.^.&XuXcXxXxXxXcXZXHXHXHXHXHXHXHXHXHXFXCXHXHXKXKXHXZXVXcXvXcXcXVXZXSXlXwX4X+X+X+X+XoXoXoXoXOX+XOX+X$X3X5X8X8X8X8XeXuXuXtXuXgXSXAXKXLXLXKXHXHXHXHXHXAXVXcXxXlXvXSXvXiX@Xn.f.5.d.} ) E 5 $ @ @ X                                                                                                                                                                                                                                                                                                   ",
"                                                                                                                                                                                                                                                                                                                            o # 0 ! [ ! R ) } d.m.m.n.F.}.oXoXoX|.n.m.z.n./.&XrXvXvXxXcXBXZXFXHXHXHXKXKXHXHXHXJXAXHXHXKXLXKXHXHXAXAXAXAXHXHXHXSXlXrX6X7X7X4X4X4X4X4X4X4X&X4X7XeXyXlXvXvXvXcXBXBXcXBXSXZXGXKXLXKXKXHXHXHXHXGXZXVXxXkXdXlXcXvXyX4X(.x.z.z.g.<.! 5 $ @ X X .                                                                                                                                                                                                                                                                                                 ",
"                                                                                                                                                                                                                                                                                                                            % $ 0 ` O.` ! ) &.g.m.m.n.^.}.+X+X@X}.|.|.|./.}.&X6XyXgXlXvXBXZXFXHXKXHXKXKXHXHXHXJXHXHXKXHXKXKXKXKXHXHXHXHXKXLXHXCXSXlXyXuXuXuXrXeXrXeX8X6X7X7X8XyXxXZXFXCXCXFXFXFXAXAXAXAXHXKXKXKXHXGXHXHXGXZXVXcXzXdXtXdXvXvXyX7XoXQ.n.^.m.g.{ w $ @ X X .                                                                                                                                                                                                                                                                                                 ",
"                                                                                                                                                                                                                                                                                                                            # = g ` O.` ! ) &.0.v.m.m.F.}.+X@X@X@X@X@X@X@X+X4X6XyXdXzXBXCXHXKXLXLXLXLXLXLXLXKXHXHXHXKXKXKXKXLXKXKXKXHXKXKXLXHXAXVXcXvXvXvXlXyXyXyXuXrX8X7X7X8XyXBXCXHXHXHXHXHXHXHXHXHXGXHXHXKXKXKXHXHXHXHXCXVXcXxXkXyXlXxXcXlXwX+X(.~.^.n.z.} w $ @ X . .                                                                                                                                                                                                                                                                                                 ",
"                                                                                                                                                                                                                                                                                                                            @ $ 0 ~ ' ~ ! ( { 0.g.z.m.F.}.+X@X@X@X4XwXeXeX6X6XrXyXgXvXZXHXLXPXPXIXPXPXPXPXPXPXKXHXKXLXLXLXLXLXLXKXKXHXHXHXKXHXAXZXSXvXcXcXzXkXgXgXyXtXeX6X7X8XyXcXCXHXHXHXHXKXHXHXHXHXHXHXHXKXLXLXKXLXLXHXGXCXZXbXzXkXcXVXSXvXrX+X/.~.~.n.z.{ 7 & X X . .                                                                                                                                                                                                                                                                                                 ",
"                                                                                                                                                                                                                                                                                                                          $ $ 4 n ` O.! N ( [ 0.d.l.m.F.}.oX@X4X7X7XeXuXtXrXrXrXuXyXyXSXAXHXHXHXKXKXKXKXKXKXKXHXHXPXPXPXLXPXPXPXLXKXKXHXHXKXHXHXZXVXVXVXVXcXzXlXlXgXuXeX7X7X8XuXcXGXHXHXHXHXKXHXHXHXHXHXHXHXHXKXKXKXLXLXHXGXVXSXcXvXyXvXSXSXvXiX@X}.^.^.n.z.} w & X . X .                                                                                                                                                                                                                                                                                                 ",
"                                                                                                                                                                                                                                                                                                          n n g n n       4 7 n C O.+.` ( ) ' { 0.g.m.F.}.oX@X@X4X4X6XrXrX8XrXrXrXwX7XwXpXpXpXpXpXpXpXpXpXpXvXSXAXKXIXIXIXIXPXLXLXKXKXKXLXLXHXHXCXVXVXVXZXnXxXxXzXlXyXrX6X6XrXyXcXHXHXHXHXHXKXHXHXHXHXHXHXHXHXGXGXGXHXHXAXSXvXlXyXuXwXiXvXSXiXiX7X+X}.}.^.m.0.w $ X . . .           0 s                                                                                                                                                                                                                                                                                   ",
"                                                                                                                                                                                                                                                                                                      +.e.0.0.0.$.&.$.' h w h ( O.+.` ! ! [ ' { 0.g.m.m.}.oX@X&X4X4X7X6X6X8XrXwX7X+XF.U.U.U.P.P.P.U.U.m.P.U.#X2XpXAXKXPXPXPXPXPXLXLXLXLXLXLXHXHXGXCXZXZXVXVXcXxXzXlXuXrX6X7X8XuXcXHXHXHXHXHXKXHXHXHXHXHXHXHXSXpXvXvXvXvXpXpXwX2X@X#X#X#X=XwXwX2X@X+X}.}.|.m.e.g $ X . . . = M ` ( ) [ [ +.+.                                                                                                                                                                                                                                                                              ",
"                                                                                                                                                                                                                                                                                                    P.U.@X@X@X@X@X@X@X|.m.g.d.e.+.` h g g ( ' { 0.g.z.n.}.oX@X&X&X$X4X6X6XeXwX7X4XU.g.&.$.+.O.O.` +.+.o.#.9.a.s.P.#XpXpXSXAXUXLXLXLXKXKXKXHXHXHXGXCXZXZXVXnXcXxXvXlXuXrX6X6XeXuXvXGXHXHXHXHXKXHXHXHXHXHXKXGXwX|.U.U.U.U.P.b.c.a.e.r.w.a.a.s.c.b.b.m.F.F.m.m.0.e @ . . X = H P.#X|.}.XX+X|.P.w.                                                                                                                                                                                                                                                                            ",
"                                                                                                                                                                                                                                                                                                  |.wXpXHXHXZXCXCXCXZXvXiX@X^.b.' n 5 4 7 N [ { &.d.g.m.}.oX@X&X&X$X4X6X6XwXwX@X|.r.h 5 4 $ $ $ # * $ # * * * = s H s.P.#XwXSXGXKXPXLXKXKXHXHXHXCXZXVXVXnXcXxXzXlXlXyX8X6X7X8XuXcXHXKXHXHXHXHXHXHXHXHXKXKXAX|.[ l w 7 6 6 4 * * # # # # # $ $ 4 ( <.f.z.l.c.$.7 & . X @ 0 b.pXVXZXnXGXHXcXwXP.                                                                                                                                                                                                                                                                            ",
"                                                                                                                                                                                                                                                                                                  U.wXvXHXGXnXDXDXDXDXZXxX8X/.f.( 7 1 4 7 N [ { { 0.g.m.}.+X@X4X4X4X7XeXwX7X@X|.m.' 0 4 $ @ @ # # # o X o o + X o : c V #.P.wXSXGXPXLXKXKXHXHXJXJXCXZXZXZXVXcXcXzXkXyXrX6X6XrXuXcXJXHXHXHXHXHXHXHXHXKXLXLXAXU.l 4 * $ # # # o o X . X X . . X & g [ 0.g.g.e.' q & X X @ 0 b.pXGXGXnXJXJXZXiXn.                                                                                                                                                                                                                                                                            ",
"                                                                                                                                                                                                                                                                                                  ^.7XyXZXmXjXmXmXmXnXbXmX0X).6.! 4 $ 4 7 N { { 0.0.g.m.}.+X@X4X7X4X6XrXeX@X|.b.0.N 4 = # % % % % ; % O O O O O O o # @ $ M P.wXGXPXPXKXKXHXHXHXJXCXZXZXZXVXSXcXxXlXdXuX0X8XrXyXcXJXHXHXHXHXHXHXGXHXHXKXLXAXU.N = # @ # # o + + o o + O + . X $ 0 ) <.0.r.e.` 0 X . . @ 0 b.rXZXnXnXMXJXnXyXQ.                                                                                                                                                                                                                                                                            ",
"                                                                                                                                                                                                                                                                                                  n.4XyXnXmXsXsXmXMXmXmXmXaX'.h.( q 1 5 w ! { { <.d.g.m.}.@X@X4X7X4X7XrXwX#Xm.0.` 0 8 : % % % O % < % O % O O O O X . . X 4 w.#XpXAXSXvXvXlXvXlXlXyXyXyXlXyXyXuXyXyXrX8X7X5X6X8XuXvXvXvXlXpXpXpXpXpXpXpXSXpXb.s = # o O ; O O O O O + + + . X $ 0 ( [ } r.$.~ q @ . . X 7 l.wXnXmXMXMXMXmXtXn.                                                                                                                                                                                                                                                                            ",
"                                                                                                                                                                                                                                                                                                  m.+XtXmXjXsXsXMXMXnXnXbXkX5X~.0.e 1 4 w k ' { 0.d.g.m.|.oX@X4X4X4X7X6X@XF.&.N 4 = : : % # # # % % # # # % O + X + O X X & n %.b.U.U.P.P.P.F.F.F.F.F.|.|.^.}.+X@X7X&X+X+X+X+X+X+X}.|.U.P.P.U.b.b.b.b.b.P.b.F - * # % % % O + + O + . . . . . X q N ) | { [ N 4 X . . @ 4 c.7XcXmXmXmXMXmXrX^.                                                                                                                                                                                                                                                                            ",
"                                                                                                                                                                                                                                                                                                  z.+XeXmXfXaXsXMXnXbXbXbXjX8X+Xb.~ 5 5 w R { 0.d.g.v.m.|.oX+X5X4X4X7X6X@Xm.) e $ $ $ % % % @ # % % # o # # # o o o O O # # 8 n N [ +.o.*.` ` [ [ ' ' { } d.z.n.}.@XoX X X)./.^.m.c.e.%.o.o.` C J B B v M V - o % o O O O + + O O + . . . . . X 8 m ( | { [ k 4 # X . @ = a.7XcXbXnXMXMXmX0XF.                                                                                                                                                                                                                                                                            ",
"                                                                                                                                                                                                                                                                                                  m.@XeXbXjXaXjXmXmXzXlXvXvXlXiX#Xa.g w l ( &.0.g.g.z.n.}.+X&X7X7X7X6X6X@Xm.' e $ $ % ; % % $ # % O # # # # # # # * O % X X # $ 4 9 9 8 8 8 q 0 0 7 0 e e R } f.~./././.(.].Q.z.d.! n i u 9 0 8 : : : * : : $ X . . . + + . . + + . . . . . . X 8 m ( | { [ ! 4 $ @ X & 4 c.wXVXDXDXDXJXnXtX^.                                                                                                                                                                                                                                                                            ",
"                                                                                                                                                                                                                                                                                                  m.@XeXbXjXfXjXbXzXrX7XwXwXiXpX#Xa.! h R { g.g.g.g.z.n.}.+X4X6X7X7X6X6X@Xm.' n = : : : : % # & % % # # $ $ $ # * # % O X X X X X X . X X X @ $ & & & & 1 5 ^ 5.~././.(.(.~.x.f.) 5 & & & @ # # X X X . . X . . X X X X X . . . . . . . . . . X 8 N ) { <.[ ! 7 # @ @ & 4 a.4XxXnXMXMXMXmXrX^.                                                                                                                                                                                                                                                                            ",
"                                                                                                                                                                                                                                                                                                  z.@XeXzXfXfXfXdX8X^.f.d.g.b.b.a.o.m ! ' 0.b.m.m.z.z.n. X+X4X6X6X7X7X7X+Xv.! 7 $ $ $ % % % # @ # @ # $ $ $ 1 4 4 # o o . . . . . . + + O . X # & $ $ 1 1 i $.g./.'.'.).).(.Q.z.{ 7 & # % % O o o X . . . . @ & & $ $ = # X . . . . . . . . . @ 8 m ( | { [ ~ q $ @ @ & $ ' }.6X0XaXfXmXaX7Xn.                                                                                                                                                                                                                                                                            ",
"                                                                                                                                                                                                                                                                                                  z.+XeXzXjXfXfXdX4Xd.l w e m C m 0 g ( 0.v.m.F.n.n.z.Q. X+X3X7X6X7X7X4X}.g.k 4 $ $ % # % X X @ $ $ 7 l l w l l l = X X . . X . . . + + O . X $ $ 1 q 1 5 ! &.m.oX$XOX'.'.).(.m.$.7 @ $ % o O + X X . . . . $ 5 7 l l l l = * X . . . . . . . @ q h R ) | [ N q $ @ # # $ ! z.).OX%XqX9XqX4Xm.                                                                                                                                                                                                                                                                            ",
"                                                                                                                                                                                                                                                                                                  z.@XeXxXjXfXdXyX@X{ 5 1 $ = q 4 4 w [ 0.m.|.|.^.n.n.(.OX4X5X8XeX6XeXwX@Xm.( 7 $ $ $ % % X # @ 4 p 4.8.8.8.8.8.8.l $ @ . . + + . + + + O X # = 4 4 q 5 w ! d.n.@X4X4X$X$X+X}.m.$.0 @ # # O % o X o . X X & h  .4.8.8.8.8.4.Q 7 & @ X X o o # # 4 g E ) | ) N q & & # & $ k g.~.).'.%XqX3X+Xm.                                                                                                                                                                                                                                                                            ",
"                                                                                                                                                                                                                                                                                                  m.+X8XzXmXfXdXuX@X{ 5 1 & $ $ = $ 7 ` r.m.|.}.^.(.~./.+X7X8XuXrXrXiXiX7Xm.[ g $ $ % % % X # @ s 2.].>X>X>X>X>X[.4.5 & X . . . . . . . X X # $ 4 7 5 w r E d.n.@X6X7X5X5X@XoXF.0.0 # # # o o o X + . . . $ | W.].>X>X>X>X].8.Q 1 & % % % % % & 4 w E Q Q ( m q $ & # & $ h d.x.(.).'.3X$XoXz.                                                                                                                                                                                                                                                                            ",
"                                                                                                                                                                                                                                                                                                  m.@X8XxXmXkXfXeXoX{ 5 $ $ $ $ $ $ 7 [ c.F.|.oX}./.(.).&X8X8XyXyXrXiXiXwX#Xv.! 7 # $ % % % X $ l 8.>XNXNX,X,XNX>X8.r & @ . . . . . . . X X $ 4 w h E r E | x./.6XrXrX8XeX6X@X|.e.0 # o o o o O O + + . X 1 6.[.>X,XNXNX,X>X]. .5 & $ % ; < & $ 7 R  .6.5.<.' q $ & & & $ h } z.(._.%X$X%XoXg.                                                                                                                                                                                                                                                                            ",
"                                                                                                                                                                                                                                                                                                  z.+X8XjXkXaX0X8XoX{ 7 4 : : : 4 $ 7 ( g.m.}.oX}. X/.oX5XeXtXgXyXuXyXyXiXwXU.0.g = # % % X X $ l 4.>XNX,X,X,X,X,XE.I 2 @ X X X . . . X @ $ 4 l E Q | ) | f.(.$XrXyXdXyXyXuX6X@Xv.g # o + o X O O + + . @ 4 8.[.,X,X,X,X,X>X{.4.5 & $ # % % % 1 g } x././.m.&.q & & & & $ h } n.(.OX%X3X$X Xg.                                                                                                                                                                                                                                                                            ",
"                                                                                                                                                                                                                                                                                                  z.+X8XmXmXfX0X8XoX} w 0 8 9 8 q 1 w ( g.n.}.oXoXoX).oX6XtXyXzXgXyXgXlXyXwX#Xc.N 4 $ $ % o X $ l 4.>X,X,X,X,X,X,XE.U 2 & @ X @ X X . X & 1 5 l ^ } &.....h. X4XyXzXzXkXlXlXrX7XP.n & # o O O O + + + . @ 5 8.[.,X,X,X,X,X,X>X8.w $ & $ % % & q ( z.).7X6X}.c.e & & & & $ h } m./.+X%X3XOX/.d.                                                                                                                                                                                                                                                                            ",
"                                                                                                                                                                                                                                                                                                  z.+X8XmXmXfXaX8X+Xd.h e q 9 8 q 4 e [ g.F.}.oXoXoX X+X6XyXgXcXvXlXlXvXlXiX#Xc.N 7 = $ % % X $ w 4.>XNXNX,X,X,X,XE.W 3 2 & @ @ @ @ @ @ & 1 5 l W } ......h..X4XdXzXzXkXjXkXuXwXP.e @ @ X X . X . . . . @ 5 8.[.,X,X,X,X,X,X>X8.w $ $ $ : < $ q { F.1X0X0XoXg.h & & % # $ n { z.^. X$X$XOX^.d.                                                                                                                                                                                                                                                                            ",
"                                                                                                                                                                                                                                                                                                  g.oX8XmXmXaXaX0X$Xf.R w q q 0 q 5 e ' g.F.}.oXoXoX X+XwXyXlXBXcXvXvXcXvXiX@Xv.~ 0 = : : % # $ 7 4.].NXNX,X,X,X>XE.W L 2 2 & & @ @ @ & 1 5 r E / | ......z..X7XlXxXxXkXjXlXuXwXU.h & & @ X X X . . X X @ 4 8.{.>X,X,X,XNX,X>X8.w $ $ $ : : : 0 <./.3XfXuX+Xv.h $ & % & $ g ' g.Q.}.OX$XoX^.0.                                                                                                                                                                                                                                                                            ",
"                                                                                                                                                                                                                                                                                                  g.oXtXbXjXaXaX9X$Xf.R w 5 q e q q e ' g.n.}.oXoXoX X+XwXyXvXVXSXvXvXvXgXeX|.d.k 4 $ $ # % # $ 7 Q E.>X>X{.{.{.{.T.U L 3 2 2 & & & & & 1 2 r E  .} ....f.n.+X8XzXcXxXzXxXxXgXiX|.m $ & @ # & X . . X X @ 1  .7.{.{.>X,X>X>X].4.7 $ & $ # & $ q | x.:X0X0X+Xz.E $ $ % & $ g ' g.m.^.).OX/.n.{                                                                                                                                                                                                                                                                             ",
"                                                                                                                                                                                                                                                                                                  g. X6XgXaXqXqX5XOXf.^ w 5 q e e q e ' g.F.}.+XoXoX X+XeXgXvXVXZXcXcXxXdX6X|.g.! 0 = $ & # # $ 5 E 4.E.E.E.T.T.T.X.U L 3 2 3 2 1 1 & & 2 w R | 6.f.h.h.z./.4XrXSXVXZXcXVXVXcXlX#X( 4 4 $ 4 4 # @ X X @ @ & I W X.E.E.{.{.].8.Q 4 $ $ $ & : q e | x._.3XqXOXz.E $ $ % & $ e ' g.z.Q.(.).(.z.{                                                                                                                                                                                                                                                                             ",
"                                                                                                                                                                                                                                                                                                  d.Q.+X9XqX[.[.qXOXh.) l 5 7 e e 0 h { g.^.oXoXOXoX X+XeXgXBXZXVXBXBXVXvXuX@XU.v.$.` C V y 8 q w E  .6.X.W U U U U U L 3 3 r r q 5 1 2 e ^ 5.z.(.(././. X&XtXzXZXGXAXZXCXJXCXSXwXd.R R k ( ( g $ $ # % & & 5 r I W W X... . .w 4 4 0 v M o.O.e.m./.3XsX0X5X^.R $ $ $ & $ e ' d.f.x.~./.~.z.{                                                                                                                                                                                                                                                                             ",
"                                                                                                                                                                                                                                                                                                  &.z.(.%X_.].[.3XOXx.<.R 7 e e e 7 h } z.~.oXOX+X+X X+XeXgXBXFXZXZXVXZXVXvXuX6X4X#XU.b.a.+.N e R R W E I I I L L I I I I I E E Y r r r E | z.+X7X6X8X8XeXuXcXZXHXHXHXHXHXKXHXHXyXF.6.5.f.z.l.[ 0 4 1 1 & & & 1 1 2 5 w 5 5 4 5 4 g ( 2.g.m.|.@X2X6XkXmXnX0X/.) 1 # $ $ $ e ' d.f.x.~.~.n.v.{                                                                                                                                                                                                                                                                             ",
"                                                                                                                                                                                                                                                                                                  ' d.x.].].].[.3XOXn.<.R 7 7 e e 7 h } l.~.oXoXOXoX X+XeXyXcXCXZXVXCXAXAXVXcXvXlXiXwX4X#Xm.&.^ ^ ^ ^ I I I I L I I I I I I U W E i r r E ..n.&XrXrXrXeXeXdXcXCXHXHXHXHXHXKXHXHXlX(.8.8.z.x.z.| 7 1 5 1 1 1 & 1 1 $ 1 1 1 1 1 1 q ~ l.F.`.2XpXlXvXvXnXJXDXkXoX| 1 $ $ $ $ e ' 0.f.f.n.Q.m.g.'                                                                                                                                                                                                                                                                             ",
"                                                                                                                                                                                                                                                                                                  ^ d.x.W.].].[.%XOXF.d.R 7 q 0 0 7 h <.z.~.}.oXOXoX XoX7XyXvXCXCXZXAXHXHXGXGXHXHXHXGXAXvXwXm.d.} | / E E E E I L I I I I I I I Y r r r E } n.&XrXrXrXeXeXuXvXZXHXHXHXJXHXHXHXHXlX/.z.z.x.x.x.| 5 4 q q 1 1 1 4 1 1 1 4 5 1 1 5 m g.+XrXlXZXHXLXKXHXLXLXJXkXoX[ 1 $ $ $ $ e ' &.d.6.z.x.m.d.^                                                                                                                                                                                                                                                                             ",
"                                                                                                                                                                                                                                                                                                  ! } z._._.].[.3XOX~.d.E w w w e w R 0.m.^.oXoX+XoX/.oX7XuXvXCXAXAXAXHXHXGXHXLXPXPXPXLXAXiX|.f.5.<.| E E E W I I I I I I I I I Y r r r E } z.@XwXeXeX6XeXuXvXZXHXHXHXGXHXHXHXHXlX/.z.z.x.z.h. .5 1 5 5 2 5 5 5 5 5 5 q 5 5 5 w ! m.7XxXGXHXPXIXIXLXPXPXJXlXXX) q $ & $ 1 e ' } 5.5.f.z.z.0.!                                                                                                                                                                                                                                                                             ",
"                                                                                                                                                                                                                                                                                                  ` { m.$X$X'.%X3X%X~.f.W w r e e e ! 0.m.^.oX+X+XoX/.}.4XuXcXJXGXAXAXKXKXGXGXKXKXKXKXHXSXeX^.6.5.}  .E E E E I I I I I L I I I r r r r E  .g.+XwXrXrXeXeXyXcXZXHXHXHXHXHXHXHXHXvX}.n.n.n.n.z.| 5 1 1 1 1 2 2 5 5 2 2 w 5 2 5 r E h.2XdXnXJXLXPXLXKXLXLXJXlX#X&.q 8 $ $ 4 e ` &.<.<.6.f.g.$.N                                                                                                                                                                                                                                                                             ",
"                                                                                                                                                                                                                                                                                                    r.m.@X3X'.$X%XOX~.h.| E E R ! R ' g.m.^.oX+X@XoX/./.4XrXxXJXHXAXGXHXHXAXGXGXHXHXHXCXcXeXoXx.z.f.5. . . . .E E E E I I E E E E I E E E  .h.oX6XrXrXeXeXyXcXZXHXHXHXHXHXHXHXHXvX}.n.n.n.n.x.| 5 1 2 5 2 5 r r r r r E I r I E | z.OX0XmXGXLXPXKXGXJXJXJXyX+X&.e q $ $ 4 n ' &.} | <.} { ' n                                                                                                                                                                                                                                                                             ",
"                                                                                                                                                                                                                                                                                                      c.m.^.Q.(.).).Q.z.6.| } } } { 0.m.n.^.}.+X+XoX(./.+X6XyXVXZXZXAXAXAXAXGXHXKXLXKXHXAXvXrX4X4X+X/.~.n.x.h.f.f.f.d.d.d.f.h.h.h.h.h.f.h.h.Q.@X4X6X6X4X4XrXvXZXHXHXJXCXJXHXHXJXlX/.x.x.x.x.z. .r w E R E E E W  . .| 6.6...6.f.n./.3XkXnXJXLXPXHXGXGXGXZXrX}.{ e q 1 1 4 n ' $.) Q E h k M                                                                                                                                                                                                                                                                               ",
"                                                                                                                                                                                                                                                                                                      w.0.d.h.x.Q.~.x.x.h.f.f.f.g.g.z.n.F.^./. X+XoX(.(.OX4XrXvXcXcXVXZXAXAXGXKXLXLXLXLXHXAXSXlXlXdXrX5X+XOX X(.Q.(.(.Q.Q.|. XoX X X.X X X(.(.+X$X4X4X+X+X6XlXZXGXHXJXCXGXJXJXJXlX}.n.n.n.x.z. .r l { d.5.5.5.6.6.6.h.Q.Q.Q.(. X@X4X0XxXJXLXPXPXHXCXZXnXxX7X(.| w 4 1 1 5 g ' +.( h w 4 4                                                                                                                                                                                                                                                                                 ",
"                                                                                                                                                                                                                                                                                                          [ { d.x.Q.Q.x.x.x.x.x.z.x.x.x.n.n.~.).oX).~.~.(.).$X8X0X0XyXdXlXcXCXKXPXPXPXLXLXHXAXZXVXcXlXtX8X5X&X$XOXOX$X$XoXOX$X&X&X&X&X&X$XOXOX$X$X3X3X+X+X6XgXnXCXJXCXCXCXGXGXGXlXoXn.x.n.x.h.| E ) m.}.}. X/.).).oX$X7X8X8X0XyXlXvXxXZXJXKXHXGXxXtX0X0X9X3X~.<.E w 5 5 7 N +.$.` h 7                                                                                                                                                                                                                                                                                     ",
"                                                                                                                                                                                                                                                                                                            ( } m.n.~.Q.~.~.~.~.n.C.x.x.x.x.W.(.)./.~.W.W.Q.(.$X%X'.%X5X8XdXBXHXPXIXIXPXLXKXGXCXZXVXxXdXtXtX9X9X9X5X9X5X$X3X6X6X9X9X0X0X5X%X%X$X&X3X$XOXOX5XyXxXCXJXCXCXCXCXGXGXvX+X~.n.F.n.x.<.E d.oXeXrXtXtXtXtXfXlXbXnXZXDXJXHXHXGXJXHXJXCXzX5X'.).'.'.'.W.5.) k g e g ` $.w.` m q                                                                                                                                                                                                                                                                                     ",
"                                                                                                                                                                                                                                                                                                              ' m.F.~.~.~.(.~.~.~.~.F.x.x.x.x.~.(.(.~.Q.W.W.Q.)._._.'.'.$XtXcXHXLXPXPXPXLXKXHXGXCXZXxXdXtXtX0X9X9X9X9X5X3XqX9X9X9X9X9X0X3X%X%X$X$X$X+XOXOX7XyXcXCXJXGXCXCXCXGXGXlX+XF.C.F.x.z.| E d.@XuXlXjXjXkXjXzXbXZXDXDXJXJXLXKXGXJXHXGXcXuX3X/.].(._.'.].7.) ! h l h ` +.w.o.V 9                                                                                                                                                                                                                                                                                     ",
"                                                                                                                                                                                                                                                                                                              +.b.F.^.^.(.(.~.n.F.~.F.n.m.z.z.n.n.~.~.~.~.~.(.OX_._._.'.%X8XlXZXKXLXLXLXPXLXKXHXCXnXjXtX0X8X9X3X3XqXqXqX3X3XqX3XqX*X$X$X%XOXOXOX.X X).(./.@XrXlXCXJXCXCXCXCXGXGXvX+XF.x.n.z.z.} E <.oXrXyXkXkXkXjXzXbXnXZXnXDXGXGXGXZXZXZXZXcXuX3X/.].(._.).].6.) ! k h k ` +.w.J V                                                                                                                                                                                                                                                                                       ",
"                                                                                                                                                                                                                                                                                                              +.c.b.m.n.n.n.m.m.z.n.m.m.z.g.d.f.x.~.(.~.~.(.).OX_._._._.'.3XtXVXHXHXHXKXLXLXHXAXZXbXgXtX8X8X9X5X3X5X9X5X3X3XqX3XqX%X%X*X%X'. XoXoXoX/.~.~.oXwXlXCXHXGXCXCXCXGXGXlX+XF.z.m.m.z.| R } }.wXyXkXkXjXjXjXxXnXnXnXnXCXGXCXSXcXcXvXlXrX$X)./.oXoXoX~.6.| ! N h g M C C J B                                                                                                                                                                                                                                                                                       ",
"                                                                                                                                                                                                                                                                                                                +.0.d.5.d.g.g.g.g.l.v.g.0.{ { } z.~.(.(./.).OX$XOX_.'.'.OX5XyXVXHXHXHXHXLXLXHXFXCXnXzXfXtX0X0X0X0X0XfX0X5X6X8X9XqXqX5X9X$XOX+X+X+X+X}.^.F.oXwXvXCXGXAXCXCXCXGXHXSX4X^.n.m.m.z.} ^ &.}.wXdXjXmXmXjXgXzXcXbXbXnXZXGXGXZXVXSXxXdX8X+X).).oXoX X~.6.) N e 7 4 6 s v B                                                                                                                                                                                                                                                                                         ",
"                                                                                                                                                                                                                                                                                                                  [ ' ) ) | { { { { $.O.O.` ' { f.n.(.(./.).'.%XOX)._.).).OX6XkXZXCXCXFXJXHXFXDXZXnXbXkXfXfXfXfXfXfXdXfXtXfXfXtX9X3X&X3X$XoXoXoXoX}.^.m.m.F.@XwXSXVXSXSXSXSXVXZXiX}.m.m.z.g.g.{ ^ &.}.eXyXjXjXjXzXlXvXBXBXbXbXnXZXZXbXcXvXlXrX4XoX/./.}.}.^.x.<.^ m e 4 4 6                                                                                                                                                                                                                                                                                               ",
"                                                                                                                                                                                                                                                                                                                          m m N m ~           ' d.z.(.~.(.(./.).(.W.W.x.x.Q./.3X8XtXtXfXdXvXvXzXbXxXzXkXdXdXgXjXjXzXcXcXbXcXbXjX5XOX(.(.~.Q.m.z.g.0.{ ) ( ) r.b.U.|.|.U.U.U.|.|.F.0.) ) ( ^ ' E E &.|.6XrXfXfXdXfXfXdXgXgXdXdXkXkXkX0X8X6X4XoX(.x.f.g.m.z.l.<.E e y                                                                                                                                                                                                                                                                                                       ",
"                                                                                                                                                                                                                                                                                                                                                0.m.^.(.(.(.(.~.n.h.f.d.d.f.x.(.OX$X%X3X6X9XeXuXfXzXzXkXkXjXzXzXxXbXVXZXZXZXCXzX8X(.W.f.f.g.0.' C n 0 0 7 7 0 g #.] #.] ' [ ' +.` g 6 7 7 7 w g h &.|.7X8XtXfXfXfXuXuXdXdXtX0X0X0X7X$XOX X/.^.z.d.| } 0.0.{ R l                                                                                                                                                                                                                                                                                                           ",
"                                                                                                                                                                                                                                                                                                                                                0.m.^./.~.~.F.n.f.....} } ..f.x.(.).).OX$X&X5X8XfXjXzXjXjXbXbXbXnXZXCXCXGXGXGXzX&Xx.6. .| ) ! 0 8 : & # $ $ $ = > > 6 6 6 6 0 0 q = # # $ $ 4 7 h 0.#XwXtXfXfXfXtXuXyXdXfXtX9X9X6X+X).(.^.n.m.g.} | | { { ! h                                                                                                                                                                                                                                                                                                             ",
"                                                                                                                                                                                                                                                                                                                                                0.m.^./.~.~.F.z.5.|  .) | | 6.h.n.~.(.).OX%X&X7XtXjXzXzXbXnXZXZXVXZXCXZXGXGXCXlX+X6./ E l h 0 = $ # X X X X X o X X # # # $ $ $ # o X o @ $ 1 q h 0.+XrXuXfX0X0XfXfXdXgXdXtX8X9X3XoX~.x.z.z.z.g.} ) ) ' ' h w                                                                                                                                                                                                                                                                                                             ",
"                                                                                                                                                                                                                                                                                                                                                0.m.^.^.~.F.n.x.5./ E E / | d.z.Q.(.).'.$X$X&X7XtXjXmXxXnXnXZXZXCXJXHXJXJXJXGXlX+X..E r w 7 4 # X X X + X . . . . X X X o # # o X X X X X @ $ 0 ! g.@XyXlXkXfXfXfXfXdXjXgXfX0X0X4X Xn.h.g.v.z.g.&.| ' +.[ N g                                                                                                                                                                                                                                                                                                             ",
"                                                                                                                                                                                                                                                                                                                                                $.g.n.~.n.n.x.x.5.E E E E } f.n././.).OX3X4X5X8XtXjXzXjXxXnXnXZXJXHXLXKXKXKXJXvX@X=.E w w q 4 $ X X X + O O O + X X X X o o X + + O o o X $ q e ) z.4XyXzXxXkXkXfXfXfXdXfXfX0X0X5X Xx.f.f.g.v.g.0.{ $.%.$.` h                                                                                                                                                                                                                                                                                                             ",
"                                                                                                                                                                                                                                                                                                                                              ~ $.g.n.n.n.n.x.x.d. .E E / } h.Q././.).OX3X5X7X8XtXkXzXjXxXnXnXZXJXHXKXKXKXHXJXlX+Xd.| I w e q $ $ # o o O O O O X o X o % O % O O O # # $ $ i m { z.4XyXlXzXdXfXfXfXfXfXfXfX0X0X7X Xz.f.d.f.g.d.&.' ' $.+.~ n                                                                                                                                                                                                                                                                                                             ",
"                                                                                                                                                                                                                                                                                                                                              C $.v.n.n.Q.~.n.z.f.} | } } d.z.n.^././.oX$X4X7X8XyXkXzXxXbXnXnXDXJXFXFXCXCXZXnXtX}.....^ E E w 5 1 $ & $ # o o X # @ X X # % % % % # $ $ $ q m ^ } z.@XwXrXtXrX0XyXkXmXfXfXkX0X8X4X/.f.d.5.d.d.&.' N m ~ C n 0                                                                                                                                                                                                                                                                                                             ",
"                                                                                                                                                                                                                                                                                                                                              N $.v.m.F.n.Q.n.n.g.&.d.d.d.f.z.n.^.^.(./.OX+X4X6XtXkXzXxXbXnXnXDXZXbXvXgXdXuXtX$X(.7...| | / ^ r w 5 4 4 4 $ $ $ $ $ $ $ & $ $ $ $ 4 4 4 5 l ^ ' | d.F.#X@X@X4X4X0XkXmXjXkXfX0X6X&X^.d.} } &.&.{ ! g e n y 6 9                                                                                                                                                                                                                                                                                                             ",
"                                                                                                                                                                                                                                                                                                                                              c +.g.m.n.n.n.n.m.g.d.d.g.v.g.z.m.n.n.~.~./.oXOX5XrXlXzXzXbXnXZXZXbXtX4X+X).).).Q.h.=.7.....7..... .W W E E E E r w w 5 5 0 e e e h E E E E / .. ./ ) d.v.z.m.n./.$XjXjXjXfXfX0X5X&X^.f.} } 0.&.{ N         6                                                                                                                                                                                                                                                                                                               ",
"                                                                                                                                                                                                                                                                                                                                              c +.a.b.z.m.z.z.m.g.d.g.z.m.z.z.z.n.x.z.x.n.^./.+X8XlXkXzXbXbXZXZXdXoX6. .W W ....X.X.7.!.!.!.!.!.!.W.7.7.h.7.f...| R E E ^ ' ' | ..f.7.7.7.h.h...E r l h h R | d.).fXjXjXfXfXtX6X&X^.f.5.} 0.&.+.m                                                                                                                                                                                                                                                                                                                         ",
"                                                                                                                                                                                                                                                                                                                                              c +.a.l.z.z.z.z.m.z.z.m.^.^.n.z.n.z.z.h.f.z.n.(.+X8XkXzXzXbXnXZXnXzX/...E r r E W W W X.7.E.!.!.[.[.[.[.[.[._._.W... .W E W | ....h.W.W.!.W.!.!...E r e r 5 w E | Q.tXjXmXfXfXtX8X4X}.h.d.d.0.e.%.C                                                                                                                                                                                                                                                                                                                         ",
"                                                                                                                                                                                                                                                                                                                                            : c +.a.l.g.f.g.z.m.m.n.^.}.}.^.n.n.n.z.h.f.z.n.(.@XrXzXxXxXnXnXGXZXlX/...E r r I I W W X.X.X.X.E.[.[.>X>XaXaXaX*X_.7...W E W | ..7.W.!.{.{.{._.].7.W R ! i q q e ^ x.tXjXmXjXfXfX8X7X}.z.d.d.d.e.%.~                                                                                                                                                                                                                                                                                                                         ",
"                                                                                                                                                                                                                                                                                                                            > > : O X + . . # 9 #.r.c.g.d.d.g.z.m.F.}.oXoX/.~.Q.n.z.h.f.z.n.(.+XrXzXxXxXbXnXJXZXlX X..W I I I E I U W W X.X.E.[.aXaXsXsXsXsXaX[.h...E I W  .7.E.].[.[.[.[.[._.h./ m i y 1 $ 7 k z.8XjXmXmXkXfXtX7X}.z.5.d.0.e.%.C                                                                                                                                                                                                                                                                                                                         ",
"                                                                                                                                                                                                                                                                                                  v M M v s s a s s 9 6 6 9 9 > ; o . . . . # > ` $.r.<.| } 0.g.m.F./.}././.~.~.n.z.f.f.h.x.~.oX8XlXxXxXbXnXDXnXyX/...W I I E E I I U W W X.E.-XsXsXsXMXMXsXaX[.7. .I I W X.=.E.{.[.[.[.[.[._.7.E e e q & $ 4 l f.8XkXmXmXkXfXrX7X}.h.5.<.0.0.+.Z                                                                                                                                                                                                                                                                                                                         ",
"                                                                                                                                                                                                                                                                                                v V G A j d d f d d v s d v s 6 ; o . . . . # 6 F +.0.} ) ) { d.m.Q./.oX)./.(.Q.n.z.f.f.h.x.~.oX8XzXbXmXnXnXnXzXeXQ.| W I Y ^ E Y I I I U X.E.aXsXMXMXMXMXMXaX[.7.| I I W X.=.!.{.[.-X-X[.[._.7.I 5 q 8 & @ $ 7 d.8XjXmXmXjXaX0X6X Xh.5.<.0.0.+.m                                                                                                                                                                                                                                                                                                                         ",
"                                                                                                                                                                                                                                                                                                6 d A A j j d d d d d d v M d 9 : % . . . . # 6 F +.0.{ ) ) { d.m.^.}.oXoX/.(.~.n.z.h.f.z.x.~.OX8XjXbXxXnXnXbXyX@Xg.^ I r r r h r 5 5 r I W 7.*XaXaXsXsXsXaXaX_.d.) I I E / =.!.[.[.*X*X[.[._...w 1 $ % X X $ w d.8XmXmXmXjXtXtX6X Xx.5.<.r.0.+.n =                                                                                                                                                                                                                                                                                                                       ",
"                                                                                                                                                                                                                                                                                              > - d A M M d f s d d s s v v v b > % . . . . # > F #.9.[ ) ( ' 0.m.^. XoXOX/.(.(.Q.x.h.7.x.W.~.OX8XmXmXmXmXnXxX&Xm.&.e q q q 0 0 5 1 1 2 q i &.n.+X$X3X3X5X$X'.~.{ ~ e r I / ..h.Q..X.X.X.X(.x.} 5 # X X . X $ w g.rXmXmXmXjXkXtX6XoXz.g.0.0.r.+.n = %                                                                                                                                                                                                                                                                                                                     ",
"                                                                                                                                                                                                                                                                                            - 6 6 d M v d d d d d s s s v v v b > % . . . . # > V F ] ] ` ! ' 0.m.^.}.oX.X/.(.~.~.x.h.7.x.W.~.'.8XkXmXmXmXnXfX^.&.m 4 & & & $ $ $ & @ & & $ e ~ &.} } <.<.<.| ! 0 q 1 1 2 r r E / ....} } | ) w $ o X X . X $ 7 g.8XjXmXmXjXkXtX6XoXz.g.0.0.r.[ d = X X X o # * > 9 a                                                                                                                                                                                                                                                                                                     ",
"                                                                                                                                                                                                                                                                                    a f 6 6 6 f d d j j j j d d d d f f v v v a > % . . . . o * v A ` ` ` ` +.e.z.F././.).(.(.~.~.n.x.h.x.n.~.OX8XkXmXmXmXbXeXz.h 4 & @ @ X @ @ @ X X X X X @ $ $ 1 1 $ $ $ $ @ @ X X @ @ & & & 1 5 4 1 4 1 4 $ # X X X X X $ 5 g.6XkXmXmXjXkX0X6XoXz.g.0.0.r.[ n = X X . X # = 6 s v v s s s s s                                                                                                                                                                                                                                                                                         ",
"                                                                                                                                                                                                                                        v A S S S S S _ ] D D D D _ _ _ _ _ _ ] ] ] ] ] ] ] ] ] G A j j x A A A M j d d d M d s > % . . . . o # > s v j n m ! { g.z.n./.).(.(.(.(.Q.x.z.x.Q.(.OX8XkXmXmXmXbXeXg.l $ @ X X X @ @ X X X . X X X X X @ @ X X X . . . . . . X X X @ @ & @ & @ @ $ X X X X o X X $ 7 d.6XkXmXmXmXjXfX8XoXx.g.0.r.r.[ n = % X . X # - s M A A M j j M j M d M v v v v v                                                                                                                                                                                                                                                                         ",
"                                                                                                                                                                                                                                        G 9.u.t.q.1.1.p.u.i.i.i.i.i.i.i.i.k.k.N.N.N.N.S.S.S.S.S.u.] A A A S D S A j d d d j d s > * X . . . + o # * = 7 6 7 g h | f.x./.oX).).). X(.Q.x.x.Q.(.OX8XkXmXmXmXnXtXz.l 4 @ X X X o X X X X X . . . . . X X X + + + + . . . . . . . X . X X O X . X X X X o O X X $ 7 g.8XkXmXmXmXmXfX8XOXx.f.d.0.r.+.j = % # X o # 6 j S ] ] S S D D D D D G S S A A M d s v v v                                                                                                                                                                                                                                                               ",
"                                                                                                                                                                                                                                        ] u.k.k.j.p.j.N.B.B.A.A.B.B.B.A.A.C.A.D.D.D.J.J.H.H.H.F.b.;.x z A S D S A M j d j M j s > * X . . + X + o # # = 6 6 0 l Q 5.z.^.).(.).). X(.Q.x.x.W.Q.OX6XkXmXmXmXnXrXz.g $ X o o o o X . . X . . . . . . X X . + + + + . . . . . . . . . + + + + . X X X X X X X X $ 7 g.6XkXmXmXmXmXfX8XOXx.f.d.0.r.:.j * $ # X o * f j S ] _ D D D _ _ _ ] ] _ _ D D D x j M A A V                                                                                                                                                                                                                                                             ",
"                                                                                                                                                                                                                                        D q.p.j.j.j.j.V.V.V.C.C.C.C.C.K.K.K.K.K.G.G.G.G.`.`.H.J.b.;.x x x x D S A x j j j j M d a * o X . + + + X # # # * = 4 7 Q 5.h.~./.].(._.).(.Q.x.x.W.Q.'.qXfXmXmXmXnXuXg.g $ X X O + X X . . . . X . X . . . . . . . . . . . . . . . . . + + . + + X o X X X X X X X $ 5 d.6XkXmXmXmXjXaXqX).x.6.d.<.0.[ g = $ # o o * a j S _ _ D _ _ _ D _ _ _ _ _ _ _ ] _ D D ] G A V                                                                                                                                                                                                                                                           ",
"                                                                                                                                                                                                                                        D q.j.N.3.3.j.V.V.V.C.C.C.C.K.K.K.K.K.K.J.J.G.G.`.`.`.G.S.;.x z z S _ D A x j j A A A v a , o X + + O + o # # # # * 4 s { f.x.~.(.~.(.).).(.~.x.x.W.Q.'.qXaXjXmXmXbXuXg.w $ X . + . . . . . . X . . . X . . . . . . . . . . . . . . . . + + . X X X # X X X X X X X $ 5 g.6XkXmXmXmXjXaX5X).z.6.d.<.0.[ M = $ % o # = a j S _ _ _ _ _ _ _ _ _ _ _ _ ,.,.,._ _ ;.9.9.F M                                                                                                                                                                                                                                                           ",
"                                                                                                                                                                                                                                        _ 1.p.j.3.3.3.V.C.C.C.C.C.K.K.K.K.K.K.G.G.G.`.`.`.`.`.G.Z.>.D z _ _ _ ] D A j j A A A M a - # o X o % % % % * * # # 9 V 0.F.^.(./.(.].).'._.~.x.W.W.~.OXqXkXjXmXmXnXuXl.0 * X + + + X + . . . . X X . . . . . . . . . . . . . . . . . . . + X X X X @ @ X X X X + o # 7 d.8XkXmXmXmXjXaX5X).x.d.5.0.0.:.M = # # # # = f j S _ _ _ _ ,.,._ _ _ _ _ ,.,.,.,._ _ ] ;.] A d                                                                                                                                                                                                                                                           ",
"                                                                                                                                                                                                                                        ] 1.i.j.3.3.j.N.A.A.A.C.C.K.K.K.K.K.G.G.G.G.`.`.`.;X`.`.A.1._ _ _ ,.,.;.] D x M A S A M a - * o o % ; ; : ; ; = * = t V c.U.|.^./.~.].'.'._.~.n.x.W.~.'.qXkXjXmXmXbXrXg.6 # . + + + + . . . . . . . . . . . . . . . . . . . . . . . . . . . X X X X @ @ X X X X X X # 7 d.8XkXmXMXmXjXaX5X/.h.d.0.0.0.:.m = $ $ # # - f j D ] ] _ _ ;.,._ _ ,.,.,.,.,.,.,._ _ _ ] ] A j f                                                                                                                                                                                                                                                         ",
"                                                                                                                                                                                                                        H F #.F F   M D ;.q.p.y.y.y.p.N.A.A.A.A.C.G.G.G.G.J.J.J.G.G.`.`.`.;X`.`.D.p.1.1.1.q.q.q.,.D x x S S A M a - * * # ; > > t ; , * # # 9 M r.b.F.n.n.x.W._.'._.(.W.x.x.~.'.qXkXjXjXzXzX7X0.4 # . + + + . . . . . . . . . . . . . . . . . . . . . . . . . . . . . X X X X X X X X + + X # 4 <.7XfXmXmXmXkX0X4X^.g.d.g.r.a.q.N 6 = $ # * - f j D ;.;.] ,.;.,.,.,.,.;.;.,.,.,.] _ _ _ _ D x j p                                                                                                                                                                                                                                                         ",
"                                                                                                                                                                                                                      V #.9.9.;.9.G ] ,.q.p.p.p.y.y.p.k.Z.A.B.B.D.D.G.H.G.G.H.G.H.H.`.`.`.`.`.`.G.B.3.3.3.p.k.t.>._ z x z S S x v - * * * , > > 9 > * # o o = 9 o.e.v.g.h.h.x.(.)././.W.x.x.W.'.3XaXkXjXkXyX@X{ 4 o . + + + . . . . . X X . . . . . . . . . . . . . . . X X X X X X X X X X X X X . . . + X $ 4 0.5XfXmXmXmXaX9XoXn.g.d.c.c.a.r.N 6 = $ # * - f j D ;.;.] ;.;.;.,.,.,.,.;.,._ _ _ D S _ _ _ D z d p M M M v                                                                                                                                                                                                                                               ",
"                                                                                                                                                                                                                      G 9.q.u.t.t.q.1.t.p.j.p.y.y.t.t.p.j.j.j.j.k.B.C.D.A.D.D.D.D.D.J.G.G.H.`.`.`.G.C.K.D.J.H.S.p.>.D x z D D A d 6 = * = > b b b 9 = * # # * : B ` +.{ | ..6.x./.~.~.x.x.x.W.'.5XfXjXmXkXuX+X[ $ X . + + . X . . X # & & @ @ X X . . . X X @ @ @ @ @ @ & & & @ @ @ @ @ @ @ X X X . . + + X # 4 <.+X0XkXsXaXqX'.~.f.} &.e.a.r.9.C 6 : $ # = 6 d j D ;.;.;.;.,.,.:.:.>.>.9.;.] _ D D _ ;.>.q.1.1.,.;.] ] ] ] F                                                                                                                                                                                                                                             ",
"                                                                                                                                                                                                                      G 9.u.k.N.N.N.N.N.B.j.3.<.<.<.<.2.<.<.2.2.3.j.j.j.j.N.N.N.N.B.B.A.C.K.`.`.<X1X<X1X2X2X2XXXN.y.,.z D _ D S d 6 = = - a v v v a - = * # # = : q 7 w E E  .h.~.~.n.x.h.x.W.'.5XfXmXbXzXuX+X[ $ X . + + X X X X & $ 1 2 2 1 1 & @ @ @ & & 2 2 2 2 2 2 2 2 2 2 2 1 1 1 $ & & @ X . . + + . X = ) /.3X9XqXqX[.W.7.| ^ ) +.w.9.#.M 6 ; % * > a d j D ;.9.:.9.>.9.>.>.9.9.9.9.;._ ] _ ;.q.i.N.S.S.A.S.S.b.k.u.] f =                                                                                                                                                                                                                                         ",
"                                                                                                                                                                                                                      x ,.p.N.N.N.V.V.V.B.j.3.<.<.2.<.2.<.4.2.2.2.2.3.1.3.p.j.N.N.V.N.V.A.D.G.;X;X1X1X2X2X2XwX<XA.3.-.z _ _ D S M a = = 6 s M M M f - * # # # # $ $ 1 5 r E 6.x.~.~.x.f.7.h.x.).3X0XkXxXkXrX}.( $ X . + . + X X @ & 2 q 3 3 3 2 2 2 1 2 2 3 3 L I L 3 L L L L 3 3 3 3 3 q q & @ X . . . . . X $ ( (.OXqXqX[.[.W.} E l l N ( F M s = ; ; * > 6 p j S ;.:.,.:.9.9.>.>.9.9.9.9.;._ _ _ ,.u.S.F.H.I.D.D.I.I.S.k.,.p 6 v c                                                                                                                                                                                                                                     ",
"                                                                                                                                                                                                                      x ,.j.B.V.V.V.V.L.V.j.2.2.<.<.<.<.<.5.<.<.| <.<.2.1.3.j.N.V.V.V.A.C.K.`.<X<X1X1X2X2X2XwX<XA.p.-.z _ _ _ S M a = - - a v M M f - * # # # # % $ 4 e R  .5.x.(.~.n.7.6.7.x.~.OX5XfXkXfX6X|.R $ X + + . . X X @ 2 2 3 L L L L 3 3 3 3 I U U U T T U U U U U U U I I I r 3 1 @ X . . . . . . $ R C.'.qX3X[._.x.<.E w 7 e 0 6 6 6 * * $ * > 6 f p x ] ;.;.:.9.:.:.:.>.>.9.:.;._ _ _ ;.u.S.I.I.I.J.D.J.D.Z.i.>.x j F #.H                                                                                                                                                                                                                                   ",
"                                                                                                                                                                                                                      M ;.u.B.B.V.L.L.V.B.j.<.<.<.5.5.......6.....} | 2.2.j.V.C.V.C.K.G.G.`.`.<X1X1X1X2X2X2X2X<XZ.y.-.Q _ _ _ D M a - - - a v M M s - * # % # % o $ = e R | f.x.^.F.x.f.7.6.h.n.).3X0XjXaX3X^.k # X + + . . X @ & 2 3 L P P P P U P L P P T R.R.R.R.R.R.T T T T T T P U I 3 1 & . . . . . . . $ R n.'.>X>X>X'.W.d.! 7 4 4 = * * = $ # # * = 9 a f d G ] ;.;.9.9.9.;.;.;.,.;.;.,._ _ ,.u.S.I.I.I.D.D.G.H.D.j.1._ _ q.q.#.#.                                                                                                                                                                                                                                ",
"                                                                                                                                                                                                                      M ;.u.B.B.V.L.j.V.V.j.<.<.d.d.6.......6.........5.6.j.K.G.G.G.`.`.`.;X<X2X1X2X2X2X2X2X2X<XC.j.2._ ,.,._ _ M a - - - a A A V s 6 * $ % # % % $ = 0 k ( 5.z.n.z.f.7.7.8.f.x./.3X0XjXaX4X^.k @ X + + + X @ & & 2 3 L P T T T T P P P T T R.R.R.R.R.R.R.R.T T T T T P P 3 1 @ X . . . . . X $ Q ~.[.>XqX>X[.(.z.+.w 4 = = * * = = * * = 6 9 a a v A G ] ;.] ;.;._ ] ] ;.;._ ,._ _ ,.u.S.I.I.H.D.D.G.H.D.k.3.-.2.j.i.r.9.                                                                                                                                                                                                                                ",
"                                                                                                                                                                                                                      j ,.p.B.V.V.L.L.j.B.j.5.5.f.f.h.f.6.6.6.......5.6.l.C.`.<X<X;X<X<X1X1X1X2X2X2X1X2X2X2X2X<XD.j.2.-.,.>.;.] M a - - - a A A F v 6 = = # # ; % $ = 0 h ! { d.g.g.d.6.f.6.f.x.(.1X9XfX0X5X^.E & X . . X @ @ & & 2 3 U T T T T T T P T T T R.R.R.R.R.R.R.R.T T T T P P L 3 2 @ X . . . + . X $ ) (.3XqXqXqX3X).m.$.g 4 = * * * = = = = 6 6 a a a d M S ] ;.;.:.,.,.;.,.;.;.] ;.;.] :.u.b.A.F.D.D.D.H.J.D.B.p.1.3.Z.S.u.r.F                                                                                                                                                                                                                               ",
"                                                                                                                                                                                                                      x ,.y.N.V.L.V.L.V.B.j.5.5.f.f.h.7.=.7.7.........6.8.C.`.<X<X<X<X<X1X<X1X1X1X1X1X1X1X1X1X`.D.j.1.-.-.>.,.] M b - - - a A A F d 6 = * # # ; # % $ 8 0 e m ^ ' | | | <.5.f.x.(.OX5X0X8X3X~. .1 1 $ & & & & & & 2 3 U T T T T T T T T T T R.R.R.R.R.T T T T T T P P P L L 2 & @ . . + + . # 4 ) (.%X3X3X:X'.C.l.] 6 * * * * * = > 6 6 a s s a a a d A ] 9.q.t.t.q.1.1.,.;.] ;.;.] ;.q.u.k.S.A.A.D.H.H.D.B.j.3.y.B.S.u.r.]                                                                                                                                                                                                                               ",
"                                                                                                                                                                                                  6 s v v v M A F M _ z 1.j.V.V.V.V.V.V.B.l.5.<.6.h.7.=.=.=.=.........5.8.C.`.<X<X;X;X;X<X;X<X<X<X;X;X;X<X<X<X`.D.B.3.2.>.>.;.] A a - - - a A A A d 6 6 = * * # % % # $ $ $ 1 4 q w w E ) ..f.x.~.'.3X3X3X%X(...r r r 5 2 1 1 & 2 2 3 P T T T T T T T T T T T T T T T T T T T T T P P P P L 3 2 @ . . . . . $ 4 | (.'.'.'.].C.8.{ N = # # # * * ; 9 a s d v s a 6 9 f M 9.u.b.S.Z.k.k.i.q.;._ _ ] ] ] ;.9.t.i.N.A.A.H.H.D.B.j.3.y.p.k.u.q.] d                                                                                                                                                                                                                             ",
"                                                                                                                                                                                                - p j A A A G ] ;.;.q.>.j.V.C.C.C.G.G.G.J.l.5.5.6.7.7.=.=.=.7.7.......6.6.C.`.`.`.`.`.;X;X;X;X;X;X;X;X;X;X;X1X`.H.D.y.1.>.>.,.;.A s - - - a v A A j d d d s 9 * $ o % $ $ & @ & $ 1 5 w ^ ..x.(.).).'.'.'.OX].7.X.X...W I r 2 & 2 2 L P T T R.R.T T T T T T T T T T T T T T T T P P P P P L 3 2 @ X . . . X $ q  .x.W.W.x.f.<.Q j 6 # # o o o * > 9 s s v M b a - - 6 j 9.b.F.I.I.H.F.A.i.9.] ] ] D D ] 9.q.u.k.B.A.I.I.D.A.k.3.y.p.k.i.u.;.S S A                                                                                                                                                                                                                         ",
"                                                                                                                                                                                                p j S _ _ ] 9.q.t.u.k.3.k.C.C.G.`.<X1X<X`.C.8.5.6.7.7.7.=.=.7.7.7.....6.6.x.~.`.`.`.`.;X;X;X;X;X;X;X;X;X<X<X1X<XXXD.j.1.1.>.:.;.A v - - , a v A D D D D ] H v > $ o X # % # @ & & $ 4 e ! 5.n. X)._.].W.]._._.!.!.!.!.h...Y 3 2 2 3 L P T T R.R.R.T T T T T T T T T T P T T P P P P P T P P L 2 & @ X X . @ 1 w E 5.6.5.} Q l 7 4 # o o o o # * > a s s d v s 9 - = = d 9.S.I.<X<XXXXXI.S.t.;.;.] G G ] ;.9.t.i.Z.A.I.I.H.A.k.y.y.p.k.i.t.q.,.:.9.9.] V                                                                                                                                                                                                                   ",
"                                                                                                                                                                                                d x D _ _ _ >.q.u.k.k.y.B.C.G.`.;X1X2X1X`.C.8.5.6.7.7.7.7.7.7.7.7.6.6.6.f.x.~.`.`.`.;X;X;X;X;X;X<X;X;X1X1X1X2X1X<XH.k.1.2.>.,.;.A v - - - a v A D ] ;.;.9.9.F 9 * o X % # X @ # % < = q h } z.(./.W.x.7.7.W.].{.{.[.[.!...I 3 2 2 3 L T T R.R.R.R.T T T T T T P P P P P T T P P P P P P P P L 3 & @ @ X X @ 4 w E ...... .E w 4 # X X X X o # * > 9 s s s v a 9 ; * * f 9.S.I.1X<X<X<XXXU.t.;.;.G G S ] ;.:.q.t.Z.A.I.I.H.D.Z.y.y.p.k.p.q.y.t.y.u.q.] A c                                                                                                                                                                                                                 ",
"                                                                                                                                                                                                j z _ _ z Q ,.,.q.t.y.3.j.D.`.`.;X1X2X1XXXC.6.4.5.7.7.7.7.7.7.7.7.6.6.6.z.C.`.XXXX<X1X<X<X<X<X<X1X1X1X1X1X2X2X1XXXJ.p.>.>.>.,.;.A s - * , > v G ;.9.q.q.u.r.F 9 # X X o o X # % % # & $ 7 R 5.x.W.7.7.X.X.E.E.E.E.{.{.E.X.U 3 2 3 L P T T R.R.R.R.T T T T T P P T P P P P P P P P P P P P P 3 3 & @ @ @ X & 5 E W ..6.5.} E w 4 X X X X o o o O ; 9 s a s s 9 > ; * * f ;.N.I.<XXXXXXXI.A.t.;.] S A A G ;.] _ >.k.D.H.I.H.A.Z.p.y.i.u.y.t.3.y.p.k.u.9.G s                                                                                                                                                                                                                 ",
"                                                                                                                                                                                              v A _ ,.,.z Q ,.-.1.3.3.3.j.D.`.`.<X1X2X1X`.C.6.4.6.6.7.7.7.h.7.7.7.7.f.h.z.C.H.XX<X<X1X1X<X<X1X1X1X1X1X1X1X2X2X1XXXD.p.>.>.>.,.;.A s - * * > v A ;.q.y.y.u.u.F 6 * X X o X X O % % % $ $ 5 h } f.7...X.W X.7.E.E.E.{.{.T.X.U 3 3 3 L P T T R.R.R.R.T T T T P P P P P P P P P L L L L P P P P L 3 & @ @ @ @ & 5 E  ...6.6.} E w $ X X . X + + o o * 9 a a a s 9 > ; $ # f ;.k.H.XXI.H.I.H.S.t.;._ S A A G ] _ _ ,.k.D.I.H.H.A.N.p.y.i.u.y.y.y.y.j.k.u.9.D s                                                                                                                                                                                                                 ",
"                                                                                                                                                                                              M _ -.t.y.1.1.y.y.p.p.3.y.B.D.`.XX1X1X1X<X`.C.8.4.6.6.6.7.7.h.h.7.h.x.n.n.n.F.J.XXH.I.XXXXXX`.<X<X<X<X<X<X<X<X<X<XH.D.y.>.,.>.,.;.A s - * * > v A 9.q.u.u.i.u.G a * X X o X X % % ; % $ $ 5 l ) } ......X.7.!.!.!.E.{.{.T.X.U 3 3 3 L P T T R.R.R.R.T T T T P P P P P P P L L L L L L L P P P L 3 2 & & & & 1 e R } f.h.h.5.Q l 1 X X . + o o o O = 9 a 6 9 s a > ; # # 6 ] i.H.XXI.H.I.H.A.u.,.] D D S ] ] ] _ >.k.D.H.I.H.A.Z.p.y.j.i.p.y.y.y.j.k.p.9.D a                                                                                                                                                                                                                 ",
"                                                                                                                                                                                              M ] q.k.Z.N.N.A.D.B.N.j.j.B.D.`.<X<X1X1X`.`.C.L.8.8.f.f.h.x.x.n.x.n.F.~.F.F.Z.F.F.A.Z.A.A.A.D.J.H.H.H.H.J.H.H.H.H.D.A.t.-.,.>.,.;.A d - * * > v G 9.t.u.y.u.t.] a * o X o o o # % : % $ $ 4 l R ) | ......h.Q.!.!.!.{.!.T.X.U L L L P P T T R.R.R.R.T T T T T U U U U P U U I L L L L P P P P P 3 2 2 2 2 2 2 r E | d.z.z.5.Q w 4 X X X o O O ; * > 9 a a a a a > ; # # 6 ] s.F.XXI.H.I.I.A.p.>.,.] ] D ] 9.;.;.>.k.D.H.I.H.D.S.p.p.k.k.p.y.y.y.p.i.t.:.S 6                                                                                                                                                                                                                 ",
"                                                                                                                                                                                              V ] 1.k.S.B.B.D.J.D.B.j.p.N.A.G.`.<X<X<X<X<X`.G.G.F.F.F.F.~.^.H.F.F.F.F.F.B.k.j.y.q.1.1.t.y.p.N.A.A.A.A.B.B.D.D.A.Z.k.1.-.-.,.,.;.A d - * * > v G 9.q.y.y.t.q.G a * X X o # # $ $ & $ # $ 4 q w h E / | ..h.Q.W.W.E.E.E.X.X.U U U T T T R.T.T.T.E.{.E.E.!.!.!.!.!.E.E.E.7.h.h.h...X.T X.X.X.X.T P 3 2 3 3 2 2 r r E | | } ) l 5 $ X X X o o O * * - a a a a a a > ; # # 6 G s.U.I.I.I.H.J.S.p.>.,.;.] _ ;.9.9.>.1.j.A.H.I.H.D.Z.j.p.k.k.p.y.y.y.y.p.q.;.A 6 =                                                                                                                                                                                                               ",
"                                                                                                                                                                                              V _ 2.k.N.k.B.J.H.J.A.j.3.j.V.K.`.`.;X<X<X1X1X<X1X1X1XXXXXXXXXXXH.F.F.F.Z.N.j.q.>.z x z Q _ ,.q.i.k.N.k.j.k.k.k.B.k.i.1.,.,.,.;.;.A d - * * > v G 9.1.t.t.q.9.D a * X X o # # # # $ $ # $ $ 4 4 5 w E ) } f.z.x.h.7.7.X.X.X.X.X.X.X.X.T.T.E.E.{.[.[.[.[.[.[.%XOX[.[.[.[._.'.'.)._.!.T.T.E.!.E.T.T L 3 3 3 3 3 3 5 r l h h w 5 $ $ X X X o o * * = 9 a f a a a 9 = ; # # 6 G s.U.I.H.H.H.D.N.p.1.1.:.:.;.9.q.q.1.t.j.A.D.H.H.D.Z.j.p.k.k.i.p.y.t.y.u.q.;.A 6 *                                                                                                                                                                                                               ",
"                                                                                                                                                                                              V _ 1.N.A.B.B.D.H.D.A.N.j.V.C.K.`.`.;X<X1X2X2X2X2X2X2X2X<XXXXXH.J.J.F.D.A.N.i.q.,.x j k z _ ,.q.u.i.i.p.p.i.j.k.k.k.i.1.,.,.,.;.;.S d - * , K V G 9.1.1.2.q.9.G v ; o o # # # # $ = = : : 8 4 $ 1 5 7 l k Q | }  . .W W X.X.X.T.T.T.E.E.E.{.{.[.>XaXqXqXqX9X0X9X9XqXqXqXqX0X0X9XqX[.E.E.{.{.{.T.T L L L L L 3 3 2 2 5 4 4 4 $ & # # o o * , > > a v M M M v v a > , # # - G s.U.I.I.H.J.D.N.i.u.u.t.u.t.u.s.i.u.i.k.D.D.H.H.D.Z.j.j.B.Z.k.k.y.t.t.u.q.;.A 6 #                                                                                                                                                                                                               ",
"                                                                                                                                                                                              S ,.y.A.D.A.B.C.K.A.V.j.j.V.C.G.`.;X;X1X1X2X2X2X2X2X2X2X<XXXXXH.D.D.D.D.B.N.i.q.:.S x x S _ ;.q.u.i.i.p.i.j.j.k.k.k.j.1.>.,.,.,.:.S d K - > b A G q.q.1.-.>.9.] M > * # # # # # # = : : 9 9 8 : = = 6 4 4 7 l l w r r I W X.T.E.E.E.E.E.E.{.{.[.aXsXsXsXsXsXsXsXsXsXsXsXsXmXmXkXaX[.E.E.{.{.{.T.T P L L P U I 3 2 & & @ & & @ # # % # * > > b b v A G G G G A v 9 ; # # 6 G s.U.I.H.J.D.A.N.k.i.k.k.b.k.b.S.S.k.Z.A.F.D.H.D.D.Z.k.N.Z.A.Z.l.y.t.t.u.q.;.A 9 *                                                                                                                                                                                                               ",
"                                                                                                                                                                                              G ,.y.D.D.C.C.C.C.B.V.j.j.V.K.G.`.;X;X;X1X2X2X2X2X2X2X2X1XXXH.D.D.D.D.A.Z.k.k.u.9._ x x S _ ;.q.t.i.p.p.p.p.p.k.N.N.k.3.>.>.>.,.,.G v a - - a A G q.9.,.,.,.;._ A a * # # # # # $ : 6 9 9 9 8 8 : = * # # * = 4 4 4 5 r E X.X.E.E.E.E.E.E.{.[.>XaXsXsXsXsXsXkXsXsXsXsXsXsXmXMXsXsX[.E.E.{.{.{.T.R.P P P P U I 3 2 & @ X X X X X @ % : = - a v v A G H G ] ] G A a > # o 6 G s.S.I.H.D.A.A.B.k.k.N.S.S.S.S.A.A.A.Z.A.D.D.D.D.D.B.k.B.D.D.A.k.p.1.1.p.q.;.A 9 *                                                                                                                                                                                                               ",
"                                                                                                                                                                                              A ,.y.B.D.B.V.B.B.V.j.j.j.V.K.G.`.<X;X;X1X2X2X2X2X2X2X1X1XXX`.D.B.B.N.B.B.k.k.u.q._ x A S D ;.q.t.p.p.p.p.p.p.k.N.N.j.3.-.>.>.,.:.G A a - - a A G 9.;.D z _ _ D A a * # # # * # = = 8 9 6 9 6 : : $ # o o # # $ # & $ 1 r W X.E.E.E.E.E.E.{.{.>XaXsXsXsXsXsXsXsXsXsXsXsXsXsXsXsXaX[.E.E.{.{.{.T.T P P P P U I 3 2 & @ X X X X @ $ # * = = a d d A G 9.G G ] G S f 9 # # 6 ] s.S.I.H.D.A.A.B.k.k.N.S.S.Z.S.A.A.A.B.B.A.A.A.D.D.B.N.B.D.D.A.k.y.1.2.y.1.;.A - *                                                                                                                                                                                                               ",
"                                                                                                                                                                                            G ] ,.3.N.B.V.V.B.B.N.j.j.j.V.K.`.;X<X<X1X1X2X2X2X2X2X2X1X1X<XH.D.B.j.k.N.N.k.k.i.q._ S A S D ,.9.q.p.p.p.i.i.k.k.N.N.i.q.-.,.>.,.:.G A d f - a A G 9.D x x S _ D S s * # # # $ # = = 6 a s s 6 = = # $ @ X X # X X X @ & r W X.7.E.E.E.E.E.]._.>XaXsXsXsXsXsXsXsXsXsXsXsXsXsXsXsXqX[.E.E.E.{.E.T.T P P P P U I 3 2 & @ X # # @ @ $ $ = = 6 a v A S G 9.;.] ;.;.] d 9 * # 6 #.s.U.I.H.D.D.A.B.k.k.S.S.S.Z.S.A.Z.A.B.A.A.A.A.A.A.B.B.B.D.D.A.B.p.1.2.y.1.;.A - *                                                                                                                                                                                                               ",
"                                                                                                                                                                              > b A G G D ] ] ,.q.p.j.j.j.N.V.B.V.j.j.j.B.K.`.<X<X<X1X1X2X2X2X2X2X2X1X<XXXH.D.B.k.k.B.Z.k.k.i.t.] S A S D ,.9.q.p.y.p.i.i.k.k.N.N.k.t.-.,.>.>.>.;.G d a f d A G 9.D x x S ] ] G b = * # $ $ $ = = 6 s d d a 6 = : : # # # # o @ X @ & w E ..7.7.E.E.7.E.]._.3X0XsXaXfXkXkXkXfXfXsXsX0XsXsXjXsX9X[.E.E.E.!.!.T.X.P L L L I I 3 2 & @ @ # # @ @ $ : : - 6 d j x S G 9.9.9.9.9.;.M b = * a 9.b.I.I.I.J.D.A.Z.k.S.S.S.S.S.A.A.A.A.A.A.A.A.A.A.A.B.B.Z.D.D.Z.Z.l.3.3.p.q.;.A 6                                                                                                                                                                                                                 ",
"                                                                                                                                                                            , > A 9.9.9.q.t.t.u.u.i.i.p.p.j.N.N.N.N.j.j.B.G.`.<X<X<X1X1X2X2X2X2X1X<X<XI.H.J.D.B.k.N.Z.B.k.k.i.t.] S A D D ,.9.q.p.y.p.p.j.j.k.k.Z.k.t.-.>.>.>.9.;.D j f a v G G ;.G z x S ] ] G c : : $ $ $ * : 6 6 d d d p f 6 6 8 : $ # # o X X @ & 7 R } 6.7.7.7.7.W.W._.%X8X0X0X0X0X0X0X0X0X0X0X0X0XtXuX0X8X%X!.!.!.!.!.T.X.L L L L I I 2 2 & & @ & & @ & $ = > 6 a j j x S ] 9.9.9.9.q.:.S M 6 4 j q.S.I.XXI.H.J.D.S.k.k.S.S.S.S.S.Z.Z.Z.Z.Z.Z.Z.Z.Z.Z.N.k.k.Z.A.Z.k.l.3.y.p.q.:.A a                                                                                                                                                                                                                 ",
"                                                                                                                                                                            * a G 9.u.u.p.p.p.p.p.u.p.p.y.p.j.k.N.j.j.j.B.G.`.<X1X<X1X1X<X<XXXXXXXI.H.D.A.A.Z.k.k.k.N.N.k.k.i.t.] S S D _ ;.>.q.p.y.p.p.j.j.k.k.N.k.3.-.-.>.>.>.,.D j f f v A G G S x x _ ] _ D s = * # # $ $ = 6 6 a p p p p p y t 8 $ # X X . . X @ 4 h ^ } .. . . ...6.6.z.Q.(.~.~.~.(.^.^.^.~.F.~.~.(./.(.~.x...X.X...W W U 3 3 3 3 r r 2 2 & & @ & @ @ @ # * - 6 f d j j x G 9.9.9.q.q.>._ A f f A t.A.I.I.I.H.H.D.Z.i.u.i.p.i.i.i.k.p.p.p.j.j.j.j.p.i.p.y.y.p.k.p.p.y.1.3.p.q.:.A f                                                                                                                                                                                                                 ",
"                                                                                                                                                                          X * a #.u.b.k.k.j.j.p.p.u.p.y.3.3.y.p.j.j.j.j.B.J.`.<X<X<X<X`.H.G.D.A.A.A.B.j.j.k.k.j.j.k.N.N.j.k.i.t.;.D S D _ ;.>.t.y.y.y.p.j.j.j.k.N.k.3.2.2.1.1.1.:.,.x d f d A A S x x x _ ,._ D d = * # # # # = 6 6 f f p p p f v c 9 = $ # X X X X X = 0 e ! ! ^ ^ E E E ^ Q | } { { 2.<.{ { { 2.2.<.<.<.<.<.} | E E E E I r 3 2 2 2 2 2 3 2 2 & & & $ $ @ # # * 6 a d j j p d A ] ] 9.9.:.>._ D j j _ i.F.H.I.I.H.H.D.N.y.1.1.>.1.1.3.3.3.1.1.3.y.3.3.3.t.1.1.2.1.1.>.1.>.2.1.y.q.,.A f                                                                                                                                                                                                                 ",
"                                                                                                                                                                          X * f G q.k.i.j.j.j.j.p.u.p.p.3.3.3.p.p.j.j.j.B.H.`.<X;X`.`.`.D.B.j.j.j.k.j.y.y.p.j.p.k.k.N.k.j.k.u.t.,.D S D _ ;.9.t.y.y.y.p.j.j.j.j.B.N.p.3.3.3.3.y.1.:.D j p d A G S A x S _ >.:._ k 7 6 = * * * = 6 6 f 6 6 p d d M n 0 4 # # o o . . . o = = 0 0 7 0 q 5 5 5 5 w 7 7 7 7 s 0 6 6 p f a s p w g e e 5 5 5 1 1 1 & & & & & 1 2 2 1 1 $ $ = * # # * = 6 f d j d p p d N N ( ] ( [ ( _ x z >.N.J.H.H.H.H.H.D.N.1.-.,.,.-.>.1.1.1.1.1.1.1.1.2.2.1.>.-.,.-.,.,.-.-.-.1.t.q.:.S p                                                                                                                                                                                                                 ",
"                                                                                                                                                                        # o * 6 x ,.u.j.p.p.p.3.p.u.p.p.t.t.y.p.p.p.p.j.B.H.<X<X<X`.G.D.B.j.3.1.3.y.y.y.p.u.i.p.j.k.N.k.j.k.i.u.;.] D D _ ,.q.t.y.p.3.3.j.j.j.N.A.A.A.B.B.B.B.B.j.p.,.x d j A A A x x _ q.t.q.1._ x j p 6 = * 6 6 6 a a a f s d M n d 0 6 9 ; # o . . . . X @ X @ @ @ @ @ @ @ X o o # # # # o o X X o o o # @ @ @ @ @ X X X X X X X X @ @ & 1 u 0 6 a a 6 - - 6 6 v A F M j 7 $ 4 7 7 7 g h k Q _ -.1.j.D.I.H.H.H.H.I.H.B.3.,._ _ ,.-.-.>.>.>.>.>.>.>.>.>.>.>.-.-.,.,.,.,.,.-.>.1.>.,.S p 6                                                                                                                                                                                                               ",
"                                                                                                                                                                    ; # * * - f S :.y.p.y.3.3.3.p.p.p.t.3.3.t.y.y.y.p.j.B.H.<X<X<X`.J.A.N.y.3.1.3.y.y.y.p.i.i.i.j.j.N.k.j.k.i.u.;.] _ _ ;.>.q.t.y.p.p.p.j.j.j.V.A.C.D.K.C.C.D.D.B.k.>.x j j A A A j z _ q.u.k.k.1.2._ _ A f = 6 6 6 6 a 6 6 6 s d j j s s s 9 ; ; + . . . . . . . . . . . . . . . . . . . . . . . . . . . . . . . . . . . . . . . . . . X & : 0 a a a f a a a a v V F F M g 4 $ 1 4 4 4 5 w l ( [ 2.3.k.H.`.`.`.H.H.H.J.N.3.,.Q _ _ ,.-.,.-.>.>.1.1.1.2.>.1.>.-.,.,.,.,.,.-.-.>.1.>.,._ j d b                                                                                                                                                                                                             ",
"                                                                                                                                                                  6 9 6 6 a d j ] q.y.p.y.y.y.y.t.t.t.3.1.3.3.3.y.3.y.y.B.G.XX<XXXH.D.B.j.y.3.1.y.p.u.p.i.i.i.p.p.i.k.k.j.k.i.u.;.] ] _ ;.>.q.t.p.p.p.p.N.j.V.V.C.K.G.G.G.G.`.H.D.N.1.z j j A M d d x ,.u.b.F.F.B.k.j.u.9.M 6 6 - - 6 6 6 6 6 6 f d d d j M b t ; + . . . . . . . . . . . . . . . . . + + + + + . . . . . . . . . . . . . . + + . . . . . @ : t s a f d d d v M M F ` F m 0 4 $ 1 1 1 1 1 5 w ( -.3.j.B.H.`.`.`.H.H.H.J.N.3.,._ _ _ ;.,.,.:.>.>.1.1.1.1.1.1.1.>.-.>.>.>.>.>.>.1.1.>.,.,.] G A v                                                                                                                                                                                                           ",
"                                                                                                                                                              b v M N A G ] ] ] q.t.u.p.p.p.p.3.3.3.3.3.3.1.1.1.q.q.1.3.j.C.H.`.H.J.A.B.j.p.y.y.u.i.i.i.i.i.i.p.p.p.j.j.i.k.i.q.;.] ] ] ;.>.t.p.p.p.p.j.N.N.V.V.D.G.G.H.G.`.`.`.J.B.1.z j j M d a p j _ k.F.H.XX`.H.F.S.u.G 6 6 = = = 6 6 6 6 6 a p d j j M v b , o . . . . . . . . . . + . . . . . + + + + + + + + + + + + + + + + + + + + + + . . . . . X = a a f f p d j M A A ( ] ` m g 5 1 1 2 1 1 2 2 r ( 2.8.l.C.H.`.H.H.J.J.J.D.N.t.-.,._ ] ;.:.:.:.>.>.1.1.t.t.q.q.1.1.1.1.1.1.1.1.1.1.1.>.,.:.9.9.F v                                                                                                                                                                                                           ",
"                                                                                                                                                            6 d _ >.r.t.u.u.u.u.i.k.k.i.i.u.p.3.3.3.3.3.3.3.1.1.1.1.1.1.y.B.D.K.J.D.B.N.j.p.p.p.u.u.i.p.p.p.p.p.p.p.j.j.u.i.i.q.:.;.] ;.9.q.u.i.i.i.i.k.B.N.N.B.D.G.G.G.G.`.`.`.D.N.1.z d d d d f f j ,.k.H.`.XX`.H.J.F.s.G 6 = * * = - 9 6 6 6 a a v d M M M b > o X . . . . . . . . . . . . . . . . . . . + . . . . . . . . . . . . . . . . . . . . . . o = a d f f p d j M N S _ [ [ ! g 5 1 2 2 2 2 2 2 r ^ 2.8.B.F.H.H.H.H.J.D.D.D.Z.p.>.-.] ;.9.9.9.>.>.>.q.t.t.t.1.1.1.1.1.1.3.1.1.3.1.1.1.-.-.,.;.9.F v b                                                                                                                                                                                                         ",
"                                                                                                                                                          = q M q.j.Z.F.F.A.S.S.S.N.k.i.u.u.u.p.3.3.3.3.3.3.3.3.t.1.1.1.3.j.B.C.D.A.B.k.k.p.p.p.u.u.p.p.p.p.p.p.j.i.j.i.u.i.i.q.:.;.] ;.9.q.u.i.i.i.i.k.k.k.j.B.J.G.`.G.G.G.K.G.C.B.1.z j d d f f p j -.B.H.XX`.`.G.F.F.b.D 6 * * * = > 9 9 6 6 a b b v v M M v 9 * o . . . . . . . X X X X . . X . . . . . . X . . . . . . . . . . . . . . . . . . . . . o = a a f f p d j j k Q _ -.[ ( h 5 1 2 2 2 2 2 2 r ) <.l.F.F.H.H.D.D.A.A.D.F.S.u.1.,.] ;.9.9.9.9.>.>.q.q.1.1.1.>.1.3.3.3.3.3.y.p.y.3.1.-.,._ ] G A s 9                                                                                                                                                                                                         ",
"                                                                                                                                                        # # q m y.B.D.D.D.D.A.Z.k.i.y.1.q.u.i.k.j.j.k.N.j.j.k.k.k.p.y.y.y.j.V.B.B.N.k.j.i.i.i.i.i.i.i.i.i.j.j.p.i.p.p.p.p.u.u.q.;._ ] _ ;.,.>.1.t.q.q.q.q.1.3.N.J.G.`.`.G.C.C.C.C.B.y.,.S D G A d j z >.B.H.`.`.F.B.l.l.q.M = * * * = 6 a a 6 6 9 b a a a d v s 9 * o X . X o o X # # # $ # @ @ @ @ @ @ X X X @ $ & # # # o o o X X X X X @ @ X X X . . . o * - f f f p p p h k z Q { [ R l w 2 2 2 2 2 2 2 r ) <.l.C.F.F.C.B.k.j.j.k.S.k.q.,._ D D D ] _ ;.;.,.>.>.-.-.>.1.p.k.N.N.N.N.N.Z.N.k.p.1.-._ S A j a -                                                                                                                                                                                                         ",
"                                                                                                                                                      X X # q C u.B.A.A.A.A.k.k.t.q.,._ ,.q.i.k.A.D.D.D.D.D.D.D.B.k.j.j.j.j.j.V.B.j.p.p.p.i.k.k.k.k.N.k.N.N.j.p.p.p.y.y.t.y.t.>._ _ D D D D _ _ _ ] _ _ D z ,.3.D.H.`.G.K.K.C.K.C.V.j.1.>.9.9.;._ ,.-.y.k.A.F.F.z.l.<.[ ( p * * * * = 6 a a 6 - > > 9 - 6 a s a 9 * o X X # = = = = 4 4 4 4 = = $ $ $ $ $ $ $ = = 4 = = = * * * # # # # $ $ $ $ # o X . . X * - - f f p p p g k x Q _ Q R l r 2 2 3 2 2 2 2 r R | f.z.Z.S.k.p.1.>.>.q.t.q.;.z j p d d j x S D _ ,.,._ ,.-.1.k.A.H.H.J.J.J.H.J.A.B.p.1._ x j d 6 -                                                                                                                                                                                                         ",
"                                                                                                                                                      X X # : c r.u.u.u.u.u.u.9.9.] F A _ t.Z.Z.J.G.H.G.G.H.J.D.C.A.B.B.V.V.V.V.V.j.p.3.p.p.p.i.i.i.k.k.k.k.p.p.p.p.y.t.t.t.q.q.;._ D D D S S D D D S S x S _ p.D.H.`.G.K.K.C.K.C.C.B.j.k.k.k.l.3.2.3.l.g.l.c.e.0.[ ( N j 6 = - 6 6 - a s a a - > > : : 6 6 f d a - * # # # 4 4 7 7 7 6 6 4 7 7 q 4 4 4 4 4 4 4 6 7 7 4 4 7 6 6 = = = * = 8 4 = = # X . . X $ = 6 f p p d p g j z Q [ ) R E r r 3 3 3 3 3 3 I / | g.b.S.S.k.q.,.,.;.9.q.9.] A f a a a a d M S ] ] ;._ _ -.q.k.I.I.H.H.G.G.H.H.D.A.p.1.,.D M j s 9 ;                                                                                                                                                                                                       ",
"                                                                                                                                                    X X X # : t F ` ] ] ] ] G A s 6 6 s A u.F.H.`.`.`.`.H.H.H.H.G.G.J.K.C.C.C.V.V.N.j.p.p.p.p.p.p.p.i.p.p.p.y.y.y.p.p.p.y.y.q.q._ D S S S x A A S S A A d x S t.H.H.`.G.G.G.G.K.K.K.K.D.J.H.H.H.G.F.B.j.{ S N g g 0 7 6 6 6 6 s M d d d v v a - - , = = > 6 s j d 6 = = $ 8 0 g p g g g g g g g g g g p 7 7 7 7 p p p 7 7 e e 7 s a a a s s v b 6 = o . . X % : 9 f p p d p d M S [ { |  .E E I E W I I I 3 I W <.l.Z.Z.k.u.>.;._ D ] 9.] S d 6 = > > 9 a d A G ] ;._ _ >.t.S.I.<X<XH.G.K.G.J.D.A.N.p.>._ D A M s > *                                                                                                                                                                                                     ",
"                                                                                                                                                    X X X X % : t s d v v v a - - * * 6 j t.F.I.XXXXXX`.H.H.H.H.H.`.H.H.H.G.C.C.B.V.j.j.p.p.y.t.t.t.t.t.t.3.t.1.1.3.y.p.u.y.q.>._ D D D S A A A A A j M d A z t.D.H.`.G.`.G.G.G.G.G.H.H.XXXXXXXX`.G.D.l.Q p 7 4 $ $ $ $ = 6 s A F G A M M v s 9 = * * * = 6 f j v 9 = = = q s j g g g g g g g g g g g g g g g g g g g g g g g s d d s s s v M M b : o . . . % > > f f f p p s M S [ { | |  .^ W / / W I I I E Q <.p.k.k.k.u.>.,.D D ] #.] A s 6 * * - - 6 a V S ] ;._ _ ,.q.S.XX<X<XXXH.G.G.J.D.A.N.p.q.;.D D A d a - - ;                                                                                                                                                                                                 ",
"                                                                                                                                                    . X X . X X # # * * * = * # # o o * d t.I.XXXXXXXXXX`.`.`.`.`.`.`.`.H.G.D.D.C.B.k.j.p.p.q.1.q.>.>.,.>.>.>.>.-.2.q.y.y.q.>.,._ D D D G A A D S S A M d j x q.A.H.G.K.G.G.G.G.G.G.G.H.H.XX`.`.`.J.D.j.k 7 4 $ $ $ $ $ = 9 M #.9.G A d d f a a - * # # * - s d v 9 * $ $ 8 0 g g g g g g g g g h g g g g g g g g g g e e g g s n M v d d d j M b ; o . . . % > - 6 f f p p s M z [ { | |  .W W ^ W E I I I E  .2.y.k.k.k.u.9.;.] G ] 9.] V f - * * > > 9 a M S D ] D D ,.1.k.I.<X<XXXH.H.J.D.A.B.k.p.1._ D D D A j j M M b > ,                                                                                                                                                                                           ",
"                                                                                                                                                  . . . X X . . . . . . . . . . . . X * p u.U.H.H.H.H.H.`.`.`.`.`.`.`.`.`.`.H.J.D.B.N.j.p.y.t.>.:.:.;.,.,.,.,.,.,.>.1.t.t.1.,._ D D D ] G D G ] G G A v d d x 9.Z.J.G.G.G.G.G.G.G.G.G.G.`.`.`.`.~.F.C.3.l 4 $ & & & & & $ 9 V 9.r.9.D j d a a a > * # # * > s v s - * $ $ 4 0 g g g h h h h h h h h h h h g g g g g e e w g g g n M M M d d j d b ; o . . X ; > > - f p d a a j z Q { { | | W E ^ ^ E E I E E ) <.y.k.k.k.u.9.] ] G ] 9.H M a = * * > > > a v A D D S z ,.>.k.I.I.`.H.H.G.D.D.B.B.k.p.1._ D _ _ _ _ _ ] F v > * . .                                                                                                                                                                                       ",
"                                                                                                                                                  . . + X X X X . . . . . . . . . . o - v u.U.H.F.D.A.D.H.XXXX`.<X`.`.`.`.`.H.H.D.A.N.j.p.p.t.1.q.9.,.;.,.>.>.,.-.2.q.y.y.q.:._ D S D ] ] D G ] G G A M d d x >.Z.D.G.C.G.G.G.G.G.G.G.G.H.`.`.`.G.C.z.<.l 5 1 & & & & @ $ 8 M ] 9.;.D x j d s s - * # # * > a s b > ; $ $ 4 0 w w l h h h h h h h h h h h h l g e e e w w l g g n M M M d j j d a ; o . . . # > > - f f d p 6 d k Q Q ) |  .E E E E I E l l E Q 2.y.k.k.b.s.9.;.] ] #.9.#.V a = * * * > > a v A S D S S ;.q.k.I.I.H.H.G.D.D.D.C.A.k.i.q.,._ ;.:._ Q _ ;.] V 9 * X . .                                                                                                                                                                                     ",
"                                                                                                                                                  + . + X X o X . . . . . . . . . X # > M t.S.S.k.u.t.j.F.XX<X<X<X;X`.`.`.`.`.G.D.C.N.j.p.p.y.t.t.q.9.:.>.9.9.,.>.2.q.t.q.q.,._ S S G ] G A A G G G A v a d j 9.Z.D.G.K.G.G.K.G.G.G.G.G.G.G.G.G.~.F.F.g.E 2 2 2 1 1 & & & 4 g ( ;.,.D x j d v b - = * # = > 9 a a > * # $ = 0 g h E R R R R R R R R E E E E E E h h h h E E h h N V M v v M j v 9 = o . . X * > - - f a d f f j k Q Q Q | |  .E E E E E R E Q [ <.u.k.b.b.s.9.] G G H #.H M a = o # * , > a v A A S S D ;.>.u.A.H.K.D.D.D.C.C.C.D.B.i.t.,.,.:.>.,.,.-.,.;.A 9 * X . .                                                                                                                                                                                     ",
"                                                                                                                                                  + . . X X o X # X X o # % # o % # $ = a ] 9.9.] A z ,.k.I.XX<X<X;X;X;X`.`.`.`.G.D.B.j.p.p.y.y.t.q.>.,.,.>.:.,.,.>.1.q.q.>.] D x x A D A M M A A V v s a a d :.Z.D.J.C.K.G.D.D.G.G.G.H.G.G.~.G.C.C.x.d.E 3 3 2 2 2 2 & 1 5 h ( 1.,._ z j d s b 9 > * * = : 9 9 > * # # $ 4 g ! ( ) ) ) | ) ) ) ) ) ) W W ^ W W ^ ) ) Q  .) ) ( g v s 9 6 6 6 6 9 > * o o # * > - f f p j d M S [ 2.2.<.<.<.| | } | | ) [ [ { r.r.k.k.b.b.u.] S A M A F A v 9 * o O * , > K b v A S A z ;.>.t.N.B.B.B.B.B.B.B.Z.Z.k.u.q.,.,.9.>.1.1.1.q.9.A > * o X X X                                                                                                                                                                                   ",
"                                                                                                                                                  . . . . X X # # $ $ $ = 9 8 : : : = * 6 s d d 6 = = j u.I.XX1X1X;X;X;X`.`.`.G.G.C.V.V.j.p.y.y.y.t.1.,.-.,.,.,.,.>.1.>.>.,.] D j j M A M j d f f v a a - f d :.S.D.D.D.C.K.D.D.D.G.H.J.K.G.~.C.F.F.x.d.W 3 3 3 3 2 2 2 2 r R [ 2.2.,._ j p s b a 9 : $ $ : > = * * o X @ 4 N [ { } } } } | } } } } | | } | | } | | | | <.5.} ) N 4 = = * * = 6 - - - - * - > a f 6 p d j A S ;.2.r.d.g.l.l.g.g.g.g.g.r.r.r.y.y.u.k.i.k.s.r.G M s s s v v a - * o # # , > K a v A A x x _ ,.q.y.j.j.j.j.j.j.j.B.Z.k.u.q.9.;.9.q.t.y.u.q.9.A > # X X X +                                                                                                                                                                                   ",
"                                                                                                                                                  . . X . # ; 8 0 g g g N C Z m n c 0 4 = = 6 = * # # d u.U.XX<X<X;X`.`.`.`.`.G.G.K.V.V.j.p.3.y.p.y.1.>.-.>.>.-.-.>.q.>.,.] D S j j M M j d f f f a a - - f d ;.S.F.D.D.K.K.D.D.D.D.G.D.D.G.G.C.x.f.f...I L L L 3 3 3 3 I E } 5.g.3.1.,.x d v v v s 9 = = : = * # o o X $ 0 ` { <.5.d.5.5.<.5.<.<.<.} | } } } ..6.f.f.h.x.x.z.0.N 4 $ # # # * - a a a a a a v v d p d j A _ ] q.l.l.l.l.z.z.z.l.z.b.b.b.l.k.k.k.i.k.k.k.b.r.G v a a a b b 9 - * o o # * > K b v V A x x _ ;.>.q.3.3.y.3.j.j.j.k.Z.k.u.9.D M A D _ ;.;.;.F b ; # X X X X                                                                                                                                                                                   ",
"                                                                                                                                                  . . . . # t n ' [ { [ $.$.$.+.' ` m 6 $ $ # @ X o # s r.S.XX1X<X;X;X;X;X;X`.G.G.K.V.V.V.3.p.p.p.p.3.1.1.1.1.>.1.1.1.,._ _ D A M j M M d f 6 6 - 6 - - - a f ;.b.D.D.K.D.C.D.D.D.D.J.D.D.J.F.x.6.<.| / I I L L L L I W / 6.z.z.l.j.y.,.S j V V M M a : : > = * o X o @ $ 0 ' 0.d.6.f.5.5.6.5.5.5.5...........6.f.x.x.W.~.(.n.g.! 4 & # # # # 6 s d d v d M A A A j x z _ ;.>.k.Z.m.m.z.z.z.z.m.m.m.m.b.m.b.k.k.k.k.k.b.b.r.S d a 6 9 a a 9 - * o o # * > K a v M A x x _ _ -.2.2.3.y.3.3.j.j.k.k.k.t.;.d - - a d d A M v 9 ; # X X X X                                                                                                                                                                                   ",
"                                                                                                                                                  . . . . = c ~ r.d.d.d.g.g.d.e.$.' N 0 $ $ @ X o o # a 9.S.XX2X1X;X;X;X;X;X;XG.G.K.C.V.V.p.p.p.p.p.y.3.3.3.3.3.t.t.q.,._ S A M M j M d f 6 6 6 - - - > - a s ;.b.F.D.D.D.D.D.A.D.D.D.D.D.H.D.l.2. .E E I I U U U U W W | g.n.n.m.l.p.>._ S G A A M s > : > = # X X # # $ 0 ' g.d.6.f.6.5.5.5.5.6.6.......5.5.6.x.W.W.]._.).F.v.' 4 @ # % # # 6 d d j A A A A S S A S S _ ;.1.k.F.F.m.l.l.l.z.m.m.b.b.b.k.k.k.k.k.k.i.k.b.r.S f 6 - a a a 9 - * o # * * > K a v M A j x D _ _ -.-.1.y.y.3.3.j.j.k.i.q.G 6 o o * - - a 9 > ; % % o X X X                                                                                                                                                                                   ",
"                                                                                                                                                  . . . X = n O.g.f.f.g.z.z.g.g.<.[ k 7 = $ # # o X o 6 9.S.XX2X1X<X;X;X;X;X;XH.H.G.C.V.N.j.p.p.p.p.y.3.3.y.p.p.u.u.t.:.D x j j M M v v f 6 6 6 - - * = = a a ;.b.F.D.D.D.D.D.A.D.D.D.D.D.H.D.l.{ R h l I I I I I I W W | f.m.m.z.j.p.1.,.] G A A j a 4 : > = # X X # # $ e ' g.f.f.f.f.f.5.6.6.6.6.........6.h.x.W.W.]._.).n.g.' 4 @ % % # # 6 d j A A A A S D D A S S _ ;.>.u.b.m.m.z.z.x.z.z.m.b.b.k.k.b.k.k.k.k.u.s.s.9.S s 6 6 a b a 9 - * o # * * > > a s M M j j ( _ _ [ >.q.3.3.3.3.3.j.k.u.9.A = . . . X o o * # o o o % o X X                                                                                                                                                                                   ",
"                                                                                                                                                    X X X 4 m +.z.z.z.f.z.z.z.f.<.) k 7 = $ # X % o # f 9.S.I.<X<X;X;X;X;X<X<XH.H.G.D.A.V.N.p.p.p.p.p.3.3.p.p.i.i.i.t.,.S x j d d d v v d f f a 6 > * * * > a ] k.Z.C.C.D.C.D.D.D.D.D.D.D.D.Z.j.[ R h h E E E E I I E W | d.b.l.l.j.y.t.>._ D x j j a 4 = : * # X o # $ $ g [ d.g.f.f.d.d.5.6.6.6.6...........h.x.W.W.]._.).n.g.' 4 & % $ # * 6 j j A A x x S S S A S S _ _ :.y.z.m.m.x.x.x.x.x.m.m.b.k.k.b.k.k.k.k.u.s.s.9.S d 6 6 a v b 9 - * o # * * > - 6 a j j j x ( _ _ _ >.q.p.y.3.3.3.y.k.u.9.V * . . . . . . . . X o o % o o X                                                                                                                                                                                   ",
"                                                                                                                                                    # # $ 0 ` 0.m.z.h.f.x.x.z.f.6.2.Q g 4 $ $ % ; * = d 9.k.D.I.G.G.K.G.J.J.H.D.D.C.B.B.B.N.N.N.N.N.p.y.3.y.p.p.u.u.q.;.z j d f d v v v d a a a a > * * * > a G u.N.j.j.B.B.D.D.D.D.J.D.D.D.A.k.9.] ( ) ) ) Q W E E E ^ | 0.l.b.l.j.p.y.>.,.S j j j s 8 = > = * # * : : 4 g [ <.d.d.d.d.6.6.6.................h.W.W.Q.]._.).~.l.' 0 $ $ = = - a M A S S S z S S S A S S _ [ :.y.b.m.n.C.F.F.C.C.n.n.m.b.b.b.k.k.j.k.i.k.s.r.S M a 9 b v b a - * * * * , > > a f d j A z ( _ _ [ q.t.u.y.3.3.3.j.k.u.9.V ; . . . . . . . X X o o % # o X                                                                                                                                                                                   ",
"                                                                                                                                                    $ $ 4 k $.c.F.n.x.h.x.n.x.h.6.<.) k 7 4 = 8 8 9 6 V 9.u.k.A.N.N.N.Z.Z.S.S.N.N.k.p.N.B.A.A.A.A.A.N.p.3.t.t.t.t.t.q._ x j d d d d v v d a a a b > * > > > a G u.i.y.3.j.j.A.D.J.J.J.D.D.D.Z.k.u.q.q.q.<.{ { | Q ^ ^ ) | 0.l.b.b.l.j.p.1.,.D j j j a 6 = 6 6 = = - 6 q q g ) { } } } } ..6...................f.h.x.Q.(.(./.n.g.' 0 4 = = - f j A S D ] D D S D S x A S _ [ :.l.m.m.F.F.F.F.F.F.n.F.m.m.m.S.k.k.k.k.k.k.b.r.G j a a b v v a 9 * * * * > > 9 s f j x S ( _ _ [ [ 9.t.u.y.1.1.3.l.k.u.9.A = . . + . . . X + + o o % # o o                                                                                                                                                                                   ",
"                                                                                                                                                  n N R ) } v.^.oXoX/.~.~.~.n.f.6.5.| R l h h h k k N F F G #.#.] D ] ;.;.] ] G G ;.:.p.A.J.K.K.J.J.Z.p.>.,.,.:.,.>.;.S j d d d a a a a a a f 9 > = * * * - 6 A 9.q.1.1.1.3.B.D.D.D.D.D.D.D.A.Z.k.k.k.k.p.p.y.y.2.<.<.<.r.l.k.S.Z.Z.k.u.y.1._ z z A j d f d f f f p a p s g n m m N ! ) d.f.h.h.h.h.f.h.h.f.M.f.f.f.f.d.d.g.r.{ ( N j d j j j x A G _ ] ] _ _ ] ;._ _ :.:.[ <.r.f.f.f.h.h.M.M.z.m.F.m.Z.S.k.k.k.k.k.i.k.s.q.G j f f s v v a - * * * = > 9 a a p j x D _ _ D ` M A G ] ] _ _ ,.1.r.9.] M - # % % o # o X X X o # # % o X                                                                                                                                                                                   ",
"                                                                                                                                                  ` &.} 5.z.Q.+X4X4X+XoX/./.Q.f.6.5.} Q E Q ) ) | ) ) ( n d d s a 9 a s a a a a a d S t.A.J.J.J.H.H.Z.p.:.D z _ _ ] D j d s s s a a a a f - - - > * * * * * - j ] ;._ ,.-.2.j.B.D.D.D.D.D.D.A.A.k.Z.Z.N.N.k.k.k.k.p.k.j.k.k.S.A.F.Z.N.k.i.t.-._ _ D S A j A M j j j j d s 0 6 6 4 7 g R d.z.Q.Q.Q.Q.W.Q.x.x.Q.h.&.&.| ^ ( ( ( k N ( ( A D D D _ D D ] ] _ _ ;.>.,.,.:.q.2.<.r.<.6.5.....=.=.h.h.z.n.m.Z.Z.N.Z.Z.k.k.k.i.s.q.D d f f f v d f - * * * - > t b s d j x _ _ _ A V 6 a s v v d j S ] [ [ D j 6 * = : * * # o o X o o # % o                                                                                                                                                                                     ",
"                                                                                                                                                n +.g.g.h.^.+X7XyXyXrX6X7X+X/.x.6.f.6.} } d.g.g.f.6.<.[ l 6 - = = * = - = = * * * - j q.A.I.H.H.`.H.A.p.,.x j x S S A d f s a a 9 9 f f K - - * , * * * * * - d G ] _ _ ,.>.j.B.D.D.D.D.D.D.D.D.A.C.A.Z.Z.Z.N.N.k.k.k.N.Z.Z.S.A.A.Z.Z.N.k.u.1.,.,.:.;.G ] ] D S j A A j s 6 4 = $ $ 5 h g.Q. X.X.X X). X).).).Q.&./ w 5 5 7 7 p h _ ;.;.,.;.,.,._ _ ] _ _ ;.q.i.i.k.k.k.l.l.l.<.}  .W W W / X...f.z.z.Z.Z.k.Z.k.k.k.u.i.s.r.G j p f f v d f - - * * > > b b s d j z _ >.] A d = * * = = * 6 s j j j j j a q 9 t 9 9 : * o X X o # % %                                                                                                                                                                                     ",
"                                                                                                                                                h &.v.g.z./.&XrXSXVXcXvXyX8X+X~.n.x.z.z.z.n.^.^.~.C.l.2.k p 7 6 6 - 6 6 6 = = * * 6 j q.D.`.;X;X<XI.D.p.,.x j A z S A d s s a a 9 6 a a - - * * * o # # * * - v S ] _ _ ,.-.j.A.D.K.J.D.D.D.A.A.Z.A.A.A.Z.N.N.N.k.k.k.N.B.B.B.A.A.A.A.S.Z.k.p.q.q.q.9.9.;.9.] D x x M j p 6 4 = # $ 5 h g./.+X$X%X%X%X$X$X$X$X(.d.^ 5 1 1 $ 4 7 g _ >.:.>.>.:.,.;.;.,.,.,.>.k.F.U.I.I.I.U.F.m.g.| W I I I U U U ..g.z.m.b.k.b.Z.k.k.u.k.k.t.] j p p d v d f 6 - * * - 9 b b d d j _ ,.q.;.A s # X X o X X $ * 6 6 p j j d v v M M M b > ; o X o % %                                                                                                                                                                                       ",
"                                                                                                                                              0 h &.z.f.h./.4XyXZXCXZXVXvXuX5X).(.(.(.Q.Q.^././.).(.C.5.Q p p p p 6 6 0 6 = = * * - d >.D.XX<X<X<X`.A.p.,.x d x z S j d a a a 9 > 9 a a a - * * o X o o * * - s A G D D _ -.p.Z.D.J.J.D.D.D.C.B.B.B.B.B.N.N.N.N.N.N.N.N.N.N.B.A.A.A.A.A.S.k.i.p.t.t.q.9.9.9.] D x x j j a 6 4 * # # 4 l g./.$X%X%X%X%X%X%X$X$X}.d.~ 5 & & $ $ q g ] 2.>.-.>.:.,.-.,.,.,.,.1.N.I.XX<X#XXXU.U.F.g./ U L L L L L L | f.z.m.m.z.m.m.k.l.y.u.i.q.] j p p d j d f 6 - = = - 9 b s d d k _ >.q.9.A s # . . . . . X # * 6 7 j j j j j M V M c 9 ; # X X o o                                                                                                                                                                                       ",
"                                                                                                                                            4 e ^ =.h.7.7.~.$XtXVXZXVXVXvXyX8XOX'.).).(.(.(.(./.'._.C.8.Q l l k p 7 7 0 q = = * * - d 9.A.I.<X;X`.H.A.t._ j p d j x j a 9 6 > > > - > > > - * # o X X X * * * a M D S D _ ,.y.k.A.D.J.D.D.D.D.B.B.B.B.N.N.N.j.j.N.k.N.N.N.V.N.B.B.B.B.B.B.k.u.y.3.t.q.>.>.:._ S j x j j d 6 = # # # 4 l d.(.%X%X%X%X%X%X%X%X$X(.d.~ q & & & : 8 g _ 2.-.-.2.>.,.,.,.,.,.,.>.k.H.I.XXXXI.F.F.F.d.W I L L L L L I / f.z.m.m.l.b.l.l.y.t.y.i.q._ j p f p d f 6 6 - - = - 9 a s d j k _ :.9.] A a # X + + X X # $ = 6 p j j j p p d j M v 9 ; # X X o                                                                                                                                                                                         ",
"                                                                                                                                          1 q R / d.h.7.7.].+XrXSXZXVXSXcXlXyX6X5X3X%XOX)._.'.OX%X'./.x.4.Q Q Q k l l h s 6 = * * = f ;.S.I.XXH.`.H.N.1.D j f j j j j a - = = = > - > > - * # o X . . X # * * a M S S z _ _ t.k.A.D.J.D.A.A.A.B.N.N.N.k.j.j.j.j.k.k.N.N.N.V.N.V.V.B.B.B.N.k.j.y.3.3.3.1.>.>._ z j h h j d 0 4 # # # = l d.~.OX%X%X[.'.OXOX%XOX~.d.` 0 & % < : 8 j _ 2.2.-.>.,.>.,.-.,.,.,.>.k.H.I.XXXXJ.F.F.Z.<./ U L L P L L I / f.z.b.z.l.l.l.l.p.y.p.i.q._ j p f p f a 6 6 = - - - 9 a s d j x _ ;.9.] A p # X + X X o % : 8 6 s h k k l p p g n v 9 ; # . X X                                                                                                                                                                                         ",
"                                                                                                                                      = 1 1 r ^ ..h.x.h.h.(.$XtXVXCXVXVXVXcXxXyXfXfXtX9X3X$X3X5XqX3XOX(.8.4.2.| ) R k R h 7 4 * # * 6 ] S.I.I.XXXXH.N.q._ j d M j A M a - = = = * * * - * * o X X . . X # * * a M S x x z _ q.k.A.D.J.D.A.A.A.B.B.N.N.k.j.j.j.N.N.N.N.B.B.B.B.V.A.A.A.B.B.k.j.j.p.p.y.3.1.1.,.D x x j p d 0 4 $ # # = g g.^.+X%X$X%X%X%X%X$X$X/.r.( 0 # % < : 8 j _ 2.1.1.1.>.q.>.,.,.,.-.1.k.H.XXXXXX`.H.H.C.5./ I L L P L P I X.f.m.m.Z.z.b.l.k.l.y.k.k.u.] j p f p d a 6 6 - - - - 9 s s v j A ] 9.9.[ D d # X X . X X % : 4 6 0 l k k h l l l k j 0 : # X . X                                                                                                                                                                                         ",
"                                                                                                                                = : 8 8 q q Y / &.M.W.x.W.).4XyXVXGXZXVXCXZXZXnXnXnXmXkXfX0X0X0X0X0X8X+Xn.f.f.6.<.) ) ) R l 7 * $ * 6 G s.U.I.I.H.J.N.1._ j d M A j d s > : ; * * * * * * o X o X . . X # * = 9 M V A x z _ 1.k.A.D.D.A.B.A.A.B.N.B.B.B.V.j.V.B.B.k.B.A.A.A.A.A.D.D.D.B.A.B.k.k.p.p.j.p.p.q.-.D x j p p g a 4 # # o = g g.|.+X4X3X%X$X$X+X4X+X^.g.] 0 $ # % : : M ] 1.1.1.t.q.q.9.>.>.>.-.2.N.I.XX<XXXXX`.G.n.5./ U L L P L L U / f.m.m.Z.k.b.k.Z.l.k.k.k.u.] j p p p f a 6 - 6 - - - 9 a a d j G G 9.9.] G j # o X X X X $ 4 4 7 g k R R k R k k R g 0 q # . . .                                                                                                                                                                                         ",
"                                                                                                                              & 8 8 8 u q q r E ..h.W.W.Q..X&XuXVXGXZXVXCXCXCXZXZXZXnXnXmXjXjXkXfXfXtX5X~.x.h.6.5.| } <.[ R l 4 * * 6 j #.u.i.j.j.i.t.,.S j M A A A M s > ; ; # o o o # o X . . X . . + # # * 9 v M j x x D >.t.j.k.N.k.k.N.B.N.N.B.B.B.V.j.l.l.l.j.j.k.l.B.B.B.B.B.B.B.B.B.B.B.N.j.j.j.p.t.>._ x x x j A M 0 = * o = 0 $.m.^./.oX/./.}./.oX}.n.2.S 6 # $ : : 6 j _ 1.1.1.t.q.q.9.>.,.,.-.-.j.H.`.XXXXXX`.F.x.5.W U L L P L L I X.f.m.m.Z.Z.Z.Z.k.l.y.u.u.9.] j p f f a f 6 - 6 - - - 9 a a a s M M A A M M p # # # # # $ = 0 e h ! ! ( R k R k R R h 0 6 # . . +                                                                                                                                                                                         ",
"                                                                                                                          # # & 8 8 u u 1 2 5 r / =.Q.Q.Q._.$XrXcXCXZXVXCXCXCXZXZXGXDXZXnXnXmXkXkXkXkX8X/.x.x.f.6.5.5.f.<.) k 7 = * = 6 d j S _ _ ,._ D x M V V A A v a > = # o X X . X . . . . . . . o ; * * > s d j j x x _ >.1.3.y.1.3.p.N.N.B.B.V.B.l.l.l.l.6.<.5.f.g.l.l.l.l.l.l.k.B.C.B.B.B.V.B.B.j.y.1._ z z z _ ] G M a ; o * 6 ( 0.g.z.z.z.z.z.z.m.l.r.[ x 6 * = : 9 a k ,.1.1.3.t.q.q.q.9.>.>.,.-.j.D.H.XXXXXXXXF.l.} W U L L P P L I / f.z.m.Z.Z.Z.B.k.t.2.1.>.;.D d f 6 6 9 - - - - - - - 9 a 9 - - 6 6 a a 6 6 6 * * * = 4 4 7 k ! ) | | | Q E ! R E ^ k 0 6 # . . .                                                                                                                                                                                         ",
"                                                                                                                        @ @ # & 1 q q q 2 2 2 3 Y ..h.h.h.W.).&XlXVXVXVXZXnXnXbXbXnXnXnXbXmXmXkXkXzXzX0XoXW.x.x.6.6.7.x.z.<.Q p = = * = 6 6 p j x z D z S M M V M M v b > : # o X . . . . . . . . . . o ; * * > a f j j x z _ -.>.2.-.-.1.p.N.B.B.B.B.B.C.C.z.f.5.|  .} | | } } <.<.<.g.Z.D.A.B.C.B.B.B.k.j.t.-._ _ ,.,.9.9.G v , o * = g ! [ { 2.{ <.<.2.0.0.[ ( j p 6 6 s M A _ 1.y.y.y.p.p.y.u.p.y.1.1.3.j.D.J.F.^.XX^.m.6.| W I L L P P P U X.f.z.C.F.C.A.k.k.1.[ _ _ D A f f - - - - = = - - = = - - - * * * = = * = - 6 6 6 7 g l h ) 0.g.z.m.z.f.5.| ) ^ Q ) ! g q # . . .                                                                                                                                                                                         ",
"                                                                                                                      @ @ & & & & & 1 1 1 2 2 3 I / ........M..XuXcXcXcXbXxXzXkXkXkXjXkXkXkXkXkXjXxXxXyXOX~.Q.x.h.7.x.n.m.g.) l 4 4 = = = 6 6 p j z z z A N M v f b a 9 ; * # o X X . . . . . . . . X o ; * * > a f d j x D ,.,.-.-.,.,.>.p.N.Z.A.C.Z.C.F.F.x.f...W W W W E E E E R Q <.k.D.D.D.C.C.D.D.A.B.j.1.>.2.1.q.u.q.] V > o # # = 7 6 p g g j h h h k l l p a d M G ] :.q.i.k.j.j.k.k.k.k.k.k.j.j.j.B.D.B.l.z.m.z.5.| W W U L L P P P U ..h.x.F.F.D.B.k.p.,.z z S S A d 6 - * * * * * * = * * * * * * * * * * # * = 6 p k R ) { <.z.|.oX4X4X@XoXn.f.5.| | } ) h 6 # . . .                                                                                                                                                                                         ",
"                                                                                                                    X @ & & & & & & & & & & 2 2 r I W U W W ..Q.6XlXxXxXxXkXdXtX0X0X0X0X0X0XtXfXkXjXxXyXOX(.W.W.x.h.W.~.n.l.| l 4 4 = = = = 6 6 j A x x A M d a 6 f 9 ; * $ # o X X . . . . . . . X X o * * * > a a d j z _ ,.>.-.,._ _ -.p.N.A.C.C.Z.F.~.~.x.7.X.W W U I I 3 r r r E -.l.D.K.C.C.C.D.D.D.A.k.y.1.1.3.y.u.u.;.A > o # # # # = = = - - 6 6 6 7 7 0 0 s j A ] 9.t.p.k.B.V.B.B.B.B.B.B.A.A.C.C.C.C.l.2.<.<.} ) E ^ U U U P T T U W =.h.x.F.F.D.B.k.u.,.x x x x d a - * * * * # * * * # # * * * # # o o o o * * 6 j ( [ <.0.g.^.4XrXdXkXdX8X+X~.x.f.f.g.0.! 0 # . . +                                                                                                                                                                                         ",
"                                                                                                                    @ @ & $ $ 1 & & & & & & 2 2 3 3 I I I I / M.7XdXzXxXxXkXfX0X0X0X8X5X5X9X8X0X0XaXkX0XOX].W.x.h.h.W.Q.n.g.{ l 4 4 4 4 : = 6 0 M A x j j j a 6 - - = * # # # % o X . . . . . . . + o o * o * = 9 f d x D ,.>.>.>.,._ _ -.p.N.A.A.C.C.F.~.~.x.7.X.W U U U I I 3 r r E { l.D.C.C.C.C.D.D.A.A.k.y.1.1.1.1.t.q.] M > X o # # # = = > > > > 9 6 6 0 0 0 s d x D :.t.i.N.B.B.V.C.C.C.C.C.K.K.G.K.V.j.2.Q R E E I r E U U U U X.X.X.X.=.h.x.x.C.Z.B.k.i.,.x x x j d a - * o o o o o * * * # * # # o # o O X o * * 9 A ) | <.5.f./.6XfXmXnXmXkX8X+XoX}./.}.b.' n * . . .                                                                                                                                                                                         ",
"                                                                                                                  X @ & $ 1 2 2 2 2 2 2 2 2 2 2 2 3 3 3 I I / h.7XdXbXbXbXjXfX0X0X0X6X5X3X5X5X9X9X9X0X8X'.].W.x.h.h.W.Q.m.g.{ l 4 4 q q : = 9 v V G A j j g 6 6 * * * # o # # % o o X X . . . . . X o o * o # * 6 f d x _ :.1.1.q.:._ _ >.p.N.Z.B.B.B.C.~.~.x.7.X.X.U U U I I r r r l ) l.D.K.C.C.D.D.D.A.A.k.y.-.-.2.2.q.9.D d > . o # # * > > > > > > a 9 6 6 0 0 0 f j D >.p.k.B.B.B.C.C.C.K.K.K.K.G.G.C.l.3. .r w r r 3 3 I W W X.X.T.T.T.X...h.z.z.C.Z.Z.B.k.9.z z S A d a = * X X o o o O # # * * * o o O ; ; # # * = 6 ` [ } <.5.6./.8XjXnXDXnXbXfX6X5X4X&X@X|.0.m $ . . .                                                                                                                                                                                         ",
"                                                                                                                  X & & q r r Y Y Y Y Y Y Y ^ E ^ E E E E / | m.7XxXbXbXBXxXlXtXyXtX8X5X3X3X5X5X5X8X0X6XOX(.Q.x.x.x.n.n.m.g.) g 4 8 6 8 4 4 6 s M F F M j j 7 6 = = * # o # # * o o o o . . . . X o O * ; * # * 6 f d A ] >.q.9.9.;._ _ >.u.N.B.B.B.C.C.n.W.x.7.X.X.U U U I I I I r l ) l.D.C.K.D.A.D.D.D.A.k.y.2.1.2.t.q.9.] M > X X o o # * ; > = 9 9 9 a 9 6 6 9 - 6 p j ;.t.k.B.A.A.C.K.G.K.D.D.H.D.C.l.2.Q l r 5 3 3 3 3 I U X.X.T.T.E.E.E.7.7.z.x.F.D.D.A.b.9.z x A j v a * # o o o X X o o o # # # # # o # # # # * = s [ { 5.5.} 5.F.5XdXnXZXnXmXfX9XqXqX9X9X+Xg.~ 8 . . .                                                                                                                                                                                         ",
"                                                                                                                X # & 1 q i Y / / | } } } } &.&.&.&.&.&.&.d.g.Q.eXzXcXcXcXzXlXuXtXrX8X5X4X4X3X3X3X5X6X5XoX(.Q.x.x.x.n.n.m.g.) g 4 8 4 4 = = 6 0 M V V M M j 7 4 * * * # o # * * # # o o X . . X o O O ; * * * * 6 a d A ] :.9.9.9.;._ _ >.u.N.Z.B.A.C.C.x.x.h.=.X.U U U U U I I I I E ) l.D.C.K.D.C.D.D.D.A.B.y.1.1.1.t.t.q.;.A > X X o o # $ = > = 9 6 - 9 > > > 9 = - 6 d _ q.k.Z.A.C.D.K.G.G.K.J.H.D.l.f.Q l r r 3 3 3 3 3 I U X.X.T.E.E.E.E.7.f.z.Z.D.J.D.C.b.:.x x x d s a * o X + X X + o o o # # # # # # $ * # # = 7 h $.d.d.d.} 6.n.4XyXbXnXnXmXfXqXqXqXqX9X+Xv.O.8 . . .                                                                                                                                                                                         ",
"                                                                                                                X % & & q i ^ &.h.h.M.z.n.n.Q.^.|.^.|.|.}.}.}.@X6XtXrXrXrXeX6X4X7X7X4X+X+X+X+XOXOXOX+XOX/.(.Q.x.x.x.n.n.z.<.) w 4 4 4 4 = = = 6 s v M M v d 6 = # * # # # # * * # # # o o o X o o O * ; ; * * - 6 a d A D ] ;.:.;.] D S _ q.p.i.N.B.B.z.6.....W U U U U U I I I I I l ) l.D.C.K.D.C.D.D.D.D.B.y.3.3.1.t.t.q.9.A > X . X X o # * = = - - - - = - 9 s 6 6 p j ;.t.j.Z.D.D.D.D.G.G.G.G.H.F.l.<.E r r 3 3 3 3 3 3 L U T X.T.T.T.T.X.7.7.l.m.A.D.D.Z.b.9.j j j d a > * o X X X X X X o o o # # * * * : > 4 6 7 g ) c.m.n.x.h.h./.7XdXnXnXnXmXfXqXqXqXqX9X$Xm.' 0 X . .                                                                                                                                                                                         ",
"                                                                                                              X o % & & 1 r ^ =.Q.(.).(. X.X$X7X6XeXeXrXuXuXeXeX7X4X+X+X+XoX X X XoX X/./././.(././.).).(.~.n.x.x.x.x.x.z.<.( w 4 = = = = * * = 6 a s s s a 6 * # # # # # # # # # # # o o o o O O ; * ; ; * * - - a d j A D ] ] ] _ A x S ,.q.t.p.j.l.d.} W W U U P L L L L L 3 3 r r Q j.D.K.K.C.C.C.D.D.D.B.j.3.3.3.y.u.t.9.A - X . . . o # # * * = * * * * > a M f p j x ,.t.k.B.D.D.C.D.K.G.G.G.`.G.x.<.E 5 2 3 3 3 3 3 3 L P T X.T.T.T.X.X...6.f.l.Z.Z.z.k.i.] j d d f a - # o X X X . . X X o # * * = 6 6 s d s g N ( r.F.}. X}.(.(.+X8XkXnXnXbXjXaXqXqXqXqX9X$Xz.' 0 X X .                                                                                                                                                                                         ",
"                                                                                                              X % % & & 1 r / h. X%X%X).OX$X9XfXdXlXzXxXcXcXzXyX4X}.~.n.n.x.n.x.x.n.Q.F.F.~.~.~.~.~.(.(.~.n.x.h.h.h.h.z.g.[ k 7 4 = = 4 = * * * = 6 9 9 9 6 - * # # # # # # * * * # # # # * ; ; ; , , , ; * = - 6 a d j A S _ ] _ D A x D ;.9.t.u.l.l.<.W I I L L L L L L L L r 3 r r ( l.D.C.G.K.C.D.D.D.D.B.j.j.j.p.k.S.k.u.G a # o # # * * # # # * o # o # 9 A #.;.;.;.,.q.p.N.B.D.D.C.K.G.G.G.`.`.`.F.d.E r 3 3 3 3 3 3 3 L P T X.X.X.X.X.W  .| r.y.u.k.g.t.q.A p p d f 9 > o X . X . . . X o * = 6 6 p s j N F F ( [ <.m.+X4X7X7X4X7X8XjXbXZXDXnXbXfX9X9XqXqX9X$Xz.{ 0 @ X .                                                                                                                                                                                         ",
"                                                                                                              % % < & & 1 r | M..X*X%X'.OX%X8XdXxXbXcXBXVXZXcXuX+Xn.f.5.5.5.5.5.f.z.z.z.x.n.~.F.n.F.~.~.n.x.x.h.7.7.6.f.<.) k 7 4 4 4 4 = * # # * = = = : : : = # * * # # * * * * * * * * * > > , , , , > ; = - 9 a d M A D D D D D S S D ;.q.u.u.k.g.} E 3 3 L L L L L L L L I r r r ( l.D.K.G.K.K.K.K.D.D.D.B.V.B.B.A.F.S.S.9.V - - - > 9 > * o o o X o o # b 9.s.S.S.b.k.N.N.B.A.D.C.K.K.G.G.`.`.<X`.F.f.W r 3 3 3 L 3 3 3 L P T X.X.X.W W I E ) { 2.>.2.{ _ _ j f f f a 9 > o X . . . . . X * - f d j j N F +.+.9.2.r.f.^.7XyXlXvXzXxXbXZXDXDXDXZXbXfX9X9X0X0X0X$Xz.{ e & X X X                                                                                                                                                                                       ",
"                                                                                                            % % < % < & 1 r | M.%X&X*X).OX%X8XgXcXZXVXVXVXVXVXuX+Xz.f.5.<.5.<.<.d.f.g.z.z.m.n.n.x.x.F.F.x.z.x.f.6.6.6.d.<.Q k 7 4 4 6 6 4 * # # * # * * * * * * * * * * # # * * * * * * * > > > > > > > > * * = 6 a d M A S D S S S D D ] :.q.u.u.u.r.{ E 3 3 3 L L L L L L L L L r r ^ l.F.G.G.K.K.K.J.J.J.D.B.V.B.A.D.I.F.S.u.G d a a s v 9 * X X X . X . o v s.S.U.U.S.S.Z.B.A.A.A.C.K.G.G.G.`.;X;X`.^.z.W 3 3 3 L L L 3 L L P T X.X.T U I r l R _ [ [ _ ( k k p 6 6 f a 9 ; o X . . . . . o * 6 d M A S ( ( 9.r.0.<.d.l./.6XkXxXbXnXnXZXDXDXJXJXZXzX9XOX%X$X*X3XOXz.{ m 4 4 8 = = =                                                                                                                                                                                   ",
"                                                                                                            % % < < < & 1 w | M..X*X*X)..X$X8XvXBXZXZXZXVXVXVXiXoXz.f.5.<.d.5.<.d.f.g.g.z.m.m.z.z.z.n.n.m.z.x.f.6.6.5.d.<.( k 7 6 6 q 6 > * # # # # o # # $ $ # # # # # o # * * * * * * * - > > > > > * > * * = - 6 d j A A A A D _ ] _ ] :.q.t.q.y.r.&.E 3 3 3 L L L L L L L L 3 3 r E f.F.G.`.G.K.K.K.K.J.D.B.V.B.B.A.D.A.S.q.] j d d v v 9 # X X X . . . o v s.S.I.I.F.A.A.A.A.B.B.C.K.K.G.G.G.`.;X`.~.h.W 3 L L L L L L L L P P U U U I r r l k _ ;.[ _ ( k j 6 6 6 6 6 > * o + . . . . . o * 6 j S ( ( ( _ [ <.2.<.<.6.(.7XfXjXbXbXbXnXnXnXDXDXbXfXOXW.W.Q.W./.Q.f.0.[ m C N n 0 0 0 n                                                                                                                                                                               ",
"                                                                                                            % % < < & & 1 e | M..X&X%X.X%X&XeXvXVXZXZXVXVXVXVXyXoXn.f.5.g.g.d.0.d.d.d.d.g.v.g.g.d.d.g.l.z.g.f.f.5.5.<.<.[ ( g s 6 0 9 6 = * # # o o o o o o o # # # # # # # * * * * * - - - - > > > > = = = = = = 6 s M A A A x D _ _ ,.;.>.q.t.t.t.c.&.E 3 3 3 L L L L 3 L L L 3 3 r E f.F.G.`.G.K.G.G.G.G.K.B.V.V.B.B.D.A.k.q.] x M A V M a # X X . . . . o v s.A.F.D.F.A.A.B.B.B.C.C.C.K.G.G.K.`.`.`.~.f.W L L L L L L L L L P P P P L 3 3 5 w k ( ] ] _ N h j 6 = 6 6 9 > * + . . . . . X # = 6 M F ` ( ) ) { 2.{ | <.6.n.$X0XtXfXjXkXjXxXbXnXnXzX8X(.6.6.6.7.h.f.f.d.0.$.$.$.+.` ! ! ` ` `                                                                                                                                                                           ",
"                                                                                                          & % & < < : $ 2 r } n..X*X*X.X%X&XtXbXVXZXVXVXVXVXVXyXoXn.f.d.g.g.d.0.{ | | { { &.&.{ | } } <.0.<.<.<.| | | [ ( k s 6 6 9 9 6 = # # o o X X X o o o o # # # # * * * * * * - > - - - > > - - - = = = = - 6 f M A A S S D _ ,.,.,.,.q.t.u.y.c.0.E 3 3 3 L L L L 3 L L 3 3 3 r E 8.F.`.`.G.K.G.G.H.G.K.C.V.V.B.B.D.Z.i.q.] A j A A M a # X . . . . . o b u.A.D.D.D.A.A.B.V.B.B.C.C.K.G.`.`.`.:X'.(.h.W L L L L L L L L L P P L L L 3 2 5 g A G ] ] ] S N j 6 = = 9 9 > * + . . . . . X # = 6 M N ! ( ( ( [ { { { <.5.x.OX5X6X0X0XtX0XfXkXzXjXtX&Xn.........6.d.d.g.0.e.c.c.e.0.{ 0.r.0.$.#.                                                                                                                                                                        ",
"                                                                                                        & & & & & 8 q 1 r E =.Q.*X*X*X%X%X&XtXbXZXZXZXZXVXZXnXuXoXn.f.f.g.v.d.} ^ R h h k ! ! R R E ( ( ( ( ) ) Q Q ^ ! m 0 8 = = : : : = # o X o X X         o o # # * * * * * ; - > 9 9 9 9 > 9 - - - - = = - 6 6 f j A S D D D _ ;._ _ ,.q.p.u.u.l.0.E r 3 3 L L L L L L I L I I I  .l.K.`.`.`.`.`.`.`.H.G.C.V.V.B.B.A.Z.i.q.] A x A A M a # X . . . . . o b u.A.D.A.D.A.A.B.V.V.B.C.C.K.G.`.`.'.1XOX/.x.W I L L L L L L L L L L L 3 3 2 2 1 0 M D G ] ] A N v 6 = - 9 9 > ; o X . . . . o # - s N F ! ( ( ) [ 2.{ | } <.h./.OXOX3X3X3X5X5X8XtXtX6XOXx. .| } ......5.g.d.g.v.z.z.v.g.z.z.z.v.+.J                                                                                                                                                                       ",
"                                                                                                        & $ $ $ $ 1 q 2 r ^ d.Q.*X*X*X[.OX%X0XbXDXDXZXZXnXZXnXtXoXx.f.f.g.v.d.{ R w w 7 7 e g e l l h k h h k R E h l g 0 = # # o # # # % o X X o             X o o # * * , ; > - > 9 9 9 9 a 9 a 6 6 6 6 - 6 6 a a d j j A S S S _ _ _ ,.,.q.t.p.p.l.0.E r 3 3 3 3 L L L U W W W W W 4.x.`.`.;X;X`.`.`.`.`.G.C.V.V.B.B.A.Z.i.q.] A x A A M a # X . . . . . o b u.A.A.A.D.A.A.B.V.V.B.B.C.K.G.`.`./.oX/.W.7.W L L L L L L L L L L L 3 3 2 2 2 1 7 j A S G D M M s 6 - - 9 9 ; ; o . . . . . o # 6 s N F ! ( ( ) ' $.{ { <.<.f.~./.).OXOXOX%X$X5X8X6X4XoXx.} } } | | | } ..5.5.f.h.h.g.f.z.z.h.g.$.m 0                                                                                                                                                                     ",
"                                                                                                      : 1 1 1 1 1 2 5 2 r W =.!.*X*X*X_.[.%X9XzXnXZXDXZXnXnXbXtXoXn.f.5.f.v.0.{ h 7 4 4 4 4 7 7 w w l l w w w w l w w 4 $ X . . . . X X X X X                 X X o * * ; > > > > > - 9 9 9 a a a a a a a a a a s d d j j A A A S D _ _ ,.>.q.t.t.y.y.{ r 5 3 3 3 L L L U X.....7.6.5.f.~.`.<X<X;X`.;X;XXX`.G.C.V.V.B.B.A.Z.i.q.] A x S A M a # X . . . . . o b u.S.A.A.D.A.B.B.V.B.B.B.Z.D.J.J.F.F.~.n.h...U L L L L L L L L L L 3 3 3 2 2 & & 4 s j j A M j d s 6 = - - > * # X . . . . . X # 4 s N F ( ( ( ( [ $.{ { <.5.f.n.~././.).).'.OX$X5X7X&XoXz...} } |  . . .} } ..6.f.h.6.6.f.f.6.6.{ h 7 4                                                                                                                                                                   ",
"                                                                                                      1 4 7 e e r Y Y I I / ..!._.[._.!.!.!.*XtXgXbXZXVXbXnXbXtXoXn.f.5.f.z.d.{ h 5 1 4 4 4 4 6 7 w g g w 7 w w h g 0 4 $ . . . . . . . .                     X X o * * > > > > > > - 9 9 a a s a a a v v d d d d d d j j A x A A S D _ ;.1.q.t.t.t.t.{ r 5 3 3 3 3 L I W X.h.h.7.7.8.x.`.XX;X<X;X;X<X<XXXXXG.C.V.V.V.B.A.Z.p.>.] A x S A M a # X . . . . . o d u.S.A.A.A.B.B.B.V.B.B.B.Z.C.C.l.z.g.f.....W I L L L L L L L 3 3 3 3 3 3 2 2 & & 4 s j j j j j d s 6 - 6 9 > * ; X . . . . . X # 6 s N F ( ( ( ( [ { { { 0.d.g.n.~.^./././.).OXOX$X&X@X Xm...} } } ....6.6.6.6.h.x.x.x.h.x.x.x.h.5.) E 7 0                                                                                                                                                                 ",
"                                                                                                    $ 1 w ! &.0.g.g.g.....X.X.T.E.!.T.X.X.X.!..X9XgXbXVXbXnXbXyX+XQ.h.f.f.z.d.{ h 5 1 4 4 4 q q 7 0 g g g g g g h h g 0 $ . . . . . .                         X X o * * > > > > > > 9 9 9 a a a f f d M M M M M M j j M j A j j x A D D _ ,.>.1.t.y.y.{ h r 3 3 3 3 L U W 7.W.W.W.x.x.C.`.<X<X<X;X;X<X<X<XXXH.C.V.V.B.B.A.Z.u.q.] F A S A M a # . . . . . . o d u.S.A.A.A.B.B.B.V.B.B.B.Z.B.j.2.) E E I I I L L L L L L L L 3 3 3 3 3 2 2 1 $ $ 7 j j j j j d d d 6 - - > > * ; X . . . . . o * 6 s m S ( ( ( k ( [ [ [ 0.d.f.m.F.^.(.(.(./.oXoXoXoX}.^.f.} } ..6.h.x.n.Q.Q.W.(.)._._._._._./.(.x.f.&.' O.%.@.J                                                                                                                                                           ",
"                                                                                                  & 1 1 h { z.n.|.|.Q.M.h.=.X.X.X.X.X.T T T X.!.*XtXbXnXbXbXbXyX+XQ.z.f.h.z.g.&.h 5 1 4 4 4 4 4 7 0 g g g g g h h m n 0 : X . . . .                           X X o # * > > > > > > 9 9 a a a a d d d M M M M M A A M M j j j j j A A S D _ ,.>.q.q.r.{ l 5 3 3 3 3 L U X.h.!.W.W.W.W.].`.1X1X1X<X;X<X1X<X`.G.C.V.V.B.B.A.S.i.q.] S S D A M a # . . . . . . o a u.A.A.A.A.B.B.N.V.B.B.B.Z.V.3. .r r r 3 3 3 L L L L L L L 3 3 3 3 3 3 2 2 1 1 4 0 j j j j j d d s 6 = = = = ; % X X . . X X o = > 6 n M m k k k S ] ( ( { 0.g.l.m.m.m.z.z.x.F.^.^.^.n.z.} ) } ..z.(.oXOXOX'.OX%X$X$X%X%X&X$X%X.X).Q.n.z.m.m.c.w.o.                                                                                                                                                        ",
"                                                                                                : : $ 1 h d.|.oX$XOX'.].!.7.X.X.X.X.X.T T X.X.!.*XaXmXmXbXbXbXtX+XQ.h.7.h.z.g.{ h 5 1 1 1 4 4 4 4 7 0 g g g h h N k g 6 * X . .                               X X o * , > > > > > > 9 9 9 9 a a a a d v v v M M A A x x j j j j j M A x x S _ ,.>.2.0.' e 5 2 3 3 3 L U W =.!.!.!.W.W.].:X1X1X1X1X1X1X;X;X;XG.V.L.V.N.B.A.S.u.9._ S A S S M 9 # . . . . . . * v u.Z.A.Z.A.B.B.N.V.V.V.B.V.B.3.Q r r 3 3 3 3 L L L L L L L 3 3 3 3 3 2 2 2 5 q 0 j j j d d v d s a - * # # O o X X . . X X X o # = ; 9 6 s s g p k k ! ( ( [ ' [ ' &.&.{ &.0.g.g.g.d.0.} ) E | d.W.&X8X0X0X6X9X9X9X8X8X0X0X0X9X5X%X%X.X.X+X&X@Xm.%.C                                                                                                                                                       ",
"                                                                                              < < : $ 1 R v. X&X6X3X%X_.!.E.X.X.X.X.X.T T X.T.!.*XaXmXmXxXxXxXrX+XQ.h.6.f.h.g.{ E 5 1 1 1 4 4 4 4 q 0 n n g g h l g 7 6 * X                                   X X X # , > > > > > > 9 9 6 6 a a a f s d d d M M A A x j j j j j j j j j j x x z _ -.{ ( w 2 2 3 3 3 3 L U =.!.!.!.W.W.].:X1X1X1X1X1X1X;X;X;XG.V.L.j.j.N.S.N.u.9._ z A A A v 9 # . . . . . . * v u.Z.Z.Z.A.B.N.j.j.N.V.V.B.B.y.) r r 3 3 3 3 3 3 L 3 3 3 3 3 3 3 3 3 2 2 5 5 e g g j d f s d v s 9 * o o X X X X X . X X X X o # # # * = 4 6 7 7 g g h h k k m l e g g g g k ! ! ! ! ! R E l ^ ..(.0XzXxXbXgXfXfXgXgXgXzXzXgXfX0X0XaX9X9XhXhXuXoX0.O.                                                                                                                                                      ",
"                                                                                              & : 1 $ 1 h g.}.&X5X$X%X_.!.E.X.X.X.X.X.X.X.X.T._.*XfXmXmXmXzXxXrX+XQ.h.6.h.z.d.{ E 5 1 1 1 4 4 4 4 q 0 0 0 0 7 7 7 7 4 = *                                     X X o # , > > > > > > - - - 6 a a f f d d v v M M A A j j j j j j j j j j j j x z Q Q ) R w 2 2 3 3 3 L I W =.!.W.W.W.x.~.oX1X1X1X1X1X1X<X<X`.G.V.L.3.p.j.k.i.t.>._ x A A A v > # . . . . . . * v u.Z.Z.S.Z.Z.B.N.V.V.V.V.B.B.j.{ E r r 3 3 3 3 3 3 3 3 3 3 3 3 3 3 2 2 r e h m N M M d p s d d s a * o X . X X X X X X o o o o # # # # * = 6 0 g g k k k m m l 7 e e e w e h k k l l E R l I ) d.(.0XbXbXbXmXjXjXzXzXlXlXzXgXfX0X9XaX9X0XhXgXtXoXd.!                                                                                                                                                       ",
"                                                                                            & $ $ 1 1 1 r &.Q.oX$XOX_._._.!.=.X.X.X.X.X.X.X.T.[.*XfXmXmXmXmXxXrX+XQ.h.7.h.z.g.{ E w 5 4 4 4 4 4 4 4 4 4 $ $ $ $ 4 4                                           X X o # ; > > > > > > - - - 6 a a f s d d v v M A A A x x A j j j j j j j j x z z Q Q Q l 5 2 q 3 3 3 I I / =.W.W.W.x.x.~.XXXX<X<X<X1X<X<X`.`.D.V.3.3.3.y.p.t.q.:._ S S S M d > # X . . . . . ; v s.S.S.Z.A.Z.B.N.N.N.V.V.B.B.j.<.R r r 5 2 2 3 3 3 3 3 3 3 3 3 3 3 2 r i R N ~ C M M d f s v d d a = # o X X X X X X o o o o # # # # # # = 6 0 l h k N N N m g 7 4 q q q 0 g h h l E R E E E | 6.(.8XgXzXxXzXmXmXbXzXgXdXgXdXtX0XqX9XqXqX0XfXeX Xd.E 4                                                                                                                                                     ",
"                                                                                          q q e w e r l ) g.^.+X$X$X$X&X*X_.!.X.T T T T T T =._.*XaXmXjXkXjXzXrX+XQ.f.f.h.z.d.} ^ h e e g g 0 4 4 = $ $ $ $                                                   X X o # ; : > > > - - - - - - f a a s v v v v M M A A A x x x j j j j j j j x S S ( Q Q h w 5 r r r I I I W | ..6.6.6.5.6.l.l.k.B.Z.D.D.B.B.B.B.j.3.3.3.3.t.q.9.>.;._ D D A s 9 * o o o . X o ; M t.N.b.k.S.k.N.k.V.V.V.V.B.B.k.3.[ ^ h r r 5 3 3 3 3 3 3 3 3 3 2 2 3 i R ! N m M j d d f d d d d a - * o X X X X o o o # # # # * # # # # = 6 g g h k k k m j g 7 4 4 4 4 0 e g h l E ) |  .W } f.~.3XtXdXzXzXbXbXnXbXzXjXjXdXtX8XqX9X9XaXfXgXhX&XQ.g.^ N n                                                                                                                                                 ",
"                                                                                        n h R ^ | | | | g.F.+X4X7X6X6XuXtX*X!.=.T P P P P T X.!.[.9XjXkXkXkXjX8XoXn.f.6.f.f.d.} | ^ ! ! ~ ! h 7 $ $                                                           X . X # ; ; ; ; > = - - - - - 6 a a a s v v v M M j j j x x x j d j j j j j A D D D ( ( k e e e i Y Y Y Y E E E E E E E R Q Q Q Q ,.-.2.2.2.3.3.1.3.1.1.q.q.q.q.9.9.;.] D A d a - # # # X X # ; v 9.i.i.i.k.i.j.k.V.V.V.V.V.V.k.y.r.$.) R h r r I r 3 3 3 2 2 2 2 2 r r ^ ! N g d d f f f a d d d d > * # X X X X o o o # # # # * # # $ * 4 6 g m k N N k N m g 7 $ $ $ $ 5 7 w l R Q } 5.} } 6.z.W.'.3X0XdXjXbXbXbXbXbXzXzXdXtX6XqXqX9XfXhXbXzXeX&XoXm.{ +.o.                                                                                                                                              ",
"                                                                                        ` { g.z.x.x.x.x.^.+X7XwXuXyXyXcXBXeX.X=.U P P P P P X.!.[.9XfXkXkXkXjX8XoXn.6.6.6.f.f.d.} | | ' ' ' ! g 4                                                             . . X o ; ; * * = - - 9 9 a a a a a a s d v v M M M j x A S z x j j j j j j A A A A k m h e e g i h Y Y r r w w w l l l l l l p l x z Q _ -.2.3.1.1.1.q.q.q.q.q.q.>.,.;.] S M s 9 , * # o o * > v 9.u.q.q.q.t.i.k.k.V.j.V.N.j.B.j.y.q.2.[ ) ( ^ ^ E r r 2 2 2 2 2 2 r h R N m j p f f f f a a d d v a = * o X o o o o o # # o # # o # # # = 6 g j k k N k k g 0 4 $ $ $ 8 q 7 g k ( | d.f.6.6.6.x.].).%X8XtXtXdXjXzXzXmXmXzXjXfX0XqXqXqXaXhXjXzXtX8X&X Xm.b.$.                                                                                                                                              ",
"                                                                                      C e.m.+X7X8X6X5X7XrXyXlXvXSXZXVXJXCXuX.Xh.U P P P P P W !.[.9XjXkXkXkXkX6XoXn.f.6.6.f.f.f.<.} } &.&.{ ( l 4                                                             . X X o ; ; ; ; = > 9 a s a a a a s s s v v v M M M A A S D D D S x x j d d d d d d p g g w w e e 5 r e 5 w 7 5 7 7 7 7 7 6 6 6 p p x x z Q >.1.1.q.t.t.t.q.q.q.q.>.,.;.] D A v a > ; * # * > a A ] 9.;.;.>.1.p.k.k.B.V.B.j.j.Z.k.k.j.u.y.r.r.0.r.&.' R r 5 2 2 5 r r h m N m j p f f s f a a d v v a - * X X o o # o o # o o o # # # # # 4 0 n N k k N N m m s 4 = $ $ 8 q 7 e k { d.z.x.x.h.x.~._._.%X5X9X3X9X8XfXfXfXdXgXgXfXfXaXqXqX9XaXhXhX9X&X&X&X&X|.b.                                                                                                                                              ",
"                                                                                      N v.}.6XjXfXjXkXkXjXcXSXZXCXGXGXHXHXhX.Xh.U L L L P P T !._.9XfXfXfXkXfX8XoXn.6.6.f.f.z.f.5.<.<.<.0.0.) l 4                                                             . X X o ; ; , , ; > a b b s s a s b a a b v v d j M A S D ] ] D S S A M d s a a 6 6 6 7 7 7 7 7 q q 5 5 q q 4 4 4 = = 4 6 q 0 0 6 7 p j j D ,.1.q.t.t.q.q.q.q.q.>.>.,.:.;.] S M s 9 > = * * 9 v A ] ] ] D _ ,.q.j.j.B.V.j.j.B.k.k.k.k.k.j.j.j.l.b.g.0.) w 5 5 5 r r w h h k j d p a a a a a d v v v a - * o X o o # % # # o o o o # # # * 4 a j N k k k N m g g 7 : : 8 q 7 7 l R } f.n.Q.n.W.]._._.'.%X$X*X%X%X3X9X0X0XfXhXfXhXfXaXqX*X*X*X*X*X*X.X*X9X&X&Xm.                                                                                                                                              ",
"                                                                                      g d.^.$X0X9X0X0X0XkXzXxXcXVXZXCXJXFXeX(.=.U L L L L P W h._.5XfXaX0XfXtX8X Xx.6.6.f.f.z.f.6.<.<.<.{ { ) l 6                                                             . . X o ; ; , , ; > 9 a s s s a s v a a s v s d j M A S D D D D D S A M d a a 6 6 6 6 7 7 4 4 4 q 4 4 4 4 4 4 4 = 6 - 6 6 0 0 0 0 a p j j D ;.>.q.1.1.1.1.>.q.q.>.>.,.,.;.D S M s a - = * = 9 v A G ] _ D _ ,.q.p.j.V.V.j.j.k.B.k.j.j.j.j.j.p.l.k.r.<.) r 5 5 5 r e h h h g j d f a a a a a s d d v a - * X X o o o o # # # # # o # # # * 4 6 g k k k k k m g e 4 : : 4 4 q 7 h R } d.x.Q.W.~.].(._.'.%X%X%X%X%X%X$X3X3X5X9XfXhXhX9X*X_.!.!.!.!.T.E.!.*X.X@Xn.                                                                                                                                              ",
"                                                                                      0 } n.OXqXqXqXqX9X0XkXxXcXVXVXZXZXVX&XQ.X.U L L L L L U =._.&XfX0X0XfXtX6X Xx.6.6.f.f.h.z.f.<.<.<.<.{ [ l 6                                                             . . X o ; , * * * > 9 a s d d d d a a a a a a f d M A S D D D D D S A M d s a 6 6 6 6 6 7 6 4 4 4 4 4 4 4 4 4 4 6 6 6 6 9 0 y s s d j j j D ;.>.q.>.1.1.1.>.>.>.>.>.,.,.,._ D A d a - - - - a M A G ] _ D _ ,.>.t.j.j.j.j.j.k.k.j.j.j.j.j.3.p.j.j.y.2.) l w w r r r l h h g d f a a a a a a a v v v a * o X X o o % # # # # o o o o o # # 4 p g k k k k k m g 0 4 = $ 4 4 7 w h ^ } 5.x.~.(.(.(.]._._.'.%X%X%X%X%X*X%X%X%X$X9XfXhXaX*X!.7.X.X.X.T T X.!._..Xn.                                                                                                                                              ",
"                                                                                      e } Q.%X0X9XaX9X0XaXkXxXnXZXCXCXCXVX&XQ.X.U L L L L L U h._.5XfX0X0XfXfX8X Xx.6.6.f.z.z.z.f.5.<.<.<.0.[ g 6                                                             . . X o ; : * , * > 9 a s v v d d a a a a a a p d j A S D D D D D S S A M M j d d p f p p a 0 6 6 4 = = * * * * = = = = - 6 6 6 6 p p d j x _ ,.,.>.1.q.q.q.>.>.>.>.,.,.,.;.D A d a f 6 6 6 d A G ] ;.] _ _ ,.>.3.j.j.B.V.B.B.Z.B.j.j.j.j.j.j.j.k.y.2.) w 5 5 5 w w h h h g d d a a a a a a a v v v a * o X X o o o % # # # o o o o o # * 4 a g k k k k ! m g s 4 4 = 4 7 w l R | } f.W.(..X'.).]._._._.%X%X%X%X$X$X%X%X%X*X9XfXhXaX*X!.=.X.T T T T T.!._..XQ.                                                                                                                                              ",
"                                                                                      e } Q.$XaXaXaXaX0X0XdXxXZXZXZXCXCXBX&XW./ L L L L L L W h._.9XfX0X0XuXyX8XoXn.h.f.z.n.n.n.h.5.<.<.0.0.' h 6                                                           X . . X o ; : * * ; - 9 a v v v d d a f f a a a p d M A S G G D D S S S S A A A A j j j j j M j d d 6 6 = = = = = = = = - 6 6 6 a p p d j j z _ ,.-.>.1.t.t.q.1.q.q.1.>.>.>.,._ A d d f f a a j G ] ;.:.;.] ,.,.1.3.j.N.B.B.B.B.Z.B.j.j.j.j.j.j.j.k.l.0.[ l 5 5 5 w w l N k m j d a s a a a a s M M v a * # X X X X X o o o o # % % % # $ * 4 0 g k k k k ! N j 0 4 4 4 4 e h ! ) | ..h.~. X$X%XOX)._._._.'.%X%X%X5XqX*X%X%X%X9XfXfXaXqX_.h.X.T T T T T.E.{..XQ.                                                                                                                                              ",
"                                                                                      q { n.%XaXaXaXqXqX9X0XfXbXZXZXCXZXcX+Xh.U L L L L L L U h._.5XfX0X0XtXtX8X+X(.n.Q.^.}.}.~.z.5.2.<.0.r.' m q                                                           X . X X o ; : ; , ; = - a v v v d d a f f f a f p f j M S G G S S A S S S S S S D S z z S S A M d d a 6 6 6 6 - 6 6 6 6 f p d j j j x A S D _ ,.,.>.>.1.1.1.q.q.q.q.q.>.>.>.,._ z d d f f f p j G ] ;.:.;._ _ ,.>.1.j.B.C.V.B.B.z.z.k.j.j.j.j.j.j.j.u.1.[ l 5 5 r e h h ! N N M d a s a a a a s v v M a = # X . X             o o o % # $ * 4 a g k k k R R m j s 4 4 4 7 h ! ) } 5.5.z.(.OX$X&X%X_._._._._.'.OX%X3X5X3X%X%X%X$X9X0XaXaX*X!.=.X.T X.R.T.T.!.[.!...                                                                                                                                            ",
"                                                                                      0 { z..X9X9X9X*X*X*X9XfXgXbXbXVXBXgX.X=.U L 3 L L L L W !._.5X0X0X8X0X8X6X$X+XoX+X@X4X@X}.z.6.2.<.0.r.' n 9                                                           X . . X o ; : ; * = = - a v v v d d s a f a f f f p d j x A S A A j x z S S D _ _ _ _ _ _ _ S A M M a f f f a f a f d j j x S S D D ] ] 9.9.>.>.>.>.>.>.1.>.1.q.t.q.q.>.>.>.,.,.S j d f f a d A ] 9.9.:.;._ _ ,.-.2.j.B.Z.V.j.j.l.j.j.j.l.j.j.l.j.j.r.:.( w 5 w e m ^ ( ` ! N M d f a a a a 9 a v v v > * o X . .                     # # * 4 0 g k k k k k m g g 7 5 7 l ! | <.d.d.6.x.(.OX5X9X%X_._._.].]._.).'.%X9X5X3X$X%X%X$X9XaXaX9X_.!.X.X.R.T.T.T.E._.!...                                                                                                                                            ",
"                                                                                      1 ^ ..x._._._._.!.!._..X&X9XtXhXhX&X!.X.P L 3 L L L L X.!._.5XtX0X8X8X8X6X4X&X&X7XwXrX7XoXn.6.4.<.<.0.' n 9                                                           X . . X o ; : , , * = - a v v d v M v d d d f f p p d d j M A A j j j x S D _ ;.,.,.,.,.,.,._ D G G A x A A A A S G ] ] ] :.9.q.q.q.t.u.u.i.i.i.p.y.1.1.>.>.1.q.t.t.t.1.>.>.,.,.D x d f f p d S 9.9.9.9.:.,.,.,.2.3.3.j.j.5.2.2.<.<.g.j.l.l.j.j.j.j.y.q.[ k l h ^ ' 0.0.$.[ ` A j a a a a > 9 a b b b > * o X .                           = = 6 a g j h k m j n g 7 w l k ) 0.g.f.h.f.W.).$X8XtX5X'._._.(.]._.].).OX3X5X5X3X%X%X%X5XaXhXfX*X_.!.T.T.T.T.T.E.{.!.X.                                                                                                                                            ",
"                                                                                      1 r Y / ....=.X.X.X.X.=.!.!..X*X*X_.E.T P L L L L L L X.Q.*X9XtX8X6X5X6X6X6X6XwXeXuXyXwX@Xn.6.<.<.0.0.[ n                                                             X X X X o ; : ; ; = = 9 s v M A S S G A M j j d d d v d s f d d d p j j S D _ ;.:.,.,.,.,.,.,.>.9.>.,.:.:.>.9.9.q.q.t.y.u.i.k.k.N.N.A.C.D.C.C.A.Z.k.p.3.2.>.>.>.q.1.>.-.>.>.>.:.] S j j d d x S ] 9.q.q.t.>.>.>.1.1.<.<.| Q h h l ( <.3.l.k.k.j.j.j.p.t.2.2.[ { r.c.b.l.t.q.] G M a a a a a 9 b t ; : ; # o X .                             ; = 6 6 f s s s n h h h k ( | <.d.g.z.z.h.(.OX7XdXgX8X$XOX).).).).(./.OX&X5X9X5X$X$XqX9X0XhXfXtX*X!.E.T.T.T.T.E._.!.X.W                                                                                                                                           ",
"                                                                                      & 2 3 I I U U U U U U W X.T.!._._.!.=.T P L L L L L P X.Q.*X5X9X5X&X3X5X7X6XeXeXrXuXyX6X@XF.f.<.<.0.0.[ j                                                             X X X X o ; : : ; ; = 9 s v A S G G G G A A j j d d v s a a a f p p j j A S ] ;.:.:.,.,.>.>.1.q.q.q.t.t.u.p.u.i.j.k.k.k.k.Z.S.Z.A.D.D.K.J.J.J.H.D.A.j.3.2.>.>.>.q.>.>.-.>.>.>.:.] S j j M S ] ;.:.q.u.u.t.t.1.1.1.<.2.| ^ E r 5 5 h 2.t.l.k.k.j.j.j.j.y.3.1.<.0.g.b.Z.k.u.q.;.D j d s a b b t > > * # # o X X .                               = - - - 9 6 6 s h m k ( | <.5.f.h.x.x.h.(.$X8XlXvXyX6X$X).).).).(.(.).OX$X5X9X9X9X9X9X0XfXfXtXqX[.{.E.T.T.T.E.!.!.X.W | ' ' C                                                                                                                                   ",
"                                                                                      1 2 3 3 L U U U U P P U X.=.!._.[._.T.T P L L L L L I X.!..X%X%XOX'.OX+X4XwXrXrXrXrXrX7X+XF.f.} } <.0.[ n                                                             X X X X o ; : : ; ; = - a v A S G G G G S S A j M d v s 6 6 6 f p p j j j x D ] :.9.>.>.1.q.q.t.y.u.y.p.i.k.k.k.k.B.Z.A.A.D.F.D.D.D.J.G.G.G.H.H.H.D.j.3.>.-.>.>.1.1.>.-.:.:.,.;.] A j S D ;.q.t.y.u.k.i.p.t.t.t.1.1.<.| E I 5 2 2 h { t.l.k.j.j.p.j.j.y.y.y.g.r.l.l.k.u.t.>.;.G A v a a b b b > , o X X X X . .                                 * * * = * * 0 g N ! | <.d.d.f.h.x.x.h.(.$X8XvXcXlXtX5X.X).).).(.W.~.(.OX5X9X0XtX0X9X9X8X0XfX0XqX*X!.T.T.T.T.!.!.X.X.M.^.m.c.o.                                                                                                                                ",
"                                                                                      2 2 3 L L U U U U U P W =.!..X*X*X.X!.X.P P P P L P U X.!._._._.(.(.).OX&XeXrXeXwXeXeX7X@XF.d.} } 0.0.[ n                                                             X X X X o ; : : ; ; = - a v V S G G G G S S S A M M s a 6 - 6 6 p p d j j j S _ :.9.q.q.q.t.y.y.u.u.i.j.k.N.B.Z.A.A.D.D.D.D.D.D.D.J.J.G.J.G.H.I.H.D.N.3.>.-.>.1.t.1.>.>.>.>.,.;._ x x _ :.t.k.k.k.k.N.k.u.y.y.y.3.2.2.) E I 5 2 2 E 2.y.k.k.j.j.p.j.y.y.y.l.g.r.r.t.t.q.>.,._ D A v a a b b b > , o . . . . . .                                 # # # * # # 4 g N ) } <.f.f.f.h.x.x.x.(.oX5XlXcXxXlX8XOX).).(.Q.x.W.W._.$X8XtXtXtX8X8X8X9X0X0X0X*X_.E.T.T.T.T.T.T.!..XwX@XU.%.c                                                                                                                               ",
"                                                                                      2 2 3 L L U U U U U P X.!..X9XhXeX*X!.X.T U U U U U W X.!.!.W.].(.).oX+X7XuXuXrXeXwX6X7X@XF.g.<.0.r.e.+.N                                                             X X X X o ; : : : > : - a s M A S S G S S S G S A M s 6 6 - 6 6 a f j j j j x _ ,.9.q.q.u.p.p.p.i.k.k.N.Z.B.A.A.D.D.D.D.D.D.G.G.J.J.H.H.H.H.I.XXH.D.N.3.1.2.>.1.y.y.y.3.y.y.q.>.,.z _ >.i.S.F.D.C.A.A.N.j.p.p.p.3.2.2.| E E r 5 5 ! <.y.k.B.j.y.p.p.j.y.p.p.y.3.1.1.q.2.,._ _ D A M d a b b b > ; # . . . . . .                                   o # # # # 6 g ! ' } 5.g.f.f.h.x.x.x.(.oX7XvXZXZXcXdX4XoX X).Q.x.x.x.(.+X5XtXfXuX8XtX8X0XtXtXfXaX*X!.!.T.T.T.T.T.!.%XtX7X|.$.0                                                                                                                               ",
"                                                                                    1 2 3 3 L U U U U U U U =..X9XbXBXhX*X!.=.X.X.X.X.X.X.X.=.!.E.W.W._.OX+X4X6XyXyXuXeXeXwX7X4X^.l.0.r.e.r.$.C                                                             X X X X # ; > > > > > 6 9 a v M A A A S S S G S A M s a 6 - 6 6 s d j M A M A _ ;.>.1.t.u.i.i.i.k.N.N.N.A.A.A.D.D.D.K.G.G.G.H.H.H.H.`.`.H.H.XXXXI.D.B.p.3.3.t.p.i.p.k.j.k.k.p.t.>._ ,.u.A.I.XXI.D.D.D.A.k.j.p.j.y.3.<.<.| E r r r ! 2.y.k.Z.k.j.j.p.y.3.y.y.y.3.1.2.2.-._ _ ] G S A v a b b b > * # X X X X . .                                     % # # # 7 g ! { <.5.f.f.f.h.x.x.x.(.oX6XzXZXZXVXzXeX&X+X).Q.x.x.x.Q. X&XeXyXdXdXdXdXyXyXtXfXfX9X*X_.!.T.X.X.E.!.%XeX@Xn.' 4                                                                                                                               ",
"                                                                                    1 2 3 3 L U U U U U U U !.&XhXDXDXhX*X!.X.X.X.T.E.!.E.T.=.h.7.E.W.'.&X4X7X6XuXrXrXwXwX6X7X@XF.g.{ ' ' +.o.V                                                             X X X o # ; > > > > > - 9 6 6 a d j M A S S S S A M d s 6 = - 6 s d j j j j h S _ [ q.t.k.k.k.k.Z.A.A.A.D.D.J.G.H.G.G.G.G.G.H.H.H.H.`.XXI.H.H.H.D.B.N.p.p.p.i.N.Z.Z.Z.B.Z.S.N.i.1.,.2.k.D.XXXX`.G.G.J.D.k.j.y.j.3.3.<.<.| E r r r E { r.k.k.k.j.j.j.y.3.1.3.3.1.2.2.>._ _ Q _ D S A a a 9 b b > * o X X X X . .                                       O o # 6 g ( { <.6.f.f.f.h.x.x.z.Q./.$XuXvXcXcXgXeX4XoX(.W.f.f.h.h.x./.+X6XyXlXvXxXdXyXuXyXfXfX9X*X!.T.X.X.T.!._.%Xn...h 1 $                                                                                                                             ",
"                                                                                    5 2 3 L L I U U U U U U !.&XzXFXDXhX.X=.X.X.T.!.!.!.!.!.E.h.E.W.].$X7X6X4X6X6X6X7X7X7X7X4X@Xm.0.) ! N C C c                                                             X X X o # ; > > > > - - - - = - 6 a d j x A A S A M v s 6 = = 6 a d d d g g p h ( ) r.l.b.b.S.N.Z.A.A.A.D.D.D.D.G.G.G.G.G.H.H.H.H.H.I.XXH.D.D.A.N.p.p.3.j.N.N.S.D.D.D.D.D.D.A.N.y.-.2.j.D.H.`.`.H.`.H.D.k.3.3.3.3.3.<.<.| E r r r E ) 2.g.l.l.k.k.l.l.3.1.1.1.1.2.2.1.-._ S _ D A v a - > b b > * o X X X X . .                                         X $ 4 g ! { <.5.d.f.f.h.x.h.f.x.~./.4XrXuXyXeX5X$X).Q.x.6.6.6...6.f.~.@XrXzXvXbXlXyXuXuXdXfXhX*X_.E.X.X.X.X.=.!. .r 2 1 &                                                                                                                             ",
"                                                                                    R E W W W W W X.W W U W !.9XzXZXVX9X!.=.X.X.T.E.!._.!.!.h.=.7.h.Q.OX4X4X$X&X@X@X+XoX+X@X+X|.b.2.k g 0 0 c                                                               o o o # ; : : > 9 > 9 - - - = = 6 a j M A x x S S V n a 6 = 6 6 a d j d d p w l ! [ r.g.l.k.k.i.k.N.S.S.Z.D.D.D.H.G.G.H.H.`.H.H.H.H.J.D.D.B.N.k.p.3.3.p.N.B.Z.A.D.D.D.D.D.J.F.Z.j.1.3.j.D.H.`.`.`.`.H.D.k.3.3.3.3.3.3.<.<.Q E r I E ( [ 0.r.g.g.g.g.y.y.2.3.y.1.1.2.1.,.z S _ ] A M a - > a a > * # X X X X X X                                           # 4 g ! [ <.5.f.6.f.f.h.h.h.x.n.(.+X4X7X6X4X+XoX/.~.x.f.6.6... .6.z.}.7XuXdXlXdXrXrXuXuXuXfX9X.X!.X.X.X.X.X.X.E 3 2 1 $                                                                                                                             ",
"                                                                                  e.v.M.z.h.h.h.!.!.7.=.X.X.(.8XhXgXhX%Xh.X.X.X.T.!.!._.!.7.=.X...7.W.(.oX)././.~.F.n.m.n.n.m.b.0.( w 4 $ = 8                                                               % % # ; > > > 9 9 9 - - = - = = 6 a d j A A S D D S M d 6 6 6 6 s j j g p 7 w l R ) &.0.0.2.2.2.1.t.u.u.i.k.B.D.H.H.H.H.H.H.H.D.A.B.j.p.y.3.y.y.3.3.3.p.N.B.Z.A.A.D.A.A.D.D.D.Z.k.3.y.j.D.H.XX`.G.G.J.A.k.y.j.j.j.j.j.j.d.<.| E E E E R | } 2.<.r.<.y.j.3.3.y.1.1.1.1.,._ D ] ] G A a 9 K a b > = # X X X X X X                                             q g ! ) } <.d.6.d.f.z.h.z.z.x.Q.^.}.}.}. X/.^.~.n.x.f.f.f... ...6.x./.+X7X8X8X7X6XrXrXtXeX5X%X_.!.X.X.X.X.W I r 2 1 : &                                                                                                                           ",
"                                                                                  b.|.oX X).)..X.X.X(.!.h.7.(.&XeXtX6X Xh.X.X.X.E.!.!.!.!.X.X. ...7.W.~.(.~.n.n.z.z.f.5.d.g.g.g.[ N 7 $ @ #                                                                 % $ ; : t t > > > > - - - - - = 6 a a j A S D ] ] D j d 6 6 6 6 s d j j g w w w E ^ { { { ) Q Q ,.-.>.9.q.u.j.D.H.H.`.`.H.H.H.D.k.y.y.1.>.-.2.3.y.3.y.j.N.B.Z.Z.A.A.A.A.D.D.A.A.Z.l.y.j.B.J.H.H.D.B.Z.k.k.j.j.j.j.j.y.l.g.g.} | E E r E ^ Q ) | <.<.r.l.p.p.y.1.1.1.>.,._ D G ] G A s 9 9 a a 9 - # X o X X X X                                             9 d m ! ) } 0.d.g.g.g.f.f.h.z.x.n.n.n.n.~.n.n.n.n.z.f.f.6.6. .5.6.h.n./.oX$X$X+X4X7X6X6X5X&X$X_.!.=.X.X.W U I r 3 q 8 &                                                                                                                           ",
"                                                                                  m.@X&X$X3X6X8XtXtX&X%X_.W.Q.).+X+X.XW.7.X.X.X.=.E.!.!.=.X.W W W 6.x.Q.~.~.n.x.x.z.d.<.<.d.g.c.$.` 0 = #                                                                   % ; : : : : ; ; ; > - - - - - - 6 6 a j A S D _ D S j d f 6 6 6 p a s s w w w w r R ) ) ) Q R z z _ _ ] ;.1.l.D.H.H.`.H.H.H.H.D.j.3.q.1.-.,.-.1.3.y.p.k.Z.Z.Z.Z.Z.A.A.A.A.A.A.A.Z.p.3.3.y.k.B.B.j.y.p.y.t.y.3.3.3.3.3.y.y.r.<.) E I I I E E E E Q | <.l.l.p.t.2.>.-.-._ D z S S A A a 9 9 a 9 > = # X o X X X X                                               6 0 g R ) { 0.g.g.g.g.d.f.z.z.z.z.n.n.n.x.x.x.n.z.z.z.h.f.6.6.6.h.x.x.~.).)./.).oXoXOXoXOXOX(.W.7.X.X.W W I r q q 8 & &                                                                                                                         ",
"                                                                                  U.@X7X8XtXkXxXBXbXdX0X%X].W.W.W.Q.W.h.7.......=.=.h.h...W W E W 6.x.Q.~.C.x.x.n.z.5.} | <.r.a.w.C 0 :                                                                     ; ; ; , ; ; * * = > 9 6 6 - - - 6 6 f j A D D _ S S A j d p p p p 6 6 6 7 q 5 r r I E E ^ R k k x z z z _ ,.y.A.H.H.`.H.H.H.H.D.j.1.-.,.,.,.-.1.t.p.i.N.Z.S.Z.Z.Z.A.Z.Z.Z.Z.S.S.k.y.2.-.-.2.3.3.2.2.-.-.2.1.3.3.3.3.3.y.p.g.0.| ^ I I I I r r r E E | g.l.y.y.1.>.-.-._ x x S S A A a 9 9 9 9 > = # o o X X X X                                                 = 4 w k ' 0.e.d.0.<.d.d.g.f.f.f.z.m.z.z.z.z.n.n.n.n.x.z.f.f.7.7.7.7.x.~.W.x.x.W.W.W.W.(.)._.W.W.7...../ I r 1 1 : & % % X                                                                                                                     ",
"                                                                                  m.@X7X8XtXkXxXZXZXxXfX5X_.].W.W.Q.W.x.x.h.h.h.=.=.=.=...W W E W 6.n.~.(.(.~.F.F.m.d.<.| { 0.r.+.M 9 :                                                                     ; ; ; ; % # # # = - 9 9 9 9 6 6 6 f d j A D _ _ _ D D S j j j d p p 7 7 7 q w r I I Y E ^ ! R k z z S z _ >.y.B.H.`.XX`.`.`.H.D.p.1.,.,.-.-.,.q.u.i.k.N.Z.Z.Z.Z.Z.Z.Z.Z.S.S.S.S.k.t.,._ _ -.1.2.,._ _ _ >.1.y.3.3.3.y.p.k.k.l.<.W E I I I I 3 r I E | d.g.l.p.t.1.>.>._ S x S D A A a 9 9 a a 9 - * o o o X X X                                                   = 7 h [ 0.c.c.0.0.0.d.g.g.d.f.g.z.z.h.z.z.x.n.n.n.x.z.h.h.x.x.x.x.W.~.W.h.7.h.h.x.x.Q.).)._._.].W.f./ r 2 & & # # % % X X .                                                                                                                 ",
"                                                                                  m.+X5X6X0XdXxXnXZXzX0X5X'._.].Q.(.Q.Q.Q.Q.W.h.h...=.=.} / ^ E  .d.x./.}./.(.(.^.m.g.<.| [ [ [ N c 9                                                                       % $ ; % # # # # * - 9 a a f 6 6 6 f d j A _ _ ,.] ] ] ] G S S A j j g g e w r r Y Y Y E ^ ! ! ( _ _ ] _ [ 1.y.j.D.H.XX`.XXXXH.B.y.-.,.,.,.,.9.t.i.i.k.N.N.N.Z.Z.Z.N.N.N.S.Z.S.S.N.t.>._ _ ,.>.,._ _ _ _ -.1.y.p.y.3.p.p.N.k.l.<./ E I I I I I 3 I E W } <.r.j.p.3.1.>._ S S G G A v a 6 9 a a 9 > * o o o o o o                                                     0 h ' 0.e.e.0.{ | } <.d.g.g.g.v.z.z.z.z.z.z.x.x.h.f.f.f.x.n.W.W.~.~.W.h.7.7.7.h.x.W._.).'.%X%XOXh.| r 1 & & @ # # # X X X X X X . . .                                                                                                     ",
"                                                                                  m.oX4X5X0XkXcXnXnXkX0X%X_.].].(.(.(.(.(.(.Q.W.h.=...} / ^ E E / 5.z.~./.(.~.F.F.z.0.[ ( ! k M 0 y                                                                         % # % % % # # # * = 9 a a a 6 6 a a d j A _ _ ,.;.] 9.:.;.] ] ] D A g g e 5 r I Y Y I I E E R ( _ ] _ _ [ 1.1.y.B.D.H.`.XXXXJ.k.1.,._ _ ;.,.q.u.i.k.k.N.N.N.N.Z.Z.N.S.S.S.Z.S.A.S.t.>.;._ ] :.;.[ [ _ _ :.1.y.y.y.y.p.i.k.k.g.} ^ E I I I I I L 3 I I ) { r.u.t.1.>.,._ S D G G A d a - 9 a a 9 > * # # o o o o                                                       e C +.%.+.[ ! ( ) | } <.d.g.d.d.d.f.z.z.z.h.h.h.f.f.f.h.x.x.x.x.x.h.6.6.6.6.7.7.W.).OX$X$X$X%XQ.=.E 2 & & & $ @ @ @ @ & $ & @ $ % o o %                                                                                                 ",
"                                                                                  b.oX$X5X8XkXxXcXxXyX5XOX].].(./.). X X/.(.(.n.d...| ) ^ E I E W } f.n.^.^.n.m.g.d.&.[ k 7 4 = 8                                                                           % # % % % # # # # = 9 a 6 6 f f f d d j x D _ _ _ ,.>.q.q.q.q.q.>._ k g w 5 3 I I I 3 r r l R ( _ ,.,._ ,.-.-.>.y.N.H.H.I.I.F.u.>._ S D _ ,.q.i.k.k.N.N.N.N.N.N.S.S.S.S.A.A.S.A.S.i.q.,.] ] 9.] ] :.:.>.>.1.y.y.t.t.p.k.k.k.r.[ E E I Y I I I I L 3 3 r E $.e.0.>.,.,.,._ _ ] G A f 6 = 6 6 9 6 - = # # # % o o                                                       0 M C V n 0 0 7 h ! ) { } } } <.d.g.f.f.f.6.6.6.6.6.5.5.f.f.d.f.d.f.f.........5.x.).+X&X4X&X&X}.h./ r 1 1 $ $ & & & $ 1 1 $ $ 4 4 4 8 : #                                                                                               ",
"                                                                                  m.oX+X5X0XjXbXbXxXtX5XOX_.(.(.).OXoX X).)./.Q.f.&./ ^ R l E E W } d.h.m.m.z.l.0.0.{ ! n 0 8 :                                                                             # # % % $ # $ # * = 6 a f 6 f f p d j j x S ] ,.,.,.>.q.q.q.q.q.2._ x k w r 3 L I I 3 r r l R ( [ :.,.,.,.-.-.-.3.j.A.A.S.A.k.y.,._ S D _ ,.q.k.k.k.N.N.S.N.S.S.S.S.S.S.S.S.S.S.N.u.q._ D A G F A ] [ >.q.t.u.p.3.3.y.i.k.t.0.) k E Y Y U U U I L L 3 3 r ^ ' [ _ ,._ _ S S G G M f 6 - 6 a s 9 9 = # # # # o o                                                         B V B y 4 * = 7 h ( ' { } | } 0.d.d.g.d.6.6.6.f.f.d.d.5.} { { { } d.6.6.6.6.6.n.oX4X7X8X8X5X.XQ.d.| R R ^ ~ ~ ~ ~ ~ ` ! R h R ! ` ` V 9                                                                                               ",
"                                                                                  b.oX+X5X0XmXnXnXxXtX4XOX)./.).OXOXOXOX X XoX(.M.=.| E E E E R ) } 5.d.d.5.<.} { $.' N e 0 8                                                                               o # % % $ $ $ * = - a s p 6 f f p d j j x S ] ;.,.,.>.1.q.q.t.q.>.[ ( R h r L I I I I I r l ( _ [ >.,.,.-.,.-.-.1.3.p.p.i.i.y.1._ D S S _ ,.q.k.k.k.N.N.N.N.S.S.S.S.b.k.k.k.i.i.u.1.,.x g p a a p M ] >.q.y.u.p.3.3.1.y.t.1.{ ( h E E W W W U U I L 3 3 3 r h l l z z z x x A A M f 6 6 6 s s s 9 = # # # # o o                                                                 $ $ & $ 0 ! ' 9.{ ) { &.0.0.d.5.5.f.f.g.f.d.} ) ^ l h R ) d.h.z.x.7.h.(.&X8XtXtXfXtX9X5XOX X}.}.#X#X#X=X#X#X#X#X|.m.m.m.U.U.a.A                                                                                               ",
"                                                                                  v.oX+X3X0XjXbXxXkX8X$XOX).).)..XOXOXOXoXoXOX(.n.g.| E E E R ^ ) | } } 5.|  .| { ' ! m i 0                                                                                 # # % % $ $ $ * * 6 s s a f p p p j j j x S ] ;.;.,.>.>.1.1.q.1.>.,.[ ) ^ E I I I I I r w l Q _ ,.>.>.>.>.>.>.>.>.1.1.1.1.1.1.-._ z S S _ ,.q.k.k.N.N.N.S.S.S.S.S.b.b.i.y.q.1.q.2.[ ( g 7 = * * * a D >.q.t.u.t.3.1.1.y.t.2.[ Q h E ^ / / / W U L L 3 3 3 2 5 5 w l x x x x x M j f a 6 a v v s 6 = # # # # o o                                                                       $ 0 N O.$.+.' [ { { &.d.d.5.f.f.g.g.0.| R w 5 5 w ) g.n./.(.W.W. X5XtXfXdXdXfXaX0X0X0XrXyXlXvXSXSXSXSXSXlXwX@X@X+X4X4XF.[                                                                                               ",
"                                                                                  v.^.oXOX$X9X0X8X8X$XOX).).).).).OXOXOXOXoXoX(.M.=./ E I Y r r E ) | } d.<.| } $.` n 0 y                                                                                   # # % % $ $ $ * * 6 a s a p p p p d j x x S _ _ _ ,.,.,.>.>.>.>.>.-.-.<.<.} / W I I 3 r w l Q _ ,.-.>.>.>.>.>.>.>.>.2.2.>.2.1.>._ _ S z z _ q.k.k.N.k.S.S.S.S.S.S.k.u.q._ Q Q ( ) ! N 0 4 $ $ # # a D :.q.q.q.t.1.3.3.y.t.2.[ R h E ^ / / / / U L L 3 3 3 3 2 5 w l z x x x x j j d a f a d v s 6 = # # # # # o                                                                         9 B H o.~ m N ~ ' &.0.5.5.6.d.f.g.} ^ e 5 1 $ 5 ^ v.}.+XOX_.(.OX4X8XtXfXdXfX0X0X0XaXkXxXnXZXCXZXZXGXCXcX8XOX_.(.OX+Xn.)                                                                                               ",
"                                                                                  v.n.(.(.(.).'.OXOX)./.).).)..X)..XOXOXoXOXOX(.M.=.^ E E h i r r ! | &.0.0.} { +.C 0                                                                                       # # % & % $ $ * = 6 a f p p p p p d j j x x S S _ ,.,.,.,.-.,.>.>.2.1.d.z.f.=./ U I 3 r r k ( ,.,.-.,.,.>.>.2.2.>.>.>.>.>.>.>.>.,._ x z z _ q.i.k.k.k.N.N.N.S.S.b.b.q.( k l l h R h g q 1 & @ # # 9 ] q.q.q.q.1.3.3.y.p.t.>.[ ( k E ^ W / W W U L L 3 3 3 3 2 r r E ( z S x x j j d f a s v v d a = * $ # # # o                                                                         t c V V y 4 e m ~ { 0.} } ..} 5.0.{ ! w 1 & & 4 ~ v.}.&X&X%X).%X3X9XtXfXfXfXaX9X0XfXmXnXCXGXJXGXGXGXGXnX8X'.].W.].).x.Q                                                                                               ",
"                                                                                  c.m.x.x.x.W.W.Q.(.(.(.).OXOXOX).OXOXOXOX%XOX(.z.=./ E R m h e i ^ ' &.&.[ ( ( o.V                                                                                         # # % & % $ = * = 6 s d d p p p d j j j x x z z z _ ,.,.,.,.,.>.q.t.j.l.n.z.h...W I I r h Q [ >.-.>.,.>.>.1.2.2.2.>.>.>.>.>.1.>.,._ z z z _ q.k.k.b.k.N.N.N.S.S.S.k.r.[ R k E R ^ R e q 1 & X X # a ] q.q.q.q.q.3.3.y.p.p.t.2.[ Q R E / / / W I L 3 3 3 3 3 3 r Y R ( S A x M j j d d d d d d d f = = $ $ # # o                                                                             t t : $ 4 e N ' &.| | } } } } ' m e $ & @ $ m c.|.&X5X%X%X$X6XtXdXkXkXdXaX9X9XaXkXmXnXCXGXGXGXJXGXcX8X'.(.]._. Xn.)                                                                                               ",
"                                                                                  { m.h.6.6.7.x.W.W.Q.(.).OXOXOXoX$X$X$X$X%X$X).x.d.) E m Z Z e i m ~ O.' N j M C                                                                                           % # % : = # = = 6 a d M j d d j j x j x j x S S _ ] ;.,.,.,.,.>.q.y.k.C.~.n.h.../ I E E ! [ >.1.>.>.>.>.1.1.1.1.2.>.1.2.1.1.q.1.>.,.D D _ ,.q.k.S.S.N.N.N.N.S.S.S.k.a.+.( R R ^ ^ Y r q 1 & @ # $ b ] q.y.q.t.y.y.y.p.j.k.p.t.2.[ ) W / / / W I I L 3 3 3 3 3 r Y ! ( S x j j j j d j d d d d d a - * $ $ # # %                                                                                 % # $ 0 N O.&.{ | } } } { ) N e 4 @ @ $ m 0.Q.+X&X%X%X3X0XfXkXjXjXjXaX0X9X0XtXfXjXxXZXZXZXCXVXlX6XOX]._..X+XQ.} |                                                                                             ",
"                                                                                  c.f.h.7.7.7.h.x.W.Q.Q./.OXOXOXOX$X$X$X$X$X$X).z.&.^ E m Z Z i e Z m m M s s c                                                                                             % # $ ; ; * = = 6 d V A M j j x x x x x x x z S D _ ] _ ,.;.,.>.q.u.l.n.F.x.h.../ W ) | [ :.>.1.2.>.1.>.1.1.1.2.2.1.1.1.1.1.1.1.>.-._ _ _ ,.q.k.k.k.b.S.S.S.b.b.k.c.0.' ^ ^ E E Y r 3 2 2 @ @ @ : b ] q.t.t.y.p.y.t.y.i.k.k.r.1.>.Q Q ) | ) E I 3 3 3 3 3 3 3 3 i m m j j j j j j M j j j j d v a - = # # * % o                                                                                     # = 0 ~ ' ) ) ) { | ) ! m 0 $ & $ $ m 0.n.+X$X%X'.3X0XfXyXdXkXdXaX9X5X5X3X5X9XtXgXxXxXxXvXyX6X4X$X4X7X7X+Xz.&.{ $.O.O.o.o.                                                                                ",
"                                                                                  v.M.M.h.h.h.x.W.W.W.W.(.).OX.XoX$X$X$X%X%XOX(.z.} R h i Z i e 0 i 0 y c 9                                                                                                 % ; % ; ; * = = 6 v F S A j x x x S S z z z z z z z _ _ _ _ ;.>.q.q.j.l.x.z.f.....| } } 0.>.1.>.>.>.1.>.>.1.1.2.2.1.1.1.2.2.>.>.,.-.,.,.,.-.q.k.k.k.k.S.S.S.b.b.c.r.&.' ^ E Y I r 3 3 2 2 & @ @ : b ] >.1.1.q.y.3.1.t.p.k.k.l.t.r.[ Q Q ) ^ Y r 3 3 3 3 3 2 3 5 r e g p p p p p d j j j j d d d a - = $ # * # o                                                                                       $ 6 n N ! ( ) { ' ! h g q $ $ $ 4 N g.^.oXOX'.'.3X0XyXyXdXkXdX0X5X%X%X'.'.OX&X8XtXtXyXyXtXeX6XrXyXyXyXwX|.m.v.g.c.c.e.e.O.                                                                              ",
"                                                                                  g.M.n.h.h.x.W.Q.W.W.W.W.)..X XoX$X$X$XOXoX XQ.d.| l w 5 e e q q q $ q                                                                                                     % ; % ; * * = = 6 M G G S x S S _ ,._ _ _ _ _ z x x S D D _ ;.9.9.1.2.6.f.f.......=.f.g.g.t.1.>.>.>.>.>.>.1.1.>.>.1.1.2.>.>.>.>.>.>.1.1.q.1.y.k.k.k.k.b.S.b.b.i.r.{ ) ^ I I r 3 3 2 2 2 2 & & $ 6 M 9.q.1.1.t.p.t.1.3.p.j.k.k.k.p.2.Q Q E E r r r r 3 3 5 5 5 5 5 q 7 7 7 7 6 6 d j j j j j d d a 6 = $ # $ # o                                                                                           q s g h ! ! ! g w 0 4 $ $ 4 g &.m.+X&X%XOX'.5XfXdXyXlXvXgX0XqX%X_.].W.]._.%X%X3X5X8XrXrXyXcXVXVXVXyX@X X^.~.~.^.F.m.0.!                                                                             ",
"                                                                                  &.M.x.h.h.x.W.Q.Q.W.W.W.(.). XOX$X$X$XOX)./.x...^ r w 5 7 q 4 4 4 $                                                                                                       % ; % ; ; * = = 6 M G D S x z _ ,.>.1.>.>.>.,._ z x A A z D ] 9.9.,.2.<.5.6...6.h.M.m.m.b.k.t.>.>.2.>.>.>.2.1.>.>.1.2.>.>.-.>.>.1.1.u.j.k.j.k.j.i.u.u.i.k.s.u.r.[ ! r r r r 3 3 3 2 3 2 2 1 1 4 0 A q.y.t.q.y.p.y.y.p.i.j.Z.k.k.k.1.Q R k l w w r r r 5 5 w w 5 q q 6 6 4 6 6 6 d j M j j j d j d 6 = $ # # % o                                                                                             6 6 6 7 7 7 4 4 4 4 4 q N 0.P.@XwX8X6X3X3XtXbXcXcXBXVXcXfX9X%X].W.7.W.W.].]._.%X6XrXlXcXCXGXGXCXvX7X$XOX'.).).oX/.f.Q                                                                             ",
"                                                                                  d.z.W.Q.W.Q.(.)._.(.(.(.).OX+X&X7X7X4X&X+XoX(.f.} W R E E l w w w 0                                                                                                       % ; ; ; ; * = = 6 M S D S x z _ ,.q.t.q.q.q.q.;.D x x x j x D ] ] ] { <.} } ..f.h.n.Q.F.m.k.t.1.>.1.>.-.>.2.1.>.>.1.1.>.-.-.-.>.1.y.k.Z.A.Z.k.k.i.t.q.t.u.u.u.0.) E r 3 r 3 3 3 3 3 3 3 2 2 5 7 M ] q.u.u.t.y.p.y.y.p.j.j.Z.Z.k.k.1.Q z l l w w w r w w w l g w 7 7 6 4 4 6 6 6 s j j j M M d j d 6 = * # * % %                                                                                               * # * * * $ $ 4 4 4 0 ` v.#XrXlXyXtXtX8XkXVXCXZXAXAXZXlX0X$X_.W.7.7.W.W.W.W.OX8XyXvXVXGXHXHXCXxX0X5X3X%X'.'.OXoXh.Q                                                                             ",
"                                                                                  d.Q.(..XOX%X%X%X%X%X%X$X$X5X8XtXdXdXyXuXrXeX5X.X(.n.m.M.g.d.0.&.$.'                                                                                                       % ; ; ; * * * = 6 d S D x j x _ ,.q.t.1.q.y.q.>._ z x j p p j A S D ) ) )  .| ..h.z.Q.n.m.l.t.2.>.>.-.-.-.>.>.>.>.1.1.>.-.-.-.-.2.3.k.A.D.A.Z.k.u.q.,.q.q.q.r.9.[ R I I I I 3 3 L r 3 r 5 5 e h ( [ q.y.y.y.p.p.p.p.p.i.j.k.k.k.j.1._ Q j l h h h h h h k k k g 0 6 6 4 4 4 6 6 p d d d M M d j s 6 = * # # % #                                                                                                 # # # $ $ $ $ $ 1 5 ! m.@XiXcXzXzXkXdXcXCXHXHXHXHXHXZXgX9X%X(.W.x.W.].W.(.3XyXvXVXCXGXGXGXCXxX8X5X3X[.'.'.OXoXh./                                                                             ",
"                                                                                0.z. XOX&X5X6X8X9X9X9X9X5X8XtXlXxXVXZXBXcXcXBXgXrXwX7X7X@X@X#X|.U.P.c.                                                                                                      % ; * ; * * * = 6 d S D S j x z ,.>.t.1.q.u.u.q.;._ A j p 6 p j j M ! ! ^ ^ W ..6.h.n.z.l.y.1.-.:.>.-.,.-.-.>.>.>.>.1.>.>.>.-.-.2.y.k.C.F.A.Z.k.u.>.,.:.9.9.q.0.' ^ E Y Y Y I I I I I r r h R R ( [ >.q.q.t.u.i.p.p.p.i.p.j.j.j.j.t.,._ x N N ~ ~ ! ( ( ( ( D M s 6 4 4 4 6 6 6 6 a d d j M d d s 6 : * # $ % #                                                                                                   o o o @ $ $ $ $ 5 E z.+XyXVXcXbXxXxXcXZXGXHXHXKXHXZXvXeX$X(.W.x.W.~.(. X7XlXBXAXGXGXGXAXZXvXtX6X3X%X'.'.OX Xv.)                                                                             ",
"                                                                            w.e.m.^.$X3X9X6X0X8X0X0X8X9X8X8XdXxXVXZXCXZXZXZXZXcXgXhXhXuXeXeX7X4X4X#XP.w.                                                                                                    % ; ; : * * * = 6 d S D x j x z _ >.t.1.t.u.k.u.9.] x j f 6 6 p j M ! ! R E E | ..f.m.z.l.r.1.-.,.,.,.,.,.,.>.,.>.>.1.>.>.>.-.-.1.p.B.D.D.F.Z.k.t.>.,.,.:.:.:.$.' ) ^ Y Y E I I E E E E E R ^ Q ( [ :.>.>.1.p.k.p.p.i.j.i.j.j.j.j.t.>._ D S ` ` ` ( ( ( ( _ D M d 0 6 6 6 6 6 6 6 6 a d M M M M d 6 : = # $ % #                                                                                                     o X X @ $ & $ 5 E v.}.uXVXbXbXxXlXlXvXSXSXZXAXAXSXiX&X Xn.f.f.h.z.Q.}.7XgXVXAXHXHXGXAXAXcXtX8XqX3X%X%XOX}.f./                                                                             ",
"                                                                        @.a.U.+X6X6X8X9X8X8X0X0X0X9X9X0X8XtXgXVXCXJXHXAXZXZXZXZXbXxXxXxXzXdXdXlXyXpX#Xa.                                                                                                    ; ; ; ; * * * - 6 d S D S x x S ] 9.q.t.u.k.S.b.u.:.D j f 6 6 f v M m ! ! ! R / } d.v.g.g.r.>.,.,.,.,.,.,.,.,.,.,.>.q.>.>.>.-.>.3.p.B.J.D.C.Z.k.t.>.,.,.,.>.[ ' ' ) / W / W W / W / W / ^ ) ) ( ( ( _ [ >.1.y.k.j.j.p.j.j.p.p.j.p.p.q.>.[ [ ] [ [ [ [ ] _ ( S M s s 6 6 6 6 6 6 6 a s n M M M j a 6 : $ # * % o                                                                                                       X X $ & 1 1 5 E g.}.rXvXnXbXlXtXwX4XwXiXiXpXiXwX@X|.z.d.| | | d.g.m.@XrXvXCXHXHXHXGXCXSXdX0XqXqX[.%X%X Xg.|                                                                             ",
"                                                                      ~ $.g./.3XtX0XqX5X3X3X5X8X9X9X9X0X8X8XdXBXZXAXJXAXCXCXZXVXxXmXmXzXjXdXkXzXlXiX#Xe.                                                                                                    ; ; % : * # * = 6 d A S S x x z _ :.1.q.p.k.k.k.u.>.S j f 6 6 s s s g h k h E R ) | &.&.&.{ :.,.:.>.>.1.q.q.q.>.>.>.q.>.>.-.-.>.3.p.B.D.D.B.k.u.>.,.,.,.:.>.[ [ ' ' / E / / W / / W / ) ) ) { { ) [ [ ,.>.1.t.p.l.p.p.i.i.p.p.p.p.y.1.1.:.[ _ ] [ [ [ ] _ ( N l 7 6 6 6 6 6 f f 6 a s v M M M M d 6 : $ # # # o                                                                                                         @ $ 4 e h ! | v.oXuXSXZXcXuX4X}.z.m.P.U.U.U.m.g.} ) E e i m ! ' { g.|.7XcXHXHXGXGXVXSXxXkXaXaXqXqX$XOXf.)                                                                             ",
"                                                                      N &.z./.7XfX0XqX%X%X%X$X5X5X5X9X8X9X8XyXxXZXCXJXCXCXCXZXcXdXfXfXfXtX0XtXyXtXwX|.0.                                                                                                    ; ; # ; * # * = 6 d A S x j j x D ;.>.1.y.i.k.k.u.>.x j 6 6 6 f a 6 0 g l w r r E E R R ! ( [ >.t.p.i.i.i.i.u.t.1.1.1.2.>.>.>.1.y.p.B.Z.B.j.p.q.,._ ,.,.>.>.:.[ ' ' ' ^ / / ^ ^ ^ ^ ^ ' | { 0.<.[ { :.>.>.2.q.y.y.y.y.y.y.y.p.p.p.y.1.1.,._ _ _ ] ] _ _ _ S k g 6 6 6 6 6 6 6 6 6 6 a d j j M M d 6 = $ # # # o +                                                                                                       X 4 e ` $.d.f.z.oXuXVXCXZXrX}.g.E h R R R E w w 5 5 1 1 1 4 q 5 w E 0.|.pXAXHXHXZXcXcXnXmXjXfXqXqX3XOXf.|                                                                             ",
"                                                                    0 g ) d.Q.OX8X9X3X[.'.'.$X5X6X8X0X0X8X8XtXzXVXCXFXCXZXnXvXdXtXtXtXtX0X9X0XtXtXwX}.0.                                                                                                  O % % $ : = * * = 6 d A S A j j x S ] :.>.q.t.u.u.q.:.S j p p p d a p p g g w w r r w r l h ! :.y.k.Z.S.S.S.S.k.p.q.q.1.1.1.1.1.1.3.y.j.k.l.y.q.>.,.,.,.,.2.>.:.:.[ [ ~ m m m h m i e h ! [ e.b.l.r.t.y.t.1.1.3.y.y.3.3.y.y.3.y.p.p.y.1.1.>.,._ _ _ ] _ D D z j d p s 6 6 6 6 6 6 6 6 p d j j M M s 6 = * # # # # o                                                                                                       @ q ~ c.m.U.^.(.+XuXcXZXSX7Xm.{ w 5 w 5 5 5 1 1 1 1 1 & & 1 1 1 4 w ) m.wXSXZXVXvXyXzXnXbXkXsXqXqX%XOXf. .                                                                            ",
"                                                                    q w R  .f./.3X3X%X'.'.OX3X8X0XtXfXfXtX0XyXzXbXZXDXZXbXkXtX8X5X7X8X8X8X8XtXfXfXiX@Xd.'                                                                                                 O % % % ; ; = = - f d S S A x x x S ] ] ;.,.>.9.>.;.] ] D A A A A M j j l g l w h h h e h h ( r.N.A.J.H.D.D.F.Z.j.y.t.q.q.1.3.y.3.3.3.3.j.3.2.>.,.;.;.,.,.>.>.:.2.[ ( g 4 4 1 1 1 1 1 4 w ( c.U.I.F.F.Z.k.k.p.p.p.y.3.3.y.3.3.y.p.p.y.t.1.1.,._ _ _ D _ D S z j j d d b s 6 6 6 f p p p j j j M M s 6 = * * * * # o                                                                                                       $ i e.U.@XwX4X$X7XuXvXcXpX#Xe.! 5 5 7 q 5 5 5 4 4 4 1 $ 1 8 1 4 q w ! b.@XpXyXyX6X7XuXcXxXkX0X3X3X%XOXh.W r                                                                           ",
"                                                                  0 e h E  .7.].%X%X%X'.'.%X9XfXdXdXjXjXdXyXyXkXxXZXZXnXjXtX6X&X$X$X5X9X8X0XtXfXtXfX7Xm.0.&.a.                                                                                            + # # ; : ; = - - a M S S A x x A S ] ] ] _ ,.,.,.] ] ;.] ] ] ] ] G A j j h l l h h h w e e ( u.S.I.I.H.H.H.H.A.j.y.y.t.q.q.y.y.3.1.1.2.1.2.-.,.,.;.,.,.>.>.1.>.>.{ ( 0 $ @ @ @ @ X X $ 4 ( b.#X<XXXH.H.F.Z.k.l.j.j.3.y.y.y.3.y.p.p.y.t.q.>.,._ _ D S S z A x j j d s v s 6 6 p p p d j j j j j M d 6 = = = = ; * o                                                                                                       $ m b.#XwXyXtX6X6XrXuXpX2Xm.` m 4 4 q q 7 q q 4 4 q q 4 4 q q q 0 g ( c.#XwX7X4X+XoX7XzXxXkX0X3X3X%X'.7. .E l                                                                         ",
"                                                                  N $.v.g.z.~.'.3X3X3X%X$X5XfXzXzXxXbXbXjXyXtXtXdXbXbXbXdX0X5X$X%X$X9XtXfXfXfXzXjXxXyX&X}.#X#XU.P.                                                                                      X o o # % ; ; ; > 6 a v A S A j A A S ] ] ] ] ;.:.,.,.:.>.9.9.9.9.9.;.] _ D x h l g g e q 0 7 N u.S.D.H.H.D.D.D.Z.p.1.1.1.1.1.1.q.1.2.>.2.2.-.,.,.,.,.,.,.,.>.2.2.q.:.S 6 # X X X X X X & 4 G b.#X<X`.H.H.J.F.Z.B.j.j.3.y.j.j.y.p.p.p.y.>.,._ S x x x x x j j j j j d a s 9 a d j j x z z z S x A M d 6 6 6 6 9 9 ; # X                                                                                                     $ N b.@XiXlXyX0X5X@X}.F.c.+.0 0 4 8 q q 7 4 4 4 4 4 4 4 q 0 g g h k [ r.m.|.^.Q.x.x.+XyXcXxXkXuX0X5XOXW.6. .Q ) { { ' ~ Z                                                             ",
"                                                                  $.m.#X@X+X$X3X9XqXqXqX9XfXzXnXnXnXZXZXbXfX0X8X0XfXjXfXfX0X9X$X%X%X5XfXfXkXmXbXnXnXcXvXlXSXSXpX=X                                                                                      X X o # * = = = > 9 a v V A M j j A A D ] _ ] ;.>.:.:.>.q.t.t.u.i.u.u.q.:.:._ S k g e 0 q 0 7 k u.S.A.J.D.A.Z.Z.j.1.-.-.>.-.-.>.>.>.>.-.-.-._ _ _ ,.,.,.,.,.,.-.>.r.2.S 6 o . X X X . . # 6 ` S.XX<X`.G.H.H.J.D.A.k.j.3.y.j.k.j.j.j.p.q.,._ x j d d d d d d d j j d a a 6 6 s M S _ _ -.,.,.;._ D D M p 6 f d v b 9 ; X                                                                                                     $ ! m.7XyXzXkXyX4X^.d.k 7 4 $ $ & : 8 0 0 0 4 4 4 4 6 7 s n N N ! ) { <.<.} | |  .| ^.iXSXVXZXcXzX8X4X(.W.h.z.z.z.z.v.v.+.0                                                           ",
"                                                                ' 0.|.@X4X+X$X3X5XqX3XqX9XfXxXnXCXFXJXJXZXzXtX8X0XfXgXfXfX0X9X$X'.%XqXaXfXjXjXbXnXnXnXnXcXSXAXpX=XY.                                                                                    X X X % ; ; > - - 9 b v A A M M M A S D ] _ ] ;.>.q.q.1.t.t.t.t.t.t.t.t.t.t.q.;.( N h g 7 7 7 N k.F.D.J.D.D.Z.N.p.1.-.,.,.,.,.,.,.>.,.-.,.,.,.,.,.,.,.,.>.-.-.2.q.q.1.S a o X . . X X . # 6 ] b.XX<X`.K.G.G.G.J.Z.j.3.2.3.y.j.j.p.j.p.1.,.S d p p d d d j p p j j d s s s f j S ;.q.q.q.t.t.t.>.9.;.G j p d d v b 9 # X                                                                                                       ! m.wXyXcXxXkX7X^.{ w 4 $ $ $ & : = = = 4 = $ = 4 7 0 e n h h h k ( ) Q E ^ R E | ^.pXCXHXHXHXCXlX4X/.x.x.x.x.x.m.n.v.$.0 =                                                         ",
"                                                                O.g.|.7X7X&X$X3XqXqX3X9X8XfXbXZXFXJXHXJXDXxXfX0X8XfXgXdXfX0X9X$X%X%X9XaXfXkXjXmXnXmXnXnXSXZXZXpX#Xa.                                                                                    X X X # * ; > - - 9 s v A M V M M A S G ] _ _ ;.:.q.q.t.p.t.t.t.t.t.t.p.i.i.y.>.[ ( k h 7 7 7 S k.I.H.H.D.A.Z.k.p.1.,.,.,.,.,.,.,.,.,.,.-.-.-.-.,.>.>.>.-.-.-.1.1.y.q._ a o X X . X X X o 6 D k.<X<X`.`.G.G.G.D.B.3.2.2.1.3.p.p.p.j.k.q._ x p 6 p f d j d p p j M j d d d d j ] 9.u.p.p.i.k.i.u.u.q.;.A d d j M b 9 # X                                                                                                       ! m.wXgXVXbXzX7Xn.{ 5 & & & & : $ $ $ $ $ $ $ $ 4 q 0 0 g g g g h k ! R h h h R | U.pXGXKXPXPXKXcX6X/.x.x.x.W.n.n.n.m.&.e =                                                         ",
"                                                                ' f.|.@X4X+XOX$XqX3X5X5X8XyXbXZXJXHXHXHXDXbXfX0X0XkXbXzXdXfXtX6X3XqX0XfXjXmXmXnXnXnXnXZXVXAXZXpX#Xa.                                                                                  . X X X # * = > > - 9 a v v v M d j M S G ] ] ] ;.>.>.q.t.p.p.y.p.p.p.p.p.i.i.p.q.1.>.[ ( h k k [ b.F.D.H.D.A.Z.k.p.1.,.,.,.,.,.,.,.-.,.,.,.-.-.-.>.>.>.>.-.-.-.1.1.t.q._ a o o o . + X X # 6 S Z.2X1X`.`.G.G.G.C.j.3.2.2.2.2.2.2.1.q.1.-.x j p 7 7 6 p g p p p g j g p d p j j _ q.i.k.k.N.N.k.i.u.q.] A j j M M b > # X .                                                                                                     ! m.wXgXVXZXcXeX|.$.1 @ & $ : : $ $ $ $ $ $ $ $ 4 4 q 0 0 0 0 7 e e e w e q e g ! m.pXGXLXIXIXPXSX4X(.h.f.x.W.x.x.z.z.&.e $                                                         ",
"                                                                ) f.^.oXoX).).%X3X3X3X5X6XtXxXZXCXJXHXHXFXbXfX8X0XzXnXbXvXlXdXtX8X0XfXmXbXnXnXDXnXnXnXnXZXZXVXiX|.a.                                                                                  . X X X # * = > - = - a s v v v v d d A S ] ] 9.9.9.9.9.q.t.y.u.k.k.k.i.p.t.p.p.y.y.y.q.q.[ [ [ q.k.A.A.D.D.A.Z.k.p.1.-.,.-.,.,.,.,.-.,.,.,.-.-.-.>.>.>.>.-.2.2.1.2.1.1._ a o X X . + X X * a ] A.2X2X`.`.`.G.G.K.V.j.3.2.2.-.,._ _ _ _ Q j p 6 7 7 7 7 p p 6 p p p p p p p j x _ q.i.k.k.S.k.s.y.q.:._ j j j j M b > # X .                                                                                                     ~ b.7XyXcXnXcXrX#Xd.5 & & $ $ $ # # @ # # & & $ $ 8 4 8 q 4 4 4 4 5 q 5 5 1 1 5 w g.wXAXKXPXIXPXSX4X~.7.6.h.x.h.x.z.f.{ 7 $ X                                                       ",
"                                                                } z.}.+XoX).'.$X5X5X5X5X8XtXxXZXCXJXHXHXJXZXkX8X8XdXbXxXlXyXrX6X7X7XtXgXvXvXxXZXnXnXnXnXnXZXBXiX|.v.                                                                                  . X X X # * = > - - - 6 a s v v d d d v A G G #.9.9.9.9.9.q.q.u.k.k.k.u.u.y.p.p.p.j.j.k.y.r.r.r.u.N.A.A.A.A.B.B.N.p.3.1.1.1.1.2.>.>.>.-.-.-.>.>.-.>.1.1.2.1.1.1.3.1.y.t._ s o X X . X . . # 9 A b.2X2X`.`.`.G.G.K.Z.k.l.y.2.-.Q Q Q _ Q z p p 6 6 7 7 p p p p p j x x j x x x D ,.q.u.i.u.k.i.u.q.;.] D j j j j j s - # X X                                                                                                     ` b.4XyXnXnXcXyX4Xm.h 5 4 4 4 4 $ @ X X # $ & & : = = = 1 4 4 4 4 4 4 8 8 : $ 1 w g.wXSXGXHXPXKXvX4X~.h.7.x.x.x.x.x.f.{ 7 $ X                                                       ",
"                                                            m R g.^.@X4X7X3X3X6X0X8X8X8X8XyXcXCXFXHXHXHXHXFXzX8X8XtXyXtXwX4X@XoX|.|.+X4X7XwXuXzXbXnXnXmXbXbXxXuXoXP.    b.b.a.                                                                        . X X X $ * > > > - - 6 9 b v v d d d d M A A F G G ] ] 9.9.q.q.u.u.u.u.y.p.j.k.k.k.B.k.k.k.k.k.b.S.A.A.A.A.B.B.B.N.k.j.k.k.j.p.y.y.y.3.3.3.3.3.1.1.3.y.3.3.3.3.3.3.p.u.;.v # X o X + . . o * d t.U.XXXX`.`.`.`.H.H.J.A.Z.y.2.Q z z z Q z p p p p p p h x x x z _ _ _ ,.:.>.>.1.q.i.s.u.q.q.q.;.] D D A x j j x M s 6 # X X                                                                                                     o.b.4XlXVXZXnXvXiXoXd.) h l w 7 = $ @ X % $ $ $ : : = = = 8 4 4 4 : : : : < : 4 w g.@XyXvXVXCXZXuX+X~.x.h.W.Q.Q.Q.n.m.0.e $ X                                                       ",
"                                                      o.o.' O.c.F.@X6XeXrX8X8XtXtX0X8X0XtXdXcXCXHXHXHXHXHXJXxX8X7X4X+X X^.n.z.g.0.0.v.m.m.^.oX7X0XfXfXaXaXfXfXfX7X@X|.|.#X=XU.c.                                                                      X o X # : > a b 9 - - 9 a a s v v d d d v M v s v M M A D ] ;.;.;.;.>.9.1.y.j.k.j.k.B.B.B.B.k.S.A.S.A.A.A.A.A.A.A.A.A.A.A.A.A.B.B.B.B.N.j.j.j.j.p.k.k.k.j.j.j.j.N.N.Z.S.9.M * o o X + . X X o 6 D y.F.XXXX`.`.`.`.`.XXXXI.k.1._ Q Q _ _ _ z S ( ( ( ] ;.q.1.1.3.p.k.k.k.k.b.k.i.i.u.u.9.;.] _ S j j j j j j j j M s 6 # X o o                                                                                                   O.b.@XlXcXnXnXnXcXwX|.l.{ k l 7 4 $ @ X O # # * = = = = = 6 = 4 = = = : & < : 4 w <.}.4X7XrXuXuX4XoX(.W.Q.(./.(.(.^.F.e.e $ X                                                       ",
"                                                    o.%.c.b.v.z.}.7XeX8XyXyX0XfXtX0X8X8XtXdXbXCXHXHXHXHXHXJXzX6XOX/.z.d.} Q E h g e m N ! ) <.x./.%X$X%X%XqXaXfXzXgXuXiXyXiX=Xb.w.                                                                  X o % o # : t b b a 9 6 a a a a a a s d d d v a 6 a s f d j A A S D D ( ] _ q.y.j.j.j.j.k.k.k.k.Z.S.Z.Z.A.B.B.B.A.A.A.A.A.D.D.D.D.D.D.D.D.A.A.A.A.A.A.D.D.A.A.D.D.D.D.F.F.t.M * o o X X . X X . * p _ k.XXXX`.`.`.G.`.XXXXXXA.y.-._ -.1.q.q.>.r.u.u.u.u.k.k.k.B.A.D.D.F.F.F.U.A.k.u.t.9.] _ A A j j h j j j j j M M s 6 # o o o O                                                                                                 +.c.@XyXcXcXxXnXZXyX+Xm.<.h l 5 $ @ X . X # # # = = = = = = = = = = = = $ % & 1 5 ) x./.).'.OXOX/.~.W.x.W.(.(.(.(./.F.d.e $ .                                                       ",
"                                                    @.c.U.|.^.^.+X6XrXtXtXtXtXyXfX0X8X8XtXdXcXCXHXHXHXHXJXJXzX5X).h.} R w 4 1 $ $ & # $ $ 1 w | 7.(.).].!.%X0XjXZXCXZXZXFXZXwXm.w.                                                                o # % o o * > b v v b a a s a 6 a s d d p d d d 6 6 6 6 6 6 s M M j j j M A S -.y.j.j.j.j.l.l.l.k.Z.B.B.B.B.B.B.B.B.A.A.D.D.D.H.G.G.G.H.H.H.H.G.G.G.G.H.H.H.G.G.G.H.H.I.I.I.u.V # o X X X X . X X # 6 j y.XXXX`.`.`.G.`.XXXXXXD.j.1.1.1.y.j.j.k.k.S.A.A.Z.D.H.H.H.`.<XXXXXXXI.XXF.k.t.9.;._ S j j j p j M M d j j j M s 6 * o o o %                                                                                                 o.e.@XyXcXcXxXcXCXxX6X}.<.l w 4 $ @ X X X # # $ = = = = 4 4 = $ $ $ $ $ & % & $ 4 E 5.x.W.].W.~.W.x.W.W.].(._._._.).^.g.w $ .                                                       ",
"                                                    $.g.^.|.Q.^.$XeXuXyXyXyXdXdXdXfXtXtXfXlXbXCXHXKXHXHXJXJXzX5X/.z.} ! e 4 & & # X % X X $ 7 ) 6.W._.W.W.'.0XjXCXJXDXDXFXZXrXU.w.                                                              o o # $ # # * > b V V M v d d s a a s d j j j j d 6 6 6 6 6 6 s M j d d d j M x _ 1.p.y.3.y.l.y.y.l.l.k.k.j.j.N.N.N.B.B.B.A.D.D.D.D.D.J.G.H.H.G.G.G.G.G.H.H.H.G.H.`.H.XXI.I.I.s.V # o X X X X + X X o - d 1.I.XX`.`.`.`.`.<X<XXXH.B.y.y.p.k.B.B.B.Z.A.D.D.B.D.D.D.D.G.XXXX`.`.J.A.k.t.>.;.] S j j j j p d j M j j j j M v 9 * # # # ; ; %                                                                                             o.e.#XiXcXnXnXnXDXxX7X|.} w 5 1 $ # # X X o # $ = = = 4 4 4 4 $ = $ $ $ & # & & 1 E 5.x.].].(.(.W.x.Q.(._.'.%X%X%X$XoXz.l $ .                                                       ",
"                                                    $.g.n.|.Q.Q.+XeXuXyXyXyXfXdXjXfXfXfXdXlXnXGXHXKXHXHXJXJXxX7X}.z.0.' g q $ $ $ o % X @ $ 7 ) 6.W.Q.x.x.'.tXbXDXJXDXDXJXZXrXU.w.                                                          o o o % $ * * * ; 9 b V F A A A M v s a s v M M j M d a 6 6 6 6 6 s j j d d d j j x _ 1.p.t.1.y.y.3.y.p.j.j.j.j.j.k.k.N.N.N.B.B.A.D.D.D.D.D.J.G.K.D.G.G.H.G.H.`.`.H.H.H.H.XXI.I.I.s.V o o X X X + + . X o - j 3.I.<X<X;X`.`.<X<X<X<XH.B.j.j.N.B.D.D.A.A.A.A.A.B.B.B.B.B.D.I.XXH.D.k.u.q.9.] ] S M j j j j d d j M j d j j M d 9 = # * % ; ; % o                                                                                           o.e.#XyXnXVXnXZXCXzX4X^.| 5 4 $ $ $ % % o o # # = = = = = 4 4 $ $ $ $ & $ # $ $ $ l <.n.).OX)./.Q.x.(.).%X&X5X5X5X7X&Xm.k * X                                                       ",
"                                                    $.g.n.^.n.n.+XrXdXlXlXyXkXdXdXfXfXfXdXzXnXGXHXLXHXHXKXKXbXeX+XF.v.$.N s 8 = : % % % # $ 7 | z.(.(.h.7.).8XkXZXDXZXZXDXVXeXP.w.                                                        + X X o # * = = = : 9 s A F G S A A M f s s M M M A A M a 6 6 6 6 6 f j j j j j j A S ,.1.y.t.q.y.y.t.y.p.j.j.j.j.j.k.N.N.N.N.B.B.A.D.D.D.D.D.G.G.K.D.G.G.G.G.H.H.H.H.J.H.H.H.H.I.F.u.V o o . X X + + X X o f _ k.XX<X<X;X;X;X;X<X<X`.H.C.N.N.N.B.D.D.A.A.D.D.A.B.j.j.y.y.j.D.H.A.k.y.>.;.] D A j j j j j j j d j j d p d j d s 6 = # * * * # # o X                                                                                         H r.#XlXCXCXGXGXJXVXeX|.} 5 1 $ $ $ # % % o o # $ $ $ $ $ $ $ $ $ $ $ $ # % $ $ $ w } n.}.+X/.^.z.h.(.+X3X7X6X8X8XeX7XU.k * X                                                       ",
"                                                    $.g.|.|.n.x.+XrXlXzXlXyXdXdXfXtXtXfXdXzXnXGXHXKXKXKXKXKXBXeX@X|.m.e.` n 6 * * % % % # = g { l.^.|.f.6.).rXkXZXDXnXnXnXnXrXF.w.                                                        + o o # # ; = = = ; > f A G D S S S A d f d M M M A A M s 6 6 6 6 6 p d d j j j A S D ;.q.t.q.q.q.t.q.t.y.u.u.i.i.k.k.N.N.N.B.B.A.A.D.D.D.J.H.H.H.H.J.G.G.H.H.H.H.H.G.J.J.K.G.H.H.F.u.V o X . X X + + X X * d q.A.<X<XXX`.;X<X;X;X;X`.G.C.V.j.N.B.C.C.C.C.D.D.A.N.p.q.>.>.q.S.F.k.3.-.S S A j j j d d d d d d d d d p p p f s a 6 = * * * * # o o o X                                                                                       H w.#XlXJXJXJXJXHXZXyX@Xd.5 1 $ @ @ # o % o o o % # # # # # # $ $ $ $ # @ X # @ & 5 ! g.F.F.m.z.0.0.m.+X6X8XrX8XrXuXwX|.N * X                                                       ",
"                                                    $.v.|.}.n.x.oX6XuXlXlXuXyXtXfXtXfXdXjXxXnXCXJXHXJXHXHXHXlX7X}.m.c.$.N s = * $ # ; % $ = s [ { g.g.|  .n.7XdXCXJXnXnXnXbXeXF.w.                                                        + o o # * = = = = > - s A D D S S S S j d d M M A A S A v a f a f p p d d d j j A S S ] :.9.;.;.>.9.>.q.q.q.t.y.u.u.i.j.j.k.k.N.N.Z.A.D.D.D.D.J.H.H.H.H.H.H.H.H.H.H.G.D.K.K.J.J.H.D.u.V o X . X X + + . X * v t.S.H.J.D.D.H.<X;X;X;X`.G.C.V.V.V.V.D.D.D.J.H.J.F.S.u.q.9.,.q.S.A.p.2.Q j j M M j j d d d d d d d d d p p p f f a 6 6 = - = * # o o o o                                                                                         +.U.yXCXCXCXCXGXVXyX@Xg.w 5 $ @               # # o o # $ # $ # # # @ # o o # @ 4 g ) 0.0.0.{ ! ) m.@XrXdXlXlXlXvXpX#X( * X                                                       ",
"                                                    &.m.}.}.~.n.OX7XeXeXeXeXuXyXdXdXkXjXbXnXnXZXDXJXDXJXZXcX7X|.v.0.+.N 0 6 = * *               [ $.$.^ ) z.@XyXCXJXnXnXnXmX8XF.w.                                                        + o o # * = - - - > 9 s A G D S D D S j j M M A S D ] G A j j j j j j d d a s s v v v A A A A A D D _ _ ] ;.9.>.9.q.q.q.1.q.t.y.p.p.i.j.j.k.B.D.D.J.H.H.H.H.H.H.H.J.K.D.K.D.J.J.H.D.u.A o X . X X + X . X o b 9.9.t.t.>.3.D.;X;X;X;X;XH.K.C.V.V.B.D.D.D.H.I.I.U.b.u.9.9.] :.b.S.t.,.z j j M A A A M d d s a a f d d p p p p d p a a s a 6 : # # # # # +                                                                                       N b.4XlXxXbXbXbXdXeX@Xg.E 7 $                     o o o # # # o X X # o o o o # $ 4 7 g h g e q h v.7XvXVXZXZXZXCXSX@X` * X                                                       ",
"                                                    0.m.@X+X(.~.oX@X@X+X@X4XrXuXzXjXjXbXnXnXnXnXmXbXmXbXgXeX|.g.{ N g q *                                 g.@XyXZXJXnXnXMXmX8X^.w.                                                        X o # # * = - - - 9 a s A ] G D D D S x A A S S D _ ] ] G A A S S S A d a 9 6 > 9 9 9 a s s a a d j j j x A D D ] ] ] ,.,.,.,.>.>.q.q.q.q.y.j.B.Z.F.D.D.J.J.D.J.H.J.J.D.D.D.J.J.H.D.u.A o X . X X + + . X X > v A A x x ,.N.H.;X;X<X;X`.G.C.V.V.B.D.S.k.S.S.S.s.a.9.H F A G s.k.q.-.z x x S D ] G V v s 6 - 6 a a a a d d d p d d d M v s 6 * # # # # +                                                                                       0 { |.6X0X0X0X0X5X&X+Xg.R w                           o o o o X X o o o X o X X # # $ * $ $ $ & 0 v.wXSXGXHXHXHXHXAX2X] * X                                                       ",
"                                                    0.n.@X@X}.^.}.+X^.h.n.oX7XyXbXnXbXnXZXnXbXzXaX0XaXyX7X^.0.R 7 0 y                                     g.#XrXnXnXnXnXnXmX6Xn.0.                                                        + o # # # = - 6 - f f s A G G S S S S A A A S S z D _ ;.D S S z _ 9.A s 6 = $ $ ; ; # * * * * = - a f f f d d j j M A x x x S D S S _ ,.,.,.1.k.S.F.F.J.D.D.D.D.D.J.D.C.K.D.J.D.J.D.u.v # X . X . + + + X X * > > > f 6 j p.J.H.;X;X`.H.G.C.C.B.N.i.>.] ] #.H F v b 9 - - d #.q.q.>.,._ ;.9.9.9.9.G v > # # $ * > > a s d j j j j A S A M 6 * # # # o o                                                                                       4 k l./.'.[.[.'.'.'.(.f.E 7                               X X X X X o X X X + O o % o X @ & @ @ q c.wXSXHXLXKXHXKXAXwX[ = X                                                       ",
"                                                    c.|.@X4X+X}.oXoXz. .<.^.4XyXnXnXnXDXDXnXzX0X3X3X5X5X}.g.R 7 4 8                                       &.|.eXnXnXnXmXnXmX8XF.$.                                                        + o # # * = 6 a f f a a v G G S S S S S S D _ _ _ _ ,.] ] _ _ _ ,.9.G 6 = # . . . . . X X X o # = 6 - = - 6 6 6 6 f a p p d j j j j x S S D ,.u.k.A.F.D.D.D.D.A.D.D.D.A.D.C.D.A.D.A.t.v # X . X . + + + . . X o o # # * f t.D.J.H.H.H.H.H.D.C.B.p.:.j 6 - - > * o X . X X = M ;.q.1.>.>.q.t.u.u.9.] v = X . X X * > a v v M j j A D G A M 0 * # # # # #                                                                                       $ 7 <.n.].].].E.W.].W.5.R w                                 . . X X X . X X + O O X X X . # X @ 8 c.wXSXHXLXHXHXHXAXwX' 4 X                                                       ",
"                                                    v.|.7X6X&X+X+XoXg.E <.|.7XlXZXDXnXDXDXnXzX0X3X3X0XuX@Xg.l 4 $                                         %.|.wXnXnXnXmXnXmX7Xn.$.                                                        o # # * * - a d d d f a M F G S S D D S D ] ] _ _ _ ,.;.;.] ,.,.1.q.] a = X . . . . . . . . X # = 6 6 = 6 6 6 6 6 9 a f f p d j j j j A x z _ t.k.S.F.D.J.D.D.A.A.D.D.C.C.A.A.A.F.S.u.M * X . X . X + + . . . X X X o * a t.J.J.H.H.H.H.H.K.K.B.t.G 6 # o o o X . . . . . # d ] q.p.t.t.t.i.i.u.q.G s * . . . . X ; t v d M j j A D ] F M 0 * # # # # #                                                                                       $ 5 { n.].].].E.E.W.Q.d.R g                                   . . . X . . X + O + + X . . O X X : a.=XvXGXHXGXGXGXVX2X' 4 X                                                       ",
"                                                    v.}.wXeX7X4X4X@Xm.Q 0.#XiXcXGXCXnXnXDXnXlX8X3X3XyXSXwXb.N 6                                           %.|.wXZXDXMXnXnXmX7Xm.$.                                                          # # * = 6 d M j d d v G G G S G D G G ] #.9.9.;.,.>.9.9.>.1.1.q.t.;.d 6 # . . . . . . . X # ; > b a 9 9 6 6 6 6 a s a p d M V V M A D S D ,.u.k.A.F.D.J.D.D.D.D.D.D.D.A.A.A.D.F.S.u.A * X X X . + X + . X + + + O O : v u.J.H.H.H.H.I.H.J.J.B.t.G 9 # X o O X + X . X . * v 9.u.u.p.t.t.i.i.u.q.G a # . . . . . o > a d d d j j A D A j 6 * # # # % o                                                                                         7 e.|._._.].W.W.~.^.g.! n                                     . . X X X X + O + + + . + + + X & w.#XpXVXGXVXcXVXvX@X' 4 X X                                                     ",
"                                                    m.oXwXtXeX6XwX4Xm.^ 0.}.iXSXGXGXnXnXDXnXdX4XoXoXwXiX@Xa.F                                             %.|.6XnXnXnXmXnXmX7Xm.+.                                                          # # * - f d A A A d v G G S S S G G A G ] #.#.] ] ;.9.9.>.1.1.3.y.9.M 6 # . . . . . . . . # ; 9 c b 9 6 6 6 6 6 6 a a p d M A V A D G D D ] t.k.S.D.D.D.D.D.D.D.D.D.A.A.A.D.D.F.S.q.A * o X X X X X X X X X . . + O ; b u.J.J.G.H.H.I.H.K.K.N.q.F > o . . + + + + . . . * A 9.u.u.u.t.t.t.p.t.9.G a # . . . . . o , a s d d j j x x j j 6 = # $ % # %                                                                                         7 e.F.~.].W.x.x.Q.m.0.~                                       . . X X . X X O + X + . + + + X $ @.|.wXvXcXlXlXlXyXoX) 4 X                                                       ",
"                                                    m.oXeXuX8X6X7X@Xz.^ 0.|.pXSXJXGXnXnXZXbXuX&X/.Q.@XwXU.w.                                              w.|.6XnXnXbXmXmXjX4Xm.+.                                                          # # * - a d A A j j M A S S A S S S M V F F F F A S ] 9.q.1.1.3.y.>.A a # . . . . . . . . o * 9 b a 6 6 6 6 6 6 a s p p d M V M A D D S S _ q.k.N.A.D.D.D.A.A.D.D.A.A.A.A.H.H.I.S.u.A * o X o X X X X X . X . . + + # b u.J.G.G.G.H.H.D.C.C.N.>.A ; X . X O + + + . . . * A 9.r.u.t.t.t.t.y.t.>.A 9 # . . . . . o > b v v d j j x S j j 6 * # $ % % o                                                                                         7 +.l.z.x.z.f.f.z.v.' m                                         . X X . . . + X + . . . + . X $ O.P.4XyXlXtX0XtXeX|.R 4 X                                                       ",
"                                                    m.@XeXyXtXeX7X@Xv.R ' m.7XvXCXZXnXnXnXzX8X XM.d.v.U.b.@.                                              %.U.@XjXjXfXaXfXfX&Xz.`                                                           # * = - a d A S A A x A D D D S A M d d v M M v v d M 9.q.t.3.y.y.>.D d > # o X . . . . . o * 9 c s 6 6 6 6 6 6 a f d p j j A A A G D D z [ t.j.Z.A.D.D.D.D.A.D.D.A.D.C.B.A.N.N.i.9.d * * o # o # o o X X o X X o o ; b t.A.K.K.G.H.D.C.V.C.j.,.M ; X . . o + + X . X . * v ] 9.q.q.q.q.t.t.t.9.S 9 * . . . . . o , a a s p p j S ] A j 6 * # % % % % %                                                                                         ` [ <.<.| | | { { ! 0                                         . . X X X . + + + . . . . . . $ O.F.4XuXkX0X0XtX8X}.R 4 X                                                       ",
"                                                    |.@XyXvXdXyXwX@Xc.7 e 0.|.wXcXnXnXnXnXdX$Xx.^ r h O.                                                  ' z.^.$X3X%X%X3X3X/.<.~                                                           # * = f d j A D D S D ] ] ] ] D A d = = * = = = * * 6 ] q.u.j.k.j.y.9.] A v a > o . . . X o = b B v v d d d d d M A j j j A A A A D D D _ ,.t.j.Z.A.D.D.D.D.D.J.J.J.A.B.p.t.;.D D p a # * * ; * , * * * * * # o o o : b 9.N.N.V.A.D.D.C.V.V.p.;.v ; X . . + + + X . . . o a V G ] ] 9.q.u.p.t.q.G a * . . . . . X * > > - 6 f j D ] ] A s = # # % # % %                                                                                           g l l w w w w g q                                           . . X X X o X + + . . . + . X $ +.U.7XlXzXfX0XyXrX}.^ 4 X                                                       ",
"                                                    |.7XgXxXzXyX7X@X0.4 4 C v.@XvXbXmXnXbXtXOXf.w 1                                                       ! d.x./._.]._.'.OXQ.} N                                                           # * - f d x z D ] _ _ _ ;.;.9.G M 6 # @ X o # X X X = A 9.u.k.k.l.u.t.q.,._ x a * X . . . o * b V M M M M M M j A A x x x S F A S D ] ( ( -.t.j.A.D.D.D.D.H.J.J.J.H.D.i.9.#.M a - - * * * = > 6 6 - - = * = = * $ * = a G q.u.p.N.C.C.V.V.V.t.G a ; . . . . + + . . . . o ; b v M ] 9.t.p.i.p.q.G a * . . . . . . o * * , - - d G #.G A d = # # # % o #                                                                                                                                                         . . X X X o o X X + + + + X $ $.U.wXkXjXaX0XtXrX}.( 4 @                                                       ",
"                                                    |.7XyXxXkXtX4X#X$.= $ y w.}.yXkXjXjXzX8XoXd.n                                                         m &.z.(._.]._._.'.n.| m                                                           # * - d j z _ ,.;._ ,.,.;.9.#.H c 9 # @ X o % o X o 6 G 9.u.k.k.l.l.y.3.3.>.;.A > o . . X o * a M M j M j M A x A S x x S D D S S ( _ ( ( ,.t.k.A.D.D.D.D.D.J.J.J.H.D.u.#.v > = * * * * * = - 6 6 6 6 - = = : = $ # * - a A G ;.t.N.C.V.V.p.q.A - o . . . . . . . . . . X # * = 6 A ;.q.y.p.p.9.D a # . . . . . . . X o o o * 6 M G G M s = # # # # o %                                                                                                                                                         . . X o o o o X X + + O X X $ ' m.@XtXfX0X9X0X6X^.( 4 @                                                       ",
"                                                    #XwXgXxXkXtX@X|.' $ X $ [ |.rXfXfXkXkX6XoXd.Z                                                         m &.h.W.].].]._.].h.Q m                                                           * = a v x D _ ,.9.] _ ] ] ] H F b > # # X % % o o o = S >.y.j.j.j.3.j.j.j.p.q.G b O . . X o * a V A j x S D S D D G D D _ _ _ _ _ ] _ _ _ -.t.k.Z.D.H.G.J.J.J.K.J.J.A.9.M > # X X o # * = - 6 6 6 6 6 6 6 9 9 : = * o o o * = f _ i.N.N.p.t.;.v * . . . . . . . . . . . . . . X * d _ 1.y.i.u.>.S a * . . . . . . . . . . . X = s M V M a = # # # % + O                                                                                                                                                         . . X X o o # X X X + + X X $ ( b.+X8X9XqX3X3X5XF.Q 4 @                                                       ",
"                                                    #XeXlXxXkXtX&X|.+.= $ 4 +.}.tXaXfXkXkXrX+Xv.~                                                         m &.h.]._._._._.].h.E h                                                           * - a A S D _ ;.;.D S S A A A M 9 : # # o % % o o o - D >.p.B.V.j.j.j.L.V.p.t.G b # X X X o = f S S x D _ _ _ ] ] ;.;.,.;.;.;.] ] ;.;._ _ :.t.k.D.J.G.G.G.G.K.K.J.J.Z.;.a = o X X o # * = 6 6 9 9 6 6 6 6 9 t 9 ; * o X X o # = S u.i.t.t.;.A a o . . . . . . . . . . . . . . . # s ] q.y.i.u.9.G b * . . . . . . . . . . . X * 6 d M v 6 = * # % % +                                                                                                                                                           . . X o # # # # X X X o # @ $ ) z. X%X3X[.'.'.oXz.E 4 @                                                       ",
"                                                    #XeXvXxXjXyX&XF.' = $ 9 +.|.yXkXjXjXxXuX4Xm.O.                                                        N 0.z._._._._._.].h.E g                                                           * - s A z D _ ,.] S j d p f s a 9 ; # # % % % % o o = S >.p.B.V.V.L.L.L.L.3.1.G b # X o # # - d D _ D _ ,.,.;.;.9.9.>.>.>.>.>.>.>.>.>.,.,.2.y.k.D.H.G.G.G.G.J.J.G.K.N.;.a * o X o o # * - 9 9 6 6 6 6 6 6 9 9 > : * # X o o # = M 9.r.9.;.G v ; + . . . . . . . . . . . . . . X # b ;.q.y.u.u.q.G v * . . . . . . . . . X X X * 6 a s s 9 ; * # % # +                                                                                                                                                           . . X o # # % $ @ X # $ $ $ 1 ) z.}.'.[.'._._.(.f.l 4 @                                                       ",
"                                                    #XiXcXnXbXkX7X}.w.    J e.#XkXjXjXkXzXtX4Xm.                                                          C e.z.(.].].].].W.6.E g                                                           * - f d x z _ ] _ x d f 6 6 6 > ; : $ % # # % % o o - S >.p.B.V.V.L.L.L.L.j.1.D s = $ # * = 6 M ] ;.;.,.,.>.>.9.q.u.q.1.1.q.q.q.1.1.1.>.-.2.y.k.D.H.G.`.`.`.;X;XH.J.A.,.- # o X X % $ * - 6 9 9 6 6 6 6 9 6 9 > : # o X X o o $ t V G A v a > o + . . . . . . . . . . . . . . X # b ] q.u.i.i.u.9.v * . . . . . . . . . X X o * = 6 6 6 > = * ; % o +                                                                                                                                                           X X X o % # # $ $ @ $ $ 4 4 w { m.}.OX'.'._.)./.z.h 4 @                                                       ",
"                                                    #XiXBXZXnXzX6XoXe.      a.#XlXjXkXkXkX0X$Xz.                                                          C %.g.W.W.W.W.W.x.6.R                                                           o * = 6 d j z _ ] ] j a 6 * * = = * $ # % $ $ $ $ $ # 9 G 9.u.N.N.p.p.j.L.V.L.3.,.j f 6 6 6 6 a A ] ;.;.;.;.>.q.u.s.k.u.p.p.p.y.y.q.q.q.2.2.1.y.N.D.G.`.;X<X<X<X<X<XI.A._ - # X X X % # = 8 q 6 6 6 6 6 9 q 6 8 8 = # o X X X X o % ; = * * o o . . . . . . . . . . . . . . . . . o b G 9.u.s.s.t.9.v * . . . . X . X X o o o o # * = = = = * # # o o                                                                                                                                                             o o X X X # $ 4 4 4 4 7 w l l d.m.}.$X%X'.'.OX/.z.R 4 #                                                       ",
"                                                    #XrXcXZXbXkX8X@Xa.      c.@XzXmXjXkXkX0X4Xz.                                                            O.&.f.h.7.7.f.d.{ h                                                           o # * - p j z _ ] D d 6 = # # * $ $ $ # $ $ $ $ $ $ # - A ] >.t.t.q.t.3.p.V.L.3.1._ x j j j d f M F F ] ] ] 9.q.u.k.N.k.j.j.j.j.p.y.t.t.1.2.1.3.B.D.G.`.;X<X<X<X<X<XI.S.D - o o X o # * = 8 q 6 6 9 9 6 9 q 6 8 : = # o X o o X % o o o X . . . . . . . . . . . . . . . . . . . . o a A 9.s.b.s.r.H v = X X X X X X X o o # o # # * = * * * # # o o O                                                                                                                                                             X o X X X @ = 0 g w l R ^ E W g.n.}.OXOXOXOXoX}.v.h 4 $                                                       ",
"                                                    |.7XyXlXfX8X$X}.c.      c.@XxXmXzXjXxXuX4Xm.                                                              ~ ^ ^ ^ ) ^ ! m n                                                           o * = 6 p j x _ ] S d > = # # # $ = : $ $ : : : : = = - f p j x j j S _ ,.N.C.V.V.j.3.3.3.-.x p p a s v b a j q.b.A.H.D.D.B.B.B.j.j.j.j.3.3.3.j.B.H.H.XX`.<XXX#XXXI.J.N.S - * # o # # = = 6 6 9 6 6 6 6 6 6 8 8 : = = # # o # % % X . . . . . . . . . . . X o o X . . . . . . . . o : M G 9.r.r.9.F v - # X # # % o # % % # % * * * * * * * # # o +                                                                                                                                                             o X o X X X @ q ` $.0.0.g.f.g.g.g.v.n.^.(.(.~.^.n.0.h $ #                                                       ",
"                                                    m.}.7X8X5X$X).^.e.      c.@XxXmXzXzXxXuX4Xm.                                                                                                                                          # * - 6 p j j S G V s = : # # # # $ $ $ : : : : : : = = = = - 6 - = 6 p z j.G.G.`.G.K.C.C.3.z f - * * : ; * a 9.b.F.XXH.D.D.D.A.B.k.k.k.j.j.j.N.C.H.H.I.D.U.S.S.S.k.u.9.j - * * * * = = 8 6 6 6 6 6 6 6 9 q 6 9 8 : = ; * * ; % % X . . . . . . . . . . X o O O o X . . . . . . . o = a v F H #.F M s - = # * ; ; ; ; $ % ; ; : : = = * # # o o O                                                                                                                                                               X X X X X X @ 0 %.b.m.^.}.^.m.z.d.0.0.f.f.f.f.g.d.' e $                                                         ",
"                                                    d.n. XOX'./.W.z.        v.oXlXzXkXkXxXuX@Xz.                                                                                                                                          % ; 6 d j j j M A v 6 * # # o o % $ $ $ $ = : : = = = = * * * = * * : 6 x j.G.G.`.K.K.C.C.3.z f = * # % % # 6 9.k.H.<X`.G.G.D.D.B.B.B.B.j.N.N.B.C.H.H.D.u.q.G G G A x d f - - = > 9 9 6 q 6 0 0 0 0 0 0 9 9 9 9 6 8 = > ; = ; % # X . . . . . . . . . X o o o * o X . . . . X X X X # = - 9 a s s 6 6 = = = = = ; : ; ; ; ; ; * * * * # # o + o                                                                                                                                                                 X X X X X X @ 0 0.m.^.(./.(.n.v.} ! h R R R E E m e 4 $                                                         ",
"                                                    { f.Q.).(.W.h.5.        c.}.dXkXkXkXlXrX@Xv.                                                                                                                                          ; 6 s d j j d v v 9 = # # o o o % $ $ # # $ = = = = = * * # * * * % : 6 x j.G.`.`.`.K.C.V.3.z 6 * # % % % o 6 ;.k.D.<X`.G.G.G.D.B.B.B.B.V.V.V.V.K.G.H.k.;.j = = = * * * * = > > 9 a a 0 0 s s s s 0 0 y 0 9 9 9 9 8 : : = * * * # X . . . . . . . . X o o o o * o X . . . . X o X X o o # # # * = = = * = = = = ; ; : ; * * $ # # o o o o X X                                                                                                                                                                 . X X X X @ X @ 7 0.m./.).).).~.f.) 7 1 4 4 4 1 1 1 $ $                                                           ",
"                                                    ) f.Q.(.W.W.7.5.        c.}.lXkXkXkXlXuX&Xz.                                                                                                                                            > s d d f f 6 6 6 $ o o o o o o # $ # # $ = = = = = = * # * * * # ; 6 j k.H.`.;X`.`.K.K.3.z 6 * o O O # o 6 ] i.D.<X`.`.G.G.C.C.C.Z.C.C.B.V.C.G.H.H.p.D a # o X o X X o * ; : 9 s 6 q q 6 6 q q 9 9 9 9 q q q 8 4 = = = $ $ $ $ o X . . X X o o # # # o # * * * o X X . X o # % # # o o o o # $ = = = 6 6 = = : : ; = = = $ * # o o X X + +                                                                                                                                                                 . . X . . X X @ g r.~.+X$X%X%X/.z.) 5 $ $ $ $ $ $ $ #                                                             ",
"                                                    ) d.Q.(.Q.W.h.d.        v.#XlXjXkXkXzXuX&Xm.                                                                                                                                            = 6 a p 6 6 6 6 : $ X o o o o o # # # # = = = = = = : = * = : = * ; 6 x k.H.`.`.`.G.G.D.p.z - * ; % % o o - ] i.D.<X;X`.G.G.G.C.C.C.D.A.C.C.C.G.`.H.i.D a o X o o X X o * : : 8 q 4 4 6 6 6 6 6 8 q 9 6 8 8 8 4 = $ = $ $ # # # o X X X X o # # * * * * * * > * O o o X X # % * # # o o X o $ $ = = 6 q 6 6 = = ; = = = = = * * # o X + + +                                                                                                                                                               . . . . X . X X @ l l./.3X3X3X$X Xm.{ e 4 8 : 8 : <                                                                 ",
"                                                    ^ d.Q.(.Q.W.h.f.        c.#XlXzXjXzXvXuX&Xm.                                                                                                                                            * * = = = * * = $ o X o # # # $ $ = = = = = = = 4 4 8 : = = > = = - - j 3.C.K.G.K.K.B.N.q.j - * o X ; o X - _ i.J.1X;X`.G.G.K.C.C.C.C.C.C.A.C.H.;X`.k.D a o X o + X o o % : : 8 9 q q 6 6 0 0 0 y y y y 0 0 0 9 q 8 8 : = $ = = $ # % % % % ; * ; * ; ; = ; > * * # o o o # % $ # # # o X % % % : 8 9 9 6 6 6 6 > > > 6 6 > ; = * * X + + +                                                                                                                                                               . . X # % < % $ $ N b.}.3XqXqX$XoXn.&.0 8 : > > :                                                                   ",
"                                                    ^ d.Q.(.W.x.z.g.        e.}.lXxXmXbXcXyX7Xm.                                                                                                                                            # # # # # # # # o . X X % % ; ; : > : = 6 6 6 6 q 9 u 9 8 6 9 - = - 6 j >.p.3.3.3.3.1.q.] a = * o o o X X - G i.I.2X<X;X`.`.G.K.C.C.C.V.C.C.J.XX<XXXS.G a o X o o X o % : : : 8 y b y s v n n M V V V V V B B n c c t t 8 8 : 9 8 : : > < : : ; ; ; = ; ; > > * * # o o o # # # $ # # o X % % & : 8 9 0 0 s s b b b 9 9 0 a 9 > > ; o o + +                                                                                                                                                             . . X % & 8 y y 0 e [ m.oX$X%X%X'.).n.$.g 8 % ;                                                                       ",
"                                                    ! | g.m.f.f.d.c.        $.|.uXjXjXzXvXyX@Xv.                                                                                                                                              . o o o o X o X X o % # ; : > 6 6 9 6 9 9 9 9 t t 9 9 9 9 6 6 6 6 6 d G #.;.] D D S A d - * # o X X X X * A 9.s.I.I.A.A.D.B.A.C.B.C.V.C.C.A.J.D.S.q.H > o X o # o # : : > 8 9 b n n n M N C C C C C C C C C V B B c y t 9 t t t t t y t : : : : : = = > > : : # o o o o % # % $ % o % % % $ : 9 0 y s s s g n n c y b c c c c t : # . + +                                                                                                                                                             X . @ $ 4 n ~ ' [ { g.n. X)._.)./.n.g.[ 0 = #                                                                         ",
"                                                    m ! { } | ) ^ '         ' m.6XtXfXfXdXwX|.e.                                                                                                                                                X X o o X X X X o # # * : 6 9 6 q q 6 0 9 9 y b y y y y s s 9 6 6 0 v v v s a a 6 6 = * # o o + o X X # a v G q.9.,.>.t.y.k.D.A.V.C.C.V.N.p.q.9.H v - o X o * # = : t 9 9 y c M M N C C C C C o.F C C C C C V B B y t t t t t y y y y t 9 9 9 8 8 6 9 9 : : # o X X o % # $ $ % @ o % $ : 9 y n N N m n m m n n b c c c c c t > % X + X                                                                                                                                                             X X # $ q m 0.v.z.m.n.~.(.Q.W.Q.x.f.| g 4 $                                                                           ",
"                                                    y n m h r r w e         ! z.+X5X9X8X8X&X^.&.!                                                                                                                                               X X o o X o # o o # # * : 6 q 6 q q 6 0 0 y y c y y y c s s s 9 9 6 6 = = = * # # # # # # o o o + X X X * - - d d d x D ,.k.D.C.C.K.K.B.3.,.A d a > * o X o * * : : t 9 9 y c M C C ` ` ` ` H o.F C C C H C C V B c t t t t y y c c c y y y t 9 9 9 9 9 : ; % X X X # % $ $ $ % # # $ : u n C C C ~ C N V B m n c c c c B B y > # X + .                                                                                                                                                             X X $ $ 4 N g.m.^.|./.~.W.7.h.x.h.} R 5 $ $                                                                           ",
"                                                        0 5 1 5 5 4         l d./.'.%X$X&X+Xm.{ E m O.w.o.                                                                                                                                      X X o o o # % # o o # * : : 6 6 q q 6 0 0 y y y y y y 0 s s 9 9 6 6 6 = = = * # # # # # % % o o X X X o o o * = = - 6 j _ k.J.C.C.K.D.j.,.j f - * * * o o o * # $ : : > 8 q s n C ~ ` ` ` ` F F C C C C C C V V c y t t t y y t b c y y y y y t 9 9 9 8 : $ # X X X X $ # $ $ $ $ $ : 9 n C C C o.` C C V B m n c c c c B c y > # X + .                                                                                                                                                             . X $ $ 1 h 0.m.^.oX X~.W.h.h.x.z.} h 4 $                                                                             ",
"                                                                          q l <.Q.(._.'.'.).x.} R ^ e.Y.a.                                                                                                                                      X X o X o o % o o o # * = : 8 6 q q 6 0 0 0 0 0 y 0 0 0 0 0 9 9 q q 6 6 6 8 = = = : : $ % % o X o X o o X X X o # # = p S k.H.K.C.K.D.p.z f * o # # o o # $ # o # $ = = = : 0 v C ` o.o.o.o.o.C C C V V C C V V c y y y y c c y y c c c c c c y 9 t 9 8 : $ $ # @ @ @ $ $ $ $ $ 8 8 9 n C o.o.F o.` F C C V B c c c c c c c t : # X + X                                                                                                                                                             . X $ $ $ w | f.^.oX/.Q.W.x.h.x.z.{ g 1 $                                                                             ",
"                                                                          4 l d.Q.(.]._.'.).n.f.} &.v.m.a.m                                                                                                                                     . X o X o o % o o # # * : > q 9 q 6 0 0 y y y y s 0 0 0 0 0 9 9 9 9 9 6 8 8 8 8 : : : : # # % o o o o o X X o o X # * a D k.H.J.K.G.J.i.S 6 * o # # o o # ; * # $ = : : : 8 0 n ~ o.+.+.#.#.o.o.C C V V C C V V c c y y c B B c c c c c c c c c y y t 8 8 = $ # $ $ $ $ = 4 8 0 y c B C o.#.o.o.#.#.o.F F V B n c c c c B c t : # X + .                                                                                                                                                             . @ $ $ $ w | 6.n.}.^.x.h.f.h.z.v.$.n q                                                                               ",
"                                                                          4 h d.(._._.'.'.).Q.h.d.g.m.m.0.h                                                                                                                                     X X o o o % % o # % $ ; : 6 9 9 6 0 s c c c b b c c b b 0 0 0 0 9 9 9 9 9 9 8 8 : t : : : ; ; $ # o # % % % % % % # = s D i.D.K.K.J.J.u.S a * * # # # # * : : * : : 8 9 8 9 c V ` +.@.+.@.@.+.o.H C C C C C C V B c c c B B B B B B B n n n n n n n y y u 0 8 9 q q 0 y y y n m C C C o.O.+.+.O.+.+.#.H H C B c c c c c c c t : # X X .                                                                                                                                                             X X $ $ $ 0 ) d.m.F.m.g.d.d.d.g.e.` n 8                                                                               ",
"                                                                          4 l g.^./.]._._.(.Q.h.6.6.z.n.&.l w                                                                                                                                   X X o o o # # % # # * ; : : 9 9 0 0 c v c n c c v c c b b 0 0 0 9 9 9 9 t t 9 8 : 9 : : : : = * * # * ; # % < % % o = a S y.D.D.C.D.A.t.j - * * # # * # * : : ; 8 8 9 9 9 9 c C ` +.@.@.@.@.+.o.H C C C C C C V B c c c c B B B V V m n n n n n n n n m n n n n n n n N C N N ~ ~ ~ ~ ` o.o.o.` #.#.o.H H C B c y c c c c c t : # X X .                                                                                                                                                             X . @ $ $ 0 k [ 0.c.0.) ) ) ' ' [ n 0 8                                                                               ",
"                                                                          7 h 0.^./.)._.(.W.W.h.7...h.Q.h.} ) h                                                                                                                                 X + o o o o % % % ; : ; : : 9 9 0 y v M V V B B B M n n c c y 0 9 9 9 9 8 9 8 8 : : : = = = = = = = : : ; % % % O X # = d 1.B.C.V.B.N.9.d - * # # # # # $ : : : 8 t y y 0 c B C o.+.+.+.@.w.@.o.o.C V V C C B V B c b b c B V V B B m g n n m n n n m N C ` O.+.+.+.+.+.+.' ' ` ` ~ ~ ~ C C C F ` o.H F V B n c y y c c c b t : # X . .                                                                                                                                                               X X $ $ $ 4 7 g m m h g e e 7 6 4 =                                                                                 ",
"                                                                            l &.n.~.~.].W.W.W.x.7.7.W.(.Q.x.d.' O.                                                                                                                              X + o o o o % % ; ; ; ; : : 9 9 0 y v B V V V B M M M M n n c y y 9 9 9 t t 9 9 : > : = = = = = = = = : % # % % O X # = p >.N.B.V.j.p.;.f - * * ; ; # # : : 9 t y c c c n n V C O.+.@.@.@.w.@.+.o.C V V C C B V B c b b c B V V m m m n n m m n N N C ~ o.O.+.w.w.0.r.r.0.$.+.' ' ` ! N N N N N C C C C B M c c y c c c c y 9 ; # X . .                                                                                                                                                                 X @ @ & $ $ 8 q q q 4 4 4 = * #                                                                                   ",
"                                                                            e ' g.f.f.h.x.W.W.W.W.W._.%X$X$X}.v.w.                                                                                                                              X + o o o o % % ; : : ; : : 6 9 9 y c B V V B B M m n n n c c s c 0 9 t t y t 9 9 6 = = * = = = = = $ $ $ % % % % X # * p ,.p.j.p.1.,.x f = * ; ; : : = : 9 y c B V J V V C J o.+.+.%.%.w.w.@.+.o.C Z Z C C B V c c c c c B C C C o.o.` ~ ` o.` ` ` o.+.+.w.e.a.r.e.e.a.a.e.0.0.$.' ! N N j n n M M M n c c c c y c c c c y 9 ; # X . X                                                                                                                                                                   X X X X X % % $ $ $ $ # #                                                                                       ",
"                                                                            7 ! } | ..5.7.x.Q.(._._.%XqX9X9X$Xn.e.                                                                                                                              X + o o X o # % ; ; : ; : : 8 9 q y c B V V B B n n n m V M n c c c y y y y y 9 9 6 = * * * = = * # $ # # X o # % @ # * p ,.u.p.t._ j f 6 = = * ; > : : 9 t c B V C J H C C H o.+.$.w.w.w.w.@.+.o.C Z Z B B B V B c b c c B C C ` o.+.+.O.@.@.@.+.O.O.+.$.w.a.c.c.r.a.a.a.a.e.0.0.' ~ ! N m g n v n v c c c y y y y c c c b t ; # X . X                                                                                                                                                                                                                                                                                   ",
"                                                                            q h ' |  . ...6.x.Q.(._.[.[.*X*X).z.&.                                                                                                                              X + X X X o % % ; : ; : = = : 6 8 9 c n M M M M m m m C C C V V n c y 0 y y y 0 q 6 = * $ $ = = $ # $ @ X X o % @ @ # = d 9.b.i.t.D p 6 = = = = : : 9 9 9 y c c n V C C C N C ` +.$.w.w.w.w.@.+.o.C Z Z Z B B B c c y y c M C C o.@.%.w.%.w.w.%.+.O.o.o.+.%.e.c.c.c.c.c.c.c.e.e.0.+.` ! ~ N n n n n c c y y y 0 0 0 y y c b 9 = # X . X                                                                                                                                                                                                                                                                                   ",
"                                                                            q e ( Q Q  .W ..f.W.]._._.]._.[.W.f.{                                                                                                                               X + X X X o % % ; : ; : = : : 6 8 9 y c n n c c n m M C o.o.H F V n y 0 y y y 0 q q 8 = $ = = : $ & $ $ X X o % X X # 6 j 9.b.a.r.N 6 = * * - > 9 9 9 9 t c c c c n V V m m C ` +.$.w.w.w.w.@.+.o.C Z Z Z B B B c c y c n V C C @.%.w.w.w.a.e.w.+.o.` ` O.$.e.v.b.v.c.c.c.c.e.e.%.+.' ` ` N M n M M n c c c y 0 9 9 0 y c b 9 = # X X X +                                                                                                                                                                                                                                                                                 ",
"                                                                            0 e ! Q Q Q W  .7.W._._.[.].[.[.Q.h.}                                                                                                                               X + X X X o % % ; : ; : = : : 8 8 9 y c n n v v n n N o.o.@.#.H C V c 0 0 c c y 9 9 9 8 8 8 8 8 : & $ # # # o # # # $ 6 g ] r.+.o.n q = = > a b y y 9 9 t c c c c n M M m m C ` +.+.w.w.w.w.@.+.o.C C C C C B B V B B B V C C C ` o.O.` ' O.' ` ` C N N ~ ' w.c.c.c.c.c.e.e.e.w.%.$.+.+.O.` F C C C C m B B n y 0 0 y c c c t = o X X X .                                                                                                                                                                                                                                                                                 ",
"                                                                              e ` ) ) |  . .f.W._.'._.].[.'./.x.&.                                                                                                                              + + X X X o % % ; : ; ; : : 8 9 8 t b c n n v d v n C o.@.@.#.o.H V c 0 0 c c y b b y t 0 0 t t 8 : : $ $ # # $ $ $ $ 4 0 C o.M C c 9 9 9 b c c B c y 9 y n n c n m m m m m C ` +.$.w.w.w.w.w.+.o.o.C C *.J C C H C C C H o.C C C C N m m N m h n g 0 g m ~ +.w.e.e.e.e.w.%.%.%.w.%.$.$.+.+.o.o.o.o.C C C V m n y c c c B c t : o X X + .                                                                                                                                                                                                                                                                                 ",
"                                                                              n ~ ( ) ) W | 6.h.W.(.].W.].(.Q.f.{ N                                                                                                                             + X X X o o # ; : : : : = : : 8 9 9 y c B B c v s c M H @.@.#.o.H V c 0 y c c c c n n c c c c y q q 8 8 = = = = $ $ $ 8 9 0 c c 0 q 8 4 9 y B C V C M v m C C C C ~ ~ ~ ~ ~ ` o.+.$.w.w.w.w.w.+.O.o.~ o.O.O.o.o.` o.o.o.o.o.o.N m g 0 0 0 0 e g 0 s g g n N ` +.+.$.%.%.%.%.%.%.%.%.$.+.+.+.+.+.+.o.o.o.o.o.o.C C n n n B B t : # o X X X                                                                                                                                                                                                                                                                                 ",
"                                                                              y n m ! R R ^ | d.f.h.7.6.f.g.g.{ ^ m                                                                                                                             + X X X X o % % : : : : = = : 8 6 9 y c B c c s c s n F #.#.#.o.V n s 0 0 c c c c n n v c n M v c c y 9 q 8 8 8 8 = $ $ $ : = = 8 = = = 6 b M F F H C C C o.o.o.O.O.+.+.O.O.@.+.+.$.w.w.w.w.w.%.+.O.O.O.@.@.@.@.+.+.+.o.O.O.o.N n 0 4 4 6 0 e 0 0 s g g g n C ` ` o.+.+.O.O.O.O.$.+.+.+.+.+.+.+.O.O.+.+.@.@.@.o.C m n n B c t : # # o o o o                                                                                                                                                                                                                                                                               ",
"                                                                                v n g g l l E ^ } } } | | { ' ! m                                                                                                                               + . X X X o # % : : : : = : : 8 6 9 0 c c c c s c s n F #.#.o.H V n 0 6 0 c c c c n M n n V B B M n n c 0 9 9 9 9 8 = $ $ $ $ $ = $ $ = q c V H o.#.o.o.o.O.+.@.%.%.w.%.%.%.%.%.%.%.w.%.%.%.w.%.%.+.@.@.%.%.%.%.w.%.@.O.o.o.J B 0 q 4 4 4 7 0 0 0 s g g n n m N ~ ` O.O.O.O.O.O.+.O.O.+.+.+.+.+.O.O.@.%.w.a.w.+.J C n n B c 9 : * # # # # #                                                                                                                                                                                                                                                                               ",
"                                                                                    6 7 4 4 7 e w w w w w w 7 q 0                                                                                                                               + + X X X o # $ : : : : = : : 8 6 q y c c c c s c v M H #.#.o.H V n b 0 c c c v n V V V n M B B n n c c c y y c t 9 8 = = = = = = = = 6 0 v V F o.@.o.o.O.O.@.%.%.w.a.e.w.w.w.w.w.w.w.w.w.w.w.w.%.+.@.@.%.%.@.%.%.@.o.o.C C C n 0 q 4 4 7 0 0 0 s g n m n n N N ~ ~ ` O.O.O.O.O.+.+.+.+.+.+.+.+.+.@.w.a.a.a.w.+.o.C m m V n y 9 : * # * ; ; $ %                                                                                                                                                                                                                                                                           ",
"                                                                                                                                                                                                                                                + X X X X o # % : : : : = = = 8 6 9 0 v n n n c c n C o.@.@.o.o.C C n n n m m n n M M M n n n n n n n v c c c n y u u 0 q q q q q 4 0 0 n n M C o.+.+.o.O.+.$.%.%.e.a.a.e.e.e.e.w.w.w.w.w.%.%.%.%.+.@.@.%.@.@.@.o.o.C B m B c y 9 8 4 4 0 0 0 0 g g n m N N N ! ! ` ` ' ' O.+.O.+.+.+.+.+.+.+.+.%.%.a.a.a.a.w.+.o.C m B V M c 9 : = = : : : % % %                                                                                                                                                                                                                                                                         ",
"                                                                                                                                                                                                                                                + X X X X o # % : : : : $ = = 8 8 6 6 c n n c c s n C o.@.@.@.#.o.C C C C C C m M M n n n n n n n n c v c c c c y y y y y y y y n n n m m m N C ` +.+.o.O.+.$.%.%.e.a.e.w.e.e.w.0.0.w.w.w.%.%.%.%.+.+.@.%.@.O.o.J V n y y y 0 0 q 4 = 4 4 0 0 0 g g n n n m N ! ! ` ` ` ' O.O.O.O.O.O.O.O.O.+.+.@.%.w.a.a.a.w.O.*.C m m V M c y 6 : : : 9 : : # %                                                                                                                                                                                                                                                                         ",
"                                                                                                                                                                                                                                                O + X X o o o % : : : : $ = : 6 9 6 0 c n m n n n m C o.@.w.@.@.@.o.o.o.o.o.F C M m n n n n m n n n c c c c c c y y n n n B C C C C C C C C C C ` +.+.O.+.%.$.%.%.w.w.w.w.e.e.w.w.0.w.e.w.%.%.%.%.+.O.@.@.@.o.C V c 9 : 8 9 9 9 6 4 = 4 4 4 0 g g j m m N N ! ` ! ( ` ' ' ' ' ' +.O.O.O.+.+.+.+.$.%.w.a.a.a.w.O.C C m m M M c a 6 8 8 8 t : = $ % o                                                                                                                                                                                                                                                                       ",
"                                                                                                                                                                                                                                              + + + X o o o # % : : : : = = 6 9 c c n B C C C C C C C #.@.w.w.@.@.@.#.#.#.#.o.o.C m n n n m m n n n n c c c c c c n n n n B C C o.o.o.o.o.` C ~ ` +.+.+.%.%.%.w.w.e.e.e.e.e.e.e.e.e.e.e.e.w.w.w.@.+.o.+.@.o.C B c 9 = # $ : > 9 9 8 4 4 4 6 0 n C ` ` ` ` ` ' O.' +.$.$.0.0.%.%.%.%.$.$.$.$.$.$.w.w.a.a.w.a.%.O.~ C m m C M n b 6 8 8 9 8 : : $ % o                                                                                                                                                                                                                                                                       ",
"                                                                                                                                                                                                                                              o o o o X o o % % : : : : : 6 9 c m V C C C C *.C ~ o.o.@.@.%.w.w.w.@.@.@.@.@.+.o.C m n n n n n m m n n c v c c c c y c c m C C H o.o.o.o.o.o.` ` +.+.$.%.%.w.w.w.e.e.e.e.e.e.e.a.e.e.e.e.a.e.w.%.@.o.o.o.#.J B c t : $ # $ = : 6 6 9 4 4 4 0 n C +.+.9.w.$.$.$.0.$.w.e.e.a.a.e.a.e.e.e.e.e.e.e.e.a.a.e.e.w.w.$.O.~ ~ C C C M g 0 4 4 8 9 8 : = # # o                                                                                                                                                                                                                                                                       ",
"                                                                                                                                                                                                                                            % o o o o X o o % % : : 8 8 8 9 c n C C C C ~ o.*.~ ` o.+.@.@.%.w.w.w.w.@.@.%.%.@.o.~ C n n n n n n n n v c c c 0 s y y y c n B C C H o.o.o.o.o.o.o.+.+.%.%.%.w.e.w.e.e.e.e.e.e.e.e.w.w.w.w.w.w.%.@.O.J B V V B y t : : # # # = = = > 9 q 6 0 g C o.+.w.w.w.e.w.r.e.e.a.c.c.v.v.c.v.v.v.c.c.c.c.c.c.c.a.a.w.w.w.%.+.o.` ` ` ` ~ N n 0 0 0 0 9 : & $ # o X                                                                                                                                                                                                                                                                     ",
"                                                                                                                                                                                                                                            o % o # # o o % $ % : : 8 9 9 y n V F o.o.o.o.o.o.o.o.o.+.@.%.%.%.%.w.w.@.@.%.%.+.o.~ N n n n n n n n n c c 0 0 0 0 9 9 0 y c n V C C C F o.o.o.o.o.O.+.+.+.%.%.w.%.%.e.e.w.w.w.w.w.$.+.+.+.@.@.O.o.C c 9 9 9 : = : $ # # o o # # $ : 9 y 0 n N ` +.w.w.a.a.a.a.a.a.a.b.b.b.b.b.b.b.b.b.b.b.b.b.b.v.b.v.a.w.%.%.%.$.+.O.O.O.+.O.` ` C M m c y = $ $ % o X                                                                                                                                                                                                                                                                     ",
"                                                                                                                                                                                                                                          % % % % # # # # % # * & : 9 9 9 b B C o.o.o.o.o.o.o.o.o.o.@.@.%.%.%.@.w.@.@.@.@.@.+.+.~ N g g n n n n n n v c 0 0 0 0 9 9 9 0 s v B V M C C C ` ` ` ~ ` O.O.O.O.+.$.+.$.$.%.$.$.+.+.+.' ` ~ ` o.o.` C n 9 = $ # # # % # # # o o o # # : y c n N F o.@.w.w.a.a.a.e.e.e.a.c.b.b.b.b.b.b.m.b.b.b.b.b.b.b.b.v.a.w.%.%.%.$.+.+.O.+.+.+.+.+.O.` C V y = $ # # o X                                                                                                                                                                                                                                                                     ",
"                                                                                                                                                                                                                                          % # # $ $ @ o o # # $ & : 9 t 0 c n V ~ o.o.` o.o.o.o.o.O.@.%.%.%.%.%.w.w.%.%.%.w.+.+.` C n n m m n n n n n v b 0 0 0 9 9 9 9 b c n V V V C C C C C C ~ ` ` ` ` ` ` ` ` O.O.O.` ( ` ( ~ m n m m C Z B y : $ # # o o % $ # % o o o # # 8 c V C ` o.+.$.%.w.a.a.w.w.%.%.e.c.b.b.b.b.b.b.b.b.b.b.b.b.b.b.v.c.e.$.$.%.$.$.+.O.O.O.+.+.+.+.+.+.o.C c 8 $ # # o X                                                                                                                                                                                                                                                                     ",
"                                                                                                                                                                                                                                          o # # $ $ # # # # $ $ = 8 9 y y c n m C ` ` o.o.O.O.o.O.O.@.%.%.%.%.%.w.w.w.%.w.w.w.+.O.~ m m C N m n m M M n c 0 0 6 9 9 9 9 0 c n M V V N N C C C C C N N N N ~ ! ! ! ~ ` ~ ! N N m g g e e n n n c 9 = # o o o o o # # % o o o # # 8 c C F o.O.+.+.O.+.+.%.+.+.+.+.w.c.b.b.b.b.v.v.b.b.b.b.b.b.b.v.c.e.e.$.$.%.$.+.O.` ` ` ' ' O.+.+.+.+.o.n 8 # # o o o X                                                                                                                                                                                                                                                                   ",
"                                                                                                                                                                                                                                        o # # $ $ $ $ $ $ # = : : 8 9 b c n n n C ~ o.o.O.O.O.O.O.+.@.%.%.%.%.%.w.w.w.w.w.w.w.$.O.` ~ ~ ` ~ C C C C C C n c 0 q 9 9 9 9 9 b c n n n n M m M N N N N C N N C ! N N ~ ~ ~ N N m m g g e g n n n c 9 = # o o o X o # # # # # # # # : b B N ~ ` ~ ~ N ~ ` ` ~ ~ ` ' $.a.v.v.b.b.v.b.b.b.v.b.b.b.v.v.c.e.e.$.$.$.$.+.O.` ~ ~ ` ` ' ' +.O.o.o.n = # # o o o X                                                                                                                                                                                                                                                                   ",
"                                                                                                                                                                                                                                        o # $ $ $ $ $ $ $ $ = : = 8 0 c B m m n C ~ o.O.O.O.O.O.O.+.%.%.%.w.%.%.w.w.w.%.w.w.w.$.+.O.O.O.O.+.+.+.o.o.o.F V c 0 9 9 9 6 9 9 y c c c c c v n n m M N N C N C ~ ~ ~ ~ ` ` ~ C C N m n n n n n n n c t : # % o o o o # # $ # * = * $ = 0 n n n m h h g m m m h m N ~ O.w.c.c.v.b.b.b.v.v.v.v.b.b.v.v.c.e.e.$.$.$.$.$.O.` ~ ~ ` ` ' +.' ` ` C c = # $ # o o X                                                                                                                                                                                                                                                                   ",
"                                                                                                                                                                                                                                        o $ # $ $ $ $ : 8 9 9 q q 0 c B C N m N C ` O.O.+.+.+.+.+.+.%.w.w.%.$.w.%.%.%.%.w.w.w.w.%.%.%.%.%.%.+.+.+.@.@.#.C M 0 8 8 : : : 9 t y c c c c c n m m m N C C C C C C C ~ ~ ~ ~ ! ! ! N N n n n n c c c t : # # % o o o $ = : 9 9 9 6 4 6 s g n j n n n n m m n h m ~ ` +.w.a.a.c.b.b.b.v.v.b.b.b.b.b.b.c.c.e.w.e.e.e.$.+.' ` ` ` ` ` o.` ` ` F c = $ # # o o X                                                                                                                                                                                                                                                                   ",
"                                                                                                                                                                                                                                        X $ # $ $ $ : : t y y 0 0 n n C ~ C N N C ` O.+.+.+.+.+.+.+.w.w.e.w.%.w.%.%.%.%.w.w.w.w.%.%.%.%.w.w.w.w.@.@.w.@.F V v 9 8 : : : 8 9 t y c c c c n m m m N C C C C C ~ ~ N ~ ~ N ~ ! ! N N M M M M M c c b > * # # o o # : : t c c c c c s n n n M N N N N C C C N N ` ` +.w.a.c.v.b.b.b.b.b.b.b.b.b.b.b.v.v.a.e.e.a.e.w.$.O.' ' o.O.o.+.` ` o.o.n = $ # % o o o                                                                                                                                                                                                                                                                   ",
"                                                                                                                                                                                                                                        o $ # $ $ $ : : t c B n c n M C ` C N N ~ ` o.+.+.+.O.` ' +.w.w.e.w.%.w.w.%.%.%.w.w.w.%.w.w.w.w.w.w.w.w.w.w.w.@.H C M b 9 9 9 9 9 t t t y y y y c c n n m M C C C C C C N N N N N N N m n n v v v s b b 9 : * * $ # # # : 6 c B V V V V C C F C ~ ` ` o.o.o.O.o.` ` O.+.+.w.a.a.c.v.v.b.b.b.b.b.b.b.b.b.b.v.c.c.c.c.c.e.%.+.O.O.O.O.O.+.#.o.o.o.n = $ $ # o o o                                                                                                                                                                                                                                                                   ",
"                                                                                                                                                                                                                                        o $ # $ # $ : : t y y y y n m C C C n m C C ` ` ' ` ` N ` +.$.w.e.w.%.%.w.%.%.%.%.w.w.%.%.%.%.%.w.w.%.$.+.+.@.@.H C V n v c c c B c y t 9 9 9 0 y y c b c n m m M N N m m N N n n g n g s s s a 6 6 = > : = * * * $ $ $ = 9 c V J H H H o.+.+.+.+.@.w.w.w.w.w.%.+.+.+.%.$.w.%.%.e.c.v.b.P.P.P.P.P.P.P.P.v.c.c.c.c.c.e.e.w.$.O.O.O.O.O.+.+.#.o.o.n = $ $ % X o X X                                                                                                                                                                                                                                                                 ",
"                                                                                                                                                                                                                                        o $ # $ # $ : : t b y 0 0 n n N C N n n N C C ~ ` ` ! m ! O.$.%.e.e.%.%.w.%.%.%.%.%.%.%.%.%.%.%.%.%.%.+.+.+.@.#.o.F H C V V V C C V c 9 9 9 9 9 9 t 9 9 b c c c n n n n n n n s 0 s 0 0 6 6 q 6 = * * = = = * : : : ; : 9 0 B C J o.o.o.@.@.w.w.w.w.w.w.w.w.w.w.%.%.%.%.%.w.%.$.w.a.v.b.P.P.P.m.m.m.P.P.b.c.c.c.c.c.e.e.e.%.O.O.O.O.+.@.+.#.#.o.M 4 $ $ # X X o X                                                                                                                                                                                                                                                                 ",
"                                                                                                                                                                                                                                        o $ # $ # $ ; > y c c n y n m C C C n N N C N N N C N m ! O.%.w.e.e.w.w.w.w.%.%.%.%.%.$.%.%.%.%.%.%.%.+.+.+.@.@.#.o.#.o.o.o.o.#.@.o.V c 9 9 9 9 t t 9 9 q q 6 6 0 b 0 0 0 0 0 6 q 6 q 6 = = = = * # # * = = ; ; ; ; ; : 9 y B V C o.o.o.+.@.%.w.w.w.w.w.%.%.w.w.%.%.%.%.%.w.w.w.e.c.v.b.P.P.P.P.m.m.P.m.b.v.g.g.c.c.c.e.e.%.+.O.O.O.+.@.+.#.#.o.M 8 $ $ $ # o % o                                                                                                                                                                                                                                                                 ",
"                                                                                                                                                                                                                                        o $ # $ # # ; : t c y y c n m C C C m M n N N N N N N m ! +.w.e.e.e.e.e.e.&.%.%.%.%.$.$.%.%.%.%.%.+.+.+.+.o.o.@.#.#.#.@.@.+.@.@.@.#.J B 9 9 t y b 9 9 9 6 6 6 8 6 9 9 6 6 6 q - 8 6 8 = = = $ $ # $ # # * = : 6 > > > > 9 y n V C F o.o.o.+.+.%.$.%.%.%.+.%.%.%.%.%.w.w.%.e.w.w.e.c.v.b.P.P.P.P.m.m.P.m.b.v.c.c.c.c.c.e.w.%.+.O.O.O.+.@.+.+.+.o.M q $ $ # # $ # %                                                                                                                                                                                                                                                                 ",
"                                                                                                                                                                                                                                        o $ # $ # # $ : t y y 0 y n m C C C n m n n m n n n m n ~ $.e.e.e.e.e.e.e.&.%.%.%.%.$.$.%.%.%.%.+.+.` ` ` C H o.o.o.#.@.#.#.#.@.@.o.V c 9 9 9 y a 9 9 6 q q 6 6 6 9 9 9 6 q q 6 6 6 6 8 : = $ $ $ $ # # # = : 6 > > > 6 0 y m C C H o.o.o.+.+.@.+.$.%.$.%.%.%.%.%.w.e.e.w.e.%.%.e.a.v.b.P.P.P.P.P.P.P.P.b.v.c.c.c.c.e.e.w.%.O.O.O.O.o.+.+.+.+.#.C q $ $ $ # $ % %                                                                                                                                                                                                                                                                 ",
"                                                                                                                                                                                                                                        X # $ $ # # $ : 9 t u 0 0 g m C C C m n n n n n n n n n ~ +.e.e.e.e.&.&.&.&.%.$.$.$.$.$.+.+.%.%.@.o.~ ~ N C C C H o.#.#.o.o.o.#.o.H V y 6 9 t b c b 9 9 9 9 9 6 9 9 9 9 9 9 9 9 9 9 9 9 : : $ # # # # # # * = 6 6 6 6 6 0 c B C ~ ~ ` ` ` O.+.+.+.$.$.w.%.%.w.w.w.e.e.a.e.w.$.$.e.e.v.b.P.U.U.P.P.P.P.P.b.c.a.a.a.c.c.e.w.@.O.O.O.O.o.+.O.+.+.+.C 0 8 : : ; : $ % %                                                                                                                                                                                                                                                               ",
"                                                                                                                                                                                                                                        o # $ # # # $ : 9 t y 0 0 s m C C C m n n n n n n g n n ~ +.e.e.e.e.&.&.&.&.%.$.%.$.$.$.+.$.%.%.+.o.~ C N C C C F F H H F C F F C C B 0 9 9 t b b b 9 9 9 9 9 6 9 9 9 9 9 9 9 9 9 9 9 9 : : $ $ # # # # * = = 6 6 6 6 9 6 y B C ~ o.o.o.o.@.+.+.+.$.%.w.w.w.w.e.e.e.e.a.e.w.$.0.e.e.v.b.m.P.P.m.P.P.P.P.v.c.a.a.a.c.a.w.w.%.O.O.O.O.o.+.+.+.+.+.C 0 4 8 : : : : $ $ %                                                                                                                                                                                                                                                             ",
"                                                                                                                                                                                                                                        o # $ # # # $ : 9 b y y c v m N C M m n n n n m n n n n ~ $.w.e.a.e.%.%.%.%.%.%.%.%.%.+.$.+.$.$.+.o.C C C C C C V V V V M n m m m m c 9 9 9 t y b t 9 9 6 9 9 8 9 9 9 8 9 9 9 9 9 : : : : : $ $ # # # # = = - 6 9 9 9 9 6 y m C C o.o.o.o.@.@.+.+.+.%.w.e.e.e.e.e.e.e.e.e.e.e.e.e.e.c.b.b.P.b.b.P.P.P.P.v.c.a.a.a.c.a.e.w.%.O.O.o.o.o.+.+.+.@.@.C y 9 9 t t 9 : $ $ % %                                                                                                                                                                                                                                                           ",
"                                                                                                                                                                                                                                        o # $ # # # $ : t c B n c n m N C M n n g n n n n n n n ~ +.w.e.a.e.%.%.%.%.%.%.%.%.+.+.+.+.+.+.+.o.C C N C C C M M n n n g n g c n c 9 8 9 9 9 9 9 9 6 8 6 8 8 : 9 8 : : : : : : : : : % % $ $ # # # # = = - 6 9 9 9 9 0 y m C C F o.o.o.+.O.O.O.+.+.w.a.a.a.a.e.e.e.e.e.e.e.e.e.e.e.c.v.v.v.v.v.b.b.b.c.e.%.w.e.a.a.e.w.%.+.O.o.o.o.+.+.+.+.+.C e 0 9 t t t : $ $ $ % #                                                                                                                                                                                                                                                         ",
"                                                                                                                                                                                                                                        X # # @ X # $ : y B B B n M M M M m n s 0 0 0 s g 0 g n C +.w.w.a.w.%.%.%.%.%.$.$.+.+.+.+.O.+.$.+.o.~ C Z Z C C M n v v n y c c c c y 9 : : 8 8 6 9 8 8 8 8 8 : : 8 : : : : : : * * * * $ $ $ % # o # # * = : 6 6 6 9 9 0 c n B C C C C C o.o.~ ` ` O.%.a.e.a.e.e.e.e.e.e.e.e.e.e.w.w.e.c.c.c.c.c.v.v.c.w.+.O.O.+.%.w.%.%.+.+.o.o.o.o.+.+.+.+.+.C s 9 9 9 t t : $ # $ $ %                                                                                                                                                                                                                                                         ",
"                                                                                                                                                                                                                                        X # @ @ X o # : y B J V M M M M M m n s 0 0 0 0 0 0 0 g N O.%.w.w.w.%.%.%.%.$.+.+.+.+.+.O.O.O.+.+.O.~ C Z Z C B n n n n n y c n c n y 9 = = = = : : : : 8 8 8 : : : : ; = : = $ # # # # $ $ $ # # o # # * = : 6 6 6 9 9 0 b n m B V M M m C C C ~ ~ o.$.a.e.e.e.e.e.e.e.e.e.e.e.w.$.$.w.e.c.c.c.c.c.c.a.%.O.~ ~ ` O.@.O.o.o.o.o.o.o.o.o.+.+.+.+.C s 9 9 9 t t 8 $ # # # o o                                                                                                                                                                                                                                                       ",
"                                                                                                                                                                                                                                        X # @ @ X X # : y B B B n M M M M n n 0 0 0 0 0 0 0 0 g N o.%.w.%.%.%.%.%.%.$.+.+.+.+.O.O.' O.+.@.O.*.~ C C C C n n n n n c c n n B c t 8 8 : : = : : : 8 6 8 : 8 8 8 : : = = $ # # # # $ % $ $ # # # # = : > 9 6 6 6 9 9 y c c n m m n n m N N C C o.%.a.a.a.e.e.e.e.e.e.e.w.w.0.$.0.w.a.a.c.c.c.v.c.c.%.O.o.~ C o.o.C C ~ o.o.o.o.o.+.+.o.+.+.C n 0 9 0 y y 8 = # $ # o o o                                                                                                                                                                                                                                                     ",
"                                                                                                                                                                                                                                        X @ @ X X X # : y B B B n n M M M n n 0 6 4 4 6 q q 0 0 N o.%.%.%.%.%.%.%.%.+.+.+.+.O.O.O.' O.+.+.O.~ C C C C C V n n n B c n n B B B y 8 8 : : : : 8 8 6 9 6 8 8 6 8 : : : = $ # # # # # $ $ $ # # $ * = : 9 9 6 6 > 6 9 9 0 c n n n n n m m m N C o.%.a.a.a.a.e.e.e.e.e.e.0.w.w.0.w.e.a.a.c.c.c.v.c.c.w.+.o.~ C C C m m C C C ` o.#.#.+.o.+.+.` n 0 0 0 b y 9 = $ # # # o X                                                                                                                                                                                                                                                     ",
"                                                                                                                                                                                                                                        o # # X X o # : t B B B n n n n V n c 0 4 4 8 4 4 4 q 0 m o.+.+.%.%.%.+.$.$.+.O.O.O.O.' ' { $.+.O.o.~ C C C C V n c c n y c c c c c y t : : = = : : : : 6 8 > > > : : : : : * # # o # # # # = = = * = = : : 8 8 9 9 6 6 q 0 0 y n n n n n m N m N N ` @.a.a.a.a.a.a.e.e.e.w.0.0.w.0.e.e.e.c.c.c.c.c.v.b.%.+.O.~ ~ Z m m m m C C C H #.#.o.#.+.O.C n 0 0 0 c c y 8 & $ $ # o X                                                                                                                                                                                                                                                     ",
"                                                                                                                                                                                                                                        o # # X X o # * t c B B n n n n V n c 0 4 4 4 4 4 4 q 0 n ` +.+.+.+.+.+.O.O.+.+.O.O.' ' ' { &.$.O.~ ~ N m M V n c 0 0 y 0 0 y 0 y y y 9 8 : : : 8 8 8 8 8 8 : : : : : = ; ; $ % o X o # # # = : : : : > 8 8 8 8 8 9 6 8 q 0 y n n m m n m C N M N N ` +.a.a.a.e.e.e.e.e.e.0.$.0.0.w.e.e.c.c.c.c.c.c.v.v.a.%.O.*.~ ~ N m m m ~ C C H o.#.` ` o.o.C n 0 0 s v c y 8 : : % # # X .                                                                                                                                                                                                                                                   ",
"                                                                                                                                                                                                                                        o # # # X o # * 9 c B n c c n n M n c 0 4 4 = $ $ $ 4 4 g C o.O.O.O.O.O.O.O.$.$.$.+.$.$.$.&.$.$.O.` C m n m n c y 9 0 y 9 9 9 9 9 0 0 9 9 q 9 9 y y 9 9 6 = = = = = : = ; * # # X X X o # $ = : > 6 9 9 9 9 6 9 9 9 8 8 q 0 y m C C C C C C C C C C ` +.w.e.e.e.e.e.e.e.w.%.$.$.0.w.e.e.c.v.v.v.v.v.b.v.c.&.&.$.' ^ ^ R m ! ~ ~ F H o.o.` ` ` o.C n 0 0 0 c c 9 : & % % # # X .                                                                                                                                                                                                                                                   ",
"                                                                                                                                                                                                                                        o o # # X o # * 9 c B c c c n n M n c 0 4 4 4 = = = 4 q g C o.o.o.` ~ ` ' ' O.$.$.&.&.&.&.&.&.$.' ~ C m n c c y 0 9 9 0 9 9 9 9 9 0 0 y b b b c c c c y 6 > = = = = : : * $ # o X X X o # # = > 9 9 t t t t 9 9 9 9 q q q 0 n C H o.o.o.o.o.` C C ~ o.+.e.e.e.e.e.e.e.e.w.%.$.$.0.e.e.c.c.v.v.v.b.b.b.b.v.g.&.&.$.' / ^ ^ ^ ` o.` o.o.#.` ` ` ` C n y y 0 s y 8 : $ $ % # # X .                                                                                                                                                                                                                                                   ",
"                                                                                                                                                                                                                                        X o # # o o # * 9 c B c c c n M M n c 0 q q q q 8 8 q 0 n C o.` ` ~ ! ~ ~ ' O.&.&.&.&.&.&.$.' ^ ~ m m n y y y 9 q 9 9 9 9 9 q q 9 9 0 s c c c M B M c b 9 : = = = : : : $ $ # o X X X o # # = 6 9 9 t t 9 9 9 9 9 9 9 9 0 0 n C o.@.@.@.+.+.O.O.` ` o.+.e.a.e.e.e.e.e.w.%.%.$.$.e.e.a.c.v.v.b.v.b.b.b.v.v.g.=.=.=.&.&./ / ' ' ' ` ` o.` ` ` ` ` C c y 0 0 0 t 8 $ $ % % % o X .                                                                                                                                                                                                                                                   ",
"                                                                                                                                                                                                                                        X o # # o o # * 9 c B c c c n n n n c b 0 0 0 0 0 0 0 c n C ` ~ ~ C m m ! ` $.&.&.&.&./ ^ E Y r e e e 0 0 9 q 6 6 6 q q 9 q q q 9 9 0 c B n M M B B c s 6 = * # $ = $ $ # # % o X X X o # # = > 9 9 9 9 9 9 9 9 9 0 0 0 0 i B *.O.@.@.@.+.@.@.O.O.o.O.@.%.e.e.w.w.%.w.%.w.%.$.e.e.e.c.v.b.b.b.b.b.b.v.v.v.=.=.=.=.=.=...&.&.&.' ~ ~ ` ` ` ~ C C m y 9 9 9 0 9 : $ # % o o o X .                                                                                                                                                                                                                                                   ",
"                                                                                                                                                                                                                                        X o # # o o # : 9 c B c n n n n n c c c y y c n c y c n n C C C ~ C m m R ~ ' $.&./ / Y I I r r r r 0 0 q 9 q 6 6 9 9 9 0 0 0 0 0 0 c M V B M M V M v s > ; # # # * $ # # % # o X X X X o # = > 9 9 6 9 6 q 9 0 s c c s c n M o.@.@.@.@.@.@.+.+.+.O.O.+.%.w.w.w.w.w.w.w.w.w.w.e.a.a.c.v.b.b.b.v.b.b.M.M.M.=.=.=.=.=.=.=.=.=.&.$.' ~ ` ` ~ C C C m y 9 9 9 6 9 : $ # # X o o X .                                                                                                                                                                                                                                                   ",
"                                                                                                                                                                                                                                        X o # # o # # : t c B c n n n n c c c c c n n n n n n m m C C C ~ ~ N N m R ^ E Y Y I I I r 3 5 r e e 0 0 9 9 9 9 9 t y s 0 s c c v M V V V M M V M v s > = * # * * $ # o o o X X X X X o # = : > > > 6 q 9 9 b c v v c n n N o.O.@.@.@.+.@.+.+.+.O.O.+.%.w.w.w.%.w.e.e.w.w.e.e.a.c.v.b.b.b.v.v.b.m.M.M.M.=.=.=.=.h.=.=.=.=.&.&.' ' ` ` ` C C C B y 9 9 9 0 t 8 : $ % o X o X .                                                                                                                                                                                                                                                   ",
"                                                                                                                                                                                                                                        o # # # o # # : t c B c n n n n n n c c c n n n n n n n n C C C C ~ ~ ! R h r r 3 3 3 3 3 3 3 3 r r i n y y b b b b c c c v n n M V V C F V V V M M d a : ; $ # # # # # # # o o X X X X o # = : 6 6 > : 6 9 b c n V V V m B C *.@.@.@.@.O.+.@.+.+.O.O.+.%.w.w.w.w.w.w.a.e.e.e.a.c.c.c.v.b.v.v.b.m.m.M.M.M.h.=.=.=.=.!.=.=.=.=.&.$.' ` ` ~ ~ ~ C n y 9 9 0 c c t : $ % X X X . .                                                                                                                                                                                                                                                   ",
"                                                                                                                                                                                                                                        % % # # o # # : t c B c c n n n n n n c n n n n n n n n m C C C C ~ ~ ~ m e r r r 3 3 3 3 3 3 3 r r i n c c c B n n B B B V V V V V C C F V V V V M s 9 : : # # # # # o o o o o X X X X o # * ; : : = = 9 9 b c B V V V m m Z C o.@.@.@.+.@.@.+.+.O.O.+.%.w.w.w.w.w.w.a.e.e.e.a.c.c.c.v.v.v.v.b.m.m.M.M.h.=.=.=.=.=.=.=.=.=.=.&.{ ` ~ ~ ~ ~ ~ C n 0 9 9 0 c c b t : % X X X X .                                                                                                                                                                                                                                                   ",
"                                                                                                                                                                                                                                        o % # # o # # : t c B c c n M M n n n c n n n n n n g n n C C C C ~ ~ ~ m i r 3 r 3 L L L 3 3 3 r r i i n n B V V C C C C C F C C C C C V V V B M c s 9 ; ; # o # # # o o o o o X X X X X # * = ; ; = = 9 t c B V V V V B n n C o.#.@.o.+.@.@.+.O.o.o.+.%.w.w.a.w.w.w.a.e.w.e.a.a.a.c.c.v.v.v.v.v.m.M.M.h.=.=.=.=.=.=.=.=.=.=.&.' ^ ~ ~ ` ` ~ C m y 0 0 s n B B y : % X X o X .                                                                                                                                                                                                                                                   ",
"                                                                                                                                                                                                                                        o % # # o # # : t B B c c c M M M n n n n n n n n g g s n N C C C o.` ~ m m r r r L L L L L 3 3 r r i n m V V V C C C F C F F C C C V V B v v v v s 9 9 : # o o o # o o o o o X X X X X X o * ; : ; = = 8 t c B V V V V n n B C J o.o.o.o.O.o.o.o.~ ` O.%.w.a.a.a.w.a.a.e.w.e.e.e.a.c.c.v.v.v.v.m.M.M.M.h.=.=.!.=.=.=.=.=.=.=.&.{ ^ ~ ` o.` ` ` C n c c n M V V c : % X X o X .                                                                                                                                                                                                                                                   ",
"                                                                                                                                                                                                                                        o # # # # # # : t B B c c c n M n n n n n n n n n s s g n N C ~ o.o.o.~ ~ m r r r L L L L L r 3 r e e n B V C C C C C C C F F C C C V n c b y 9 9 9 9 9 : # o o o % % o o o o X X X X X X o % ; : : : : 8 t c B B V V B c c c B C H H C H o.o.o.F C F #.w.w.a.a.a.w.e.a.e.w.w.e.e.e.a.c.v.v.v.v.M.M.M.M.h.=.=.!.!.E.=.=.=.h.g.&.$.O.O.O.+.+.+.+.o.C C N C F H J B t $ X o o + .                                                                                                                                                                                                                                                   ",
"                                                                                                                                                                                                                                        o # $ # # # # ; t B B c c c n n n n M V n m m m n n n n m C o.o.o.o.o.` C m r r r I L L L I r r r e n n V V C F C C C C V F C C C F V n b 9 9 6 9 9 9 : ; # o o o o o o X X X X X X X X X o # : : ; : : 8 t c B B B B B c c c B V V V B V C C C C N C o.@.w.a.a.a.a.e.e.w.%.%.w.e.e.a.c.v.v.v.v.M.M.M.M.M.h.h.!.!.!.!.=.h.h.g.&.&.O.O.+.@.+.+.+.#.` C C F F H H B 9 $ o o o X .                                                                                                                                                                                                                                                   ",
"                                                                                                                                                                                                                                        o # $ # # # # ; t B B n n n n n n n B V M C C C N N M N C ~ o.o.o.o.o.o.~ m r r r I I L L I I r r i m m M C C F C C C C C F C C C F V c 0 9 9 9 t t 8 : ; o o X o o o X X X X . . . X X . X % $ ; ; : : : 9 y c c B B B B c c c c c c y b c n c n n m C +.@.w.a.a.a.w.w.w.%.%.%.e.e.e.c.v.v.v.v.v.v.M.M.M.h.!.!.!.!.!.!.h.h.g.&.&.$.%.%.+.+.+.+.+.` F F F F F H B 9 $ o o o X .                                                                                                                                                                                                                                                   ",
"                                                                                                                                                                                                                                        o # $ # # # # ; t B B n n n n n n n B M C C C C C C C C ~ o.o.o.o.o.o.o.~ h r r I I I L L I I r r i m m m C C F C C C C C F F V C C V b 9 9 9 9 t t 8 : ; o o X X o X X X X .     . . X . X o % % $ $ $ : 9 y c c c B B B c y t 9 9 9 9 9 0 0 0 0 0 y N o.+.w.a.a.w.w.w.%.%.%.w.w.e.e.c.v.v.v.v.v.M.M.M.h.=.h.!.!.!.M.M.h.g.=.&.&.%.%.w.+.+.+.+.+.#.` ` F F H H V t # o o o X .                                                                                                                                                                                                                                                   ",
"                                                                                                                                                                                                                                        o # # # # # # ; t c B n n n n n n B C C o.` ` ` ` ` ` ` O.O.o.o.O.+.O.O.^ ^ I I I I L L I I I I I m N ~ ` C C C C C ~ C C C C C C C B c y 9 9 9 9 9 9 : ; % X X X X X X X . .       . . . . . X o o o # ; : t c c c B B B c t 9 9 t 8 8 8 t 9 9 t 9 0 n C o.o.@.@.@.%.w.%.%.w.e.e.e.0.e.c.c.v.M.M.M.M.M.h.=.=.=...=.=.&.&.$.{ { $.&.w.w.w.$.@.@.@.o.o.` ` o.o.F V t $ o o # + .                                                                                                                                                                                                                                                   ",
"                                                                                                                                                                                                                                        o % # # o # $ ; t c B n n B n n n m C C o.o.o.o.O.O.O.O.O.O.O.O.+.@.+.O.^ ^ I I I I I L L I I I Y ^ ~ ` o.` o.F C C ~ C C C C C C C B c t 9 9 9 9 9 : : % o X X X . . X . .           . . . . . . . o o ; : t y c c c c c b 9 9 9 9 8 8 : t 8 8 9 9 t c V C C o.o.O.%.w.w.%.w.e.e.e.0.a.c.c.v.M.h.M.M.W.=...| / ^ ' ' ~ ~ m ~ ` O.%.w.w.%.$.$.@.+.o.o.o.` O.o.F V 0 $ o o # + .                                                                                                                                                                                                                                                   ",
"                                                                                                                                                                                                                                        o % # # o # $ ; t c B n n n c c c n C H o.o.o.o.O.O.O.O.O.O.O.O.+.+.+.O.! E r r I I I L I I I Y ^ ' O.+.o.o.o.F C N C C m m V n B B n c 9 9 8 8 : : : ; % o X X . . . . . .             . . . . . . X o % ; t t t b c c b y 9 9 6 6 8 : : 8 8 8 8 8 9 c n B C C C ~ +.w.w.w.e.e.e.e.e.c.c.v.v.M.h.M.W.Q.=./ Y r 5 e 0 q q q q m O.w.a.a.e.w.w.w.$.' ` O.` O.o.o.C y = # # # o X                                                                                                                                                                                                                                                   ",
"                                                                                                                                                                                                                                        o % # # o # $ ; t c B n n n c c c n C H o.o.o.o.o.o.O.O.O.O.O.O.+.+.+.O.` R r r I I I I I I Y ^ ' O.+.+.#.o.o.F m n m n n n c c v v c 0 9 8 = = : : = # o X . . . . . . . .             . . . . . . X X $ ; : 9 9 t y c y 9 9 9 6 8 8 : : 8 8 8 8 8 q y m B N m m C O.w.w.w.e.e.e.e.e.c.v.v.v.h.h.M.M.Q.=.E r 2 & $ $ & & & $ u *.w.a.a.a.e.w.0.$.' ' ' ` +.O.o.C b = # # # o +                                                                                                                                                                                                                                                   ",
"                                                                                                                                                                                                                                        o # # # o # # : t c B n c n v c n m C o.o.o.o.o.O.O.' O.O.O.O.O.+.+.+.+.` ! i r r I I I r I Y ^ O.$.%.@.+.#.o.F m n n g n n n y c c c y 6 8 : : : : $ # X X . . . . . . . .               . . . . . . o # : : 9 9 t t y 9 9 6 6 6 8 : : 8 8 8 8 9 q 9 c C C C m n m O.w.e.w.e.a.e.e.c.c.v.v.g.h.h.M.M.M.&.Y 2 & @ $ o X # X @ 8 J @.a.a.w.w.$.$.' { ' ' ' +.+.o.C b = # # # O o                                                                                                                                                                                                                                                   ",
"                                                                                                                                                                                                                                        o # # # o o # : t c B n c c n n n V C o.o.o.o.o.O.O.' O.O.O.+.+.+.+.+.+.` ~ h e r r Y Y i Y ^ ^ O.+.%.w.@.#.#.F m g n g n n n c c n c y 9 8 : : : : = # X . . . . . . . . .               . . . . . X X # ; : 9 9 9 t t 9 9 9 9 9 6 8 : 8 8 8 q 9 9 y n C C C m n m O.w.w.w.e.e.e.e.a.c.v.g.v.h.h.M.M.M.&.Y q & @ % o o X X @ : B @.a.a.%.+.+.' ' { { { O.+.+.o.C c = # % # O O                                                                                                                                                                                                                                                   ",
"                                                                                                                                                                                                                                        X # # # o o # : t c B n c n n n m C H o.o.o.o.o.' ' ' O.O.O.+.O.+.+.+.+.o.` C m ! ! ! ! ! ^ ^ ' O.+.@.w.9.#.#.F n s n s c c c n c c c t 9 8 : : : : % # X . . . . . . . . .                 . . . . . X % ; : 9 9 9 9 9 9 9 9 0 y y 0 0 y y 0 0 y y n C C C C m m C O.%.w.w.e.e.e.e.e.c.g.g.v.h.M.n.n.m.=.^ q & @ # % % @ @ & : y V H #.F C N ! ' $.&.$.+.+.+.o.C c = # ; # O O                                                                                                                                                                                                                                                   ",
"                                                                                                                                                                                                                                        X # # # o o # : t c B n c n n M M C o.o.o.o.o.o.' ' ' ' O.O.' ' #.+.+.+.+.o.O.` ' ' o.o.~ ' O.O.+.+.@.@.#.#.#.F n s s s c n n n n n c y 8 8 : : : : $ # o . . . . . . . . .                 . . . . X X o * : > 9 9 9 9 q 9 y c c n B B n B n n n n n C ` ~ ~ C m N o.%.%.%.%.a.e.e.e.c.g.v.v.M.M.n.Q.m.g./ r 1 & & # $ & & & $ = 8 9 0 6 6 7 g ! +.$.$.+.$.+.o.C c : $ ; % % O                                                                                                                                                                                                                                                   ",
"                                                                                                                                                                                                                                        X o # o o o # : 9 c B n v V V M N C F o.o.o.o.o.' O.+.' ' ' ' [ +.+.+.+.+.+.+.+.@.@.@.+.O.+.+.+.+.+.@.@.@.#.#.F M j g n n n n n n n c y 9 : : : : : ; # X . . . . . . . . .                 . . . . . X % * : 9 9 9 9 9 6 9 c B C C C V C C C N m N C C *.` ~ ~ ~ ~ O.+.w.w.e.e.e.e.e.c.c.c.v.g.g.g.M.M.&./ Y 5 5 q w 5 q e i e q 4 $ $ $ = 4 0 C +.w.$.$.$.+.o.C c = # * ; % O                                                                                                                                                                                                                                                   ",
"                                                                                                                                                                                                                                        X o # o o o # : 9 c B n n V V V C C C ` o.o.O.o.' +.+.' ' ' ' [ +.+.+.+.+.+.+.+.@.@.+.+.+.+.+.#.#.+.@.@.@.#.#.F N n n n n n n n B B c y 9 : : : : : % # X . . . . . . . . .                   . . . X X o * : : 9 9 9 9 9 y c V H H H H C C C C C C o.o.o.O.O.o.` ` O.%.w.w.e.e.a.e.a.c.c.c.c.&.| ) / | / ^ ^ ^ ) | { ) { &.c.$.m 4 $ $ # = 8 b C %.w.%.$.0.$.O.~ c = $ $ ; %                                                                                                                                                                                                                                                     ",
"                                                                                                                                                                                                                                        X o # o o o # : t c B n n V V M N C C F ` O.+.O.+.+.+.+.+.+.+.+.+.+.+.+.+.+.+.+.+.+.+.#.+.+.+.#.#.@.@.@.@.#.o.F N n n M m n n n m m n y 9 8 : : : : ; # o . . . . . . . +                     . . . X X # * : : 9 9 9 9 9 y B J H o.o.o.o.o.o.o.o.o.O.O.O.+.+.O.O.O.+.%.w.w.e.a.e.e.a.c.v.v.a.{ h w r r r I ) d.f.z.n.x.n.}.#Xm.O.e 1 $ $ : 8 c o.w.a.w.$.0.$.O.` n 4 $ $ ; %                                                                                                                                                                                                                                                     ",
"                                                                                                                                                                                                                                        X o # o o o # : t c B n M V V M M m m C ` +.+.+.+.+.+.+.+.+.+.+.+.+.+.+.+.+.+.+.+.+.#.#.+.+.#.#.#.+.@.@.+.o.o.F N n n M m m n n n m n y 9 8 : : : : ; # X . . . . . . . +                     . . . X X # * ; : 9 9 9 9 6 y B C H o.o.o.o.o.o.o.O.O.O.+.O.+.%.%.+.+.+.%.w.w.e.a.a.e.c.c.c.v.a.' 7 1 1 1 2 r ) v.Q.).OX'.oX7XrX#X0.g q $ $ : t B o.w.w.0.$.$.$.O.~ n = $ % ; %                                                                                                                                                                                                                                                     ",
"                                                                                                                                                                                                                                        X o o o o o # ; t c B B n V M n m n n N o.+.+.+.+.+.' ' +.+.+.+.+.+.+.+.+.+.+.+.+.+.+.#.+.+.+.o.O.+.+.+.o.o.~ C N n n N N N m n m m n y 9 8 : : : : ; # X . . . . . . . +                       . . X X o $ : : > 9 9 9 6 9 n C H o.o.o.o.o.O.O.O.O.O.+.+.$.%.%.$.$.$.$.0.w.e.a.c.a.c.c.v.v.a.` q & & $ $ 5 ) M.(.%XqXqX9XfXlX4Xd.m q @ # : t B o.w.0.&.&.0.$.+.~ n = # = : ;                                                                                                                                                                                                                                                     ",
"                                                                                                                                                                                                                                        X o o o o o # ; t B B n n M M n n g j M o.+.+.+.+.+.' ' +.+.+.+.+.+.$.+.+.+.O.` ` o.o.o.O.o.o.o.o.o.O.o.o.~ C N N m N N C C C N C C n c 9 9 : : : : ; # X . . . . . . . +                       . . X X o $ : : > 9 9 9 6 9 n C H o.o.o.o.O.O.O.O.O.+.$.$.%.w.w.0.0.$.0.w.e.e.c.c.c.c.v.v.b.a.o.0 $ $ $ & 1 ^ m. X3X9XaXaXkXzX4Xd.h q & # : u C O.w.0.&.&.0.0.+.` n 4 $ = : ;                                                                                                                                                                                                                                                     ",
"                                                                                                                                                                                                                                        X o o o o o o ; 9 c B n c n n n n 0 s M ` +.+.+.+.+.+.+.+.+.+.+.+.$.$.$.$.O.` ~ N ` ` ` o.o.o.o.o.O.o.o.~ C N N N N N C C C C C C C M c 9 9 : : : : ; # X . . . . . . . +                       . . X X o $ : : : 9 9 9 6 9 n C H o.o.o.O.+.+.+.O.+.@.%.$.0.w.e.e.w.0.0.e.e.a.c.c.c.c.c.b.b.c.O.0 $ $ $ $ 4 ' m. X3X0XaXaXfXkX@X} w q $ & : y C +.0.<.<.&.e.e.$.O.m 8 $ = : ;                                                                                                                                                                                                                                                     ",
"                                                                                                                                                                                                                                        X o o o o o o $ 9 c n c c n n v n 0 g N o.+.+.+.+.+.+.+.+.+.+.+.$.$.$.$.O.' ~ N N N C F ` o.o.o.o.o.o.` ~ C N N C C ~ ` ` ` ` ~ C C M c 9 9 : : : : ; % X . . . . . . . +                       . . X X o $ = : : > 9 9 8 9 v V F o.o.o.O.+.+.+.O.+.$.%.$.0.w.e.w.w.0.0.e.e.c.c.c.c.c.c.b.b.a.O.n 8 = = = 4 ` m. XqXaXaXaXfXdX+X} w 4 $ & : y C $.0.d.<.&.e.e.%.O.m q $ = : ; %                                                                                                                                                                                                                                                   ",
"                                                                                                                                                                                                                                        o o o o o o # $ 6 c c c y c c c n c g M o.O.O.O.O.O.+.$.+.+.+.+.$.$.+.+.+.` ~ m n N C C ` ` o.o.o.o.o.` ` C N N ~ ` o.o.o.` F C C C B c 9 9 : : : : ; # + X . . + . + + +                         . . X o # * * = ; > > > 6 s n C o.o.o.o.o.O.O.O.$.$.$.$.0.0.e.0.0.e.g.g.g.c.v.c.c.c.c.c.b.c.+.n 4 = = 1 5 ) m.oX9XaXaXfXfXgX+X} r 4 $ $ : u n O.e.d.0.0.e.0.$.O.Z u $ : & % %                                                                                                                                                                                                                                                   ",
"                                                                                                                                                                                                                                        o o o o X X X # : b b y y c c c n c n m o.+.+.O.O.O.+.$.+.+.+.+.$.$.$.+.+.` N m n M C C ` ` ` ` ` o.o.` ` C N C ` o.+.+.o.o.o.C J C V c 9 9 : : : : ; # o X . . + . + + +                         . . X o # * * = ; : > : 6 9 n C C ~ o.` ` ` ` ' +.&.&.&.0.0.e.0.0.e.g.g.v.v.v.c.c.c.c.b.b.c.+.n 4 = 4 4 5 { n.+X0XfXfXfXjXgX@X} w 4 $ $ & 8 c o.%.e.0.0.0.0.$.+.~ y q q : : : %                                                                                                                                                                                                                                                 ",
"                                                                                                                                                                                                                                        o o o o X X o # : t b y y c c c n c c m o.O.+.O.+.+.O.+.+.$.+.+.$.$.+.+.+.` N n n M C C C C C C C ` ` ~ C C C C ` o.+.+.o.o.` ` H J V c t 9 : : : : ; % o X . . . + + + +                         . . X o # $ * = ; : > : 6 y c B C C C C C C ~ ` O.&.&.0.0.e.e.e.0.e.c.c.g.v.v.v.c.c.b.b.b.c.@.m q 4 4 4 w &.|.5XfXmXjXmXmXxX4X} h 4 & & < 8 y *.w.a.r.r.e.0.%.%.*.n y y 0 t 9 :                                                                                                                                                                                                                                                 ",
"                                                                                                                                                                                                                                        o o o X X X o # : t b 9 t c c c n y c m o.o.O.O.+.+.+.+.$.$.+.+.+.+.+.+.+.` C N m N C C N C N m N N C C N N C C ` o.+.+.O.o.o.` H C B c t 9 : : > : : % o o X . X X X + +                           . X o # # * = ; ; : ; > 0 c B Z m m n N N N ! ' &.&.e.e.e.e.e.e.c.c.c.c.c.b.c.c.b.b.c.b.c.%.N 0 4 4 q e 0.+XeXjXnXmXmXnXbX7X0.m q 8 < < : u C @.r.e.r.r.$.$.%.O.~ C C m V B y 9                                                                                                                                                                                                                                               ",
"                                                                                                                                                                                                                                        X X X X X X o o * : 9 9 9 y y c c y y m ~ o.O.O.+.+.+.+.$.$.+.+.+.+.+.+.+.` N m m M N C N N m m m N C C C ~ ~ ` o.O.O.+.O.O.` ` ~ C m c 9 9 : : : : : * # o X X o X X + X                           X X o # # * ; ; ; ; * > 9 c m m n g n n n m N ` $.&.&.e.e.e.e.0.r.e.a.c.c.c.b.b.b.b.b.b.c.$.m 0 4 4 q e d.@XtXzXnXmXmXnXbX4X<.h 4 & < % < : u M F ` ] ( ` ` +.O.` ` ` ` +.#.V 9 8                                                                                                                                                                                                                                             ",
"                                                                                                                                                                                                                                        X X X X X o o o # : : : 6 9 y y c y y n C o.O.O.+.+.O.+.$.+.+.+.+.+.+.' O.` N m n m m N m N m m m N C C ~ ~ ` o.o.O.O.O.O.O.` ` ~ C m y 9 9 8 : 9 : ; ; # o X o o o X +                             + X o # # * ; ; ; = * = 9 c m m n g g n n h h ! ' $.&.&.0.0.0.0.0.r.a.a.c.c.b.c.b.b.b.b.c.+.M q 4 4 4 w g.@XuXzXnXmXmXnXxX4X} w 1 & & & & # $ = a j M M n ~ ' ' ( ( [ [ w.w.o.c 8                                                                                                                                                                                                                                             ",
"                                                                                                                                                                                                                                        X + X . X o o o # * * ; : 9 t y c y 0 n ~ o.o.o.O.O.O.+.O.O.O.O.+.+.+.+.+.` C m n n m m m N m m N C ~ ~ ~ ` o.O.o.o.O.O.O.o.` ~ ~ C B c 9 9 6 8 9 : ; ; # # o o o o X X                               + # # # ; ; , ; * # = 6 c m B n n g n n h m ~ ' $.&.&.&.&.&.&.0.0.0.r.c.c.c.c.c.c.b.b.a.+.m 7 4 4 q h b.wXyXbXnXmXnXnXnX6Xd.E w 5 q q 8 $ $ $ = 6 0 0 n ~ +.+.[ [ [ [ 9.9.` c 8                                                                                                                                                                                                                                             ",
"                                                                                                                                                                                                                                      X X o X X X o X X o # * * : 9 9 y y y 0 n ` o.o.o.O.O.O.+.O.O.O.O.+.+.+.+.+.` C n n m m M N C C C ~ ` o.o.` o.O.O.O.O.O.@.O.O.` ~ ` C B c 0 9 6 8 9 : ; ; # # o o o X X X                               o # # # ; ; ; * * * = 9 c m V m n n n n n m ! ' $.$.&.&.| | } &.0.0.0.r.c.c.c.c.c.c.c.a.+.m 7 q 5 e ^ U.rXvXnXnXnXnXZXZXrXh.| E E ^ m i q $ # # $ = 8 y F w.w.9.9.[ ) [ +.C 0 4 $                                                                                                                                                                                                                                           ",
"                                                                                                                                                                                                                                      + o o X X o o o X o o # * : 8 9 y y y 0 n C o.o.` ` ` ` O.O.O.O.O.+.O.+.O.o.` C N m m V M N N N C ` o.O.O.o.O.O.O.O.O.O.o.` ~ C C C C B c 9 6 8 : > : : ; # # o o o X X                                 + o O # ; ; ; ; * # * 6 c V C C N M g n m m ~ O.O./ / / / / / &.&.0.0.r.c.c.c.c.b.b.b.c.+.! 7 7 w h | |.iXBXZXZXnXnXDXnXtX~.6...| ..0.' N 0 @ X % $ $ 9 V o.w.r.9.[ ( [ [ N 0 8 #                                                                                                                                                                                                                                           ",
"                                                                                                                                                                                                                                  X + X X X X X o X X X X o # ; = 8 9 9 y 9 0 n C o.` ` ` ` ` ` O.O.O.O.' O.' ' o.` C n n n m B m m m C ~ o.o.o.o.o.o.o.O.O.o.~ N h n N m n c 9 8 = = = : * # # # # o o o X X                                 + o o # # # # # # # # : b V C C N M g n m m ~ ' ' / / / / / / / &.&.0.r.c.b.b.b.P.P.P.b.w.` w w w l  .^.uXcXZXZXZXnXZXnXfX'.W.W.W.)./.n.c.~ $ # % o X $ t B ` +.[ [ ( [ ] N 0 8 $                                                                                                                                                                                                                                           ",
"                                                                                                                                                                                                                              X X X X o o o o X o o X X X o # ; : 8 9 9 y 9 0 c C F ` ~ ` ` ` ` ' ' ' O.O.O.o.o.` ` N n n n m m m m N C ` o.o.o.o.o.o.o.o.o.` C n g g n n n y q : = # $ % # # # # o o o X .                                     o o o o o # # # o # > b V C C C N n n N C ~ O.^ Y Y I I U / / ..} &.e.c.b.b.b.P.P.P.b.e.+.R E r E  .(.yXnXZXZXnXnXZXnXfX*X[.[.[.3X3X Xm.+.q @ X X . X $ 8 M o.+.[ ( [ #.C y 8 #                                                                                                                                                                                                                                           ",
"                                                                                                                                                                                                                            o o o o o o o o o o o o o X o o # ; : 9 9 t y y y c C H o.~ ` ` ` ` ' ' ' O.O.O.O.o.o.` N n n n m B N N C C o.o.o.o.o.o.o.o.o.o.` M g 0 0 n n c y 6 : = $ # # # # # # o o X                                         O o o o o # # # o # : c C o.o.F C N C ~ ~ O.O.^ Y I L L U W / ....&.e.e.a.a.a.a.a.a.w.%.$.{ | | | 6.oXdXZXCXCXZXnXZXDXmX9X*X[.[.[.[.(.z.' 1 @ X X . X X # b ` +.[ [ +.+.C y 8 #                                                                                                                                                                                                                                           ",
"                                                                                                                                                                                                                          o o % % % o o o o o o o o o X o o # ; : 9 t t y y y c C F o.~ ` ` ` ` ` ` ` ` O.O.o.o.` ~ N n n n m B N C C C F H o.o.F C C o.o.o.C m s 0 0 0 y s 0 8 : $ # # % o o # o X                                             + + + + # % % # o # : c C o.o.` ` ` ` ` O.O.O.^ Y I L L U W / ..&.d.e.w.w.#.H H o.C C +.c.z.z.z.h.W.$XkXnXDXDXZXnXDXDXnXaXqX[.[.[.[.W.h.) 4 @ X . . + X # 9 C #.[ [ +.+.C 0 8 @                                                                                                                                                                                                                                           ",
"                                                                                                                                                                                                                          o o % % # # # o # o o X X X X o o # : : 9 9 t y t y c C J ` C ~ ~ ~ ` ` ` ` ` ` ` ` ` ` C m n g n n B N C C C C C C C C C C C o.o.C n 0 0 0 s s b 9 : : $ # o o o o o X                                               + X X + o # o # X # : c C o.o.` ` ` o.o.o.O.O.~ r 3 L L P U / / } &.w.+.F v 9 9 c 0 0 ` c.|.}. X(.].%XtXmXnXZXnXnXZXDXbXfXaX*X[.[.[.].x.} 7 & X . . . X X 9 C o.] ( +.#.M 0 = X                                                                                                                                                                                                                                           ",
"                                                                                                                                                                                                                        O O % # % % * * # # # o X X o o o % * ; : 9 9 t y t 0 c V C ~ C ~ ~ ~ ~ ` ` ` ` ` ` ` ` ` C m s c n m B V V C V C C C C C C C C F F M c 0 0 0 s y b t : : * % # # o o o                                                 + . X X o o o o X o ; c V F o.` ` o.#.o.o.O.O.~ r 3 3 L L U W / } &.$.F v - # # * $ = ` b.@X4X8X%X'.%X8XfXxXnXnXnXnXnXbXhXaXqX[.[.[._.~.g.g $ X . + + X o 9 C #.] _ +.#.V a = X                                                                                                                                                                                                                                           ",
"                                                                                                                                                                                                                        % # # $ : : : : = # # o o o o o # # : ; 9 9 9 9 y t 0 c V J *.C ` ~ ~ ~ ` ` ` ` ` ` ` ` ` C n g c n m B C C C C V V C C C C C C F C M c 0 q q 0 y y 9 : : $ o # o o o O                                                   X X + o o o o X o ; c V F o.F ` o.#.o.o.O.O.~ i r 3 L L U U / } &.$.F a * X o o @ $ +.F.7XuXjX0X3X5X0XfXzXnXnXnXnXDXnXjXaXaXqX>XqX%X+Xm.k = # . + + X o 9 F #.] ( +.#.V s = X                                                                                                                                                                                                                                           ",
"                                                                                                                                                                                                                        % : : 9 0 s y 9 : * o X o + o o # * ; > t 9 9 9 y 9 0 c C J o.o.*.` *.~ ` ( ` ` ` ` ~ ~ ~ C n n n m Z C C C C C C C C C V V V C C C B y 9 9 9 y y y t : : * # o o o o O                                                   + X + o # o o o # : c C o.o.o.` o.O.+.+.+.@.~ i r 3 3 L U U / } &.$.F s * X X o o = +.U.rXkXnXkXfX0X0XdXmXnXnXZXDXDXnXnXmXsXaXqXqXqX0X/.) 4 $ . . X X o 9 V o.[ [ +.+.N s 8 X                                                                                                                                                                                                                                           ",
"                                                                                                                                                                                                                      # : = 6 0 n n c y 9 : o X + + + o # * = > 9 9 9 9 y y 0 c C C *.*.*.*.*.~ ~ ( ~ ~ o.~ ~ ~ C C n n n n Z V C C C C V C C C V V V V V V B y 9 6 9 0 t t t : : * % o o o o O                                                     + X # # # o o # 8 c C o.o.o.` o.o.+.+.+.@.~ i r 3 3 L U U W / &.O.C s * o + O % : +.|.rXkXnXmXjXfXfXkXbXnXZXDXDXJXDXnXnXmXmXsXsXjXkX+X0.e : X + + . o 9 V o.] [ +.+.N s : X                                                                                                                                                                                                                                           ",
"                                                                                                                                                                                                                      # : 6 9 c n n c y 9 ; # o o + o o # * : : 9 9 9 9 y y y c V C *.~ ~ ~ ~ ~ ` ~ ~ ~ ~ *.C C C N n g n m B V V V V V V C C C V V M n B n c y 6 8 6 9 9 9 t : : # o o o + o O                                                     X X o # # o # # 8 b C o.o.o.` o.o.o.+.+.@.~ i r 2 3 L I U W / { ' N a * o + O o = +.U.wXkXxXmXkXfXfXkXbXnXDXDXJXJXJXDXDXMXMXMXMXmXnX7Xd.g $ X X O X o 9 V o.] [ +.+.N s : X                                                                                                                                                                                                                                           ",
"                                                                                                                                                                                                                      $ : q 0 s g s s 0 6 = # o o o o o # * : > 9 9 9 t y y 0 c V C o.o.~ ~ ~ ~ ~ ~ ~ ~ ~ ~ C C C M n n n m m V V V V V V V C V V M n v c c y t 6 8 6 9 9 9 9 : $ # o o + + o o                                                       + o # # # o # 8 b V o.o.o.` o.o.o.+.@.@.~ e r 5 3 L Y W / / ' ` N a * X + + o * [ U.6XtXkXkXkXfXfXfXxXnXnXZXFXJXJXnXnXnXmXMXMXMXmX4Xg.g = X + + o o 9 V o.] [ +.#.N c 8 o                                                                                                                                                                                                                                           ",
"                                                                                                                                                                                                                    * * 6 6 0 s s 0 0 6 6 : $ # % # o # $ = 8 9 9 9 9 9 y y 0 c V C o.` ` ` ~ ~ ~ ~ C C C C C N N n n n n M M M B V V B B B B B M c c b b y t t 9 6 6 9 9 9 8 : $ # X X X X X o                                                         o o o # # # 8 b V o.o.` ` o.` o.+.+.+.` Z i r 3 I Y / / ) | ' N t * X o + o = +.U.6XyXxXmXmXfXtX0XfXkXjXxXVXZXnXmXfXfXaXaXaXaXfX+X0.g : o + o o # 9 V o.[ [ +.+.N c 8 o X                                                                                                                                                                                                                                         ",
"                                                                                                                                                                                                                  ; ; : q 0 0 g s 0 0 q 6 = # # # # # # $ = 6 9 9 9 9 9 y 0 0 s N C ` ` ` ~ ~ ~ C C N N N m m n M n n d n M M M B V V B c n c v v s y 0 9 9 9 t 9 6 6 9 9 9 8 : $ # X X X X X o                                                             O # # # 6 c V o.o.` ` o.o.O.+.+.@.` ~ Z e r Y ^ / / / ' ` M 9 * X + + o = +.U.7XuXxXbXzXfX8X5X8X0XtXfXlXbXjXfXqX*X*X[.[.*X3X(.) e $ o O o o # 9 F o.[ [ +.+.C c 8 o X                                                                                                                                                                                                                                         ",
"                                                                                                                                                                                                                  : ; 6 s s s n g s 0 q q 8 = # $ # # # $ : 6 q q 9 9 9 c 0 0 g M C ` ` ~ N N N N m m m m h n n n n c c v v c c B B B c c c b b y 9 9 9 9 6 6 9 9 8 9 9 9 9 8 = $ # X X X X + o                                                               # # # 9 b C o.o.` ` +.+.+.+.+.%.o.*.Z m h ^ ^ / ^ ' [ ` M t * X + + o * ` b.oX4X8XtX8X5X$X$X5X8X8X0XfXjXfX9X*X_.{.[.[.[.'.x.Q 0 = o O o o # 9 A ` ] [ +.+.N c 8 o .                                                                                                                                                                                                                                         ",
"                                                                                                                                                                                                                # ; : 9 c v n n n g s s y 9 8 : = $ # # = : 6 6 q 9 9 0 c 0 0 g M C ~ ~ N N N m h h g l l h h l g g g c c v c v c c c b y b y 9 9 q q q 6 8 6 9 9 8 9 9 6 6 8 : $ o X X X X + o                                                               o # * 9 c J #.o.o.o.+.+.+.+.+.w.O.o.~ m ! ! ~ ^ ^ ^ ' ~ n 9 * X + + o * N 0.m./.oX+XOXoX.X+X5X8X8X8XfXfXaX*X_.!.E.E.{.{.].7.E 4 $ o o % o # 9 F #.] [ ' +.N s : o .                                                                                                                                                                                                                                         ",
"                                                                                                                                                                                                              + # * > b v n n n n g s s c y 9 : : = = = = 4 8 q 9 9 9 s s 0 0 n N N N N N N N k ( $.0.r.r.r.c.e.+.` n 0 c c c c c c y 0 0 0 9 9 6 q 9 9 8 : 6 9 9 8 6 9 9 8 : & $ # X o + + + o                                                                 # * > c B F C V C o.o.o.o.+.+.+.O.` ~ ~ ~ ~ ^ R ! ! C n 9 ; o + o # = g ) } f.f.h.h.Q.(.+XeXgXfXdXzXxXfX*X_.!.E.E.{.{._.7.E 4 : o o o o # 9 F ` ` [ ' #.C b : o .                                                                                                                                                                                                                                         ",
"                                                                                                                                                                                                            + X # * > 9 c s n n g d s c c c t 9 8 : = = = 8 q q 9 9 s b c b 0 n m N N N N N N N [ b.U.XXXX+X@XU.b.w.C 0 y c y y c c y 0 0 0 0 0 q q 9 9 6 8 6 9 6 8 8 6 9 8 : : $ o X o + + + +                                                                 o ; > t c B B n m C C C ` o.+.+.o.~ ~ N N m m m ! ! N n 9 * o + % # = 0 E R W W  ...f.Q.+XhXVXnXbXDXDXmX9X[.!.!.!.{._._.h.E 4 & % % # o $ 9 F #.( [ [ ` C y : o .                                                                                                                                                                                                                                         ",
"                                                                                                                                                                                                          + X X # * = 9 s s s s s s s s c b 9 9 8 : = = = 6 6 q 6 6 s c s s s n m C ~ ~ N N N ! <.F.+X7X6X8XwX@XU.v.` e y c y y 0 s 0 0 0 0 0 0 q q 9 9 > 9 9 9 9 8 6 9 t 8 : : $ o X X + + X X                                                                 % * : > 9 9 9 0 0 n n n N ` +.+.O.O.` ~ ~ N N ! ! ! C n 9 = o o % $ 4 0 h E I I U W ..h..XhXZXZXZXDXDXmX9X[.!.E.!.!._._.h.E 4 $ % % % o # 9 F ` ` ( ' ` M 9 = o .                                                                                                                                                                                                                                         ",
"                                                                                                                                                                                                          . X o o # = 6 9 6 0 0 s s 9 9 9 9 6 8 : = = = = 8 6 6 6 6 s c s 0 0 n N C ~ ` ~ N ~ ! g.oX7X6X0XuXyX7X|.v.! 7 0 i 0 0 0 0 e 0 0 0 0 q q q 8 6 9 9 9 9 9 9 9 9 t 8 : & $ o X X + + X .                                                                 O ; ; ; : : : 8 0 0 g g n ~ +.+.$.$.+.O.` ` ~ ` ' ` ~ M y = o o o $ 4 e ^ ^ ^ E E W | f.Q.eXbXbXbXnXnXhX*X!.E.X.T.E.!.!.d.h 1 & # o % X # q C ` ` ( ` ` m 9 = X .                                                                                                                                                                                                                                         ",
"                                                                                                                                                                                                        X . o o X # $ : 9 q 9 6 s 9 9 9 9 6 : = : = = = : 6 9 9 q 0 s s 0 0 n n m C ~ o.~ N C ! d.+X8X0XtXkXkX6X}.m.) e e g g w w g g g g 0 0 q 8 4 : 8 6 9 > > 8 8 9 9 t 8 : & : # o o + + X .                                                                 O ; ; $ $ $ : 8 q 0 0 0 g C O.+.$.$.$.$.O.O.O.O.' ' ` C y = o X X $ 4 e ^ / / W I I W ..W.5XgXgXgXmXmXaX%X!.X.X.X.E.E.W.6.w $ & X X o X # 6 V ` ( ( ` ` n 9 = X .                                                                                                                                                                                                                                         ",
"                                                                                                                                                                                                        X X o o o # $ : 6 6 9 9 6 6 8 = : = = = : = = : 8 9 9 9 6 s s s g n n n n n m N m g n E }  X4X6X0X0X0X3XoXm.{ E ! ! ! ! ! ! ! ! ~ C n 0 4 = = = > 9 > > 8 6 9 9 t 8 : : : # o o + + +                                                                   O % % # $ $ $ 8 8 0 0 0 g C O.%.$.%.%.$.+.+.+.+.$.+.O.~ n : # o # $ q h ^ / / W W I W ..W.&XfXfXhXmXjXaX%X!.7.X.E.E.!.W.d.e $ % X X o o # q V ` ( ( ` C n q = X .                                                                                                                                                                                                                                         ",
"                                                                                                                                                                                                        + + o X o # # : : : : 8 = = = * = = = = 8 8 8 8 6 9 t y 0 s s s n n n n 0 0 0 e q q q w | (.$X3XqXqXqX3X).Q.d.{ &.0.0.0.r.0.$.$.+.o.C n = = = : : 6 9 9 9 9 9 9 8 : : : ; # o o + +                                                                     % % % # $ $ = 8 8 0 0 0 g C O.%.&.&.%.%.%.$.$.$.$.$.$.O.V 9 # # $ $ q h ) | | W W U W ..h.OX0X0XaXfXfX9X[.!.E.=.7.E.E.W.5.w & % X X o o # 6 V F ! ! ` C g 6 $ X .                                                                                                                                                                                                                                         ",
"                                                                                                                                                                                                        . + o X o # $ = = = = = : = : = = = = = 8 8 8 8 6 9 t 9 0 0 s 0 n m n n q 4 4 4 1 1 1 5 W (.$X5X0XqXqX5X$XoX^.m.m.m.m.m.b.v.c.e.0.+.~ n = = = : : 6 9 t 9 9 8 : $ # # $ $ # o + +                                                                       O O % % $ = : 8 8 0 0 0 e N O.$.%.$.%.%.%.$.$.$.%.%.%.O.C 9 # o # $ 5 e R / / W I I U W 7.(.%X[.*X*X*X[.!.7.X.X.X.=.7.f.| 5 & X . X o o # 6 m N ! ! N N 0 8 # X .                                                                                                                                                                                                                                         ",
"                                                                                                                                                                                                      O o X X X o # $ $ $ $ * : : = : : 8 8 8 : 8 9 6 8 = 8 9 y y 0 y n n m n y = # # $ $ & $ 4 E (.5X8X0X0XqX3X5X$XoXoXoX+X+X+X|.n.z.g.0.' ! g $ $ : : = : 9 9 9 : $ $ # o # # # % % +                                                                         O O # # # $ : : 9 0 y 0 g N ` +.+.$.$.$.$.$.$.$.%.%.%.@.C 9 # o o $ 4 w E W W W I I I W X.7.].].!._.!.!.7.X.X.X.....&.&.~ 4 & X . X o X $ 8 n C N N N N y 8 $ X X                                                                                                                                                                                                                                         ",
"                                                                                                                                                                                                      O % o o X % # $ $ ; % ; : : : : 8 8 9 6 8 9 9 9 8 8 6 9 y c y i n n n n y = # # # @ & $ 1 E ~.+X5X8XqX5X5X5X$X+XoX+X+X+X+X|.n.g.g.0.{ ( j = $ : 9 : 6 9 a 9 8 $ # X X X X # # % +                                                                         O o # # # $ : : 9 0 y 0 g N O.+.$.$.w.e.&.$.$.$.%.w.w.@.J t $ # o % 1 w E W W W I I I W X.7.!.!.!.!.!.E.X.X.W W W ^ ^ ~ i $ @ X . X o # # 8 n N N N N N y 4 # X X                                                                                                                                                                                                                                         ",
"                                                                                                                                                                                                    % % % % % o $ $ : & = $ $ : = : : 8 t t 9 9 9 9 9 6 8 9 9 y c y c n n n c 9 $ # @ $ & @ & 1 E x.OX3X5X5X3X3X3X$XOXoXoXoX+X+X|.m.g.d.<.{ ` n 4 = 8 t 9 9 y s 9 : $ # X X X X o o o                                                                           O O # # # % : ; 9 0 y 0 g C o.+.$.w.e.e.e.0.$.$.%.w.w.@.H y = # o # 1 w E W W W I I I W X.E.!.!.!.!.!.=.X.W U I 3 r r q 4 & X X X o % # $ 9 n C ! N N N c 8 $ X .                                                                                                                                                                                                                                         ",
"                                                                                                                                                                                                  O O ; ; ; $ # * : : : : $ $ $ $ = 8 8 t t t t 9 9 9 6 8 9 9 y b y c n n n c 9 $ $ & $ $ & 2 5 E n.oXOX5X3X$X$X3X+XoXoX}.oXoX+X}.m.g.d.<.{ ` n 4 = 8 9 9 9 s s 9 : $ # X X X # # o #                                                                           O O # # # % : : 8 t y 0 0 N o.+.%.%.e.e.e.w.$.$.%.w.%.@.H y = # % $ 1 w I W W I I I U W X.E.!.!.!.!.!.7.X.W U I 3 2 2 1 $ @ @ X X o # = 8 y m N k k N N c 8 $ X .                                                                                                                                                                                                                                         ",
"                                                                                                                                                                                                  + o O ; ; ; ; : : : : = $ # # $ = : 8 9 t t t 9 9 9 8 8 6 9 9 0 9 s c v n c 0 $ $ & 1 1 1 q r  .(.+X3X5X3X$X$X3X$X+XoXoXoX+X@X}.^.z.g.0.{ ` n 4 = 8 9 9 0 b s 9 : $ # X X # % # o #                                                                           ; O % o # # ; : 8 9 0 6 0 N o.+.+.$.w.w.w.0.$.$.%.%.%.@.C 0 = # # $ $ 5 r I I I I I I W X.E.!.{.{.{.!.E.X.W W I 3 2 1 1 $ @ X X X o $ = 9 n N N k k N N s 4 $ X .                                                                                                                                                                                                                                         ",
"                                                                                                                                                                                                + + o o $ ; : ; : : : : = = $ # $ = : 8 9 9 9 t 9 9 6 8 8 8 6 9 9 6 9 b c n c y = $ 1 1 q 3 r Y ..(.$X3X5X$X%X$X4X$X+XoXoXoX+X+X}.n.z.g.0.{ ` g 4 $ 8 0 9 0 b b 9 8 $ # X X % % # o o                                                                           ; O O o # # ; ; : 9 y 6 0 M ` #.+.@.%.%.$.$.$.$.$.+.+.O.C s 4 4 : = 4 5 r I I I I I I W X.E.!.{.{.[._.!.=.X.W E r 2 1 $ $ @ X o o o # 8 c V C N k k N N s = $ X .                                                                                                                                                                                                                                         ",
"                                                                                                                                                                                                + + o o # ; : ; : : = = = = = $ = = = 8 8 6 9 9 9 9 9 8 8 8 8 > > > 9 b v c n y $ $ 1 5 q 3 r E ..(.OXOX%XOX'.OXOXOXoX}././././.Q.z.f.d.0.{ ! g 4 4 8 u 0 0 c b 9 : $ # # # o % # # O                                                                           ; O O o # % ; ; : 9 y 0 c M ` o.+.+.+.+.O.' ' O.' ' O.o.` m g n B n e e w r I I I I I W X.E._.[.[.[.[.!... .W E r 2 1 $ $ @ X o # # $ 4 c N C F N k F N s = $ X .                                                                                                                                                                                                                                         ",
"                                                                                                                                                                                                o + o o # * = ; : ; = = = = = = = = = 8 8 8 6 9 9 9 9 8 8 8 8 : : > 9 b b c c y $ & $ 1 2 3 I W ..Q.).'.'._._.). X)./.^.Q.n.n.n.z.d.&.} { { ( g 4 4 9 y y c n c 9 : $ # # # o o # # O                                                                           ; O O O # # ; ; : 9 y 0 c M ` o.o.o.o.` ` ` ` ` ` ! ` ` o.C C ~ o.H C m e r r r I I I W X.!._.[.[.[.[.!.../ ^ E r 4 $ $ & X X # # # # = 0 M C ` F N F N s = $ X .                                                                                                                                                                                                                                         ",
"                                                                                                                                                                                                X o o O # * * ; = = = : = = * = = = = : : : : : > > : : : 6 : = = = - 6 9 9 9 8 & & & 2 2 3 I I X.h.W.W.W.x.x.x.x.x.z.h.f.f.6.5.} ) | { { ) N g $ 4 8 9 9 9 0 0 = = $ % % % o % # # O                                                                           ; # # o % # = : 8 9 y 0 c M C o.` F ~ C C C ~ ` ` ! ~ ` o.O.O.+.@.@.o.N e 5 5 5 r r I E ..h.!.].].].].W...W I 5 1 1 $ & $ # = = = = = 6 g n m N k N F C c 8 $ X .                                                                                                                                                                                                                                         ",
"                                                                                                                                                                                                + + o o # # * ; = = : 8 = = = = = = = : : : : : : : = = : : : = = * = = - 8 = $ & @ & 1 2 3 3 L U ..7.7...6.6.6.6.6...} | | |  .) R R ) ' ! n 7 $ $ : 8 8 8 8 6 * * $ # % % o o o o O                                                                           ; # # o % $ = = 8 9 y 0 c n C F F F C C N N ~ ~ ~ N ~ ` O.O.O.%.w.%.+.C 0 4 1 1 2 r r I / 7.W.!.E.!.!.7.W I 5 1 $ & & @ $ = 9 6 0 6 6 6 j n g g m N C C 0 = $ X .                                                                                                                                                                                                                                         ",
"                                                                                                                                                                                                + o o o # # * ; : : : 8 : = = = = = : > : : : = : : : : : : : * * * = * = = * $ @ @ & 1 2 2 3 L U ..................| |  . ./ ^ ^ h E ^ ` N g 4 $ $ $ = = = = = # # # o o o o o o o O                                                                           # # # # # $ : : 9 t y b c n N C C C C C C C C C ~ C ~ ` O.O.+.%.w.w.+.N q 1 $ & 1 q r I W ..7.7.7.E.h...E r 1 & & & @ @ $ 9 n M N M j n N m g g N N F C c : $ X .                                                                                                                                                                                                                                         ",
"                                                                                                                                                                                                o O O o # # ; ; : : : 8 : = = = = = : > > : : : : : : : : > : : = * = * * = $ # @ @ & 1 2 2 3 3 W ..f.........6.d.d.&.} | | | | ^ R ! ` ` N 0 4 # # # # # # # # # # o o o o o o o o                                                                             % * # # : : : : 9 y c c g n N N C C C C C C C C C C ~ ` o.o.O.+.@.@.o.m 4 $ & & 1 q r r E  ...6.7.7.h...I 5 1 & & # @ $ = c C o.` ` C F ` C n n C C ` F c 8 $ X                                                                                                                                                                                                                                           ",
"                                                                                                                                                                                                o o o o # # * * = = : : : = = : = = : > > > > : : : : : : : : : = = = = $ $ # % X @ & & 1 2 3 3 E | =.....} } 5.0.&.{ | ) ) ) ^ ~ m m N N g q = # o o # o o # # # # # # o o o X o +                                                                           ; ; = = : : 8 8 9 t y n n n n m m N N C C C C C C C C C ~ ~ o.o.o.O.O.` m 4 $ @ @ : q r r I / ....7.7.h.| r 5 $ @ # # @ & 4 n ~ ` #.` ` ` ` C n g N N F C b : $ X                                                                                                                                                                                                                                           ",
"                                                                                                                                                                                                o o o o o # # # # # $ = = = = = = = : > > > > > : > : : : : : : ; > : = $ # # o X X @ & 1 2 2 3 r ^ | | | | ) | { { ) ! ! R R h m e e e 0 6 = # o o o o o o o # # # % % % o X X X                                                                             ; = = : : 8 8 9 9 0 c n n n n n n n m N N N N m N m m C ~ ~ ~ *.~ ` O.` n 8 # X X & : q 5 r | &.d.6.h.h.&.m 1 & X X X X & 4 e N ! ( ( N N ~ m g 0 g M C M t = # X                                                                                                                                                                                                                                           ",
"                                                                                                                                                                                              + O O o o # # # # # # # $ $ $ = = = = = > 6 > > 6 > > : : = : : : : > : = * * # o X X @ & & 1 2 2 r l E E R E R ( ! ! N h h h h w q 1 1 4 4 * # # X o o + o o o o # # % # % % o X o                                                                             ; = = 8 9 9 t y 9 y n n n n n n g m m m m N N N N Z Z C C ~ *.*.~ ` O.` B > # X . # & 1 5 e ) } ....d.g.} i 1 & X X X @ $ 4 e h k k N N N C n 0 0 0 s v c 8 $ #                                                                                                                                                                                                                                             ",
"                                                                                                                                                                                              o o o # # # # # # # # # $ $ # = : : = - > 6 > > : 6 6 : : = : : : = : : = = * * # o X X & & & 1 1 2 w w w l l l l h g g w w w 7 5 4 $ & $ $ $ # o o o o + X o o o # # # # % o o                                                                               % ; : 9 y c c c c c n n n n n n n n n n m N N N N M Z C C C ~ C *.~ ` o.` V 9 * o X % & $ 1 q m ^ ^ / | { ~ q $ & X X X # $ 4 g k R ! S N N N g 6 4 4 6 9 9 = $                                                                                                                                                                                                                                               ",
"                                                                                                                                                                                              * # # * = = = = # # o o # * * * = : : : : > 6 6 9 9 9 > : : = = = ; ; ; ; * * * # @ X # # @ & $ $ 4 4 7 7 7 7 7 7 w 7 7 7 7 7 7 4 $ @ X X # # o o o o o o X X o # o o # # # o                                                                                 # : t c n B V C B n n m m n n m n n n n m M N C C C Z m m C C C C ~ o.O.o.C y 8 # # # : $ $ 1 q e e e m m e 1 $ @ X X # $ $ 0 m ! ( ( ( ` C C v 8 = : ; : ; % o                                                                                                                                                                                                                                               ",
"                                                                                                                                                                                            # = 6 7 7 s n n 0 : $ o o o # # * = : : : : > > 6 9 9 9 > : : = = = ; : ; = * * # # # # # # @ @ $ $ 4 4 0 0 0 0 0 0 g 0 0 0 0 g 0 0 : $ X X # # o o o o o o X X o o o o # % o                                                                                 % # ; t c B V V V m m n m m n m m m n n n n m m m Z Z Z m m C C C C C ` o.o.C c 8 = $ $ : & $ $ q q q 1 q q 4 $ @ @ X X @ $ $ 0 N ` ( ( ] ` ` F n 8 = : % % % o                                                                                                                                                                                                                                                 ",
"                                                                                                                                                                                          # = 6 n j N ` +.o.C 0 = # o o o # $ = = : : : : : : : > > : : : : 6 6 > > ; * * * # # # # X X X X $ = 0 0 n M C N V m C M m n V C V n 8 : # # # # # # o o o o X X X + o o o o                                                                                   # # : t c V V B m n m n n n n n n n n s n n m m m N C m m N N C C C C ~ ~ ` C c 9 = $ $ : $ & & & & & & 1 1 $ & & & @ @ @ & $ 0 C O.[ [ [ #.` F n 8 $ $ % # % X                                                                                                                                                                                                                                                 ",
"                                                                                                                                                                                        : = 8 s ` [ +.$.w.+.C 0 = # o o o # * = = : : > 6 > > : > > : > 9 9 9 9 t 9 > = * * = # # # # # X o $ $ 4 6 0 c n c y s y s 0 0 y c c y 8 : % % $ $ $ * # % % o X X . . o o X                                                                                   ; # # : t B V V B m n n g g s 0 0 y y y s n n m m N C C C C C C M N C C C C C N n 0 9 6 9 0 q 1 & & & & 2 2 1 1 & & & $ & $ $ 4 c ~ O.+.+.+.#.` F v : # # # o o                                                                                                                                                                                                                                                   ",
"                                                                                                                                                                                      ; : 8 0 C +.&.0.0.e.+.m 4 $ # o o # # * = : > > 6 6 6 9 : > > 6 9 9 t b c t t > = * * * $ $ # # # # # # # # # $ * $ * $ $ $ $ $ # $ = $ = $ $ # $ * * ; : * * ; # + X . . X X +                                                                                 ; : % # ; y B V V V m n 0 0 0 0 0 0 0 0 0 s n n m C C o.o.o.~ C C N C V C C C N m n c c c n B c q 5 1 2 2 2 2 2 2 1 1 1 $ $ $ $ q m ` o.+.] ] ` ` C c : $ $ $ % o                                                                                                                                                                                                                                                   ",
"                                                                                                                                                                                      : 8 8 0 ~ $.0.d.d.0.{ h 5 $ $ X o # # * = > > > 6 6 6 9 9 > > 6 9 9 t t b t 9 > ; * ; : = $ $ $ $ $ # # # # # # # $ # # # # # @ # $ # $ # # # # $ * * ; ; ; ; ; * O + . . . +                                                                                 % ; : % # * t B V J C V n s 0 0 0 0 0 0 y 0 0 s n m C o.@.@.@.@.o.o.C N M M C M m m B n B B Z C Z e q 2 2 2 2 3 2 2 2 2 2 1 $ $ 8 0 m F o.` ] ` ` C V c : $ % $ % o                                                                                                                                                                                                                                                   ",
"                                                                                                                                                                                    # = 8 4 0 N ' 0.g.g.g.} R 7 1 $ # # # # $ : > 6 > > > 9 6 9 6 > > > > > 9 9 : : : = : : : = = = $ = $ # # # # o X X X X X X X X X X X o # X # # # # $ * * * * ; ; ; O + X X .                                                                                 O % ; ; # # * 9 B J H o.C C M m m n g c n n c 0 s n N o.@.%.w.w.w.@.o.C N m m C m n M M M M V Z C Z i r 5 3 3 3 3 3 3 r 5 5 5 4 4 8 0 n N F F F ` N M n 0 = $ $ $ % o                                                                                                                                                                                                                                                   ",
"                                                                                                                                                                                    # $ = 4 q h ^ } g.v.g.} ^ l 5 $ $ # $ # = : > > : : : > > 9 6 > : : = = = = = : : = = : : = : $ = : * $ # # o X X X X o X X X X X X X X o X # $ # # # # # # # * ; ; O + + X                                                                                 + o # # % % o * 8 c H #.o.o.F C C C C m n n n n g 0 n C o.w.a.a.a.a.w.O.C N m n M m n M V M M V C ~ ~ ! i r 3 3 3 L I r r r r q q q q 0 s n N N N N M n c q $ $ $ % % X                                                                                                                                                                                                                                                   ",
"                                                                                                                                                                                    # = $ $ 4 7 R | d.z.f.d.) R g e q 8 = = = = > : : : : > 6 6 9 6 > : = = * * $ $ = : : : = = : : : ; $ $ $ # # o o o o o o o o X X o o o o # # # # # # # # * # # O o o + X                                                                                   o o # # $ # o # 8 c C H o.o.F o.o.o.C C B V B n n n n C O.%.a.a.a.a.w.O.C m m m M M M M V V N N C ~ ~ ^ Y r 2 3 3 3 3 3 3 r r 5 5 q 0 c n M M N C N M n b 8 = $ $ # % o                                                                                                                                                                                                                                                   ",
"                                                                                                                                                                                  # % # $ $ = 7 l W d.g.d.5.} ^ ! m n y q : = : > > > > 6 6 6 9 9 9 : : = = * * $ = = : : : = = : : : : ; $ $ $ # # # # # # # # % % # % % % % # # $ # # # # # # o # o o + +                                                                                   + o o o # * # o # 8 y V H o.o.o.o.o.o.o.C C C C B n n n C o.%.w.a.a.a.w.O.C N N N M N N V C C C C ~ ` ` ^ Y 3 2 3 3 3 3 3 3 5 5 5 q q 0 n n n M V C N M n b 8 $ # # # % o                                                                                                                                                                                                                                                   ",
"                                                                                                                                                                                  o # $ # $ $ 4 w E } d...} | ) ( ! N n 0 8 = = : : : > 6 6 6 6 > : : : = = = * = = = : = = = = : : ; ; * * * * ; # # # # # # ; ; # % # # # # # # # # # # # o # o o X + +                                                                                     X o o o # # % o # : t B H o.H o.o.o.o.C C C C C B m n m C ` +.%.w.w.w.w.O.C C C C C C C C C C C C ` O.~ ^ i 3 2 3 3 3 3 3 2 5 5 5 q q e c n v n n M M n n b 6 $ # # # % o                                                                                                                                                                                                                                                   ",
"                                                                                                                                                                                  o # $ # # $ 4 7 E | } | | ) ^ ( ! N m 0 8 = $ = = : : > > 6 > : : : : = = = = : : : = = : = = : : ; * # # $ * * * ; * ; * ; ; ; * # # # # # o # # # # o o o X o o X X                                                                                       X o o o # # % o # $ 9 B J J H H o.C C C M B B B m n n m N ~ O.+.%.w.w.%.O.C C Z C C C C C C C C C ` o.~ ! i 5 2 2 3 3 3 3 2 5 5 5 5 q 0 y n c c n n s c v b 9 = # # % % o +                                                                                                                                                                                                                                                 ",
"                                                                                                                                                                                  o # $ $ # $ 4 5 h ' &.| ) ) ^ ) ~ ~ N n 4 4 $ = = = : 6 > : : : > > > : : : = : : : = = = = = : : * $ * * * * * * * * * * ; * ; * * * * # # # # # # # o o o o X X X                                                                                         X + o o o # o X # $ 9 B J J J C H ~ C C M V V B B n m m N ~ ` +.$.%.%.%.+.o.C C C C C C C C C C C o.O.*.! h 5 2 2 3 3 3 3 2 5 r r q q 0 c n c v n n c c c c 9 = # # % % o +                                                                                                                                                                                                                                                 ",
"                                                                                                                                                                                  O O % $ $ & = 4 m ' &.| ) ) ^ ) ` ` C n q 4 $ = = = : : > > : > > > : : : : : : : : = : = = = : : ; ; * * ; ; * * * * = = * * * * * * * * * * * * # # o o o o X X                                                                                           + + o o o % o X o $ 9 B H o.H o.o.o.` C M B B B B m m m C ~ O.$.w.w.w.w.+.O.~ C C ~ ~ ~ C C C F F o.O.O.~ m 3 2 2 3 3 3 2 5 r r 5 q q e c n c n n n n n n c 9 = # # % % o +                                                                                                                                                                                                                                                 ",
"                                                                                                                                                                                  O O # # $ = = 0 n ' $.| ) ) ! ) ` ` C n 4 $ $ $ * = = : : : : > : : : = = = = : : : : : = = = : : ; ; ; ; * * = = = = = = = = * * = = = = = = * $ $ # # # # # X                                                                                             + + + o o % o X o $ 9 B H o.o.o.o.o.~ C m n n n m m B m N ~ ` $.w.e.w.w.%.@.o.C C ~ ~ ~ C C ~ ` ` o.O.O.~ m 3 2 2 2 2 3 2 5 r r r q 0 e c c c c n n n n n c 9 = # # # o o +                                                                                                                                                                                                                                                 ",
"                                                                                                                                                                                  O O # # $ = = 4 g ` ' ' ) ) ! ( ` ` C n 4 $ $ # * = = : = : : > : : = = = = = = : : : : : = = $ $ * ; * * $ $ = = = = = = = * = * : = : = = * # $ # # # # # o                                                                                               + + + o o % X X X # 6 n J o.o.o.o.o.~ N n n n n n n m m N C ` +.w.w.w.w.w.@.` ~ ~ ~ ~ ~ ~ C ~ C ` o.O.O.~ m r 2 2 2 2 2 2 5 r e e 0 0 0 y y y s c n c c c y 9 = $ # o o o +                                                                                                                                                                                                                                                 ",
"                                                                                                                                                                                  O O % # # $ = 4 w ` ' [ ' ! ! ! ` ` C n 6 $ # # # * * : : : : : : = = = = = = = = = = = = = * * * * * = $ $ $ * * * * * * * * ; * ; * ; * ; * # # # # # # O                                                                                                 + + + X X o X . o $ 9 B J H H o.#.o.C B n y y n n n Z m m C ` +.$.w.w.e.e.$.' ! ~ ~ ~ ~ ~ C ` ` ` ` O.' ~ m 5 1 2 2 2 2 3 5 5 e g e e 0 c c 0 y s c s s s 9 : $ # # % o X X                                                                                                                                                                                                                                                 ",
"                                                                                                                                                                                  O O # # # # * 4 w ` ' [ [ ! ! ( ( ` C n 6 * # # # $ * : : : : : : = = = = = = = = = = = = = = * * * * = = = = ; ; ; ; * ; ; ; ; , * * ; * * # # # # % % # O                                                                                                 + + + X X o X . o $ 9 B H H H o.#.o.C B n c c n n Z Z m C ~ ` $.w.e.e.a.a.w.' ( ` ` ~ ~ ~ ` ` ` ` O.O.O.` N 5 1 1 2 2 r 5 e e m m n n n n v c y b 0 0 s s 9 : # # % % o X X                                                                                                                                                                                                                                                 ",
"                                                                                                                                                                                  O O # # # $ * 4 w ( ' ' [ ! ! ( ! ~ C n q * # # # # * ; ; : : : : : = = 4 4 4 = = = = = = = = * * * * : : : : ; = = = = ; : ; ; ; * # # # # o # # # # % #                                                                                                   X + + X o o X X o $ 9 V H o.o.o.o.o.~ C n n n n m Z Z C C ~ ` +.w.e.a.c.c.e.+.` ` ~ ~ ~ ~ C ` ( ( ' +.O.O.~ e 2 2 5 5 e e m m m N N M N M n c y 0 0 0 b b t 8 $ # % % o X X                                                                                                                                                                                                                                                 ",
"                                                                                                                                                                                  O % # # # # * 4 w ` ' ' [ ! ! ! ! ! N n 6 $ # o o # # * ; : : : : : : 8 8 8 4 = = = = = = = = * * * * : : : : : ; = = = = : : * $ # # # # o o # # # # #                                                                                                     X + X o o % o o # = t V H o.o.o.o.o.~ C n n n n m m Z C C C ` +.w.a.a.a.c.e.+.` ~ ~ ~ ~ ~ C ~ F F ` O.O.O.~ g 5 5 5 e e m m N N N N N C C M c 9 9 9 0 y y 9 : $ # o % % X X                                                                                                                                                                                                                                                 ",
"                                                                                                                                                                                  O O # # # # * 4 w ! [ [ [ ! ! R ! ! N n 6 $ # X X o # $ * ; ; : : : : : : : : : : : ; = * = * * * ; ; ; * : : : = = = = = ; * $ # # # # # o o o # # o o                                                                                                     + X o o # % $ # ; : t V H o.o.o.o.o.C M n n n n m m Z C N C ~ +.w.e.a.a.a.e.$.' ~ ~ ~ ~ ~ ~ ~ ( ( ` O.O.O.' m e e e e g m N ~ N N C C C V B c t 9 6 q 9 9 9 : $ o o % o X X                                                                                                                                                                                                                                                 ",
"                                                                                                                                                                                  O % # $ # # = 4 7 ~ ' [ [ ! R R R ! N n 6 $ # # # # # # # * * ; : : : 9 9 9 9 8 : : : = * * * * * ; : ; ; : ; = = = = = * * $ # # # # # # # o o o o o o                                                                                                     . o # * * : ; : : 8 y V J o.o.o.o.o.~ C m n m m B Z C C C C ~ O.%.w.e.a.a.e.$.O.` ~ C C C N ~ ! ! ' +.$.$.O.~ m m e n m N ~ ~ C C C C C C V c t 9 6 9 9 t t : $ o X o o X                                                                                                                                                                                                                                                   ",
"                                                                                                                                                                                  O % # $ $ # $ 4 7 ! ` ' ' R R R R ! N g 0 4 4 = : = = # o # % % ; : > > > > t t t 9 : = * * * * * : = ; : ; ; : = = : ; * * # # # # # # # # o o o o +                                                                                                       . o # : : t 9 : 9 9 b V J o.o.o.o.o.o.C C B B V C N C C C C ` o.+.+.w.w.w.w.$.+.` ~ ~ ~ ~ ~ ` ` ` O.$.%.$.%.O.! m m m N C ` ` ` F C F F C V c t 9 9 9 9 t 9 : $ o o o X .                                                                                                                                                                                                                                                   ",
"                                                                                                                                                                                  O % * $ $ # $ 4 0 ! ` ' ) R R R R ! k g 7 0 0 b b 6 = # X X X o % # ; ; : > > t t t : = * * * * * : ; ; ; ; ; ; : : : ; = * # # # # # # # # o o o o                                                                                                         . o ; : > t t 9 9 9 c V H o.o.o.o.o.o.H C C C C C C C C C C ~ ` O.O.+.+.$.$.+.' ( o.` ` ` ` O.' ' +.%.%.%.%.O.~ N m N C F ` o.o.o.H F H C V c 9 9 8 8 9 9 : ; # X o o +                                                                                                                                                                                                                                                     ",
"                                                                                                                                                                                  O % # $ # # # 4 0 N ' ~ ! R R R R R k h 0 g C C M 0 = # X X X o o o # $ * ; : > : : ; * # * * * # # = ; ; ; : ; ; : ; ; ; % # # # % # # # o o O o O                                                                                                         X # ; : > t 9 9 9 9 c V C H H o.o.o.o.o.C C C C C C N N N N C C ` ` ` ` O.+.( ` ' O.O.O.+.$.$.$.+.%.w.w.%.$.O.~ m n M C C F F o.o.F C C V B y 8 : : : : : ; % o X o X .                                                                                                                                                                                                                                                     ",
"                                                                                                                                                                                  O % # # # # # $ 7 N ` ! R R R R ( ! ! k g g C C M s = # X X X X X X o o # # * : : ; * # # # # # # # = : : ; ; ; * * * * * % # # # # # # # % O + +                                                                                                           X # ; ; > 9 9 9 9 9 c V C H H o.o.o.o.o.C C C C C C C N N N N C C C C ~ ` ` ` ` ` +.+.+.w.w.w.w.%.w.w.w.$.+.O.~ m n M C C F F F F C V V B c 9 8 : = = * * # # o X X .                                                                                                                                                                                                                                                       ",
"                                                                                                                                                                                  o % # # # # # $ 4 m ` ! R R R ^ ) [ ( ! g g N N M 0 * X . X X X X X X o # # # # # $ # # # # # # # # * $ # = = * * # # # # # # % o O + + + O O                                                                                                               + # ; : 9 9 9 9 9 9 c V F F H o.o.o.o.o.` F F C C C C N N N N C C N N C ` ` ~ ` ' $.w.e.a.a.a.a.e.e.e.w.$.O.' ~ N n N C C C C C M M n c c c 9 : $ $ $ # # % % X X .                                                                                                                                                                                                                                                         ",
"                                                                                                                                                                                  o % # # # # # $ 7 m ~ ! ! ! R ) { { [ ( h g h g g 6 = @ X X o o o o o # # # # # # # # # # $ = * $ * = # # # # # # # # o o o X o + + X + +                                                                                                                   X % : : t 9 9 9 9 9 c B C F H o.o.o.O.o.o.o.o.F C N N N N N C C C C C C ~ ` ~ ` +.%.e.a.c.c.c.c.a.a.a.w.+.O.` ~ C N C C C M M n v v c c c y 8 = $ $ $ # # % o X X .                                                                                                                                                                                                                                                         ",
"                                                                                                                                                                                  o % # # # # # $ 7 m ~ ! N ! ! | { &.' ( h l g g l g 7 = # # # % # o o # # $ # # # # # # $ = 6 q 6 6 8 = # $ # # o o o + X +                                                                                                                                 X $ : : t 9 9 9 9 9 c V C F o.` o.o.o.#.o.o.o.C C M M M M N N N N C C C ~ ~ ~ ` +.w.e.c.c.c.c.c.c.c.e.%.O.` ~ ~ C N C C C M n n 0 c c c c y 8 : & $ $ % % % o X .                                                                                                                                                                                                                                                           ",
"                                                                                                                                                                                  o % # % # # # $ q m ~ N k ! ^ | { &.{ [ k g g h h h n 0 = = $ $ % o o # # $ $ # $ # # # = 6 s n n n s 8 # $ # o o * o o                                                                                                                                   + X # ; : 9 9 9 9 9 9 c V C ` ` ` o.o.o.o.o.o.o.C C M M M M m m m N C C C C C N ` O.w.e.c.c.c.a.a.e.a.w.+.` ~ ~ C C N C C C N n n 0 c c c c y 8 : : % % % % % # + +                                                                                                                                                                                                                                                           ",
"                                                                                                                                                                                  O % # % o # # $ 4 m ~ ~ ! ) ) { { &.&.' ( k h l h m n n 9 8 : $ # o X # # $ $ # # # # # = 0 n N N C n 9 = # # o O O O O                                                                                                                                 O o o # ; : 9 9 9 9 9 9 v V C C ` F ` o.o.o.o.o.o.o.C C N C C C C C C C C ~ ` ` ~ ` +.w.a.c.c.c.c.a.e.e.%.O.~ ~ ~ C C N ~ ~ C N m n 0 c c c c y 8 : : % % % % % % O                                                                                                                                                                                                                                                             ",
"                                                                                                                                                                                  + # # % o # # $ 4 m ` ! ! ) ) { { } &.{ ' k h l h N N M c q = # # X X X @ # # # $ $ # $ = 0 n C C C m 0 = # # # O % o O                                                                                                                               O + o # $ = : 9 t 9 9 9 9 v V H C C F F o.o.#.#.#.#.o.o.` ` ` ` o.o.o.O.` o.o.O.O.O.+.w.e.c.b.b.b.c.c.e.e.%.O.` ~ ~ ~ C ~ ~ ` ~ C m n 0 c c c c y 8 : : % % % % % % O                                                                                                                                                                                                                                                             ",
"                                                                                                                                                                                  o o o # o o # $ 4 N ` ! ( ) | | } <.0.2.[ ! k h h m N m n 0 4 = $ $ # # $ # $ $ $ $ $ = 4 0 n ! ! ~ N 0 = # $ # o ; O o                                                                                                                               O % o % * : 8 9 9 9 9 0 9 v B F H F F F ` o.o.+.+.+.O.O.( ` o.O.O.O.@.@.+.O.+.+.+.+.%.w.a.c.b.b.b.c.a.w.%.@.O.~ C C *.C C ~ o.` C B n y s c n n c 9 : % # # % # % % O                                                                                                                                                                                                                                                             ",
"                                                                                                                                                                                  + o o # o o # # 4 m ` ! Q | | | | } <.{ [ ( k h h h h h g 0 0 7 4 4 = = 4 4 4 4 4 q 4 0 0 n N ! ! N m 0 = # # # # ; O O                                                                                                                             + O o o # = : 6 9 9 9 9 9 s v V F H H F C F F o.+.+.+.+.+.+.+.$.@.@.@.%.%.%.$.%.w.w.%.w.a.a.c.c.c.c.a.w.%.O.*.~ C C ~ o.C C C ` ` C B n y s s c c b 8 $ $ # # % % o o O                                                                                                                                                                                                                                                             ",
"                                                                                                                                                                                  o o o # o o # # 4 N ` ^ Q | | | | } } { { ( ! h l l l g g g g g 0 0 7 7 6 6 6 0 0 0 0 0 n m N N ! ! N 0 = # # $ # % O O                                                                                                                             + O o o # : : 9 9 9 9 9 9 9 b V C C C C V C F ` +.@.@.w.w.$.$.%.%.+.+.%.$.w.w.e.e.e.w.w.e.e.a.a.a.a.w.%.+.` C N N C ` o.C C C ` ` C B n y s s c c y 8 $ $ # o % % o o O                                                                                                                                                                                                                                                             ",
"                                                                                                                                                                                  + o o o o o # $ 4 N ' ) ) } } | | } { { { ) ( k h l l l h h h g g g g g g g s g n n n m m N N ! ! ! N 0 4 $ $ # # % o O                                                                                                                             + O % # ; : : 9 9 9 9 9 9 s v V F F F C C C F ` +.@.w.w.w.$.w.w.w.w.w.w.0.0.0.r.e.e.w.w.w.e.a.a.a.a.e.%.+.o.C N N C ` ` C C C o.` C B n n s s n c b 9 & $ # o o % O o O                                                                                                                                                                                                                                                             ",
"                                                                                                                                                                                  + o % o o o # $ 4 N ' ) ) } } } } } { &.{ | ) ( R k l k k k k k m m m N N N N N N ~ ~ ~ ! ! ! ! ! ! N e 4 $ $ # # % o O                                                                                                                             + % # # : : 8 9 y y 9 9 9 c n C F o.C C C C F o.+.+.@.@.@.+.w.w.w.w.w.w.w.r.r.r.e.e.w.e.e.e.e.a.a.a.a.%.+.` N m m N ~ ` ` C ~ o.o.J C m n s v n n c 9 : $ # % % % o % O                                                                                                                                                                                                                                                             ",
"                                                                                                                                                                                  + o o o o o # $ 4 C ' | ) | | | | } { } { { ) ( ! k k k k k l k k k N N N N N N N ! ! ~ ! ! R R R ! N e 4 $ # # # % o O                                                                                                                             + % # $ = : 6 9 s s 9 s s s n V F F C C C C C ` +.%.w.w.w.%.w.w.w.w.w.w.e.e.r.r.r.e.e.e.e.e.a.a.a.a.a.w.@.o.C N N N C ` F ~ ` o.o.J C m n v n n n c 9 : $ # # # # % % O                                                                                                                                                                                                                                                             ",
"                                                                                                                                                                                  + o o o o X @ $ 4 ~ +.{ | } | | } } } } } | ) ( ( R k k k k l k k k k k k k k h h k k m k k h R R ! N e 4 $ # # # % o O                                                                                                                             O % # $ = : 6 0 c s 0 s s 0 n N F F C C C N C ` +.w.w.w.w.w.w.w.w.@.w.e.a.e.e.r.r.e.e.w.w.a.a.a.s.s.s.w.@.F C N C C C ~ ~ ~ ` o.o.J C n n v n n n c 9 : : % % # # % % O                                                                                                                                                                                                                                                             ",
"                                                                                                                                                                                  + o o o o o @ $ 7 ~ $.{ } } | } } } } } } } ) [ ( ( ! ! ! R k k k k k k k k k h h k k k k k k R R ! N e 4 $ # # # % o O                                                                                                                             O ; $ $ = = 6 0 c s s 0 0 s M C ` o.` ~ C C ~ ` o.+.@.@.#.H H H C F o.%.w.e.e.e.e.e.e.a.w.+.+.@.@.@.w.#.J B n n N C C ` ` ~ ` o.o.J C n g n n n n c 9 : : % % # % % % O                                                                                                                                                                                                                                                             ",
"                                                                                                                                                                                  O o o # o X # $ 0 ` &.0.} } } } } <.<.} } } | { ' [ ' ) ( ! ! ! ! N k N N N ! k k k k k k k k R R ! N e 4 $ # % # % o O                                                                                                                           O O % $ $ = 8 9 y c n 0 0 s g M ~ ` +.+.O.` O.+.o.o.o.C M c 9 9 : 8 q 0 o.a.e.a.a.a.a.a.a.O.C n y y c b t 8 = = t B C ~ o.` ` ` o.o.H C m n n n n M c 9 : : $ # # % % % O                                                                                                                                                                                                                                                             ",
"                                                                                                                                                                                  + o X o # # # $ e ' &.0.} } } } } <.<.} } } | { ' ' ' ' [ ` ! ! ! N k m N N ! k k k k k k k k R R ! N e 4 $ # # # # o O                                                                                                                           O O % % = = 8 0 n m m n n n M C ` O.+.+.+.O.+.+.+.o.C n 0 8 * $ # # $ q ~ w.a.c.a.a.a.a.a.o.n 9 $ $ : : $ $ $ # 9 B C *.o.o.` ` o.o.F C m n n n M M v 9 : : $ # # % % % O                                                                                                                                                                                                                                                             ",
"                                                                                                                                                                                  + X X # $ # = q h [ { } } | | } } <.<.} } } { { { | { { { ' ) ! ! ! E m ! ! ! k k k k k k k k R R ! N e = $ # # o # o +                                                                                                                           O O % % ; = 9 n Z C o.` C ~ ` ` O.+.+.$.$.+.+.%.@.o.n 9 $ $ # o . X @ 4 C w.a.c.a.c.a.a.a.o.c : # X # # # # # # 8 B C o.o.o.` ` o.o.o.C m n n n M M v 9 : : $ # # % O % O                                                                                                                                                                                                                                                             ",
"                                                                                                                                                                                  + X X @ $ = 0 h ! { } } <.} } } } <.<.} } } } { { { { { &.| ) ) ! ! E m ! ! ! R k k k k k k k R R ! N e 4 $ # # o # o +                                                                                                                           % O % % : = 0 B ` o.+.+.o.O.o.+.+.+.$.w.%.$.%.w.@.o.n 8 # X # % X o # = C w.a.c.c.c.c.c.a.o.c ; X . X X X X # # t B J o.o.` ` ` o.o.o.C m n n n M M c 9 : = $ # % % O O O                                                                                                                                                                                                                                                             ",
"                                                                                                                                                                                  X X X @ $ q n ' { } <.<.5.<.<.<.} <.0.0.} } } } { { } } 0.{ | ) ^ R E h k ! ! R R R R k k k k ! ! ! N 0 = $ # # o # o O                                                                                                                           O O % % : = 0 B o.+.@.+.+.+.+.+.+.+.$.w.w.%.e.a.w.o.n 8 $ # $ ; o # $ 4 C w.a.b.c.c.c.c.a.o.c : X . . X X X % $ y V H o.o.~ ` ` o.o.o.C M n M M M M c 9 : = # # % % o o O                                                                                                                                                                                                                                                             ",
"                                                                                                                                                                                  X X X @ $ 0 ~ &.0.<.5.5.5.5.5.<.} } <.<.} } } } } | } <.0.} } ) ) R R R R ! k R R ! R k k k k ( ( ( N 0 = $ # # o # o O                                                                                                                           O O % * = = 0 M o.+.%.%.+.+.+.+.+.+.$.w.w.w.a.a.w.o.n 8 $ $ ; ; # $ $ 8 C w.a.b.c.c.c.c.a.+.V t # X X o o o % * y J o.o.o.` ` ` o.O.o.F C m M M M M c 9 : = # # % o o o O                                                                                                                                                                                                                                                             ",
"                                                                                                                                                                                  X X X @ 4 n ' e.d.d.5.5.5.6.5.<.| | | { | | | } } } } 5.<.<.<.| ) R R R R k k k R ! ! N N R ! ) ) ` ! 0 = $ # # o o o +                                                                                                                           O O % $ $ = 0 C o.+.%.%.$.$.+.+.+.+.+.$.$.$.%.%.O.C 0 = $ * : : * = $ 4 F w.a.c.c.c.c.c.a.+.V > o X X X . X o # 9 V F ` ` ` ` ` o.O.o.F C m M M M M c 9 : = # % % o o o O                                                                                                                                                                                                                                                             ",
"                                                                                                                                                                                  + X X & 4 m O.0.d.d.5.6.6.6.5.} | ) ) ) Q ) } } } } } <.<.<.<.| ) ^ E R R R R R R R R N R ! ( ) ' [ ! g = $ # # o o + X                                                                                                                           O % # $ $ = q M o.+.+.%.$.$.+.+.+.O.O.+.+.O.o.o.C c 4 * $ : : > * = # 4 C w.a.c.c.c.c.c.a.+.V t # X X X . . X # 9 B F ` ` ` ` ` o.O.o.F C M n M M M c 9 : & # % % o o o O                                                                                                                                                                                                                                                             ",
"                                                                                                                                                                                  + X X & 4 m { g.f.d.5.6.6.5.<.} ) ) ) ) ) | | | } <.<.<.<.5.5.} |  .E E Q ^ E ^ ^ ! ^ ^ ( ) ' { ' [ ~ 0 $ $ # o + X O +                                                                                                                           O % % $ = = q m o.+.+.+.%.+.9.9.o.` ~ *.C C B n s 6 * # $ = : : $ # $ 4 C w.a.b.v.l.c.b.c.@.H t o X X . . . X % : c M F ` ` ` ` #.#.#.` C M M n n M c t : $ $ # # o o % O                                                                                                                                                                                                                                                             ",
"                                                                                                                                                                                  + o X $ 4 N &.z.f.f.f.z.z.f.5.| ) ) ) ) ) | | } | <.<.} <.<.<.} } } | | | ) ) ) ) ) ) ' | { { &.{ ' ~ 0 $ # % + + X O +                                                                                                                           O % % $ $ = q n ` O.+.+.$.+.r.9.` n c y 8 8 8 = = * # # $ # = = $ = = 7 ` e.c.m.b.b.b.b.b.a.H b % X X . . . o o : y n C ` ` ` ] +.+.+.o.` C M n M M n y : & $ # # o o O O                                                                                                                                                                                                                                                             ",
"                                                                                                                                                                                  + o X # 7 ! &.z.f.f.f.h.z.g.<.| W ^ | ) ^ Q  .| | } | } } } } } } } | } } { { { { { { { { { { { { ' ~ 0 $ # o + + + + X                                                                                                                           O # $ $ $ $ q n o.+.+.+.%.w.r.+.C 0 q 8 & $ # # # # # # = = 4 8 = = = 7 ` e.c.m.m.b.m.P.P.a.#.b # X X X X X o o = q c C ` ` ` ` +.+.#.o.~ C N M M M n y : $ # # o o o o O                                                                                                                                                                                                                                                             ",
"                                                                                                                                                                                  + o X # 6 N &.z.f.h.h.z.z.f.d.} W E ) ) E E Q | | | } } } } } } } } | } } { { { { { { { | { } { [ ) N 0 # X o o X . + X                                                                                                                             % % $ $ $ 9 V O.@.@.%.w.w.w.+.N 0 8 : & # # # # * = 6 0 g 0 0 4 4 4 7 ` e.c.m.m.m.P.P.P.a.#.c # . . X X X o o = > c C o.` ` ` o.o.o.F C N N M M M n 0 : $ # # o o o X O                                                                                                                                                                                                                                                             ",
"                                                                                                                                                                                  + o o $ 7 ! &.f.h.x.z.z.l.z.g.} E E ( ^ E R Q  .) | } } } } } } } } } } } { { { | { | | ) [ ) [ ) ( N 0 # @ o o X . + X                                                                                                                             % % $ $ $ 0 B o.@.@.+.@.@.@.o.n 4 $ $ # # # # # * 6 n ! ~ N m 0 7 4 7 ( r.c.m.m.b.b.b.s.w.H c # X X X X o % # = : 0 C o.` C F F C C m C C M M N M v 0 = $ # # o o o X +                                                                                                                                                                                                                                                             ",
"                                                                                                                                                                                  + o o $ 7 ! 0.z.x.n.x.z.z.z.l.0.) R ( E R E Q ) | | } } } } } } <.<.{ { <.{ { } } } | [ [ [ { [ ) ( N 0 # @ # o X . + X                                                                                                                             % % % = = t B o.o.o.o.o.o.C M 0 $ $ & # $ # $ = 4 s ` $.$.+.[ k h w l ( 0.0.v.g.r.0.+.#.C c 9 # X X # $ * : : : : 9 M C M n n n c y 0 n m M N N n d 0 = $ # o o o o X                                                                                                                                                                                                                                                               ",
"                                                                                                                                                                                  + o o $ 7 ~ 0.n.~.^.n.z.z.z.l.0.' ^ ( Q Q Q ) | | { } } } } } } <.0.&.{ { { { ) ) ) ) [ ) { { ) ) ( m 0 # X o o X X o +                                                                                                                               % % % : 8 c B B B m m n y 0 = $ $ & & % % ; = q n +.e.c.0.&.' ( R R [ 0.0.0.{ [ ! g 0 6 6 = $ # # = 8 t y 9 8 = = 0 c 6 8 q 8 = $ 4 0 g m N N n d 0 = $ # o o o o X                                                                                                                                                                                                                                                               ",
"                                                                                                                                                                                  + o o $ 7 ! &.z.z.m.z.g.d.<.<.[ ! R R ^ ) | | | | { { } } } } } 0.0.{ [ [ ) ( R R R R ! ( ) [ ) ( ( m 0 # o o o X X o +                                                                                                                                 % % : : 9 t 0 8 0 0 0 q 8 $ $ $ $ $ % % $ = 4 m +.0.g.0.<.| { | ) 0.g.g.0.{ [ ! 7 4 = 4 = = = 4 6 c B B c 9 = $ 8 9 = = = $ $ & $ 9 c m C C M d 0 = * # o o o O +                                                                                                                                                                                                                                                               ",
"                                                                                                                                                                                  + X o $ 4 m ' 0.d.g.<.| Q R k h l h R ^ | } } } } } } } } { { { { { { [ ! l l w w w w w h R ( ! ( ( N 0 # X o o X X X .                                                                                                                                     o % & $ $ $ $ $ $ = = $ $ $ & $ $ # $ $ 4 g ) } 5.} } <.<.<.0.g.b.l.g.0.0.' g 7 6 7 4 4 0 0 n C H V n 6 # X # # # $ $ # $ $ $ 9 c C C F V v 6 = # o o o X X                                                                                                                                                                                                                                                                 ",
"                                                                                                                                                                                  + X o $ 4 g ! | | { ) R h l l w 7 w h ( } <.<.} } } } } | ) ) ' [ ) ) ! k l w 7 7 7 7 7 g k ! ) ' ` N 0 # X o X X X o .                                                                                                                                           X @ # $ $ $ = $ $ $ $ = $ $ $ & $ 4 g ) } 5.5.5.5.d.d.g.l.m.b.l.v.g.&.! g e 0 7 0 g n N C ` C M 9 # X o # # # $ $ # # $ t c V C C M v 6 = $ o o X X                                                                                                                                                                                                                                                                   ",
"                                                                                                                                                                                    X o $ 4 e h E R E l w 7 7 7 5 4 q h ) &.d.5.d.d.5.&.} | ) R ! ! ! k h l w 7 5 q 5 4 4 7 k ! ' ' ` ~ 0 $ # # X X X o X                                                                                                                                               # $ $ $ & $ $ = 4 q 8 = = 8 8 q g ) } 5.5.5.6.g.g.g.m.F.m.m.m.b.g.{ ! N h g g h N ~ ` ` C M 6 # X o o o % $ $ # % & t c V F F V v 9 = # # o X X                                                                                                                                                                                                                                                                   ",
"                                                                                                                                                                                    X X $ 4 e h h h l w 7 7 7 7 4 4 5 h ) 0.g.d.d.d.d.<.} ) R l k k h h l g 7 7 5 4 4 4 4 7 n ( [ ' ' ! g 4 # # # X X o X                                                                                                                                                 # % $ % % = 4 4 6 4 4 4 q q q l ( } 5.5.6.f.g.g.g.m.F.m.m.m.m.m.e.{ ` ! m h k ! ` ` ` C M 6 # X X o o # # # % % & t y B B B c y 6 = # o o X                                                                                                                                                                                                                                                                     ",
"                                                                                                                                                                                    X X $ q e m R ! k h h g e 0 q 4 q h ) <.d.5.5.5.5.} | R h w h g g w w w 7 7 4 4 4 4 4 6 n ( ( ( ) ! n 7 = = $ # X o X                                                                                                                                                   # $ # # = 4 4 7 4 4 4 q q q w R } <.5.6.f.g.g.g.l.m.m.m.m.m.z.g.&.| ` N h h ! ( ( ( N M q # X X o + o o # % % # : : : : 6 6 : : $ % X X                                                                                                                                                                                                                                                                       ",
"                                                                                                                                                                                      X $ q n m N ! ! N N n n g q q e E ) } 5.5.} 5.5.} | E h l l l g w w e w 7 4 8 4 = 4 6 g ! ( ( ( ! h 0 0 q : $ o o X                                                                                                                                                   X # o o # = 6 7 7 7 q e e 0 l ! { <.d.f.g.g.d.d.g.g.z.z.z.m.z.v.g.} [ ! h h ! ! ( ( N n q $ X X + + o o # o o o % % # # # # # o X X .                                                                                                                                                                                                                                                                         ",
"                                                                                                                                                                                        $ q e g h m N m g g 0 0 4 5 w ! ) <.6.5...5.5.} | R E h h h h g n n g 7 6 6 6 = 6 a j ! ( ( ( R h s 0 9 8 $ % o X                                                                                                                                                   X o X o # = 7 l h h m m m m k ( <.5.f.f.f.g.0.<.d.g.f.f.z.z.z.m.v.d.{ ( k k R ( ( ( N n 0 # X o O + o o o o o o X X o o o o X X . X                                                                                                                                                                                                                                                                           ",
"                                                                                                                                                                                          8 0 e e n m n 0 0 7 4 4 5 e ! | 5.6.6.5.5.5.} ) ! k h N ~ C N N N h g 7 7 4 6 6 g m N ! ! ! k g 0 0 q 8 $ # #                                                                                                                                                     o o X o $ 6 g k ! ! ~ ` ~ ~ ! [ 0.g.z.z.g.g.d.<.d.f.f.f.z.x.n.n.m.g.{ ) R R ! ( ( ( ! n 0 $ o X + + + X + X X X X . . . . X .                                                                                                                                                                                                                                                                                 ",
"                                                                                                                                                                                            : 8 8 q 0 0 8 8 $ $ $ q h ) } 5.5.6.5.d.0.{ ! h g y n n n m ! ( ( R h h h h h h n n g c y s q 4 = : $ $ o o                                                                                                                                                     X o X o $ 8 g ! ( ( ` O.O.~ ' &.0.z.n.n.z.g.f.f.f.g.z.g.z.n.n.^.n.g.{ ( R E ( ( ( R N k 6 # o X + + X o o X .                                                                                                                                                                                                                                                                                                 ",
"                                                                                                                                                                                                & : 8 : : $ $ $ 1 q h { &.5.6.5.5.<.} ) h 0 8 8 8 0 e n ! ' | ) ) ) ) ) ! N g 0 8 8 : : = $ $ # # # X o                                                                                                                                                     . O X o $ q n ! ` ` ' ' O.! ' { 0.z.n.n.n.x.h.f.h.z.f.f.z.z.n.^.n.f.{ ( R E ( ( R R k M 6 # X . + + . X X X                                                                                                                                                                                                                                                                                                   ",
"                                                                                                                                                                                                      $ # $ $ $ 4 0 ! &.d.5...5.5.5.} ! e 4 $ $ $ $ 4 e ! { <.} } } } } { ! e 4 $ $ $ $ $ # @ # # # o                                                                                                                                                       X o X X # 8 g N ! ! ! ! ! N ^ { <.m./. XoX X/.(./.}./.~.^.^.^.}.^.z.{ ) R ! ( ( ! R N M q # X . + + . X X X                                                                                                                                                                                                                                                                                                   ",
"                                                                                                                                                                                                          # $ $ 4 e ` 0.g.d.5.5.5.5.} ! w $ $ $ @ & $ 7 ! { d.5.5.5.5.0.&.( e 4 $ $ $ $ $ # $ # # o                                                                                                                                                         X o X X # 4 g h h l h h h h R ) d.^.@X5X6X6X6X6X6X6X7X4X+X@X+X+X}.n.0.' ^ ^ ) ) ) ( N N 9 # X X + + X X .                                                                                                                                                                                                                                                                                                     ",
"                                                                                                                                                                                                            # $ 4 e ' 0.d.6...6.5.5.} R 7 $ $ # @ & $ 7 ! <.d.5.5.5.5.d.&.) e 4 $ $ # # $ # # o o                                                                                                                                                           X o X o # 4 g k h l l l h h E ) g.}.6XrXyXdXyXdXdXgXrX6X6X4X4X4XoXn.d.{ ^ ^ ) ) ) ' ! N 0 # X X + X + X .                                                                                                                                                                                                                                                                                                     ",
"                                                                                                                                                                                                              @ 4 e ' 0.g.6...6.5.5.} R 7 $ $ # @ $ = e ) 0.g.5...} } <.{ ! w $ $ # # # # % o X                                                                                                                                                             X o X X # 6 n ! ! R ! ( ) R Q | g.oX8XyXkXkXkXkXlXlXyX8X7X5X4X4XoXn.g.} ) ) | ) ) [ ! N 0 # X X . + . . .                                                                                                                                                                                                                                                                                                     ",
"                                                                                                                                                                                                              $ 4 e ( 0.d.6.....5.5.} R w = # # # # 4 g ' 0.g.<.| } } } { ! w 4 $ # # # # %                                                                                                                                                                 . + . X # q N ' { ) { { &.| | 5.z.+XuXdXzXzXzXzXzXkXyX8X5X3X$X$XOX~.g.d.| | | { ) ) ! N 0 $ X X . X . .                                                                                                                                                                                                                                                                                                       ",
"                                                                                                                                                                                                              # 4 0 ! &.d.6.....5.<.{ k 0 = # # # # 4 n ' e.0.} } | } } { ( g 4 $ # # # %                                                                                                                                                                   . + . X # 0 ! $.&.{ &.d.d.} } f.n.&XyXkXxXxXxXxXzXkXtX5X$XOX+X$XOX(.z.d.| } } } | ) ! ~ 0 $ # X X X .                                                                                                                                                                                                                                                                                                         ",
"                                                                                                                                                                                                                = 0 ~ &.0.} } } } } [ N 0 = # o o # : v ` $.&.} | | { { ' ` n 0 $ # # o                                                                                                                                                                     . + . . # 6 ` r.0.<.d.f.g.d.5.z.(.4XlXxXxXxXbXbXzXdX8X$XOXOXOX$X$X Xn.g.5.5.5.<.<.{ | ! g $ # o X X .                                                                                                                                                                                                                                                                                                         ",
"                                                                                                                                                                                                                : q n ! ) ^ ^ ) ^ ! k g 6 * # # o # = 9 n ~ ! ! R R R ! ~ m 0 8 $ # o                                                                                                                                                                         + . . # 6 ~ 0.0.<.d.g.g.d.f.x.(.4XdXzXxXxXbXbXlXfX6XoX).).).+X+X/.n.z.f.6.6.5.<.} | ! g = # o X .                                                                                                                                                                                                                                                                                                           ",
"                                                                                                                                                                                                                  : 0 0 e w w w e e 0 6 = # # # # # $ : 6 0 0 w w w w e g 0 8 = # o                                                                                                                                                                           + . . # 6 ( 0.d.<.5.d.f.5.7.x./.5XlXzXzXzXxXxXlXuX4X/.(.~.(.+XoX(.n.z.f.f.f.f.d.} | ! g = # o .                                                                                                                                                                                                                                                                                                             ",
"                                                                                                                                                                                                                  : : 8 4 4 4 4 4 = = = # # # # # # # $ = = = = 4 4 4 4 8 : : $ o X                                                                                                                                                                           + . . # 0 ` 0.d.<.5.f.f.6.f.x.).6XkXxXxXzXbXxXgXtX4X/.Q.Q.(..X X(.n.x.h.h.f.f.<.| ) m 0 = # o .                                                                                                                                                                                                                                                                                                             ",
"                                                                                                                                                                                                                    $ $ $ $ $ $ # # # # % # o o + o o # # # # # $ $ $ # # % o o X                                                                                                                                                                             + . . # 0 ) g.g.5.f.h.z.h.x.~.'.0XxXcXcXxXcXcXkXyX5X/.~.~.(. X X(.n.x.h.h.z.f.} ) ! e 4 # # o                                                                                                                                                                                                                                                                                                               ",
"                                                                                                                                                                                                                      o X X X # o o o o o o o O + o O o + + + X X X X X X . . .                                                                                                                                                                               + . . # 0 [ g.f.6.f.z.x.x.Q.(.OX8XxXnXnXcXnXcXkXyX7X/.~.~.(. X X~.x.h.h.h.f.d.} ^ h 5 $ # # X                                                                                                                                                                                                                                                                                                               ",
"                                                                                                                                                                                                                          . X X X . . . X X X X + + + + + + + + . . . +                                                                                                                                                                                       + . . # 0 [ g.f.6.f.z.x.n.~./.OX0XxXbXbXxXxXzXyXrX4X/.~.~.~./.(.n.f.f.f.f.g.d.{ R w 1 $ @ @ X                                                                                                                                                                                                                                                                                                               ",
"                                                                                                                                                                                                                                                                                                                                                                                                                                                              + . . # 0 [ g.f.6.6.z.W.Q.(.).%X0XkXxXxXzXjXkXtX8X3X(.W.Q.n.~.Q.x.5.5.5.d.d.0.| ! 0 $ $ X X X                                                                                                                                                                                                                                                                                                               ",
"                                                                                                                                                                                                                                                                                                                                                                                                                                                              . . X * s [ l.7.6.h.x.Q.(.oX'.OX5X0X0XtXtXtX8X8X6X+X(.~.Q.Q.~.Q.h.5.5.5.6.d.0.{ ! 0 $ @ o X X                                                                                                                                                                                                                                                                                                               ",
"                                                                                                                                                                                                                                                                                                                                                                                                                                                              + . . * g { z.x.f.z.~./.oX+XOX'.OX$X3X5X5X5X3X$X$XoX(.~.Q.Q.~.n.h.5.} 5.d.d.0.{ ! 0 $ X o X .                                                                                                                                                                                                                                                                                                               ",
"                                                                                                                                                                                                                                                                                                                                                                                                                                                              X . X = g { z.x.x.Q.oX4X6X8X3X'.'._.'.OX%X%X%XOXOX).(.Q.Q.n.Q.x.f.| } } 5.5.<.{ ! 0 # o o X .                                                                                                                                                                                                                                                                                                               ",
"                                                                                                                                                                                                                                                                                                                                                                                                                                                            X X . X = h <.z.x.x./.7XyXlXdX0X%X'.]._.'.'.'.'.OXOX(.W.x.x.x.n.z.5. . .} } } } | ! 6 # o o X X                                                                                                                                                                                                                                                                                                               ",
"                                                                                                                                                                                                                                                                                                                                                                                                                                                            % X . X 4 N 0.n.~.~.OXrXxXcXxXtX3X'._.'.'.OXOX'.OXOX/.W.x.x.z.z.z.5. . .| } } { ) N 7 # X X . X                                                                                                                                                                                                                                                                                                               ",
"                                                                                                                                                                                                                                                                                                                                                                                                                                                            # % X @ 0 ` g.|. XoX6XlXZXCXVXkX5X3X%X3X5X5X3X$X$X+X).Q.x.z.z.z.g.<. . .| | } { ) N 6 # o X . X                                                                                                                                                                                                                                                                                                               ",
"                                                                                                                                                                                                                                                                                                                                                                                                                                                          $ $ # @ $ e ' m.}.+X4XtXbXDXFXZXkX8X5X3X5X0X0X6X3XOXoX/.n.z.h.h.z.f.} ) Q | { } { ' N 7 $ o X . +                                                                                                                                                                                                                                                                                                               ",
"                                                                                                                                                                                                                                                                                                                                                                                                                                                        $ # # # $ $ g { m.oX$X4XtXxXZXZXnXfX5X5X5X8XtXtX8X3XOX).^.x.h.f.f.g.f.} ) ^ ) | { &.' N 7 $ o X . .                                                                                                                                                                                                                                                                                                               ",
"                                                                                                                                                                                                                                                                                                                                                                                                                                                      # # = = = $ 5 k 0.n.oX&X5XrXzXnXnXxXyX3X5X8XtXkXfX8X4XoX(.Q.h.f.f.d.d.d.{ R ! ^ | { { ' N 0 $ X X . .                                                                                                                                                                                                                                                                                                               ",
"                                                                                                                                                                                                                                                                                                                                                                                                                                                  # $ $ # 4 0 0 e h ) g.^.+X&X5XtXzXbXbXzXtX3X8XtXkXxXjXyX6XoX(.x.f.6.6.d.f.d.} ! ! ^ ) | { ^ N 4 $ . . X .                                                                                                                                                                                                                                                                                                               ",
"                                                                                                                                                                                                                                                                                                                                                                                                                                                % # $ $ $ 4 m ~ ) | } v./.+X4X8XtXzXxXzXyX8X4X8XdXzXbXbXkX8X+X~.x.6.5.6.d.f.f.} ^ ^ ^ ) | { ^ m q $ @ X X X                                                                                                                                                                                                                                                                                                               ",
"                                                                                                                                                                                                                                                                                                                                                                                                                                                % # $ $ $ e ` +.} 0.d.g.(.+X&X5X8XfXdXtX6X4X+X6XdXxXnXbXzXrX+X~.x.6.5...5.d.d.| ^ ! ^ ) | | ^ h 7 $ @ X X X                                                                                                                                                                                                                                                                                                               ",
"                                                                                                                                                                                                                                                                                                                                                                                                                                              % $ # $ $ 1 g +.e.g.g.6.f.Q. X$X$X5X8X6X3XoX)./.4XdXzXnXbXzXtX$X/.n.6.6...5.f.5.| ! R R ) | ) R h 7 4 $ X X o                                                                                                                                                                                                                                                                                                               ",
"                                                                                                                                                                                                                                                                                                                                                                                                                                            % : : = $ $ 4 k $.d.f.f.6.f.Q. X$X%X3X5X3XOX/.(.(.4XyXzXnXnXxXfX6X+X/.n.x.h.f.z.z.<.| ) ) ) } } ) ^ k g 6 = $ * ;                                                                                                                                                                                                                                                                                                             ",
"                                                                                                                                                                                                                                                                                                                                                                                                                                            % t t q 4 4 5 ! &.0.d.6.6.7.Q.OX$X$X$X3XOX).~.~.^.&XyXxXZXZXcXzXyXrX6X+X+XoX}.}.^.m.g.0.} } 5.d.<.<.0.$.o.c t 9 : %                                                                                                                                                                                                                                                                                                           ",
"                                                                                                                                                                                                                                                                                                                                                                                                                                            # y y 0 e 7 w R { } 5.6.6.6.Q. XOXOX$X3XOX).~.~.~.&XtXzXZXZXnXcXxXxXlXrXeX6X4X4X@X}.m.g.5.5.d.f.f.g.v.c.w.F B c : # .                                                                                                                                                                                                                                                                                                         ",
"                                                                                                                                                                                                                                                                                                                                                                                                                                          . # 0 g h l r r E } 5.5.6.6.6.Q.oXOXOX%X3X$X).(.W.Q.+XtXlXnXZXnXbXbXnXxXlXyXuXuXrX7XoXF.l.<.<.5.d.6.d.g.g.0.` M c : % X X                                                                                                                                                                                                                                                                                                       ",
"                                                                                                                                                                                                                                                                                                                                                                                                                                          . # 0 h R E E E Q <.d.f.f.6.6.~.oXOXOX$X3X$X).(.Q.~.OX8XdXbXnXnXbXnXnXnXcXxXxXzXlX8X$X~.z.5.<.5.5.5.5.d.d.{ ! n c 8 $ X X o                                                                                                                                                                                                                                                                                                     ",
"                                                                                                                                                                                                                                                                                                                                                                                                                                          . # 0 k ( |  .W | 6.f.z.z.6.6.Q. XOXOX$X3X3XOX).(.(.OX8XtXjXbXbXbXnXnXcXxXzXzXzXkX8X4X/.x.6.6.5.6.6.5.5.<.| k g e q $ $ @ # #                                                                                                                                                                                                                                                                                                   ",
"                                                                                                                                                                                                                                                                                                                                                                                                                                          X # 0 ! | 5.} } 6.z.z.n.x.6.6.W..XOX$X$X3X4X$XOX X).$X6XtXkXzXxXxXbXbXxXzXkXlXjXkX0X5XoX~.h.f.h.f.f.6.5.<.| E l h e 4 1 $ $ # # o                                                                                                                                                                                                                                                                                               ",
"                                                                                                                                                                                                                                                                                                                                                                                                                                          X $ 0 ! &.g.f.6.h.x.Q.Q.W.7.7.W.).OX%X$X$X3X$X$XOXOX$X6X0XfXjXxXxXbXbXbXxXxXxXjXkXaX0X3XOX/.(././.~.x.x.z.z.5.} &.&.' ! m m 0 4 $ $ $ :                                                                                                                                                                                                                                                                                         ",
"                                                                                                                                                                                                                                                                                                                                                                                                                                        . X $ 0 ^ d.z.x.h.x.~.(.(.Q.7.7.W.).'.OX$X%X&X$X$X%X%X5X8X0XfXjXzXxXbXZXnXbXbXbXmXkXkX0X0X6X5X5X7X7X&X+X+X+XoX/.^.|.^.m.v.c.e.O.e 4 1 $ 8 8 8 :                                                                                                                                                                                                                                                                                   ",
"                                                                                                                                                                                                                                                                                                                                                                                                                                        X X $ 7 ) g.n.n.W.~.).).).(.h.7.W.).'.OX%XOX$X3X3X5X9X8XfXfXfXfXfXdXzXbXbXbXbXbXxXkXkXaX0X0X0XtXtXtX8X5X7X6X5X$X$X&X+X X}.|.U.v.! 7 5 4 i n y 8 =                                                                                                                                                                                                                                                                                 ",
"                                                                                                                                                                                                                                                                                                                                                                                                                                        X X = 7 ' g.Q.~.~.'.OXOXoX(.x.7.W.).'.%X%XOX$X5X5X9XtXtXdXfXtX0X8X8XtXgXvXgXkXkXfXfXfXaXaXaXfXfXdXdXfX0X0XtX0X8X9X0X9X&X$X4X@X}.g.^ h h O.O.C u $ #                                                                                                                                                                                                                                                                               ",
"                                                                                                                                                                                                                                                                                                                                                                                                                                        o X $ e | g.^.(._.OX$X3XOX).x.8.W.).'.OX%X%X$X5X9X0XfXdXjXfX8X&XOXoX&X6X6X8X8X5X5X8X8XfXfXaXfXkXjXzXkXfXfXfXaXaXaXaXaX9X9XtXtX4Xn.} ^ E &.%.~ y : # % %                                                                                                                                                                                                                                                                           ",
"                                                                                                                                                                                                                                                                                                                                                                                                                                        o X $ e | g.^.(._.'.%X%XOX).h.7.W./.).OX%X%X$X3X9X8X0XtXdX8X&X).Q.W.Q.). X)./.(.(.+X5X0XkXkXkXkXkXkXkXkXjXkXfX0X0XaX0XqXqX0X0X$Xn.} E E | &.! 0 8 & % < %                                                                                                                                                                                                                                                                         ",
"                                                                                                                                                                                                                                                                                                                                                                                                                                      o o @ $ e | v.^.)._.'.%X%X+X).x.6.x./.).OXOXOX$X4X6X8X8XtXtX5XOXQ.7.6.6.h.h.7.6...7.(.$XtXzXjXjXkXkXkXjXmXmXjXaX0XqXqX9XqXqX9X0X3XQ.4.E E W | E 5 1 & & % : < %                                                                                                                                                                                                                                                                     ",
"                                                                                                                                                                                                                                                                                                                                                                                                                                    # % # @ 1 e { z./.).).'.%X%X$X Xx.6.x.(.).OX+XOX$X3X5X8X8XtXrX6X$X).W.h.h.x.x.x.7.6.h.}.7XdXZXnXbXxXzXzXmXmXjXkXaX0XqXqX8X5XqX9X0X3X~.6. .W  .} R w 5 $ & & & $ & $ $ #                                                                                                                                                                                                                                                               ",
"                                                                                                                                                                                                                                                                                                                                                                                                                    . . . . . . X # # $ $ $ 4 g { z./. X'.%X3X3X4XoXx.7.x.(.oXOX+XOXOX$X7X8X8XtXtXrX8X7X$X X).).(.(.W.x.Q.+XwXvXCXZXVXVXnXbXbXxXfX0X0X0X0X0XtX8X0X0X0X3X/.x.6.5...5.) w 5 1 $ $ $ $ $ & & & @ @ ;                                                                                                                                                                                                                                                         ",
"                                                                                                                                                                                                                                                                                                                                                                                                              . . X X X . X X X o # # $ $ $ 4 g { z./. X'.%X3X3X4XoXx.6.x.(.).oXoXoXOX3X8XtXdXkXlXlXzXkXfX0X6X6X$XOX.X).}. X@XwXyXyXyXyXvXxXbXxXfX0X0X0X8X6X4X$X$X$X$X$X$XOX/././.^.g.^ e 1 q i N ! ! ! N n 0 4 $ $ $ %                                                                                                                                                                                                                                                   ",
"                                                                                                                                                                                                                                                                                                                                                                                                              X X o o o o o o o o # $ $ $ & 4 e { h.(.).'.3X3X5X$XoXz.6.h.Q.(.)././.oX$XrXzXnXZXZXCXJXGXZXnXbXzXjXyXrX7XoXn.f.z.F.F.|.@XeXlXbXbXjXfXtXtX6X@X|.n.6.z.x./.rXvXvXvXlXuX}.g.R 5 Z %.b.m.|.|.U.v.O.m q $ & < % % %                                                                                                                                                                                                                                             ",
"                                                                                                                                                                                                                                                                                                                                                                                                              o X X X o X o o o o # # $ $ $ 4 e | g.~.).'.%X5X5X$X/.h.5.7.n.~././.(.).$XtXxXZXFXFXJXHXHXJXDXnXnXxXdXdXrX@Xv.) ) { { g.m.@XiXcXVXbXjXkXlXrX@Xn.g.| } 5.^.yXZXZXGXDXxX@Xv.R 5 N c.|.+X7XwX4X|.g.' 0 4 $ & % % % X . . .                                                                                                                                                                                                                                     ",
"                                                                                                                                                                                                                                                                                                                                                                                                              o X o o o o o o o o # # % $ $ 4 h | f.~._._.OX%X3X+X/.f...d.z.Q.^.~.~.(.%X8XxXZXGXGXJXJXJXDXnXnXmXmXmXkXyX+X0.h w q 7 w { m.wXvXHXJXCXZXZXlX4Xm.' h R Q n.uXnXJXJXJXCX7Xz.^ 5 ! b.oX5XfXkXkX3Xn.&.g $ $ & $ $ o X X . . . . . . . . . . .                                                                                                                                                                                                                   ",
"                                                                                                                                                                                                                                                                                                                                                                                                              # X X o o o o o o o # # $ $ $ 4 h | f.Q.~.(.'.%X%X X^.d.| } g.m.Q.Q.Q.(.OX0XxXZXFXCXDXGXDXZXnXmXmXmXjXkXyX#X&.e 1 @ @ $ m c.@XvXHXHXHXHXHXSXwXP.` q e l l.uXnXJXJXJXCX7Xz.R 5 k v.+X9XjXmXmX3X~.0.g $ & : # $ o X . . . . . . . . . . . .                                                                                                                                                                                                                   ",
"                                                                                                                                                                                                                                                                                                                                                                                                                o o o o o o o o o # * $ $ $ 4 g | g.z.x.x.~.)./.~.z.| E ^ { g.m.z.W.~.OXrXxXCXJXCXFXJXJXCXZXnXmXmXmXxXgX@X&.0 $ X . X 0 e.#XvXLXLXKXKXLXAXpXU.` q q l l.uXGXJXKXJXZX4Xg.h 4 g 0.|.&XfXkX0XOXz.{ e $ $ % # # o X . . . . . . . . . X                                                                                                                                                                                                                       ",
"                                                                                                                                                                                                                                                                                                                                                                                                                    # o o o # # o # $ $ $ $ 4 e ) d.z.f.6.x.~.n.z.<.h w w R &.g.z.x.(.OXeXvXZXZXVXZXCXZXZXnXbXmXmXmXzXyX#X&.e $ % X @ y %.|.pXHXHXHXHXKXAXpXU.o.0 0 g c.wXcXCXGXVXlX#X0.g 1 0 ' z. X6X5X3X~.<.N 0 # $ % o o o . . . . . . . . .                                                                                                                                                                                                                           ",
"                                                                                                                                                                                                                                                                                                                                                                                                                        o o # # # # $ $ $ $ 4 e ' e.z.g.d.z.n.n.g.{ w 4 5 e ' 0.z.n.(.oX&XeXyXyXtXyXdXdXdXyXyXtXtXtXrXwX|.' 0 & O X X t o.b.@XlXlXyXlXSXpXwXP.o.8 q q ' U.2X6XwX7X@Xv.^ 7 $ q N 0.n.oX/.~.8.) g 8 % # O + o + . . . . . . . .                                                                                                                                                                                                                             ",
"                                                                                                                                                                                                                                                                                                                                                                                                                          # # # # # $ $ $ & $ e ' 0.v.g.d.g.m.b.r.[ 7 $ $ 7 ~ &.v.m.(./. X+X&X+X+X$X4X4X4X$X$X$X$X$X+X}.v.! 4 $ O + X 8 Z e.n.+X+XoX+X7X4X|.c.C q 8 4 h <.l.z.n.z.v.| h 4 & q e ^ <.z.f.8. .k 6 : % % O o o + . . . . . . .                                                                                                                                                                                                                               ",
"                                                                                                                                                                                                                                                                                                                                                                                                                            # # # # # $ $ & $ q N ' $.$.' &.&.$.` V = # @ $ n ' g.m.~.Q.Q.(.(.(.~.~.(././.(.(./.(.~.Q.m.e.g 1 $ O O X 8 n $.g.z.x.x.n./.^.v.$.n q 8 1 w R ) | <.<.} ^ g 4 & 1 q h Q |  .4.R l 6 $ o # o X o + . . . . X                                                                                                                                                                                                                                   ",
"                                                                                                                                                                                                                                                                                                                                                                                                                              # o # # $ $ @ & q e m N h g h m g 0 6 # X X & 0 ! 0.z.n.x.x.x.x.7.7.h.x.x.x.z.x.x.x.x.f.f.' 7 $ $ + O X $ e ' } 6.6.6.6.z.g.0.) 0 1 8 1 7 l R  .| <.<.) h 5 & $ 4 l h Q Q Q l 7 4 $ X o X . X . . . .                                                                                                                                                                                                                                       ",
"                                                                                                                                                                                                                                                                                                                                                                                                                              # o o # % $ & $ $ 4 q q 5 4 4 1 $ $ # X X . X q m &.z.n.x.h.7.7.7.6.6.f.h.h.f.f.f.f.6.5.} ^ 7 1 $ % X X = e ^ } 6.6.4.6.6.5.} R 5 1 $ 4 7 h Q  .| 5.} ) h 5 $ $ q w l E Q E l 5 $ $ X X X o X X X X                                                                                                                                                                                                                                         ",
"                                                                                                                                                                                                                                                                                                                                                                                                                                o o # % % # # & $ $ 1 = $ $ $ $ # % X X . X q m 0.m.^.n.x.x.x.x.z.z.z.z.m.z.z.z.f.5.5.} ! w $ $ o X X = g ) d.h.h.8.h.x.z.0.^ w 1 $ 4 w R | <.d.d.<.) h 5 $ $ 4 e h ( ( R l q $ & X X X X X X X                                                                                                                                                                                                                                           ",
"                                                                                                                                                                                                                                                                                                                                                                                                                                  o o o o % $ $ $ $ $ $ $ & & & & # X . . @ 8 m e.b.n.n.x.x.z.n.z.z.z.v.v.v.v.g.d.<.} { ! 0 $ # o X o = g ' d.z.h.f.h.z.g.0.! w $ $ 4 w ( { <.0.<.} ( h 5 $ $ 4 e m ! ( k e 4 $ @ X X X X X X                                                                                                                                                                                                                                             ",
"                                                                                                                                                                                                                                                                                                                                                                                                                                    o X o o % # $ $ $ $ $ $ # # % o X . . X 8 B +.c.l.g.d.d.d.g.0.0.0.e.w.w.$.&.{ ' ) ! m 4 $ $ o X o $ 0 N { 0.<.| <.<.{ ) h 5 $ $ 4 7 h ( ) ) ) R h w 4 $ $ $ 0 0 h h g 7 $ @ X X X X X X X                                                                                                                                                                                                                                             ",
"                                                                                                                                                                                                                                                                                                                                                                                                                                      + X o % $ $ $ $ $ $ $ # # % o X . . . : y C O.$.' ) ( ~ ` ~ ( ~ ~ C C C C m h h g 0 = # o o X X # 4 0 h ! R k k R m g 0 1 $ $ $ 4 7 e l l l w 7 4 $ $ $ # = 8 7 7 4 4 $ @ X X . . . . X                                                                                                                                                                                                                                             ",
"                                                                                                                                                                                                                                                                                                                                                                                                                                        X X % # $ # $ $ # # % % o o X . . . % : 9 n g e 0 0 u 0 0 q 9 9 9 9 8 q 4 4 4 4 = # o + X . o # $ 4 4 7 7 7 7 7 4 4 8 $ $ $ = = 4 4 4 4 4 4 4 = $ # X @ $ $ * * $ $ # X X . . X . .                                                                                                                                                                                                                                               ",
"                                                                                                                                                                                                                                                                                                                                                                                                                                        . X o o # # # # # # X X X . . . . . . o # # $ $ $ & # $ # # # # o o # # & & # # o X . + . . + o % $ $ * = * $ $ $ $ $ # % # ; $ $ $ $ $ $ $ $ # # X X X X o # @ # X X . + + X X + .                                                                                                                                                                                                                                               ",
"                                                                                                                                                                                                                                                                                                                                                                                                                                          X O o % o o X X X X X . . . . . . . . . . . . X . . . . . . . . . . . . . X X X . . . . . X X o o # # # # # # & $ # # % % % # $ $ # $ $ # # # o X X X . X X . X X X . + + X X .                                                                                                                                                                                                                                                 ",
"                                                                                                                                                                                                                                                                                                                                                                                                                                            . O o o o X X X . . . . . . . . . . . . . . . + + + X X X . . . . . X X X X X X . . X o o o % % % % # $ $ $ $ $ $ $ # # # # # $ $ $ # # # # o X X X X X X X X X X X X . . .                                                                                                                                                                                                                                                   ",
"                                                                                                                                                                                                                                                                                                                                                                                                                                              + + + X X X X . . . . . . . . . . . . . . . . . . . X X X . . . . X X . . . . . . . X o o % # % % ; % % % % % % * $ % $ % $ $ $ # # # $ # % o o X . . . . . . . X                                                                                                                                                                                                                                                           ",
"                                                                                                                                                                                                                                                                                                                                                                                                                                                . . . . . . . . . . . . . . .                                                                                                                                                                                                                                                                                                                                                                                             ",
"                                                                                                                                                                                                                                                                                                                                                                                                                                                      .                                                                                                                                                                                                                                                                                                                                                                                                                   ",
"                                                                                                                                                                                                                                                                                                                                                                                                                                                                                                                                                                                                                                                                                                                                                                                                                                                                          ",
"                                                                                                                                                                                                                                                                                                                                                                                                                                                                                                                                                                                                                                                                                                                                                                                                                                                                          ",
"                                                                                                                                                                                                                                                                                                                                                                                                                                                                                                                                                                                                                                                                                                                                                                                                                                                                          ",
"                                                                                                                                                                                                                                                                                                                                                                                                                                                                                                                                                                                                                                                                                                                                                                                                                                                                          ",
"                                                                                                                                                                                                                                                                                                                                                                                                                                                                                                                                                                                                                                                                                                                                                                                                                                                                          ",
"                                                                                                                                                                                                                                                                                                                                                                                                                                                                                                                                                                                                                                                                                                                                                                                                                                                                          ",
"                                                                                                                                                                                                                                                                                                                                                                                                                                                                                                                                                                                                                                                                                                                                                                                                                                                                          ",
"                                                                                                                                                                                                                                                                                                                                                                                                                                                                                                                                                                                                                                                                                                                                                                                                                                                                          ",
"                                                                                                                                                                                                                                                                                                                                                                                                                                                                                                                                                                                                                                                                                                                                                                                                                                                                          ",
"                                                                                                                                                                                                                                                                                                                                                                                                                                                                                                                                                                                                                                                                                                                                                                                                                                                                          ",
"                                                                                                                                                                                                                                                                                                                                                                                                                                                                                                                                                                                                                                                                                                                                                                                                                                                                          ",
"                                                                                                                                                                                                                                                                                                                                                                                                                                                                                                                                                                                                                                                                                                                                                                                                                                                                          "
};
